peachynonah/Fire_monitor_KIRO_CDSL/csv_datas/trial13/cdsl_data_t14_1_FL_d.csv
joint1_pos_desired, joint1_pos, joint2_pos_desired, joint2_pos, joint1_vel_desired, joint1_vel_filtered, joint2_vel_desired, joint2_vel_filtered, target_torque_joint1, target_torque_joint2, nonlinear_term_torque_joint1, PD_term_torque_joint1, nonlinear_term_torque_joint2, PD_term_torque_joint2, current_time
2.97,2.96863,0.966,0.964417,-2.22705e-08,0,-7.24355e-09,0,-5,-73,0,-5,-56.049,-16.951,0.004
2.97,2.96863,0.966,0.964341,-8.90644e-08,0.000201536,-2.89684e-08,-0.00630521,-4,-134,-3.26196e-06,-4,-56.0551,-77.9449,0.008
2.97,2.96863,0.966,0.964288,-2.00355e-07,0.000134358,-6.51659e-08,-0.00863728,-4,-157,-2.97908e-06,-4,-56.0594,-100.941,0.012
2.97,2.96863,0.966,0.96425,-3.56115e-07,0.000118363,-1.15827e-07,-0.00895398,-4,-161,-2.72073e-06,-4,-56.0625,-104.938,0.016
2.97,2.96863,0.966,0.964227,-5.56318e-07,2.13266e-05,-1.80944e-07,-0.00786952,-4,-150,-4.30857e-07,-4,-56.0643,-93.9357,0.02
2.97,2.96863,0.966,0.964222,-8.00938e-07,1.42177e-05,-2.60507e-07,-0.00562063,-4,-129,-2.05154e-07,-4,-56.0647,-72.9353,0.024
2.97,2.96863,0.966,0.964233,-1.08995e-06,9.47849e-06,-3.54508e-07,-0.00285457,-4,-102,-6.94609e-08,-4,-56.0638,-45.9362,0.028
2.97,2.96863,0.966,0.964256,-1.42332e-06,6.319e-06,-4.62938e-07,-2.84355e-06,-4,-75,-4.61277e-11,-4,-56.062,-18.938,0.032
2.97,2.96863,0.966,0.964286,-1.80103e-06,4.21266e-06,-5.85789e-07,0.00247412,-4,-51,2.6756e-08,-4,-56.0596,5.05956,0.036
2.97,2.96863,0.966,0.96432,-2.22305e-06,2.80844e-06,-7.23052e-07,0.00447093,-4,-31,3.22326e-08,-4,-56.0568,25.0568,0.04
2.97,2.96863,0.966,0.964357,-2.68935e-06,1.8723e-06,-8.74717e-07,0.00606125,-4,-15,2.91311e-08,-4,-56.0538,41.0538,0.044
2.97,2.96863,0.966,0.964395,-3.19991e-06,3.00391e-05,-1.04078e-06,0.00726541,-4,-3,5.60216e-07,-4,-56.0507,53.0507,0.048
2.97,2.96863,0.966,0.964433,-3.75469e-06,2.00261e-05,-1.22122e-06,0.00795303,-4,3,4.08813e-07,-4,-56.0477,59.0477,0.052
2.97,2.96863,0.966,0.964468,-4.35368e-06,1.33507e-05,-1.41605e-06,0.00829628,-4,6,2.84297e-07,-4,-56.0448,62.0448,0.056
2.97,2.96863,0.966,0.964502,-4.99685e-06,8.90048e-06,-1.62524e-06,0.00835236,-4,7,1.90808e-07,-4,-56.0421,63.0421,0.06
2.97,2.96863,0.966,0.964532,-5.68417e-06,6.35155e-05,-1.84879e-06,0.00801547,-4,4,1.30669e-06,-4,-56.0397,60.0397,0.064
2.97,2.96863,0.966,0.964558,-6.41561e-06,-1.52382e-05,-2.08669e-06,0.00750297,-5,0,-2.93441e-07,-5,-56.0376,56.0376,0.068
2.97,2.96863,0.966,0.96458,-7.19114e-06,-1.01588e-05,-2.33894e-06,0.0068446,-5,-5,-1.78459e-07,-5,-56.0358,51.0358,0.072
2.97,2.96863,0.966,0.964599,-8.01075e-06,2.20184e-05,-2.60552e-06,0.00620415,-4,-11,3.50598e-07,-4,-56.0342,45.0342,0.076
2.97,2.96863,0.966,0.964618,-8.8744e-06,4.34699e-05,-2.88642e-06,0.00566202,-4,-16,6.31677e-07,-4,-56.0327,40.0327,0.08
2.97,2.96863,0.966,0.964634,-9.78206e-06,2.89799e-05,-3.18164e-06,0.00515664,-4,-21,3.83526e-07,-4,-56.0314,35.0314,0.084
2.97,2.96863,0.966,0.964648,-1.07337e-05,-6.70528e-05,-3.49117e-06,0.0045894,-5,-26,-7.89767e-07,-5,-56.0303,30.0303,0.088
2.97,2.96863,0.966,0.964661,-1.17293e-05,4.16709e-05,-3.815e-06,0.00409607,-4,-31,4.38048e-07,-4,-56.0293,25.0293,0.092
2.97,2.96863,0.966,0.964671,-1.27689e-05,2.77806e-05,-4.15311e-06,0.00362323,-4,-35,2.58319e-07,-4,-56.0284,21.0284,0.096
2.97,2.96863,0.966,0.964681,-1.38524e-05,-1.02705e-05,-4.50551e-06,0.00325043,-4,-39,-8.56738e-08,-4,-56.0276,17.0276,0.1
2.97,2.96863,0.966,0.964691,-1.49797e-05,-3.56379e-05,-4.87219e-06,0.00300189,-5,-41,-2.74548e-07,-5,-56.0268,15.0268,0.104
2.97,2.96863,0.966,0.964702,-1.61509e-05,3.38232e-05,-5.25312e-06,0.00286499,-4,-42,2.48683e-07,-4,-56.0259,14.0259,0.108
2.97,2.96863,0.966,0.964714,-1.73659e-05,-6.24211e-06,-5.64832e-06,0.00291767,-4,-42,-4.67383e-08,-4,-56.025,14.025,0.112
2.97,2.96863,0.966,0.964728,-1.86248e-05,-4.16141e-06,-6.05776e-06,0.00309675,-4,-40,-3.3071e-08,-4,-56.0238,16.0238,0.116
2.97,2.96863,0.966,0.964743,-1.99274e-05,-2.77427e-06,-6.48144e-06,0.00336009,-4,-37,-2.39219e-08,-4,-56.0226,19.0226,0.12
2.97,2.96863,0.966,0.964759,-2.12738e-05,-1.84951e-06,-6.91934e-06,0.00353565,-4,-35,-1.6781e-08,-4,-56.0213,21.0213,0.124
2.97,2.96863,0.966,0.964775,-2.26639e-05,-1.23301e-06,-7.37148e-06,0.00368149,-4,-34,-1.16486e-08,-4,-56.0201,22.0201,0.128
2.97,2.96863,0.966,0.96479,-2.40976e-05,-8.22007e-07,-7.83782e-06,0.00374991,-4,-33,-7.91e-09,-4,-56.0188,23.0188,0.132
2.97,2.96863,0.966,0.964806,-2.55751e-05,-5.48004e-07,-8.31837e-06,0.00382433,-4,-32,-5.37791e-09,-4,-56.0175,24.0175,0.136
2.97,2.96863,0.966,0.964822,-2.70962e-05,-3.65336e-07,-8.81311e-06,0.00390272,-4,-31,-3.65872e-09,-4,-56.0162,25.0162,0.14
2.97,2.96863,0.966,0.964838,-2.86609e-05,-2.43558e-07,-9.32204e-06,0.00395499,-4,-30,-2.47178e-09,-4,-56.0149,26.0149,0.144
2.97,2.96863,0.966,0.964854,-3.02692e-05,-1.62372e-07,-9.84514e-06,0.00396104,-4,-30,-1.65036e-09,-4,-56.0136,26.0136,0.148
2.97,2.96863,0.965999,0.964869,-3.19211e-05,-1.08248e-07,-1.03824e-05,0.00384991,-4,-31,-1.06936e-09,-4,-56.0124,25.0124,0.152
2.97,2.96863,0.965999,0.964883,-3.36165e-05,-5.7654e-05,-1.09339e-05,0.00371825,-5,-32,-5.50069e-07,-5,-56.0113,24.0113,0.156
2.97,2.96863,0.965999,0.964895,-3.53555e-05,4.79368e-05,-1.14994e-05,0.00348651,-4,-34,4.2885e-07,-4,-56.0103,22.0103,0.16
2.97,2.96863,0.965999,0.964904,-3.71379e-05,3.16692e-06,-1.20792e-05,0.0031017,-4,-38,2.52045e-08,-4,-56.0096,18.0096,0.164
2.97,2.96863,0.965999,0.964912,-3.89637e-05,2.11128e-06,-1.26731e-05,0.00275878,-4,-41,1.49452e-08,-4,-56.0089,15.0089,0.168
2.97,2.96863,0.965999,0.964919,-4.0833e-05,-2.73834e-05,-1.3281e-05,0.00241501,-4,-44,-1.69685e-07,-4,-56.0083,12.0083,0.172
2.97,2.96863,0.965999,0.964925,-4.27457e-05,-1.82556e-05,-1.39032e-05,0.00209945,-4,-47,-9.83416e-08,-4,-56.0079,9.00787,0.176
2.97,2.96863,0.965999,0.96493,-4.47018e-05,1.66205e-05,-1.45394e-05,0.00180271,-4,-50,7.68783e-08,-4,-56.0075,6.00748,0.18
2.97,2.96863,0.965999,0.964935,-4.67013e-05,1.10803e-05,-1.51897e-05,0.00157609,-4,-52,4.48091e-08,-4,-56.0071,4.00712,0.184
2.97,2.96863,0.965999,0.964939,-4.8744e-05,-5.0195e-05,-1.58541e-05,0.00142501,-4,-53,-1.8353e-07,-4,-56.0068,3.00676,0.188
2.97,2.96863,0.965999,0.964944,-5.08301e-05,-4.67238e-06,-1.65326e-05,0.00132429,-4,-54,-1.58763e-08,-4,-56.0064,2.00639,0.192
2.97,2.96863,0.965999,0.964948,-5.29594e-05,5.44669e-05,-1.72252e-05,0.00122835,-4,-55,1.71665e-07,-4,-56.0061,1.00606,0.196
2.97,2.96863,0.965999,0.96495,-5.5132e-05,7.52036e-06,-1.79318e-05,0.00104923,-4,-57,2.02458e-08,-4,-56.0058,-0.994165,0.2
2.97,2.96863,0.965999,0.964954,-5.73478e-05,-5.25683e-05,-1.86525e-05,0.000958603,-4,-58,-1.29297e-07,-4,-56.0056,-1.99442,0.204
2.97,2.96863,0.965999,0.964955,-5.96068e-05,2.25363e-05,-1.93873e-05,0.000754232,-4,-60,4.36128e-08,-4,-56.0055,-3.99453,0.208
2.97,2.96863,0.965999,0.964955,-6.1909e-05,1.50242e-05,-2.01361e-05,0.000531612,-4,-62,2.04933e-08,-4,-56.0054,-5.99456,0.212
2.97,2.96863,0.965998,0.964956,-6.42543e-05,-4.75657e-05,-2.08989e-05,0.00041199,-4,-63,-5.02813e-08,-4,-56.0054,-6.99461,0.216
2.97,2.96863,0.965998,0.964957,-6.66427e-05,2.58714e-05,-2.16757e-05,0.000332242,-4,-64,2.20546e-08,-4,-56.0053,-7.99467,0.22
2.96999,2.96863,0.965998,0.964957,-6.90742e-05,1.72476e-05,-2.24666e-05,0.000279076,-4,-64,1.23503e-08,-4,-56.0053,-7.99472,0.224
2.96999,2.96863,0.965998,0.964958,-7.15488e-05,1.14984e-05,-2.32714e-05,0.000272424,-4,-64,8.03724e-09,-4,-56.0052,-7.99481,0.228
2.96999,2.96863,0.965998,0.964958,-7.40664e-05,7.66559e-06,-2.40903e-05,0.000181616,-4,-65,3.57211e-09,-4,-56.0052,-8.99481,0.232
2.96999,2.96863,0.965998,0.964959,-7.6627e-05,5.1104e-06,-2.49231e-05,0.000149868,-4,-65,1.96512e-09,-4,-56.0052,-8.99484,0.236
2.96999,2.96863,0.965998,0.964959,-7.92306e-05,3.40693e-06,-2.577e-05,9.99121e-05,-4,-66,8.73386e-10,-4,-56.0052,-9.99484,0.24
2.96999,2.96863,0.965998,0.964959,-8.18772e-05,-5.53106e-05,-2.66308e-05,9.5399e-05,-4,-66,-1.35387e-08,-4,-56.0051,-9.99486,0.244
2.96999,2.96863,0.965998,0.96496,-8.45666e-05,4.94991e-05,-2.75055e-05,0.000121181,-4,-65,1.53906e-08,-4,-56.0051,-8.99492,0.248
2.96999,2.96863,0.965998,0.96496,-8.7299e-05,4.20845e-06,-2.83942e-05,8.07874e-05,-4,-66,8.7235e-10,-4,-56.0051,-9.99492,0.252
2.96999,2.96863,0.965997,0.96496,-9.00743e-05,-2.59853e-05,-2.92969e-05,8.26492e-05,-4,-66,-5.51049e-09,-4,-56.0051,-9.99495,0.256
2.96999,2.96863,0.965997,0.96496,-9.28924e-05,4.02583e-05,-3.02135e-05,8.38904e-05,-4,-66,8.66547e-09,-4,-56.005,-9.99498,0.26
2.96999,2.96863,0.965997,0.964961,-9.57533e-05,2.68389e-05,-3.1144e-05,0.0001423,-4,-65,9.79923e-09,-4,-56.0049,-8.99506,0.264
2.96999,2.96863,0.965997,0.964961,-9.86571e-05,-3.96893e-05,-3.20885e-05,9.48665e-05,-4,-66,-9.66072e-09,-4,-56.0049,-9.99506,0.268
2.96999,2.96863,0.965997,0.964962,-0.000101604,-2.64595e-05,-3.30468e-05,9.20352e-05,-4,-66,-6.24827e-09,-4,-56.0049,-9.99509,0.272
2.96999,2.96863,0.965997,0.964962,-0.000104593,-1.76397e-05,-3.40191e-05,6.13568e-05,-4,-66,-2.77701e-09,-4,-56.0049,-9.99509,0.276
2.96999,2.96863,0.965997,0.964963,-0.000107625,-1.17598e-05,-3.50052e-05,9.84864e-05,-4,-66,-2.97166e-09,-4,-56.0049,-9.99514,0.28
2.96999,2.96863,0.965997,0.964961,-0.000110699,-7.83985e-06,-3.60053e-05,-2.07152e-05,-4,-67,4.16697e-10,-4,-56.0049,-10.9951,0.284
2.96999,2.96863,0.965996,0.964962,-0.000113817,-5.22657e-06,-3.70192e-05,4.37717e-05,-4,-66,-5.86994e-10,-4,-56.0049,-9.99511,0.288
2.96999,2.96863,0.965996,0.964963,-0.000116977,-3.48438e-06,-3.8047e-05,5.79721e-05,-4,-66,-5.18284e-10,-4,-56.0049,-9.99514,0.292
2.96999,2.96863,0.965996,0.964963,-0.000120179,-2.32292e-06,-3.90886e-05,6.7439e-05,-4,-66,-4.01947e-10,-4,-56.0048,-9.99517,0.296
2.96999,2.96863,0.965996,0.964963,-0.000123424,2.72423e-05,-4.01441e-05,7.37502e-05,-4,-66,5.15502e-09,-4,-56.0048,-9.9952,0.3
2.96999,2.96863,0.965996,0.964963,-0.000126712,-3.94203e-05,-4.12135e-05,4.91668e-05,-4,-66,-4.97296e-09,-4,-56.0048,-9.9952,0.304
2.96999,2.96863,0.965996,0.964963,-0.000130042,2.51072e-06,-4.22966e-05,3.27779e-05,-4,-66,2.11155e-10,-4,-56.0048,-9.9952,0.308
2.96999,2.96863,0.965995,0.964963,-0.000133415,1.67381e-06,-4.33936e-05,2.18519e-05,-4,-66,9.38469e-11,-4,-56.0048,-9.9952,0.312
2.96999,2.96863,0.965995,0.964963,-0.00013683,1.11588e-06,-4.45045e-05,1.45679e-05,-4,-66,4.17097e-11,-4,-56.0048,-9.9952,0.316
2.96998,2.96863,0.965995,0.964963,-0.000140288,7.43917e-07,-4.56291e-05,9.71197e-06,-4,-66,1.85377e-11,-4,-56.0048,-9.9952,0.32
2.96998,2.96863,0.965995,0.964963,-0.000143788,4.95945e-07,-4.67675e-05,6.47464e-06,-4,-66,8.23896e-12,-4,-56.0048,-9.9952,0.324
2.96998,2.96863,0.965995,0.964963,-0.000147331,3.3063e-07,-4.79197e-05,4.31643e-06,-4,-66,3.66176e-12,-4,-56.0048,-9.9952,0.328
2.96998,2.96863,0.965995,0.964964,-0.000150916,2.2042e-07,-4.90857e-05,6.04595e-05,-4,-66,3.4193e-11,-4,-56.0047,-9.99525,0.332
2.96998,2.96863,0.965994,0.964964,-0.000154543,1.46947e-07,-5.02655e-05,4.03063e-05,-4,-66,1.51969e-11,-4,-56.0047,-9.99525,0.336
2.96998,2.96863,0.965994,0.964964,-0.000158213,9.79644e-08,-5.1459e-05,-1.92005e-06,-4,-66,-4.82618e-13,-4,-56.0048,-9.99523,0.34
2.96998,2.96863,0.965994,0.964964,-0.000161924,5.76472e-05,-5.26663e-05,-1.28003e-06,-4,-66,-1.89331e-10,-4,-56.0048,-9.99523,0.344
2.96998,2.96863,0.965994,0.964964,-0.000165679,-1.91504e-05,-5.38874e-05,-8.53355e-07,-4,-66,4.19306e-11,-4,-56.0048,-9.99523,0.348
2.96998,2.96863,0.965994,0.964964,-0.000169475,-4.15579e-05,-5.51222e-05,-5.68904e-07,-4,-66,6.06618e-11,-4,-56.0048,-9.99523,0.352
2.96998,2.96863,0.965993,0.964964,-0.000173314,1.08568e-06,-5.63707e-05,-3.79269e-07,-4,-66,-1.05651e-12,-4,-56.0048,-9.99523,0.356
2.96998,2.96863,0.965993,0.964964,-0.000177194,-2.80671e-05,-5.76329e-05,-2.52846e-07,-4,-66,1.82086e-11,-4,-56.0048,-9.99523,0.36
2.96998,2.96863,0.965993,0.964964,-0.000181117,1.00795e-05,-5.89089e-05,-1.68564e-07,-4,-66,-4.3594e-12,-4,-56.0048,-9.99523,0.364
2.96998,2.96863,0.965993,0.964964,-0.000185083,6.71967e-06,-6.01986e-05,-1.12376e-07,-4,-66,-1.93751e-12,-4,-56.0048,-9.99523,0.368
2.96998,2.96863,0.965992,0.964964,-0.00018909,4.47978e-06,-6.15019e-05,-7.49173e-08,-4,-66,-8.61116e-13,-4,-56.0048,-9.99523,0.372
2.96998,2.96863,0.965992,0.964964,-0.000193139,2.98652e-06,-6.2819e-05,-4.99449e-08,-4,-66,-3.82718e-13,-4,-56.0048,-9.99523,0.376
2.96997,2.96863,0.965992,0.964964,-0.00019723,1.99101e-06,-6.41497e-05,-3.32966e-08,-4,-66,-1.70097e-13,-4,-56.0048,-9.99523,0.38
2.96997,2.96863,0.965992,0.964964,-0.000201364,1.32734e-06,-6.54941e-05,2.87687e-05,-4,-66,9.79775e-11,-4,-56.0047,-9.99525,0.384
2.96997,2.96863,0.965991,0.964964,-0.000205539,8.84894e-07,-6.68522e-05,4.79701e-05,-4,-66,1.08914e-10,-4,-56.0047,-9.99528,0.388
2.96997,2.96863,0.965991,0.964964,-0.000209757,5.8993e-07,-6.82239e-05,3.18913e-06,-4,-66,4.82719e-12,-4,-56.0047,-9.99525,0.392
2.96997,2.96863,0.965991,0.964964,-0.000214016,3.93286e-07,-6.96092e-05,3.0917e-05,-4,-66,3.11982e-11,-4,-56.0047,-9.99528,0.396
2.96997,2.96863,0.96599,0.964964,-0.000218317,2.62191e-07,-7.10082e-05,-8.17959e-06,-4,-66,-5.50265e-12,-4,-56.0047,-9.99525,0.4
2.96997,2.96863,0.96599,0.964964,-0.00022266,1.74794e-07,-7.24209e-05,-5.45306e-06,-4,-66,-2.44562e-12,-4,-56.0047,-9.99525,0.404
2.96997,2.96863,0.96599,0.964964,-0.000227046,1.16529e-07,-7.38471e-05,-3.63537e-06,-4,-66,-1.08694e-12,-4,-56.0047,-9.99525,0.408
2.96997,2.96863,0.96599,0.964964,-0.000231472,5.76595e-05,-7.5287e-05,-2.42358e-06,-3,-66,-3.58552e-10,-3,-56.0047,-9.99525,0.412
2.96997,2.96863,0.965989,0.964964,-0.000235941,-1.91422e-05,-7.67405e-05,-1.61572e-06,-4,-66,7.93561e-11,-4,-56.0047,-9.99525,0.416
2.96997,2.96863,0.965989,0.964964,-0.000240452,-1.27614e-05,-7.82075e-05,-1.07715e-06,-4,-66,3.52694e-11,-4,-56.0047,-9.99525,0.42
2.96997,2.96863,0.965989,0.964964,-0.000245004,4.90742e-05,-7.96882e-05,-7.18098e-07,-3,-66,-9.04191e-11,-3,-56.0047,-9.99525,0.424
2.96996,2.96863,0.965988,0.964964,-0.000249598,3.92522e-06,-8.11824e-05,-4.78732e-07,-4,-66,-4.82147e-12,-4,-56.0047,-9.99525,0.428
2.96996,2.96863,0.965988,0.964964,-0.000254234,2.61682e-06,-8.26902e-05,-3.19155e-07,-4,-66,-2.14288e-12,-4,-56.0047,-9.99525,0.432
2.96996,2.96863,0.965988,0.964964,-0.000258911,3.05355e-05,-8.42116e-05,-2.1277e-07,-3,-66,-1.66701e-11,-3,-56.0047,-9.99525,0.436
2.96996,2.96863,0.965987,0.964964,-0.000263631,-8.43395e-06,-8.57465e-05,-1.41847e-07,-4,-66,3.06953e-12,-4,-56.0047,-9.99525,0.44
2.96996,2.96863,0.965987,0.964964,-0.000268391,-5.62263e-06,-8.72949e-05,-9.45644e-08,-4,-66,1.36424e-12,-4,-56.0047,-9.99525,0.444
2.96996,2.96863,0.965987,0.964964,-0.000273194,-3.74842e-06,-8.88569e-05,-6.30429e-08,-3,-66,6.06328e-13,-3,-56.0047,-9.99525,0.448
2.96996,2.96863,0.965986,0.964964,-0.000278038,-2.49895e-06,-9.04325e-05,-4.20286e-08,-3,-66,2.69479e-13,-3,-56.0047,-9.99525,0.452
2.96996,2.96863,0.965986,0.964964,-0.000282923,-1.66596e-06,-9.20215e-05,-2.80191e-08,-3,-66,1.19768e-13,-3,-56.0047,-9.99525,0.456
2.96996,2.96863,0.965986,0.964964,-0.00028785,-1.11064e-06,-9.3624e-05,-1.86794e-08,-3,-66,5.32304e-14,-3,-56.0047,-9.99525,0.46
2.96995,2.96863,0.965985,0.964964,-0.000292819,-7.40429e-07,-9.52401e-05,-1.24529e-08,-3,-66,2.3658e-14,-3,-56.0047,-9.99525,0.464
2.96995,2.96863,0.965985,0.964964,-0.000297829,-4.93619e-07,-9.68696e-05,-8.30195e-09,-3,-66,1.05146e-14,-3,-56.0047,-9.99525,0.468
2.96995,2.96863,0.965984,0.964964,-0.000302881,2.84618e-05,-9.85127e-05,-5.53463e-09,-3,-66,-4.0418e-13,-3,-56.0047,-9.99525,0.472
2.96995,2.96863,0.965984,0.964964,-0.000307974,-9.81636e-06,-0.000100169,-3.68975e-09,-3,-66,9.29332e-14,-3,-56.0047,-9.99525,0.476
2.96995,2.96863,0.965984,0.964964,-0.000313108,-6.54424e-06,-0.000101839,-2.45984e-09,-3,-66,4.13036e-14,-3,-56.0047,-9.99525,0.48
2.96995,2.96863,0.965983,0.964964,-0.000318284,-4.36283e-06,-0.000103523,-1.63989e-09,-3,-66,1.83572e-14,-3,-56.0047,-9.99525,0.484
2.96995,2.96863,0.965983,0.964964,-0.000323501,-2.90855e-06,-0.000105219,-1.09326e-09,-3,-66,8.15874e-15,-3,-56.0047,-9.99525,0.488
2.96995,2.96863,0.965982,0.964964,-0.000328759,-1.93903e-06,-0.00010693,-7.2884e-10,-3,-66,3.62611e-15,-3,-56.0047,-9.99525,0.492
2.96994,2.96863,0.965982,0.964964,-0.000334059,-1.29269e-06,-0.000108654,-4.85893e-10,-3,-66,1.6116e-15,-3,-56.0047,-9.99525,0.496
2.96994,2.96863,0.965981,0.964964,-0.0003394,-8.61793e-07,-0.000110391,-3.23929e-10,-3,-66,7.16268e-16,-3,-56.0047,-9.99525,0.5
2.96994,2.96863,0.965981,0.964964,-0.000344782,-5.74529e-07,-0.000112141,-2.15953e-10,-3,-66,3.18341e-16,-3,-56.0047,-9.99525,0.504
2.96994,2.96863,0.965981,0.964964,-0.000350206,-3.83019e-07,-0.000113905,-1.43968e-10,-3,-66,1.41485e-16,-3,-56.0047,-9.99525,0.508
2.96994,2.96863,0.96598,0.964964,-0.000355671,-2.55346e-07,-0.000115683,-9.5979e-11,-3,-66,6.28823e-17,-3,-56.0047,-9.99525,0.512
2.96994,2.96863,0.96598,0.964964,-0.000361176,-1.70231e-07,-0.000117474,-2.8791e-05,-3,-66,1.25753e-11,-3,-56.0048,-9.99523,0.516
2.96994,2.96863,0.965979,0.964965,-0.000366723,-1.13487e-07,-0.000119278,6.71788e-05,-3,-65,-1.95615e-11,-3,-56.0047,-8.99531,0.52
2.96993,2.96863,0.965979,0.964964,-0.000372312,-7.56581e-08,-0.000121095,-1.2796e-05,-3,-66,2.484e-12,-3,-56.0047,-9.99525,0.524
2.96993,2.96863,0.965978,0.964964,-0.000377941,-5.04387e-08,-0.000122926,-8.53066e-06,-3,-66,1.104e-12,-3,-56.0047,-9.99525,0.528
2.96993,2.96863,0.965978,0.964964,-0.000383611,-2.88246e-05,-0.000124771,-5.68711e-06,-3,-65,4.20608e-10,-3,-56.0047,-8.99525,0.532
2.96993,2.96863,0.965977,0.964964,-0.000389323,9.57456e-06,-0.000126628,-3.79141e-06,-3,-65,-9.31412e-11,-3,-56.0047,-8.99525,0.536
2.96993,2.96863,0.965977,0.964964,-0.000395075,6.38304e-06,-0.000128499,-2.5276e-06,-3,-65,-4.13961e-11,-3,-56.0047,-8.99525,0.54
2.96993,2.96863,0.965976,0.964964,-0.000400868,-5.33265e-05,-0.000130383,-3.0476e-05,-3,-66,4.16988e-09,-3,-56.0048,-9.99523,0.544
2.96993,2.96863,0.965976,0.964964,-0.000406703,-3.5551e-05,-0.000132281,8.4736e-06,-3,-65,-7.72934e-10,-3,-56.0047,-8.99525,0.548
2.96992,2.96863,0.965975,0.964965,-0.000412578,3.38812e-05,-0.000134192,6.32309e-05,-3,-65,5.49681e-09,-3,-56.0047,-8.99531,0.552
2.96992,2.96863,0.965975,0.964964,-0.000418494,2.25875e-05,-0.000136116,-4.42188e-05,-3,-66,-2.5627e-09,-3,-56.0048,-9.99523,0.556
2.96992,2.96863,0.965974,0.964964,-0.000424451,4.38492e-05,-0.000138054,-6.88297e-07,-3,-65,-7.74392e-11,-3,-56.0047,-8.99525,0.56
2.96992,2.96863,0.965973,0.964964,-0.000430449,-2.8349e-05,-0.000140005,-2.92498e-05,-3,-66,2.12757e-09,-3,-56.0048,-9.99523,0.564
2.96992,2.96863,0.965973,0.964965,-0.000436488,9.89157e-06,-0.000141969,6.68729e-05,-3,-65,1.69722e-09,-3,-56.0047,-8.99531,0.568
2.96992,2.96863,0.965972,0.964965,-0.000442567,-2.21965e-05,-0.000143946,4.45819e-05,-3,-65,-2.53903e-09,-3,-56.0047,-8.99531,0.572
2.96991,2.96863,0.965972,0.964964,-0.000448688,-1.47977e-05,-0.000145937,-2.78606e-05,-3,-65,1.05781e-09,-3,-56.0047,-8.99525,0.576
2.96991,2.96863,0.965971,0.964964,-0.000454849,1.89258e-05,-0.000147941,-1.85737e-05,-3,-65,-9.01936e-10,-3,-56.0047,-8.99525,0.58
2.96991,2.96863,0.965971,0.964964,-0.000461051,-1.61737e-05,-0.000149958,1.64085e-05,-3,-65,-6.80927e-10,-3,-56.0047,-8.99528,0.584
2.96991,2.96863,0.96597,0.964964,-0.000467293,-1.07825e-05,-0.000151988,-1.7852e-05,-3,-65,4.93887e-10,-3,-56.0047,-8.99525,0.588
2.96991,2.96863,0.965969,0.964964,-0.000473576,-7.18832e-06,-0.000154032,1.68896e-05,-3,-65,-3.11509e-10,-3,-56.0047,-8.99528,0.592
2.9699,2.96863,0.965969,0.964964,-0.0004799,-4.79222e-06,-0.000156089,1.12597e-05,-3,-65,-1.38448e-10,-3,-56.0047,-8.99528,0.596
2.9699,2.96863,0.965968,0.964965,-0.000486265,-3.19481e-06,-0.000158159,3.62974e-05,-3,-65,-2.97539e-10,-3,-56.0047,-8.99531,0.6
2.9699,2.96863,0.965967,0.964964,-0.00049267,-2.12987e-06,-0.000160242,-6.21745e-05,-3,-66,3.39773e-10,-3,-56.0048,-9.99523,0.604
2.9699,2.96863,0.965967,0.964964,-0.000499115,-1.41992e-06,-0.000162339,1.61322e-05,-3,-65,-5.87731e-11,-3,-56.0047,-8.99528,0.608
2.9699,2.96863,0.965966,0.964964,-0.000505602,-9.46611e-07,-0.000164448,-1.80361e-05,-3,-65,4.38064e-11,-3,-56.0047,-8.99525,0.612
2.96989,2.96863,0.965966,0.964964,-0.000512128,-6.31074e-07,-0.000166571,-4.0815e-05,-2,-65,6.60881e-11,-2,-56.0048,-8.99523,0.616
2.96989,2.96863,0.965965,0.964964,-0.000518696,-4.20716e-07,-0.000168707,3.03718e-05,-2,-65,-3.27856e-11,-2,-56.0047,-8.99528,0.62
2.96989,2.96863,0.965964,0.964964,-0.000525303,-2.80477e-07,-0.000170856,2.02479e-05,-2,-65,-1.45714e-11,-2,-56.0047,-8.99528,0.624
2.96989,2.96863,0.965963,0.964964,-0.000531951,-1.86985e-07,-0.000173019,1.34986e-05,-2,-65,-6.47616e-12,-2,-56.0047,-8.99528,0.628
2.96989,2.96863,0.965963,0.964964,-0.00053864,-1.24657e-07,-0.000175194,-4.85828e-05,-2,-65,1.55389e-11,-2,-56.0048,-8.99523,0.632
2.96988,2.96863,0.965962,0.964964,-0.000545369,-8.31044e-08,-0.000177383,2.51933e-05,-2,-64,-5.37195e-12,-2,-56.0047,-7.99528,0.636
2.96988,2.96863,0.965961,0.964964,-0.000552138,-5.54029e-08,-0.000179584,1.67956e-05,-2,-65,-2.38753e-12,-2,-56.0047,-8.99528,0.64
2.96988,2.96863,0.965961,0.964964,-0.000558948,-3.69353e-08,-0.000181799,1.1197e-05,-2,-65,-1.06113e-12,-2,-56.0047,-8.99528,0.644
2.96988,2.96863,0.96596,0.964965,-0.000565798,-2.46235e-08,-0.000184027,3.62556e-05,-2,-64,-2.29059e-12,-2,-56.0047,-7.99531,0.648
2.96987,2.96863,0.965959,0.964964,-0.000572688,-1.64157e-08,-0.000186268,-4.62052e-06,-2,-65,1.94613e-13,-2,-56.0047,-8.99528,0.652
2.96987,2.96863,0.965958,0.964964,-0.000579619,-1.09438e-08,-0.000188522,-3.08034e-06,-2,-65,8.64947e-14,-2,-56.0047,-8.99528,0.656
2.96987,2.96863,0.965958,0.964964,-0.00058659,-7.29586e-09,-0.00019079,-2.05356e-06,-2,-65,3.84421e-14,-2,-56.0047,-8.99528,0.66
2.96987,2.96863,0.965957,0.964965,-0.000593601,-4.8639e-09,-0.00019307,2.74219e-05,-2,-64,-3.4222e-13,-2,-56.0047,-7.99531,0.664
2.96987,2.96863,0.965956,0.964964,-0.000600652,-3.2426e-09,-0.000195363,-1.05097e-05,-2,-65,8.74391e-14,-2,-56.0047,-8.99528,0.668
2.96986,2.96863,0.965955,0.964964,-0.000607743,-2.16173e-09,-0.00019767,-7.00645e-06,-2,-65,3.88618e-14,-2,-56.0047,-8.99528,0.672
2.96986,2.96863,0.965955,0.964964,-0.000614875,-1.44116e-09,-0.000199989,-4.67096e-06,-2,-64,1.72719e-14,-2,-56.0047,-7.99528,0.676
2.96986,2.96863,0.965954,0.964964,-0.000622046,-9.60771e-10,-0.000202322,-3.11398e-06,-2,-64,7.67641e-15,-2,-56.0047,-7.99528,0.68
2.96986,2.96863,0.965953,0.964964,-0.000629258,-6.40514e-10,-0.000204668,-2.07598e-06,-2,-64,3.41174e-15,-2,-56.0047,-7.99528,0.684
2.96985,2.96863,0.965952,0.964964,-0.00063651,-4.27009e-10,-0.000207026,-1.38399e-06,-2,-64,1.51633e-15,-2,-56.0047,-7.99528,0.688
2.96985,2.96863,0.965951,0.964964,-0.000643801,-2.84673e-10,-0.000209398,-9.2266e-07,-2,-64,6.73923e-16,-2,-56.0047,-7.99528,0.692
2.96985,2.96863,0.96595,0.964965,-0.000651133,-1.89782e-10,-0.000211783,2.81758e-05,-2,-64,-1.372e-14,-2,-56.0047,-7.99531,0.696
2.96984,2.96863,0.96595,0.964964,-0.000658505,-1.26521e-10,-0.00021418,-1.0007e-05,-2,-64,3.24857e-15,-2,-56.0047,-7.99528,0.7
2.96984,2.96863,0.965949,0.964964,-0.000665916,-8.43475e-11,-0.000216591,-6.67136e-06,-2,-64,1.44381e-15,-2,-56.0047,-7.99528,0.704
2.96984,2.96863,0.965948,0.964964,-0.000673368,-5.62317e-11,-0.000219015,-4.44758e-06,-2,-64,6.41693e-16,-2,-56.0047,-7.99528,0.708
2.96984,2.96863,0.965947,0.964964,-0.00068086,-3.74878e-11,-0.000221451,-2.96505e-06,-2,-64,2.85197e-16,-2,-56.0047,-7.99528,0.712
2.96983,2.96863,0.965946,0.964964,-0.000688391,-2.49919e-11,-0.000223901,-1.9767e-06,-2,-64,1.26754e-16,-2,-56.0047,-7.99528,0.716
2.96983,2.96863,0.965945,0.964964,-0.000695962,-1.66612e-11,-0.000226363,-1.3178e-06,-2,-64,5.63352e-17,-2,-56.0047,-7.99528,0.72
2.96983,2.96863,0.965944,0.964964,-0.000703573,-1.11075e-11,-0.000228839,-8.78534e-07,-2,-64,2.50379e-17,-2,-56.0047,-7.99528,0.724
2.96983,2.96863,0.965943,0.964964,-0.000711224,-7.405e-12,-0.000231327,-5.85689e-07,-2,-64,1.11279e-17,-2,-56.0047,-7.99528,0.728
2.96982,2.96863,0.965942,0.964964,-0.000718915,-4.93666e-12,-0.000233829,-3.90459e-07,-2,-64,4.94575e-18,-2,-56.0047,-7.99528,0.732
2.96982,2.96863,0.965941,0.964964,-0.000726645,-3.29111e-12,-0.000236343,-2.60306e-07,-2,-64,2.19811e-18,-2,-56.0047,-7.99528,0.736
2.96982,2.96863,0.965941,0.964964,-0.000734415,-2.19407e-12,-0.00023887,-1.73537e-07,-1,-64,9.76938e-19,-1,-56.0047,-7.99528,0.74
2.96981,2.96863,0.96594,0.964964,-0.000742225,-1.46272e-12,-0.000241411,-1.15692e-07,-1,-64,4.34195e-19,-1,-56.0047,-7.99528,0.744
2.96981,2.96863,0.965939,0.964964,-0.000750075,-9.75143e-13,-0.000243964,-7.71278e-08,-1,-64,1.92975e-19,-1,-56.0047,-7.99528,0.748
2.96981,2.96863,0.965938,0.964964,-0.000757964,-6.50096e-13,-0.00024653,-5.14185e-08,-1,-64,8.57669e-20,-1,-56.0047,-7.99528,0.752
2.96981,2.96863,0.965937,0.964964,-0.000765893,-4.33397e-13,-0.000249109,-3.4279e-08,-1,-64,3.81186e-20,-1,-56.0047,-7.99528,0.756
2.9698,2.96863,0.965936,0.964964,-0.000773861,-2.88931e-13,-0.0002517,-2.28527e-08,-1,-64,1.69416e-20,-1,-56.0047,-7.99528,0.76
2.9698,2.96863,0.965935,0.964964,-0.000781869,-1.92621e-13,-0.000254305,-1.52351e-08,-1,-64,7.5296e-21,-1,-56.0047,-7.99528,0.764
2.9698,2.96863,0.965934,0.964964,-0.000789916,-1.28414e-13,-0.000256922,-1.01567e-08,-1,-64,3.34649e-21,-1,-56.0047,-7.99528,0.768
2.96979,2.96863,0.965933,0.964964,-0.000798003,-8.56093e-14,-0.000259553,-6.77116e-09,-1,-64,1.48733e-21,-1,-56.0047,-7.99528,0.772
2.96979,2.96863,0.965932,0.964964,-0.00080613,-5.70729e-14,-0.000262196,-4.51411e-09,-1,-64,6.61035e-22,-1,-56.0047,-7.99528,0.776
2.96979,2.96863,0.96593,0.964964,-0.000814296,-3.80486e-14,-0.000264852,-3.00941e-09,-1,-64,2.93793e-22,-1,-56.0047,-7.99528,0.78
2.96978,2.96863,0.965929,0.964964,-0.000822501,-2.53657e-14,-0.000267521,-2.00627e-09,-1,-64,1.30575e-22,-1,-56.0047,-7.99528,0.784
2.96978,2.96863,0.965928,0.964964,-0.000830746,-1.69105e-14,-0.000270202,-1.33751e-09,-1,-63,5.80333e-23,-1,-56.0047,-6.99528,0.788
2.96978,2.96863,0.965927,0.964964,-0.00083903,-1.12737e-14,-0.000272897,-8.91676e-10,-1,-63,2.57926e-23,-1,-56.0047,-6.99528,0.792
2.96977,2.96863,0.965926,0.964964,-0.000847354,-7.51577e-15,-0.000275604,-5.9445e-10,-1,-63,1.14634e-23,-1,-56.0047,-6.99528,0.796
2.96977,2.96863,0.965925,0.964964,-0.000855716,-5.01051e-15,-0.000278324,-3.963e-10,-1,-63,5.09483e-24,-1,-56.0047,-6.99528,0.8
2.96977,2.96863,0.965924,0.964964,-0.000864119,-3.34034e-15,-0.000281057,-2.642e-10,-1,-63,2.26437e-24,-1,-56.0047,-6.99528,0.804
2.96976,2.96863,0.965923,0.964964,-0.00087256,-2.22689e-15,-0.000283802,-1.76133e-10,-1,-63,1.00639e-24,-1,-56.0047,-6.99528,0.808
2.96976,2.96863,0.965922,0.964964,-0.000881041,-1.4846e-15,-0.000286561,-1.17422e-10,-1,-63,4.47282e-25,-1,-56.0047,-6.99528,0.812
2.96976,2.96863,0.96592,0.964964,-0.000889561,-9.89731e-16,-0.000289332,-7.82815e-11,-1,-63,1.98792e-25,-1,-56.0047,-6.99528,0.816
2.96975,2.96863,0.965919,0.964964,-0.00089812,-6.59821e-16,-0.000292116,-5.21877e-11,-1,-63,8.83521e-26,-1,-56.0047,-6.99528,0.82
2.96975,2.96863,0.965918,0.964964,-0.000906718,-2.87909e-05,-0.000294912,-3.47918e-11,-1,-63,2.57013e-15,-1,-56.0047,-6.99528,0.824
2.96974,2.96863,0.965917,0.964964,-0.000915356,-1.91939e-05,-0.000297722,-2.31945e-11,-1,-63,1.14228e-15,-1,-56.0047,-6.99528,0.828
2.96974,2.96863,0.965916,0.964964,-0.000924032,1.5995e-05,-0.000300544,-1.5463e-11,-1,-63,-6.346e-16,-1,-56.0047,-6.99528,0.832
2.96974,2.96863,0.965915,0.964964,-0.000932748,1.06633e-05,-0.000303379,-1.03087e-11,-1,-63,-2.82045e-16,-1,-56.0047,-6.99528,0.836
2.96973,2.96863,0.965913,0.964964,-0.000941503,7.10887e-06,-0.000306226,-6.87245e-12,0,-63,-1.25353e-16,1.25353e-16,-56.0047,-6.99528,0.84
2.96973,2.96863,0.965912,0.964964,-0.000950297,4.73925e-06,-0.000309086,-4.58164e-12,0,-63,-5.57125e-17,5.57125e-17,-56.0047,-6.99528,0.844
2.96973,2.96863,0.965911,0.964964,-0.00095913,3.1595e-06,-0.000311959,-3.05442e-12,0,-63,-2.47611e-17,2.47611e-17,-56.0047,-6.99528,0.848
2.96972,2.96863,0.96591,0.964964,-0.000968002,2.10633e-06,-0.000314845,-2.03628e-12,0,-63,-1.10049e-17,1.10049e-17,-56.0047,-6.99528,0.852
2.96972,2.96863,0.965908,0.964964,-0.000976913,1.40422e-06,-0.000317743,-1.35752e-12,0,-63,-4.89108e-18,4.89108e-18,-56.0047,-6.99528,0.856
2.96971,2.96863,0.965907,0.964964,-0.000985862,9.36148e-07,-0.000320654,-9.05014e-13,0,-63,-2.17382e-18,2.17382e-18,-56.0047,-6.99528,0.86
2.96971,2.96863,0.965906,0.964964,-0.000994851,-2.81668e-05,-0.000323578,-6.03343e-13,0,-63,4.36039e-17,-4.36039e-17,-56.0047,-6.99528,0.864
2.96971,2.96863,0.965904,0.964964,-0.00100388,-1.87779e-05,-0.000326514,-4.02229e-13,0,-63,1.93795e-17,-1.93795e-17,-56.0047,-6.99528,0.868
2.9697,2.96863,0.965903,0.964964,-0.00101295,-1.25186e-05,-0.000329463,-2.68152e-13,0,-63,8.61311e-18,-8.61311e-18,-56.0047,-6.99528,0.872
2.9697,2.96863,0.965902,0.964964,-0.00102205,2.04452e-05,-0.000332425,-1.78768e-13,0,-63,-9.37788e-18,9.37788e-18,-56.0047,-6.99528,0.876
2.96969,2.96863,0.965901,0.964964,-0.00103119,1.36301e-05,-0.000335399,-1.19179e-13,0,-63,-4.16795e-18,4.16795e-18,-56.0047,-6.99528,0.88
2.96969,2.96863,0.965899,0.964964,-0.00104038,9.08675e-06,-0.000338386,-7.94526e-14,0,-63,-1.85242e-18,1.85242e-18,-56.0047,-6.99528,0.884
2.96969,2.96863,0.965898,0.964964,-0.0010496,6.05784e-06,-0.000341385,-5.29684e-14,0,-62,-8.23298e-19,8.23298e-19,-56.0047,-5.99528,0.888
2.96968,2.96863,0.965896,0.964964,-0.00105886,-2.47524e-05,-0.000344397,-3.53123e-14,0,-62,2.24267e-18,-2.24267e-18,-56.0047,-5.99528,0.892
2.96968,2.96863,0.965895,0.964964,-0.00106816,1.22893e-05,-0.000347422,-2.35415e-14,0,-62,-7.42311e-19,7.42311e-19,-56.0047,-5.99528,0.896
2.96967,2.96863,0.965894,0.964964,-0.0010775,-2.0598e-05,-0.000350459,-1.56943e-14,0,-62,8.29452e-19,-8.29452e-19,-56.0047,-5.99528,0.9
2.96967,2.96863,0.965892,0.964964,-0.00108687,-1.3732e-05,-0.000353509,-1.04629e-14,0,-62,3.68645e-19,-3.68645e-19,-56.0047,-5.99528,0.904
2.96966,2.96863,0.965891,0.964964,-0.00109629,1.96362e-05,-0.000356571,-6.97526e-15,0,-62,-3.51432e-19,3.51432e-19,-56.0047,-5.99528,0.908
2.96966,2.96863,0.965889,0.964964,-0.00110574,-1.57001e-05,-0.000359646,-4.65017e-15,0,-62,1.87324e-19,-1.87324e-19,-56.0047,-5.99528,0.912
2.96966,2.96863,0.965888,0.964964,-0.00111524,-1.04667e-05,-0.000362733,-3.10012e-15,0,-62,8.32553e-20,-8.32553e-20,-56.0047,-5.99528,0.916
2.96965,2.96863,0.965886,0.964964,-0.00112477,-6.97782e-06,-0.000365833,-2.06674e-15,0,-62,3.70023e-20,-3.70023e-20,-56.0047,-5.99528,0.92
2.96965,2.96863,0.965885,0.964964,-0.00113434,-4.65188e-06,-0.000368946,-1.37783e-15,0,-62,1.64455e-20,-1.64455e-20,-56.0047,-5.99528,0.924
2.96964,2.96863,0.965884,0.964964,-0.00114394,-3.10125e-06,-0.000372071,-9.18553e-16,0,-62,7.3091e-21,-7.3091e-21,-56.0047,-5.99528,0.928
2.96964,2.96863,0.965882,0.964964,-0.00115359,-2.0675e-06,-0.000375208,-6.12369e-16,0,-62,3.24849e-21,-3.24849e-21,-56.0047,-5.99528,0.932
2.96963,2.96863,0.965881,0.964964,-0.00116328,-1.37833e-06,-0.000378359,-4.08246e-16,0,-62,1.44377e-21,-1.44377e-21,-56.0047,-5.99528,0.936
2.96963,2.96863,0.965879,0.964964,-0.001173,-9.1889e-07,-0.000381521,-2.72164e-16,0,-62,6.41677e-22,-6.41677e-22,-56.0047,-5.99528,0.94
2.96962,2.96863,0.965877,0.964964,-0.00118276,-6.12593e-07,-0.000384696,-1.81443e-16,0,-62,2.8519e-22,-2.8519e-22,-56.0047,-5.99528,0.944
2.96962,2.96863,0.965876,0.964964,-0.00119256,-4.08395e-07,-0.000387884,-1.20962e-16,0,-62,1.26751e-22,-1.26751e-22,-56.0047,-5.99528,0.948
2.96961,2.96863,0.965874,0.964964,-0.0012024,2.85187e-05,-0.000391084,-8.06411e-17,0,-62,-5.90077e-21,5.90077e-21,-56.0047,-5.99528,0.952
2.96961,2.96863,0.965873,0.964964,-0.00121228,1.90124e-05,-0.000394296,-5.37607e-17,0,-62,-2.62256e-21,2.62256e-21,-56.0047,-5.99528,0.956
2.9696,2.96863,0.965871,0.964964,-0.00122219,-1.6116e-05,-0.000397521,-3.58405e-17,0,-62,1.48202e-21,-1.48202e-21,-56.0047,-5.99528,0.96
2.9696,2.96863,0.96587,0.964964,-0.00123215,1.80469e-05,-0.000400759,-2.38937e-17,0,-62,-1.10639e-21,1.10639e-21,-56.0047,-5.99528,0.964
2.96959,2.96863,0.965868,0.964964,-0.00124214,-1.67596e-05,-0.000404009,-1.59291e-17,0,-62,6.84981e-22,-6.84981e-22,-56.0047,-5.99528,0.968
2.96959,2.96863,0.965866,0.964964,-0.00125217,-1.11731e-05,-0.000407271,-1.06194e-17,0,-61,3.04436e-22,-3.04436e-22,-56.0047,-4.99528,0.972
2.96958,2.96863,0.965865,0.964964,-0.00126224,-7.44872e-06,-0.000410546,-7.0796e-18,0,-61,1.35305e-22,-1.35305e-22,-56.0047,-4.99528,0.976
2.96958,2.96863,0.965863,0.964964,-0.00127234,-4.96582e-06,-0.000413833,-4.71974e-18,0,-61,6.01355e-23,-6.01355e-23,-56.0047,-4.99528,0.98
2.96957,2.96863,0.965861,0.964964,-0.00128249,-3.31054e-06,-0.000417133,-3.14649e-18,0,-61,2.67269e-23,-2.67269e-23,-56.0047,-4.99528,0.984
2.96957,2.96863,0.96586,0.964964,-0.00129267,-2.20703e-06,-0.000420445,-2.09766e-18,0,-61,1.18786e-23,-1.18786e-23,-56.0047,-4.99528,0.988
2.96956,2.96863,0.965858,0.964964,-0.00130289,2.73196e-05,-0.000423769,-1.39844e-18,0,-61,-9.80259e-23,9.80259e-23,-56.0047,-4.99528,0.992
2.96956,2.96863,0.965856,0.964964,-0.00131315,-1.05779e-05,-0.000427106,-9.32294e-19,0,-61,2.53031e-23,-2.53031e-23,-56.0047,-4.99528,0.996
2.96955,2.96863,0.965855,0.964964,-0.00132345,2.1739e-05,-0.000430455,-6.21529e-19,0,-61,-3.46676e-23,3.46676e-23,-56.0047,-4.99528,1
2.96955,2.96863,0.965853,0.964964,-0.00133378,1.44927e-05,-0.000433816,-4.14353e-19,0,-61,-1.54078e-23,1.54078e-23,-56.0047,-4.99528,1.004
2.96954,2.96863,0.965851,0.964964,-0.00134416,9.66178e-06,-0.00043719,-2.76235e-19,0,-61,-6.84792e-24,6.84792e-24,-56.0047,-4.99528,1.008
2.96954,2.96863,0.965849,0.964964,-0.00135457,6.44119e-06,-0.000440577,-1.84157e-19,1,-61,-3.04352e-24,1,-56.0047,-4.99528,1.012
2.96953,2.96863,0.965848,0.964964,-0.00136502,4.29412e-06,-0.000443975,-1.22771e-19,1,-61,-1.35268e-24,1,-56.0047,-4.99528,1.016
2.96953,2.96863,0.965846,0.964964,-0.0013755,-2.59282e-05,-0.000447386,-8.18475e-20,1,-61,5.44503e-24,1,-56.0047,-4.99528,1.02
2.96952,2.96863,0.965844,0.964964,-0.00138603,-1.72854e-05,-0.000450809,-5.4565e-20,1,-61,2.42001e-24,1,-56.0047,-4.99528,1.024
2.96952,2.96863,0.965842,0.964964,-0.00139659,-1.15236e-05,-0.000454245,-3.63766e-20,1,-61,1.07556e-24,1,-56.0047,-4.99528,1.028
2.96951,2.96863,0.96584,0.964964,-0.00140719,-7.68242e-06,-0.000457693,-2.42511e-20,1,-61,4.78027e-25,1,-56.0047,-4.99528,1.032
2.9695,2.96863,0.965839,0.964964,-0.00141783,-5.12161e-06,-0.000461153,-1.61674e-20,1,-61,2.12456e-25,1,-56.0047,-4.99528,1.036
2.9695,2.96863,0.965837,0.964964,-0.00142851,-3.41441e-06,-0.000464625,-1.07783e-20,1,-61,9.44251e-26,1,-56.0047,-4.99528,1.04
2.96949,2.96863,0.965835,0.964964,-0.00143922,-2.27627e-06,-0.00046811,-7.18551e-21,1,-61,4.19667e-26,1,-56.0047,-4.99528,1.044
2.96949,2.96863,0.965833,0.964964,-0.00144997,-1.51752e-06,-0.000471607,-4.79034e-21,1,-61,1.86519e-26,1,-56.0047,-4.99528,1.048
2.96948,2.96863,0.965831,0.964964,-0.00146076,-1.01168e-06,-0.000475117,-3.19356e-21,1,-60,8.28972e-27,1,-56.0047,-3.99528,1.052
2.96947,2.96863,0.965829,0.964964,-0.00147159,-6.74451e-07,-0.000478638,-2.12904e-21,1,-60,3.68432e-27,1,-56.0047,-3.99528,1.056
2.96947,2.96863,0.965827,0.964964,-0.00148245,-4.49634e-07,-0.000482172,-1.41936e-21,1,-60,1.63748e-27,1,-56.0047,-3.99528,1.06
2.96946,2.96863,0.965825,0.964964,-0.00149336,-2.99756e-07,-0.000485718,-9.4624e-22,1,-60,7.27767e-28,1,-56.0047,-3.99528,1.064
2.96946,2.96863,0.965823,0.964964,-0.0015043,-1.99837e-07,-0.000489277,-6.30827e-22,1,-60,3.23452e-28,1,-56.0047,-3.99528,1.068
2.96945,2.96863,0.965821,0.964964,-0.00151528,-1.33225e-07,-0.000492847,-4.20551e-22,1,-60,1.43756e-28,1,-56.0047,-3.99528,1.072
2.96944,2.96863,0.965819,0.964964,-0.00152629,-8.88166e-08,-0.00049643,-2.80367e-22,1,-60,6.38917e-29,1,-56.0047,-3.99528,1.076
2.96944,2.96863,0.965817,0.964964,-0.00153734,-5.92111e-08,-0.000500025,-1.86912e-22,1,-60,2.83963e-29,1,-56.0047,-3.99528,1.08
2.96943,2.96863,0.965815,0.964964,-0.00154843,-3.94741e-08,-0.000503632,-1.24608e-22,2,-60,1.26206e-29,2,-56.0047,-3.99528,1.084
2.96943,2.96863,0.965813,0.964964,-0.00155956,-2.6316e-08,-0.000507251,-8.30718e-23,2,-60,5.60915e-30,2,-56.0047,-3.99528,1.088
2.96942,2.96863,0.965811,0.964964,-0.00157073,-1.7544e-08,-0.000510883,-5.53812e-23,2,-60,2.49296e-30,2,-56.0047,-3.99528,1.092
2.96941,2.96863,0.965809,0.964964,-0.00158193,-1.1696e-08,-0.000514527,-3.69208e-23,2,-60,1.10798e-30,2,-56.0047,-3.99528,1.096
2.96941,2.96863,0.965807,0.964964,-0.00159317,-7.79735e-09,-0.000518183,-2.46139e-23,2,-60,4.92436e-31,2,-56.0047,-3.99528,1.1
2.9694,2.96863,0.965805,0.964964,-0.00160445,-5.19823e-09,-0.000521851,-1.64092e-23,2,-60,2.1886e-31,2,-56.0047,-3.99528,1.104
2.96939,2.96863,0.965803,0.964964,-0.00161576,-3.46549e-09,-0.000525531,-1.09395e-23,2,-60,9.72713e-32,2,-56.0047,-3.99528,1.108
2.96939,2.96863,0.965801,0.964964,-0.00162712,-2.31032e-09,-0.000529224,-7.293e-24,2,-60,4.32317e-32,2,-56.0047,-3.99528,1.112
2.96938,2.96863,0.965799,0.964964,-0.00163851,-1.54022e-09,-0.000532928,-4.862e-24,2,-60,1.92141e-32,2,-56.0047,-3.99528,1.116
2.96938,2.96863,0.965797,0.964964,-0.00164993,-1.02681e-09,-0.000536645,-3.24133e-24,2,-59,8.53959e-33,2,-56.0047,-2.99528,1.12
2.96937,2.96863,0.965795,0.964964,-0.0016614,-6.84541e-10,-0.000540374,-2.16089e-24,2,-59,3.79537e-33,2,-56.0047,-2.99528,1.124
2.96936,2.96863,0.965792,0.964964,-0.0016729,-4.5636e-10,-0.000544115,-1.44059e-24,2,-59,1.68683e-33,2,-56.0047,-2.99528,1.128
2.96936,2.96863,0.96579,0.964964,-0.00168444,-3.0424e-10,-0.000547868,-9.60395e-25,2,-59,7.49703e-34,2,-56.0047,-2.99528,1.132
2.96935,2.96863,0.965788,0.964964,-0.00169601,-2.02827e-10,-0.000551633,-6.40263e-25,2,-59,3.33201e-34,2,-56.0047,-2.99528,1.136
2.96934,2.96863,0.965786,0.964964,-0.00170763,-1.35218e-10,-0.00055541,-4.26842e-25,2,-59,1.4809e-34,2,-56.0047,-2.99528,1.14
2.96933,2.96863,0.965784,0.964964,-0.00171928,-9.01453e-11,-0.000559199,-2.84561e-25,2,-59,6.58176e-35,2,-56.0047,-2.99528,1.144
2.96933,2.96863,0.965781,0.964964,-0.00173096,-6.00968e-11,-0.000563001,-1.89708e-25,2,-59,2.92523e-35,2,-56.0047,-2.99528,1.148
2.96932,2.96863,0.965779,0.964964,-0.00174269,-4.00646e-11,-0.000566814,-1.26472e-25,3,-59,1.3001e-35,3,-56.0047,-2.99528,1.152
2.96931,2.96863,0.965777,0.964964,-0.00175445,-2.67097e-11,-0.00057064,-8.43145e-26,3,-59,5.77822e-36,3,-56.0047,-2.99528,1.156
2.96931,2.96863,0.965775,0.964964,-0.00176625,-1.78065e-11,-0.000574477,-5.62097e-26,3,-59,2.5681e-36,3,-56.0047,-2.99528,1.16
2.9693,2.96863,0.965772,0.964964,-0.00177809,-1.1871e-11,-0.000578327,-3.74731e-26,3,-59,1.14138e-36,3,-56.0047,-2.99528,1.164
2.96929,2.96863,0.96577,0.964964,-0.00178996,-7.91399e-12,-0.000582189,-2.49821e-26,3,-59,5.07279e-37,3,-56.0047,-2.99528,1.168
2.96929,2.96863,0.965768,0.964964,-0.00180187,-5.27599e-12,-0.000586062,-1.66547e-26,3,-59,2.25457e-37,3,-56.0047,-2.99528,1.172
2.96928,2.96863,0.965765,0.964964,-0.00181381,-3.51733e-12,-0.000589948,-1.11031e-26,3,-59,1.00203e-37,3,-56.0047,-2.99528,1.176
2.96927,2.96863,0.965763,0.964964,-0.0018258,-2.34489e-12,-0.000593846,-7.4021e-27,3,-59,4.45348e-38,3,-56.0047,-2.99528,1.18
2.96926,2.96863,0.96576,0.964964,-0.00183782,-1.56326e-12,-0.000597755,-4.93473e-27,3,-58,1.97932e-38,3,-56.0047,-1.99528,1.184
2.96926,2.96863,0.965758,0.964964,-0.00184988,-1.04217e-12,-0.000601677,-3.28982e-27,3,-58,8.79699e-39,3,-56.0047,-1.99528,1.188
2.96925,2.96863,0.965756,0.964964,-0.00186197,-6.94781e-13,-0.000605611,-2.19321e-27,3,-58,3.90977e-39,3,-56.0047,-1.99528,1.192
2.96924,2.96863,0.965753,0.964964,-0.0018741,-4.63187e-13,-0.000609556,-1.46214e-27,3,-58,1.73768e-39,3,-56.0047,-1.99528,1.196
2.96923,2.96863,0.965751,0.964964,-0.00188627,-3.08791e-13,-0.000613514,-9.74762e-28,3,-58,7.72301e-40,3,-56.0047,-1.99528,1.2
2.96923,2.96863,0.965748,0.964964,-0.00189847,-2.05861e-13,-0.000617483,-6.49841e-28,3,-58,3.43245e-40,3,-56.0047,-1.99528,1.204
2.96922,2.96863,0.965746,0.964964,-0.00191072,-1.37241e-13,-0.000621465,-4.33227e-28,3,-58,1.52553e-40,3,-56.0047,-1.99528,1.208
2.96921,2.96863,0.965743,0.964964,-0.00192299,-9.14938e-14,-0.000625458,-2.88818e-28,4,-58,6.78015e-41,4,-56.0047,-1.99528,1.212
2.9692,2.96863,0.965741,0.964964,-0.00193531,-6.09958e-14,-0.000629464,-1.92546e-28,4,-58,3.0134e-41,4,-56.0047,-1.99528,1.216
2.9692,2.96863,0.965738,0.964964,-0.00194766,-4.06639e-14,-0.000633481,-1.28364e-28,4,-58,1.33929e-41,4,-56.0047,-1.99528,1.22
2.96919,2.96863,0.965736,0.964964,-0.00196005,-2.71093e-14,-0.00063751,-8.55758e-29,4,-58,5.95239e-42,4,-56.0047,-1.99528,1.224
2.96918,2.96863,0.965733,0.964964,-0.00197247,-1.80728e-14,-0.000641552,-5.70505e-29,4,-58,2.64551e-42,4,-56.0047,-1.99528,1.228
2.96917,2.96863,0.965731,0.964964,-0.00198493,-1.20486e-14,-0.000645605,-3.80337e-29,4,-58,1.17578e-42,4,-56.0047,-1.99528,1.232
2.96916,2.96863,0.965728,0.964964,-0.00199743,-8.03237e-15,-0.00064967,-2.53558e-29,4,-58,5.22569e-43,4,-56.0047,-1.99528,1.236
2.96916,2.96863,0.965725,0.964964,-0.00200997,-5.35492e-15,-0.000653746,-1.69039e-29,4,-58,2.32253e-43,4,-56.0047,-1.99528,1.24
2.96915,2.96863,0.965723,0.964964,-0.00202254,-3.56994e-15,-0.000657835,-1.12692e-29,4,-58,1.03224e-43,4,-56.0047,-1.99528,1.244
2.96914,2.96863,0.96572,0.964964,-0.00203514,-2.37996e-15,-0.000661936,-7.51283e-30,4,-57,4.58771e-44,4,-56.0047,-0.995282,1.248
2.96913,2.96863,0.965718,0.964964,-0.00204779,-1.58664e-15,-0.000666048,-5.00855e-30,4,-57,2.03898e-44,4,-56.0047,-0.995282,1.252
2.96912,2.96863,0.965715,0.964964,-0.00206047,-1.05776e-15,-0.000670173,-3.33903e-30,4,-57,9.06215e-45,4,-56.0047,-0.995282,1.256
2.96912,2.96863,0.965712,0.964964,-0.00207319,-7.05174e-16,-0.000674309,-2.22602e-30,4,-57,4.02762e-45,4,-56.0047,-0.995282,1.26
2.96911,2.96863,0.965709,0.964964,-0.00208594,-4.70116e-16,-0.000678457,-1.48402e-30,4,-57,1.79005e-45,4,-56.0047,-0.995282,1.264
2.9691,2.96863,0.965707,0.964964,-0.00209873,-3.13411e-16,-0.000682616,-9.89343e-31,4,-57,7.9558e-46,4,-56.0047,-0.995282,1.268
2.96909,2.96863,0.965704,0.964964,-0.00211155,-2.0894e-16,-0.000686788,-6.59562e-31,5,-57,3.53591e-46,5,-56.0047,-0.995282,1.272
2.96908,2.96863,0.965701,0.964964,-0.00212442,-2.87909e-05,-0.000690972,-4.39708e-31,5,-57,3.2482e-35,5,-56.0047,-0.995282,1.276
2.96907,2.96863,0.965698,0.964964,-0.00213731,-1.91939e-05,-0.000695167,-2.93139e-31,5,-57,1.44365e-35,5,-56.0047,-0.995282,1.28
2.96906,2.96863,0.965696,0.964964,-0.00215025,-1.2796e-05,-0.000699374,-1.95426e-31,5,-57,6.4162e-36,5,-56.0047,-0.995282,1.284
2.96906,2.96863,0.965693,0.964964,-0.00216322,-8.53064e-06,-0.000703593,-1.30284e-31,5,-57,2.85165e-36,5,-56.0047,-0.995282,1.288
2.96905,2.96863,0.96569,0.964964,-0.00217623,-5.6871e-06,-0.000707823,-8.68559e-32,5,-57,1.2674e-36,5,-56.0047,-0.995282,1.292
2.96904,2.96863,0.965687,0.964964,-0.00218927,-3.7914e-06,-0.000712066,-5.7904e-32,5,-57,5.63288e-37,5,-56.0047,-0.995282,1.296
2.96903,2.96863,0.965684,0.964964,-0.00220235,-2.5276e-06,-0.00071632,-3.86026e-32,5,-57,2.5035e-37,5,-56.0047,-0.995282,1.3
2.96902,2.96863,0.965681,0.964964,-0.00221547,-1.68507e-06,-0.000720586,-2.57351e-32,5,-56,1.11267e-37,5,-56.0047,0.00471752,1.304
2.96901,2.96863,0.965679,0.964964,-0.00222862,-1.12338e-06,-0.000724864,-1.71567e-32,5,-56,4.94519e-38,5,-56.0047,0.00471752,1.308
2.969,2.96863,0.965676,0.964964,-0.00224181,-7.48918e-07,-0.000729153,-1.14378e-32,5,-56,2.19786e-38,5,-56.0047,0.00471752,1.312
2.96899,2.96863,0.965673,0.964964,-0.00225503,-4.99279e-07,-0.000733454,-7.62521e-33,5,-56,9.76827e-39,5,-56.0047,0.00471752,1.316
2.96898,2.96863,0.96567,0.964964,-0.00226829,-3.32852e-07,-0.000737767,-5.08348e-33,5,-56,4.34146e-39,5,-56.0047,0.00471752,1.32
2.96898,2.96863,0.965667,0.964964,-0.00228159,-2.21902e-07,-0.000742092,-3.38898e-33,6,-56,1.92954e-39,6,-56.0047,0.00471752,1.324
2.96897,2.96863,0.965664,0.964964,-0.00229492,-1.47934e-07,-0.000746428,-2.25932e-33,6,-56,8.57571e-40,6,-56.0047,0.00471752,1.328
2.96896,2.96863,0.965661,0.964964,-0.00230829,-2.88895e-05,-0.000750776,-1.50621e-33,6,-56,1.11648e-37,6,-56.0047,0.00471752,1.332
2.96895,2.96863,0.965658,0.964964,-0.00232169,-1.92597e-05,-0.000755136,-1.00414e-33,6,-56,4.96213e-38,6,-56.0047,0.00471752,1.336
2.96894,2.96863,0.965655,0.964964,-0.00233513,-1.28398e-05,-0.000759507,-6.69429e-34,6,-56,2.20539e-38,6,-56.0047,0.00471752,1.34
2.96893,2.96863,0.965652,0.964964,-0.00234861,-8.55987e-06,-0.00076389,-4.46286e-34,6,-56,9.80174e-39,6,-56.0047,0.00471752,1.344
2.96892,2.96863,0.965649,0.964964,-0.00236212,-5.70658e-06,-0.000768285,-2.97524e-34,6,-56,4.35633e-39,6,-56.0047,0.00471752,1.348
2.96891,2.96863,0.965646,0.964964,-0.00237566,-3.80438e-06,-0.000772691,-1.98349e-34,6,-56,1.93615e-39,6,-56.0047,0.00471752,1.352
2.9689,2.96863,0.965643,0.964964,-0.00238925,-2.53626e-06,-0.000777109,-1.32233e-34,6,-55,8.60509e-40,6,-56.0047,1.00472,1.356
2.96889,2.96863,0.965639,0.964964,-0.00240287,-1.69084e-06,-0.000781539,-8.81552e-35,6,-55,3.82448e-40,6,-56.0047,1.00472,1.36
2.96888,2.96863,0.965636,0.964964,-0.00241652,-1.12723e-06,-0.00078598,-5.87702e-35,6,-55,1.69977e-40,6,-56.0047,1.00472,1.364
2.96887,2.96863,0.965633,0.964964,-0.00243021,-7.51483e-07,-0.000790433,-3.91801e-35,6,-55,7.55454e-41,6,-56.0047,1.00472,1.368
2.96886,2.96863,0.96563,0.964964,-0.00244394,-5.00989e-07,-0.000794897,-2.61201e-35,6,-55,3.35757e-41,6,-56.0047,1.00472,1.372
2.96885,2.96863,0.965627,0.964964,-0.0024577,-3.33993e-07,-0.000799374,-1.74134e-35,7,-55,1.49225e-41,7,-56.0047,1.00472,1.376
2.96884,2.96863,0.965624,0.964964,-0.0024715,-2.22662e-07,-0.000803861,-1.16089e-35,7,-55,6.63224e-42,7,-56.0047,1.00472,1.38
2.96883,2.96863,0.96562,0.964964,-0.00248533,-1.48441e-07,-0.000808361,-7.73928e-36,7,-55,2.94766e-42,7,-56.0047,1.00472,1.384
2.96882,2.96863,0.965617,0.964964,-0.0024992,-9.89608e-08,-0.000812872,-5.15952e-36,7,-55,1.31007e-42,7,-56.0047,1.00472,1.388
2.96881,2.96863,0.965614,0.964964,-0.00251311,-6.59739e-08,-0.000817394,-3.43968e-36,7,-55,5.82254e-43,7,-56.0047,1.00472,1.392
2.9688,2.96863,0.965611,0.964964,-0.00252705,-4.39826e-08,-0.000821928,-2.29312e-36,7,-55,2.5878e-43,7,-56.0047,1.00472,1.396
2.96879,2.96863,0.965607,0.964964,-0.00254102,-2.93217e-08,-0.000826474,-1.52875e-36,7,-55,1.15013e-43,7,-56.0047,1.00472,1.4
2.96878,2.96863,0.965604,0.964964,-0.00255503,-1.95478e-08,-0.000831031,-1.01916e-36,7,-55,5.1117e-44,7,-56.0047,1.00472,1.404
2.96877,2.96863,0.965601,0.964964,-0.00256908,-1.30319e-08,-0.0008356,-6.79443e-37,7,-54,2.27187e-44,7,-56.0047,2.00472,1.408
2.96876,2.96863,0.965597,0.964964,-0.00258316,-8.68791e-09,-0.00084018,-4.52962e-37,7,-54,1.00972e-44,7,-56.0047,2.00472,1.412
2.96875,2.96863,0.965594,0.964964,-0.00259728,-2.87967e-05,-0.000844772,-3.01975e-37,7,-54,2.23119e-41,7,-56.0047,2.00472,1.416
2.96874,2.96863,0.965591,0.964964,-0.00261143,-1.91978e-05,-0.000849375,-2.01316e-37,7,-54,9.91639e-42,7,-56.0047,2.00472,1.42
2.96873,2.96863,0.965587,0.964964,-0.00262562,-1.27985e-05,-0.00085399,-2.87909e-05,7,-54,9.45451e-10,7,-56.0047,2.00475,1.424
2.96872,2.96863,0.965584,0.964964,-0.00263985,-8.53236e-06,-0.000858616,9.59697e-06,8,-54,-2.101e-10,8,-56.0047,2.00472,1.428
2.96871,2.96863,0.96558,0.964964,-0.0026541,-5.68824e-06,-0.000863254,6.39798e-06,8,-54,-9.33778e-11,8,-56.0047,2.00472,1.432
2.9687,2.96863,0.965577,0.964964,-0.0026684,-3.79216e-06,-0.000867904,4.26532e-06,8,-54,-4.15013e-11,8,-56.0047,2.00472,1.436
2.96869,2.96863,0.965573,0.964964,-0.00268273,-2.52811e-06,-0.000872564,2.84355e-06,8,-54,-1.8445e-11,8,-56.0047,2.00472,1.44
2.96868,2.96863,0.96557,0.964964,-0.00269709,-1.6854e-06,-0.000877237,1.8957e-06,8,-54,-8.19778e-12,8,-56.0047,2.00472,1.444
2.96867,2.96863,0.965566,0.964964,-0.00271149,-1.1236e-06,-0.00088192,1.2638e-06,8,-54,-3.64346e-12,8,-56.0047,2.00472,1.448
2.96866,2.96863,0.965563,0.964964,-0.00272593,-7.49069e-07,-0.000886616,8.42533e-07,8,-54,-1.61931e-12,8,-56.0047,2.00472,1.452
2.96864,2.96863,0.965559,0.964964,-0.0027404,-4.99379e-07,-0.000891322,5.61689e-07,8,-53,-7.19695e-13,8,-56.0047,3.00472,1.456
2.96863,2.96863,0.965556,0.964964,-0.00275491,-3.32919e-07,-0.00089604,-2.84165e-05,8,-54,2.42735e-11,8,-56.0047,2.00475,1.46
2.96862,2.96863,0.965552,0.964964,-0.00276945,-2.21946e-07,-0.00090077,9.84661e-06,8,-53,-5.60735e-12,8,-56.0047,3.00472,1.464
2.96861,2.96863,0.965548,0.964964,-0.00278402,-1.47964e-07,-0.000905511,6.56441e-06,8,-53,-2.49216e-12,8,-56.0047,3.00472,1.468
2.9686,2.96863,0.965545,0.964964,-0.00279864,-9.86428e-08,-0.000910263,4.37627e-06,9,-53,-1.10762e-12,9,-56.0047,3.00472,1.472
2.96859,2.96863,0.965541,0.964964,-0.00281328,-2.88567e-05,-0.000915027,2.91752e-06,9,-53,-2.16014e-10,9,-56.0047,3.00472,1.476
2.96858,2.96863,0.965537,0.964964,-0.00282796,9.55313e-06,-0.000919802,1.94501e-06,9,-53,4.7675e-11,9,-56.0047,3.00472,1.48
2.96857,2.96863,0.965534,0.964964,-0.00284268,6.36876e-06,-0.000924589,1.29667e-06,9,-53,2.11889e-11,9,-56.0047,3.00472,1.484
2.96856,2.96863,0.96553,0.964964,-0.00285743,4.24584e-06,-0.000929387,8.64449e-07,9,-53,9.41728e-12,9,-56.0047,3.00472,1.488
2.96854,2.96863,0.965526,0.964964,-0.00287222,2.83056e-06,-0.000934196,5.76299e-07,9,-53,4.18546e-12,9,-56.0047,3.00472,1.492
2.96853,2.96863,0.965523,0.964964,-0.00288704,1.88704e-06,-0.000939017,3.842e-07,9,-53,1.8602e-12,9,-56.0047,3.00472,1.496
2.96852,2.96863,0.965519,0.964964,-0.0029019,1.25803e-06,-0.000943849,2.56133e-07,9,-53,8.26757e-13,9,-56.0047,3.00472,1.5
2.96851,2.96863,0.965515,0.964964,-0.00291679,8.38684e-07,-0.000948692,1.70755e-07,9,-52,3.67448e-13,9,-56.0047,4.00472,1.504
2.9685,2.96863,0.965511,0.964964,-0.00293171,5.59123e-07,-0.000953547,1.13837e-07,9,-52,1.6331e-13,9,-56.0047,4.00472,1.508
2.96849,2.96863,0.965507,0.964964,-0.00294667,3.72748e-07,-0.000958413,7.58913e-08,9,-52,7.25822e-14,9,-56.0047,4.00472,1.512
2.96847,2.96863,0.965504,0.964964,-0.00296167,2.48499e-07,-0.00096329,5.05942e-08,10,-52,3.22588e-14,10,-56.0047,4.00472,1.516
2.96846,2.96863,0.9655,0.964964,-0.0029767,1.65666e-07,-0.000968179,3.37295e-08,10,-52,1.43372e-14,10,-56.0047,4.00472,1.52
2.96845,2.96863,0.965496,0.964964,-0.00299177,1.10444e-07,-0.000973079,2.24863e-08,10,-52,6.3721e-15,10,-56.0047,4.00472,1.524
2.96844,2.96863,0.965492,0.964964,-0.00300687,7.36293e-08,-0.000977991,1.49909e-08,10,-52,2.83205e-15,10,-56.0047,4.00472,1.528
2.96843,2.96863,0.965488,0.964964,-0.003022,4.90862e-08,-0.000982913,9.99391e-09,10,-52,1.25869e-15,10,-56.0047,4.00472,1.532
2.96841,2.96863,0.965484,0.964964,-0.00303717,-5.75491e-05,-0.000987847,6.66261e-09,10,-52,-9.83798e-13,10,-56.0047,4.00472,1.536
2.9684,2.96863,0.96548,0.964964,-0.00305237,1.92158e-05,-0.000992792,4.44174e-09,10,-52,2.18995e-13,10,-56.0047,4.00472,1.54
2.96839,2.96863,0.965476,0.964964,-0.00306761,1.28105e-05,-0.000997749,2.96116e-09,10,-52,9.7331e-14,10,-56.0047,4.00472,1.544
2.96838,2.96863,0.965472,0.964964,-0.00308289,8.54034e-06,-0.00100272,1.97411e-09,10,-51,4.32582e-14,10,-56.0047,5.00472,1.548
2.96836,2.96863,0.965468,0.964964,-0.00309819,5.69356e-06,-0.0010077,1.31607e-09,10,-51,1.92259e-14,10,-56.0047,5.00472,1.552
2.96835,2.96863,0.965464,0.964964,-0.00311354,3.79571e-06,-0.00101269,-2.879e-05,10,-52,-2.80387e-10,10,-56.0047,4.00475,1.556
2.96834,2.96863,0.96546,0.964964,-0.00312891,-5.50514e-05,-0.00101769,-1.91934e-05,10,-51,2.71108e-09,10,-56.0047,5.00475,1.56
2.96833,2.96863,0.965456,0.964964,-0.00314433,4.96719e-05,-0.0010227,1.59953e-05,11,-51,2.03858e-09,11,-56.0047,5.00472,1.564
2.96831,2.96863,0.965452,0.964964,-0.00315977,-2.44673e-05,-0.00102772,1.06636e-05,11,-51,-6.69439e-10,11,-56.0047,5.00472,1.568
2.9683,2.96863,0.965448,0.964964,-0.00317525,-1.63115e-05,-0.00103276,7.10904e-06,11,-51,-2.97528e-10,11,-56.0047,5.00472,1.572
2.96829,2.96863,0.965444,0.964964,-0.00319077,-1.08743e-05,-0.00103781,4.73936e-06,11,-51,-1.32235e-10,11,-56.0047,5.00472,1.576
2.96828,2.96863,0.965439,0.964964,-0.00320632,-7.24956e-06,-0.00104286,3.15957e-06,11,-51,-5.8771e-11,11,-56.0047,5.00472,1.58
2.96826,2.96863,0.965435,0.964964,-0.0032219,-4.83304e-06,-0.00104793,2.10638e-06,11,-51,-2.61205e-11,11,-56.0047,5.00472,1.584
2.96825,2.96863,0.965431,0.964964,-0.00323752,-3.22203e-06,-0.00105301,1.40426e-06,11,-51,-1.16091e-11,11,-56.0047,5.00472,1.588
2.96824,2.96863,0.965427,0.964964,-0.00325317,-2.14802e-06,-0.0010581,-2.78548e-05,11,-51,1.53518e-10,11,-56.0047,5.00475,1.592
2.96822,2.96863,0.965423,0.964964,-0.00326886,-1.43201e-06,-0.00106321,-1.85698e-05,11,-51,6.82304e-11,11,-56.0047,5.00475,1.596
2.96821,2.96863,0.965418,0.964964,-0.00328458,-9.54675e-07,-0.00106832,1.6411e-05,11,-50,-4.01989e-11,11,-56.0047,6.00472,1.6
2.9682,2.96863,0.965414,0.964964,-0.00330034,-6.3645e-07,-0.00107344,1.09407e-05,12,-50,-1.78662e-11,12,-56.0047,6.00472,1.604
2.96819,2.96863,0.96541,0.964964,-0.00331613,-4.243e-07,-0.00107858,7.29379e-06,12,-50,-7.94053e-12,12,-56.0047,6.00472,1.608
2.96817,2.96863,0.965405,0.964964,-0.00333195,-5.78647e-05,-0.00108373,4.86253e-06,12,-50,-7.21936e-10,12,-56.0047,6.00472,1.612
2.96816,2.96863,0.965401,0.964964,-0.00334781,-9.78555e-06,-0.00108888,3.24169e-06,12,-50,-8.13915e-11,12,-56.0047,6.00472,1.616
2.96814,2.96863,0.965397,0.964964,-0.0033637,5.10581e-05,-0.00109405,-2.66298e-05,12,-50,-3.48864e-09,12,-56.0047,6.00475,1.62
2.96813,2.96863,0.965392,0.964964,-0.00337963,-2.35431e-05,-0.00109923,1.10377e-05,12,-50,-6.66754e-10,12,-56.0047,6.00472,1.624
2.96812,2.96863,0.965388,0.964964,-0.00339559,-1.56954e-05,-0.00110442,7.35848e-06,12,-49,-2.96335e-10,12,-56.0047,7.00472,1.628
2.9681,2.96863,0.965383,0.964964,-0.00341159,-1.04636e-05,-0.00110963,-2.38853e-05,12,-50,6.4126e-10,12,-56.0047,6.00475,1.632
2.96809,2.96863,0.965379,0.964964,-0.00342762,-6.97573e-06,-0.00111484,1.28674e-05,12,-49,-2.30305e-10,12,-56.0047,7.00472,1.636
2.96808,2.96863,0.965374,0.964964,-0.00344368,-4.65049e-06,-0.00112007,-2.02127e-05,12,-49,2.41182e-10,12,-56.0047,7.00475,1.64
2.96806,2.96863,0.96537,0.964964,-0.00345978,-3.10032e-06,-0.0011253,1.53158e-05,13,-49,-1.21834e-10,13,-56.0047,7.00472,1.644
2.96805,2.96863,0.965365,0.964964,-0.00347591,-2.06688e-06,-0.00113055,1.02105e-05,13,-49,-5.41487e-11,13,-56.0047,7.00472,1.648
2.96804,2.96863,0.965361,0.964964,-0.00349207,-1.37792e-06,-0.00113581,-2.19839e-05,13,-49,7.77234e-11,13,-56.0047,7.00475,1.652
2.96802,2.96863,0.965356,0.964964,-0.00350827,-9.18614e-07,-0.00114107,-1.46559e-05,13,-49,3.45438e-11,13,-56.0047,7.00475,1.656
2.96801,2.96863,0.965352,0.964964,-0.00352451,-6.1241e-07,-0.00114635,-9.77062e-06,13,-49,1.53528e-11,13,-56.0047,7.00475,1.66
2.96799,2.96863,0.965347,0.964964,-0.00354077,-4.08273e-07,-0.00115165,2.22772e-05,13,-48,-2.33364e-11,13,-56.0047,8.00472,1.664
2.96798,2.96863,0.965343,0.964965,-0.00355707,-5.7854e-05,-0.00115695,4.36424e-05,13,-48,-6.47835e-09,13,-56.0047,8.00469,1.668
2.96796,2.96863,0.965338,0.964964,-0.00357341,-9.77843e-06,-0.00116226,3.03994e-07,13,-48,-7.62705e-12,13,-56.0047,8.00472,1.672
2.96795,2.96863,0.965333,0.964964,-0.00358978,-6.51895e-06,-0.00116758,-5.73792e-05,13,-49,9.59744e-10,13,-56.0048,7.00477,1.676
2.96794,2.96863,0.965329,0.964964,-0.00360618,-4.34597e-06,-0.00117292,-3.82528e-05,14,-49,4.26553e-10,14,-56.0048,7.00477,1.68
2.96792,2.96863,0.965324,0.964965,-0.00362262,-2.89731e-06,-0.00117826,6.08709e-05,14,-48,-4.5251e-10,14,-56.0047,8.00469,1.684
2.96791,2.96863,0.965319,0.964964,-0.00363909,-1.93154e-06,-0.00118362,-1.70012e-05,14,-48,8.42573e-11,14,-56.0047,8.00475,1.688
2.96789,2.96863,0.965314,0.964964,-0.00365559,-1.28769e-06,-0.00118899,-4.01251e-05,14,-48,1.32572e-10,14,-56.0048,8.00477,1.692
2.96788,2.96863,0.96531,0.964964,-0.00367213,-8.58463e-07,-0.00119437,-2.67501e-05,14,-48,5.89209e-11,14,-56.0048,8.00477,1.696
2.96786,2.96863,0.965305,0.964965,-0.0036887,-5.72309e-07,-0.00119976,6.85394e-05,14,-47,-1.00645e-10,14,-56.0047,9.00469,1.7
2.96785,2.96863,0.9653,0.964965,-0.0037053,-3.81539e-07,-0.00120516,4.56929e-05,14,-47,-4.47312e-11,14,-56.0047,9.00469,1.704
2.96783,2.96863,0.965295,0.964964,-0.00372194,-2.54359e-07,-0.00121057,-2.71199e-05,14,-48,1.76994e-11,14,-56.0047,8.00475,1.708
2.96782,2.96863,0.96529,0.964964,-0.00373861,-1.69573e-07,-0.00121599,-1.80799e-05,14,-48,7.8664e-12,14,-56.0047,8.00475,1.712
2.9678,2.96863,0.965286,0.964964,-0.00375532,-1.13049e-07,-0.00122143,-1.20533e-05,14,-47,3.49618e-12,14,-56.0047,9.00475,1.716
2.96779,2.96863,0.965281,0.964965,-0.00377206,-7.53657e-08,-0.00122687,4.95463e-05,15,-47,-9.58094e-12,15,-56.0047,9.00469,1.72
2.96777,2.96863,0.965276,0.964964,-0.00378883,-5.02438e-08,-0.00123233,-5.33419e-05,15,-48,6.87661e-12,15,-56.0048,8.00477,1.724
2.96776,2.96863,0.965271,0.964964,-0.00380564,2.87574e-05,-0.00123779,-6.77034e-06,15,-47,-4.99555e-10,15,-56.0047,9.00475,1.728
2.96774,2.96863,0.965266,0.964965,-0.00382248,-3.84102e-05,-0.00124327,5.30683e-05,15,-46,-5.23004e-09,15,-56.0047,10.0047,1.732
2.96773,2.96863,0.965261,0.964964,-0.00383935,-2.56068e-05,-0.00124876,-2.2203e-05,15,-47,1.45878e-09,15,-56.0047,9.00475,1.736
2.96771,2.96863,0.965256,0.964964,-0.00385626,-7.46531e-05,-0.00125426,-1.4802e-05,15,-47,2.83525e-09,15,-56.0047,9.00475,1.74
2.9677,2.96863,0.965251,0.964964,-0.0038732,-2.09778e-05,-0.00125977,-3.86589e-05,15,-47,2.08081e-09,15,-56.0048,9.00477,1.744
2.96768,2.96863,0.965246,0.964964,-0.00389017,-1.39852e-05,-0.00126529,3.01831e-06,15,-46,-1.08307e-10,15,-56.0047,10.0047,1.748
2.96767,2.96863,0.965241,0.964964,-0.00390718,-9.32346e-06,-0.00127082,2.01221e-06,15,-46,-4.81363e-11,15,-56.0047,10.0047,1.752
2.96765,2.96863,0.965236,0.964965,-0.00392422,-6.21564e-06,-0.00127636,5.89233e-05,16,-46,-9.39714e-10,16,-56.0047,10.0047,1.756
2.96763,2.96863,0.96523,0.964964,-0.00394129,-4.14376e-06,-0.00128192,-1.82996e-05,16,-46,1.94563e-10,16,-56.0047,10.0047,1.76
2.96762,2.96863,0.965225,0.964964,-0.0039584,-2.76251e-06,-0.00128748,-1.21998e-05,16,-46,8.64724e-11,16,-56.0047,10.0047,1.764
2.9676,2.96863,0.96522,0.964964,-0.00397554,-1.84167e-06,-0.00129305,-3.69241e-05,16,-46,1.7448e-10,16,-56.0048,10.0048,1.768
2.96759,2.96863,0.965215,0.964964,-0.00399272,-1.22778e-06,-0.00129864,4.17486e-06,16,-46,-1.31518e-11,16,-56.0047,10.0047,1.772
2.96757,2.96863,0.96521,0.964964,-0.00400992,-8.1852e-07,-0.00130424,2.78324e-06,16,-46,-5.84525e-12,16,-56.0047,10.0047,1.776
2.96755,2.96863,0.965205,0.964964,-0.00402716,-5.4568e-07,-0.00130984,-2.69354e-05,16,-46,3.77125e-11,16,-56.0048,10.0048,1.78
2.96754,2.96863,0.965199,0.964964,-0.00404444,-2.91547e-05,-0.00131546,1.0834e-05,16,-45,-8.10437e-10,16,-56.0047,11.0047,1.784
2.96752,2.96863,0.965194,0.964964,-0.00406174,9.35445e-06,-0.00132109,7.22265e-06,17,-45,1.73355e-10,17,-56.0047,11.0047,1.788
2.96751,2.96863,0.965189,0.964964,-0.00407908,6.2363e-06,-0.00132673,4.8151e-06,17,-45,7.70469e-11,17,-56.0047,11.0047,1.792
2.96749,2.96863,0.965183,0.964964,-0.00409645,-2.46334e-05,-0.00133238,3.21007e-06,17,-45,-2.0289e-10,17,-56.0047,11.0047,1.796
2.96747,2.96863,0.965178,0.964964,-0.00411386,-1.64223e-05,-0.00133804,2.14004e-06,17,-45,-9.01734e-11,17,-56.0047,11.0047,1.8
2.96746,2.96863,0.965173,0.964964,-0.0041313,-1.09482e-05,-0.00134372,1.4267e-06,17,-45,-4.00771e-11,17,-56.0047,11.0047,1.804
2.96744,2.96863,0.965167,0.964964,-0.00414877,-3.60897e-05,-0.0013494,9.5113e-07,17,-45,-8.80737e-11,17,-56.0047,11.0047,1.808
2.96742,2.96863,0.965162,0.964964,-0.00416628,-2.40598e-05,-0.00135509,6.34087e-07,17,-45,-3.91439e-11,17,-56.0047,11.0047,1.812
2.96741,2.96863,0.965156,0.964964,-0.00418381,-1.60399e-05,-0.0013608,4.22725e-07,17,-45,-1.73973e-11,17,-56.0047,11.0047,1.816
2.96739,2.96863,0.965151,0.964965,-0.00420138,-1.06932e-05,-0.00136651,5.78637e-05,17,-44,-1.58759e-09,17,-56.0047,12.0047,1.82
2.96737,2.96863,0.965146,0.964964,-0.00421899,-7.12883e-06,-0.00137224,-1.90061e-05,18,-45,3.47643e-10,18,-56.0047,11.0047,1.824
2.96736,2.96863,0.96514,0.964964,-0.00423662,-4.75255e-06,-0.00137797,-1.26707e-05,18,-44,1.54508e-10,18,-56.0047,12.0047,1.828
2.96734,2.96863,0.965135,0.964964,-0.00425429,-3.16837e-06,-0.00138372,-8.44714e-06,18,-44,6.86702e-11,18,-56.0047,12.0047,1.832
2.96732,2.96863,0.965129,0.964964,-0.004272,-2.11225e-06,-0.00138948,-5.63143e-06,18,-44,3.05201e-11,18,-56.0047,12.0047,1.836
2.9673,2.96863,0.965123,0.964965,-0.00428973,-1.40816e-06,-0.00139525,5.38276e-05,18,-43,-1.94483e-10,18,-56.0047,13.0047,1.84
2.96729,2.96863,0.965118,0.964964,-0.0043075,-9.38776e-07,-0.00140103,-2.16968e-05,18,-44,5.22614e-11,18,-56.0047,12.0047,1.844
2.96727,2.96863,0.965112,0.964964,-0.0043253,-6.25851e-07,-0.00140681,-1.44645e-05,18,-44,2.32273e-11,18,-56.0047,12.0047,1.848
2.96725,2.96863,0.965107,0.964964,-0.00434313,-4.17234e-07,-0.00141262,-9.64303e-06,18,-44,1.03232e-11,18,-56.0047,12.0047,1.852
2.96724,2.96863,0.965101,0.964964,-0.004361,-2.90691e-05,-0.00141843,-6.42868e-06,18,-43,4.79486e-10,18,-56.0047,13.0047,1.856
2.96722,2.96863,0.965095,0.964964,-0.0043789,-1.93794e-05,-0.00142425,-4.28579e-06,19,-43,2.13105e-10,19,-56.0047,13.0047,1.86
2.9672,2.96863,0.96509,0.964964,-0.00439683,-1.29196e-05,-0.00143008,-2.85719e-06,19,-43,9.47134e-11,19,-56.0047,13.0047,1.864
2.96718,2.96863,0.965084,0.964964,-0.0044148,-8.61306e-06,-0.00143592,-1.9048e-06,19,-43,4.20948e-11,19,-56.0047,13.0047,1.868
2.96717,2.96863,0.965078,0.964964,-0.00443279,-3.4533e-05,-0.00144178,-1.26986e-06,19,-43,1.12516e-10,19,-56.0047,13.0047,1.872
2.96715,2.96863,0.965072,0.964964,-0.00445082,-2.3022e-05,-0.00144764,-8.46576e-07,19,-43,5.00071e-11,19,-56.0047,13.0047,1.876
2.96713,2.96863,0.965066,0.964964,-0.00446889,-1.5348e-05,-0.00145352,-5.64384e-07,19,-43,2.22254e-11,19,-56.0047,13.0047,1.88
2.96711,2.96863,0.965061,0.964964,-0.00448698,-1.0232e-05,-0.0014594,-3.76256e-07,19,-43,9.87794e-12,19,-56.0047,13.0047,1.884
2.96709,2.96863,0.965055,0.964964,-0.00450511,-6.44032e-05,-0.0014653,-2.50837e-07,19,-42,4.14498e-11,19,-56.0047,14.0047,1.888
2.96708,2.96863,0.965049,0.964964,-0.00452327,-1.41445e-05,-0.0014712,-1.67225e-07,20,-42,6.06893e-12,20,-56.0047,14.0047,1.892
2.96706,2.96863,0.965043,0.964964,-0.00454146,-9.42968e-06,-0.00147712,-1.11483e-07,20,-42,2.6973e-12,20,-56.0047,14.0047,1.896
2.96704,2.96863,0.965037,0.964964,-0.00455969,-6.28646e-06,-0.00148305,-7.43221e-08,20,-42,1.1988e-12,20,-56.0047,14.0047,1.9
2.96702,2.96863,0.965031,0.964964,-0.00457794,-4.19097e-06,-0.00148899,-4.95481e-08,20,-42,5.328e-13,20,-56.0047,14.0047,1.904
2.967,2.96863,0.965025,0.964964,-0.00459623,-3.15849e-05,-0.00149494,-3.30321e-08,20,-42,2.67694e-12,20,-56.0047,14.0047,1.908
2.96698,2.96863,0.965019,0.964964,-0.00461456,-2.10566e-05,-0.0015009,-2.20214e-08,20,-42,1.18975e-12,20,-56.0047,14.0047,1.912
2.96697,2.96863,0.965013,0.964964,-0.00463291,-1.40377e-05,-0.00150687,-1.46809e-08,20,-42,5.28778e-13,20,-56.0047,14.0047,1.916
2.96695,2.96862,0.965007,0.964964,-0.0046513,-6.69403e-05,-0.00151285,-9.78728e-09,20,-41,1.68102e-12,20,-56.0047,15.0047,1.92
2.96693,2.96863,0.965001,0.964964,-0.00466972,1.2955e-05,-0.00151884,-6.52485e-09,21,-41,-2.16885e-13,21,-56.0047,15.0047,1.924
2.96691,2.96862,0.964995,0.964964,-0.00468817,-2.01543e-05,-0.00152484,-4.3499e-09,21,-41,2.24942e-13,21,-56.0047,15.0047,1.928
2.96689,2.96862,0.964989,0.964964,-0.00470665,-1.34362e-05,-0.00153085,-2.89993e-09,21,-41,9.9974e-14,21,-56.0047,15.0047,1.932
2.96687,2.96862,0.964983,0.964964,-0.00472517,-8.95746e-06,-0.00153687,-1.93329e-09,21,-41,4.44329e-14,21,-56.0047,15.0047,1.936
2.96685,2.96862,0.964977,0.964964,-0.00474372,-6.35535e-05,-0.00154291,-1.28886e-09,21,-41,2.10169e-13,21,-56.0047,15.0047,1.94
2.96683,2.96862,0.96497,0.964964,-0.0047623,-1.35781e-05,-0.00154895,-8.5924e-10,21,-41,2.99347e-14,21,-56.0047,15.0047,1.944
2.96682,2.96862,0.964964,0.964964,-0.00478091,-9.05205e-06,-0.001555,-5.72826e-10,21,-41,1.33043e-14,21,-56.0047,15.0047,1.948
2.9668,2.96862,0.964958,0.964964,-0.00479956,-6.0347e-06,-0.00156107,-3.81884e-10,21,-40,5.91303e-15,21,-56.0047,16.0047,1.952
2.96678,2.96862,0.964952,0.964964,-0.00481823,-4.02313e-06,-0.00156714,-2.5459e-10,22,-40,2.62801e-15,22,-56.0047,16.0047,1.956
2.96676,2.96862,0.964945,0.964964,-0.00483694,-2.68209e-06,-0.00157323,-1.69726e-10,22,-40,1.16801e-15,22,-56.0047,16.0047,1.96
2.96674,2.96862,0.964939,0.964964,-0.00485568,-1.78806e-06,-0.00157932,-1.13151e-10,22,-40,5.19114e-16,22,-56.0047,16.0047,1.964
2.96672,2.96862,0.964933,0.964964,-0.00487446,-5.87739e-05,-0.00158543,-7.54339e-11,22,-40,1.13756e-14,22,-56.0047,16.0047,1.968
2.9667,2.96862,0.964926,0.964964,-0.00489326,-1.03917e-05,-0.00159155,-5.02893e-11,22,-40,1.34086e-15,22,-56.0047,16.0047,1.972
2.96668,2.96862,0.96492,0.964964,-0.0049121,-6.92778e-06,-0.00159767,-3.35262e-11,22,-40,5.95938e-16,22,-56.0047,16.0047,1.976
2.96666,2.96862,0.964914,0.964964,-0.00493097,-4.61852e-06,-0.00160381,-2.23508e-11,22,-40,2.64861e-16,22,-56.0047,16.0047,1.98
2.96664,2.96862,0.964907,0.964964,-0.00494987,-3.07901e-06,-0.00160996,-1.49005e-11,23,-39,1.17716e-16,23,-56.0047,17.0047,1.984
2.96662,2.96862,0.964901,0.964964,-0.0049688,-5.96345e-05,-0.00161612,-9.93369e-12,22,-39,1.51996e-15,22,-56.0047,17.0047,1.988
2.9666,2.96862,0.964894,0.964964,-0.00498777,-3.97563e-05,-0.00162228,-6.62246e-12,23,-39,6.75536e-16,23,-56.0047,17.0047,1.992
2.96658,2.96862,0.964888,0.964964,-0.00500677,2.28669e-06,-0.00162846,-4.41497e-12,23,-39,-2.59035e-17,23,-56.0047,17.0047,1.996
2.96656,2.96862,0.964881,0.964964,-0.0050258,-2.72665e-05,-0.00163465,2.87909e-05,23,-39,-2.01422e-09,23,-56.0047,17.0047,2
2.96654,2.96862,0.964875,0.964964,-0.00504486,-7.57595e-05,-0.00164085,-9.59698e-06,23,-39,1.8655e-09,23,-56.0047,17.0047,2.004
2.96652,2.96862,0.964868,0.964964,-0.00506395,-5.05063e-05,-0.00164706,-6.39798e-06,23,-39,8.2911e-10,23,-56.0047,17.0047,2.008
2.9665,2.96862,0.964862,0.964964,-0.00508308,-6.24618e-05,-0.00165328,-4.26532e-06,23,-39,6.8358e-10,23,-56.0047,17.0047,2.012
2.96648,2.96862,0.964855,0.964963,-0.00510223,-7.04321e-05,-0.00165951,-6.04254e-05,23,-39,1.09198e-08,23,-56.0048,17.0048,2.016
2.96646,2.96862,0.964848,0.964964,-0.00512142,-4.69548e-05,-0.00166575,4.60892e-05,24,-38,-5.55266e-09,24,-56.0047,18.0047,2.02
2.96644,2.96862,0.964842,0.964964,-0.00514064,-6.00941e-05,-0.00167201,-2.68557e-05,24,-38,4.14087e-09,24,-56.0048,18.0048,2.024
2.96642,2.96862,0.964835,0.964964,-0.00515989,-4.00627e-05,-0.00167827,-1.79038e-05,24,-38,1.84039e-09,24,-56.0048,18.0048,2.028
2.9664,2.96862,0.964828,0.964964,-0.00517918,-5.54994e-05,-0.00168454,-1.19359e-05,24,-38,1.69968e-09,24,-56.0048,18.0048,2.032
2.96638,2.96862,0.964821,0.964963,-0.00519849,-3.69996e-05,-0.00169082,-3.67482e-05,24,-38,3.48864e-09,24,-56.0048,18.0048,2.036
2.96636,2.96862,0.964815,0.964964,-0.00521784,-5.34573e-05,-0.00169711,4.29214e-06,24,-38,-5.88714e-10,24,-56.0048,18.0048,2.04
2.96633,2.96862,0.964808,0.964964,-0.00523722,-6.44291e-05,-0.00170342,2.86143e-06,24,-37,-4.73029e-10,24,-56.0048,19.0048,2.044
2.96631,2.96862,0.964801,0.964964,-0.00525662,-7.17437e-05,-0.00170973,1.90762e-06,24,-37,-3.51154e-10,24,-56.0048,19.0048,2.048
2.96629,2.96862,0.964794,0.964964,-0.00527607,-1.90382e-05,-0.00171605,1.27174e-06,25,-37,-6.21225e-11,25,-56.0048,19.0048,2.052
2.96627,2.96862,0.964787,0.964964,-0.00529554,-7.0274e-05,-0.00172239,8.4783e-07,25,-37,-1.52871e-10,25,-56.0048,19.0048,2.056
2.96625,2.96862,0.96478,0.964964,-0.00531504,-7.56402e-05,-0.00172873,5.6522e-07,25,-37,-1.09697e-10,25,-56.0048,19.0048,2.06
2.96623,2.96862,0.964773,0.964964,-0.00533458,-0.000108009,-0.00173509,3.76813e-07,25,-37,-1.04426e-10,25,-56.0048,19.0048,2.064
2.96621,2.96862,0.964766,0.964964,-0.00535415,-0.000100797,-0.00174145,2.51209e-07,25,-37,-6.49687e-11,25,-56.0048,19.0048,2.068
2.96619,2.96862,0.96476,0.964964,-0.00537375,-0.000153571,-0.00174782,1.67473e-07,25,-36,-6.59895e-11,25,-56.0048,20.0048,2.072
2.96616,2.96862,0.964752,0.964964,-0.00539338,-0.000188753,-0.00175421,1.11648e-07,25,-36,-5.40717e-11,25,-56.0048,20.0048,2.076
2.96614,2.96861,0.964745,0.964964,-0.00541304,-0.00026979,-0.0017606,7.44323e-08,25,-36,-5.15241e-11,25,-56.0048,20.0048,2.08
2.96612,2.96861,0.964738,0.964964,-0.00543273,-0.000266233,-0.00176701,4.96215e-08,25,-36,-3.38965e-11,25,-56.0048,20.0048,2.084
2.9661,2.96861,0.964731,0.964964,-0.00545246,-0.000292652,-0.00177342,3.3081e-08,25,-36,-2.48401e-11,25,-56.0048,20.0048,2.088
2.96608,2.96861,0.964724,0.964964,-0.00547221,-0.000339056,-0.00177985,2.2054e-08,25,-36,-1.91859e-11,25,-56.0048,20.0048,2.092
2.96606,2.96861,0.964717,0.964964,-0.005492,-0.000398783,-0.00178629,1.47027e-08,25,-36,-1.50437e-11,25,-56.0048,20.0048,2.096
2.96603,2.96861,0.96471,0.964964,-0.00551182,-0.000381019,-0.00179273,9.80178e-09,25,-36,-9.58241e-12,25,-56.0048,20.0048,2.1
2.96601,2.96861,0.964703,0.964964,-0.00553167,-0.000426758,-0.00179919,6.53452e-09,25,-35,-7.15515e-12,25,-56.0048,21.0048,2.104
2.96599,2.9686,0.964696,0.964964,-0.00555155,-0.00042846,-0.00180565,4.35635e-09,25,-35,-4.78912e-12,25,-56.0048,21.0048,2.108
2.96597,2.9686,0.964688,0.964964,-0.00557146,-0.000429595,-0.00181213,2.90423e-09,26,-35,-3.2012e-12,26,-56.0048,21.0048,2.112
2.96594,2.9686,0.964681,0.964964,-0.0055914,-0.000487933,-0.00181862,1.93615e-09,25,-35,-2.42395e-12,25,-56.0048,21.0048,2.116
2.96592,2.9686,0.964674,0.964964,-0.00561138,-0.000526825,-0.00182511,1.29077e-09,25,-35,-1.74477e-12,25,-56.0048,21.0048,2.12
2.9659,2.96859,0.964666,0.964964,-0.00563138,-0.000552753,-0.00183162,8.60513e-10,26,-35,-1.22043e-12,26,-56.0048,21.0048,2.124
2.96588,2.96859,0.964659,0.964964,-0.00565142,-0.000685202,-0.00183814,5.73675e-10,25,-35,-1.00857e-12,25,-56.0048,21.0048,2.128
2.96585,2.96859,0.964652,0.964964,-0.00567149,-0.000744711,-0.00184467,3.8245e-10,25,-34,-7.30778e-13,25,-56.0048,22.0048,2.132
2.96583,2.96858,0.964644,0.964964,-0.00569159,-0.000841965,-0.0018512,2.54967e-10,25,-34,-5.50808e-13,25,-56.0048,22.0048,2.136
2.96581,2.96858,0.964637,0.964964,-0.00571171,-0.000906801,-0.00185775,1.69978e-10,25,-34,-3.95483e-13,25,-56.0048,22.0048,2.14
2.96579,2.96857,0.964629,0.964964,-0.00573188,-0.0010364,-0.00186431,1.13319e-10,25,-34,-3.01336e-13,25,-56.0048,22.0048,2.144
2.96576,2.96857,0.964622,0.964963,-0.00575207,-0.00106521,-0.00187087,-2.87908e-05,25,-34,7.86891e-08,25,-56.0048,22.0048,2.148
2.96574,2.96856,0.964615,0.964963,-0.00577229,-0.00122838,-0.00187745,-1.91939e-05,24,-34,6.04949e-08,24,-56.0048,22.0048,2.152
2.96572,2.96856,0.964607,0.964964,-0.00579254,-0.00130837,-0.00188404,1.5995e-05,24,-33,-5.36953e-08,24,-56.0048,23.0048,2.156
2.96569,2.96855,0.964599,0.964963,-0.00581283,-0.00141927,-0.00189064,-1.81276e-05,24,-34,6.60129e-08,24,-56.0048,22.0048,2.16
2.96567,2.96854,0.964592,0.964963,-0.00583314,-0.00146442,-0.00189724,-1.20851e-05,24,-33,4.54085e-08,24,-56.0048,23.0048,2.164
2.96565,2.96854,0.964584,0.964963,-0.00585349,-0.00152331,-0.00190386,-8.05671e-06,24,-33,3.14897e-08,24,-56.0048,23.0048,2.168
2.96562,2.96853,0.964577,0.964963,-0.00587387,-0.00150498,-0.00191049,-5.37114e-06,24,-33,2.07406e-08,24,-56.0048,23.0048,2.172
2.9656,2.96853,0.964569,0.964963,-0.00589428,-0.00140639,-0.00191713,-3.58076e-06,24,-33,1.29213e-08,24,-56.0048,23.0048,2.176
2.96558,2.96852,0.964561,0.964963,-0.00591471,-0.00131188,-0.00192378,-2.38717e-06,25,-33,8.03528e-09,25,-56.0048,23.0048,2.18
2.96555,2.96852,0.964554,0.964963,-0.00593518,-0.00116249,-0.00193043,-1.59145e-06,26,-33,4.74687e-09,26,-56.0048,23.0048,2.184
2.96553,2.96852,0.964546,0.964963,-0.00595568,-0.00103411,-0.0019371,-1.06097e-06,26,-32,2.8151e-09,26,-56.0048,24.0048,2.188
2.96551,2.96851,0.964538,0.964963,-0.00597622,-0.000890946,-0.00194378,-7.07311e-07,27,-32,1.61691e-09,27,-56.0048,24.0048,2.192
2.96548,2.96851,0.96453,0.964963,-0.00599678,-0.000737919,-0.00195047,-4.7154e-07,27,-32,8.92793e-10,27,-56.0048,24.0048,2.196
2.96546,2.96851,0.964522,0.964963,-0.00601737,-0.000578319,-0.00195716,-3.1436e-07,28,-32,4.66464e-10,28,-56.0048,24.0048,2.2
2.96543,2.96851,0.964515,0.964963,-0.00603799,-0.000471919,-0.00196387,-2.09574e-07,28,-32,2.53762e-10,28,-56.0048,24.0048,2.204
2.96541,2.96851,0.964507,0.964963,-0.00605865,-0.000372194,-0.00197059,-1.39716e-07,29,-32,1.33425e-10,29,-56.0048,24.0048,2.208
2.96538,2.96851,0.964499,0.964963,-0.00607933,-0.000305711,-0.00197732,-9.31438e-08,29,-31,7.30615e-11,29,-56.0048,25.0048,2.212
2.96536,2.96851,0.964491,0.964963,-0.00610005,-0.000261389,-0.00198406,-5.76439e-05,30,-32,3.86603e-08,30,-56.0049,24.0049,2.216
2.96534,2.96851,0.964483,0.964963,-0.00612079,-0.000231841,-0.0019908,1.91526e-05,30,-31,-1.13931e-08,30,-56.0048,25.0048,2.22
2.96531,2.96851,0.964475,0.964963,-0.00614157,-0.000183352,-0.00199756,1.27684e-05,30,-31,-6.00681e-09,30,-56.0048,25.0048,2.224
2.96529,2.96851,0.964467,0.964963,-0.00616237,-0.000179816,-0.00200433,8.51225e-06,30,-31,-3.92732e-09,30,-56.0048,25.0048,2.228
2.96526,2.96851,0.964459,0.964963,-0.00618321,-0.000177459,-0.00201111,5.67483e-06,30,-31,-2.5839e-09,30,-56.0048,25.0048,2.232
2.96524,2.96851,0.964451,0.964963,-0.00620408,-0.000147097,-0.00201789,3.78322e-06,31,-30,-1.42787e-09,31,-56.0048,26.0048,2.236
2.96521,2.9685,0.964443,0.964963,-0.00622498,-0.000213229,-0.00202469,2.52215e-06,31,-30,-1.37987e-09,31,-56.0048,26.0048,2.24
2.96519,2.9685,0.964435,0.964963,-0.00624591,-0.000257316,-0.0020315,1.68143e-06,31,-30,-1.11012e-09,31,-56.0048,26.0048,2.244
2.96516,2.9685,0.964427,0.964964,-0.00626686,-0.000373081,-0.00203831,2.99119e-05,30,-30,-2.86332e-08,30,-56.0048,26.0048,2.248
2.96514,2.9685,0.964418,0.964964,-0.00628785,-0.000421466,-0.00204514,1.99413e-05,30,-30,-2.15644e-08,30,-56.0048,26.0048,2.252
2.96511,2.9685,0.96441,0.964964,-0.00630887,-0.000511305,-0.00205198,1.32942e-05,30,-30,-1.74407e-08,30,-56.0048,26.0048,2.256
2.96509,2.96849,0.964402,0.964963,-0.00632992,-0.000571197,-0.00205882,-4.87191e-05,30,-30,7.14017e-08,30,-56.0048,26.0048,2.26
2.96506,2.96849,0.964394,0.964963,-0.006351,-0.000668707,-0.00206568,-3.24794e-05,30,-30,5.57272e-08,30,-56.0048,26.0048,2.264
2.96504,2.96849,0.964385,0.964963,-0.00637211,-0.000704923,-0.00207255,-2.16529e-05,30,-29,3.91635e-08,30,-56.0048,27.0048,2.268
2.96501,2.96848,0.964377,0.964963,-0.00639325,-0.000757858,-0.00207942,-1.44353e-05,30,-29,2.80696e-08,30,-56.0048,27.0048,2.272
2.96499,2.96848,0.964369,0.964963,-0.00641443,-0.00085073,-0.00208631,-9.62352e-06,30,-29,2.10063e-08,30,-56.0048,27.0048,2.276
2.96496,2.96847,0.964361,0.964963,-0.00643563,-0.000883853,-0.0020932,-6.41568e-06,30,-29,1.45494e-08,30,-56.0048,27.0048,2.28
2.96493,2.96847,0.964352,0.964963,-0.00645686,-0.000934727,-0.00210011,-4.27712e-06,30,-29,1.02579e-08,30,-56.0048,27.0048,2.284
2.96491,2.96847,0.964344,0.964963,-0.00647812,-0.00091106,-0.00210702,-2.85141e-06,30,-29,6.66547e-09,30,-56.0048,27.0048,2.288
2.96488,2.96846,0.964335,0.964963,-0.00649941,-0.000866492,-0.00211395,-1.90094e-06,31,-28,4.22626e-09,31,-56.0048,28.0048,2.292
2.96486,2.96846,0.964327,0.964963,-0.00652073,-0.000894361,-0.00212088,-1.26729e-06,31,-28,2.90813e-09,31,-56.0048,28.0048,2.296
2.96483,2.96846,0.964318,0.964963,-0.00654208,-0.000912941,-0.00212783,-8.44863e-07,31,-28,1.97903e-09,31,-56.0048,28.0048,2.3
2.9648,2.96845,0.96431,0.964963,-0.00656347,-0.000982909,-0.00213478,-5.63242e-07,31,-28,1.42047e-09,31,-56.0048,28.0048,2.304
2.96478,2.96845,0.964301,0.964963,-0.00658488,-0.00105835,-0.00214175,-2.91664e-05,31,-28,7.92016e-08,31,-56.0049,28.0049,2.308
2.96475,2.96844,0.964293,0.964963,-0.00660632,-0.00113743,-0.00214872,9.34665e-06,30,-27,-2.72774e-08,30,-56.0048,29.0048,2.312
2.96472,2.96844,0.964284,0.964963,-0.00662779,-0.00127652,-0.00215571,-2.25598e-05,30,-28,7.38903e-08,30,-56.0049,28.0049,2.316
2.9647,2.96843,0.964275,0.964963,-0.00664929,-0.00142683,-0.0021627,-1.50399e-05,30,-27,5.50606e-08,30,-56.0049,29.0049,2.32
2.96467,2.96842,0.964267,0.964963,-0.00667083,-0.00158462,-0.0021697,-1.00266e-05,29,-27,4.07664e-08,29,-56.0049,29.0049,2.324
2.96464,2.96841,0.964258,0.964963,-0.00669239,-0.00183377,-0.00217672,-6.68439e-06,29,-27,3.14507e-08,29,-56.0049,29.0049,2.328
2.96462,2.9684,0.964249,0.964963,-0.00671398,-0.00205745,-0.00218374,-4.45626e-06,28,-27,2.35247e-08,28,-56.0049,29.0049,2.332
2.96459,2.96839,0.964241,0.964963,-0.0067356,-0.00229294,-0.00219077,-2.97084e-06,28,-27,1.74782e-08,28,-56.0049,29.0049,2.336
2.96456,2.96838,0.964232,0.964963,-0.00675725,-0.00244994,-0.00219781,-1.98056e-06,27,-26,1.24499e-08,27,-56.0049,30.0049,2.34
2.96454,2.96837,0.964223,0.964963,-0.00677893,-0.00261218,-0.00220487,-1.32037e-06,27,-26,8.84961e-09,27,-56.0049,30.0049,2.344
2.96451,2.96836,0.964214,0.964963,-0.00680064,-0.00272035,-0.00221193,-8.80249e-07,27,-26,6.14403e-09,27,-56.0049,30.0049,2.348
2.96448,2.96834,0.964205,0.964963,-0.00682238,-0.00282125,-0.002219,-5.86833e-07,26,-26,4.24795e-09,26,-56.0049,30.0049,2.352
2.96445,2.96833,0.964196,0.964963,-0.00684416,-0.0029461,-0.00222608,-3.91222e-07,26,-26,2.95729e-09,26,-56.0049,30.0049,2.356
2.96443,2.96832,0.964187,0.964963,-0.00686596,-0.00291416,-0.00223317,-2.60815e-07,26,-26,1.95016e-09,26,-56.0049,30.0049,2.36
2.9644,2.96831,0.964179,0.964963,-0.00688779,-0.00289288,-0.00224027,-1.73876e-07,26,-25,1.29061e-09,26,-56.0049,31.0049,2.364
2.96437,2.9683,0.96417,0.964963,-0.00690965,-0.00284989,-0.00224738,-1.15918e-07,27,-25,8.47621e-10,27,-56.0049,31.0049,2.368
2.96434,2.96829,0.964161,0.964963,-0.00693153,-0.00285003,-0.0022545,-7.72784e-08,27,-25,5.65107e-10,27,-56.0049,31.0049,2.372
2.96432,2.96827,0.964152,0.964963,-0.00695345,-0.00282133,-0.00226163,-5.15189e-08,27,-25,3.72944e-10,27,-56.0049,31.0049,2.376
2.96429,2.96826,0.964142,0.964963,-0.0069754,-0.00285978,-0.00226877,-3.4346e-08,27,-25,2.52018e-10,27,-56.0049,31.0049,2.38
2.96426,2.96825,0.964133,0.964962,-0.00699738,-0.00277025,-0.00227592,-2.88138e-05,28,-25,2.04806e-07,28,-56.0049,31.0049,2.384
2.96423,2.96824,0.964124,0.964962,-0.00701939,-0.00268177,-0.00228307,-1.92092e-05,28,-25,1.32177e-07,28,-56.0049,31.0049,2.388
2.9642,2.96823,0.964115,0.964962,-0.00704143,-0.0025652,-0.00229024,-1.28061e-05,28,-24,8.42875e-08,28,-56.0049,32.0049,2.392
2.96418,2.96822,0.964106,0.964962,-0.00706349,-0.00248749,-0.00229742,-8.53743e-06,29,-24,5.44894e-08,29,-56.0049,32.0049,2.396
2.96415,2.96821,0.964097,0.964962,-0.00708559,-0.00249326,-0.00230461,-5.69162e-06,29,-24,3.64106e-08,29,-56.0049,32.0049,2.4
2.96412,2.9682,0.964087,0.964962,-0.00710771,-0.00258348,-0.0023118,-3.79441e-06,29,-24,2.51521e-08,29,-56.0049,32.0049,2.404
2.96409,2.96819,0.964078,0.964962,-0.00712987,-0.00273001,-0.00231901,-2.52961e-06,28,-24,1.7719e-08,28,-56.0049,32.0049,2.408
2.96406,2.96818,0.964069,0.964962,-0.00715205,-0.00288527,-0.00232622,-1.68641e-06,28,-23,1.24845e-08,28,-56.0049,33.0049,2.412
2.96403,2.96816,0.96406,0.964962,-0.00717427,-0.00307515,-0.00233345,-1.12427e-06,28,-23,8.87075e-09,28,-56.0049,33.0049,2.416
2.96401,2.96815,0.96405,0.964962,-0.00719651,-0.00320174,-0.00234068,-7.49514e-07,27,-23,6.15728e-09,27,-56.0049,33.0049,2.42
2.96398,2.96814,0.964041,0.964962,-0.00721878,-0.00334371,-0.00234793,-4.99676e-07,27,-23,4.28687e-09,27,-56.0049,33.0049,2.424
2.96395,2.96812,0.964031,0.964962,-0.00724109,-0.00340957,-0.00235518,-3.33117e-07,27,-23,2.9142e-09,27,-56.0049,33.0049,2.428
2.96392,2.96811,0.964022,0.964962,-0.00726342,-0.00333831,-0.00236245,-2.22078e-07,27,-23,1.9022e-09,27,-56.0049,33.0049,2.432
2.96389,2.9681,0.964013,0.964962,-0.00728578,-0.00326201,-0.00236972,-1.48052e-07,28,-22,1.23915e-09,28,-56.0049,34.0049,2.436
2.96386,2.96808,0.964003,0.964962,-0.00730817,-0.00315357,-0.002377,-9.87014e-08,28,-22,7.98636e-10,28,-56.0049,34.0049,2.44
2.96383,2.96807,0.963994,0.964962,-0.00733059,-0.00322522,-0.00238429,-2.88567e-05,28,-22,2.38798e-07,28,-56.0049,34.0049,2.444
2.9638,2.96806,0.963984,0.964962,-0.00735304,-0.003273,-0.00239159,-1.92378e-05,28,-22,1.61557e-07,28,-56.0049,34.0049,2.448
2.96377,2.96804,0.963974,0.964962,-0.00737551,-0.00333363,-0.0023989,1.59657e-05,28,-22,-1.36562e-07,28,-56.0049,34.0049,2.452
2.96374,2.96803,0.963965,0.964962,-0.00739802,-0.0032589,-0.00240622,-1.81471e-05,28,-22,1.51741e-07,28,-56.0049,34.0049,2.456
2.96371,2.96802,0.963955,0.964962,-0.00742056,-0.00318028,-0.00241355,-1.20981e-05,29,-21,9.872e-08,29,-56.0049,35.0049,2.46
2.96368,2.96801,0.963946,0.964962,-0.00744312,-0.00312787,-0.00242089,-8.06538e-06,29,-21,6.47288e-08,29,-56.0049,35.0049,2.464
2.96365,2.96799,0.963936,0.964962,-0.00746572,-0.0031793,-0.00242824,-5.37692e-06,29,-21,4.38621e-08,29,-56.0049,35.0049,2.468
2.96362,2.96798,0.963926,0.964962,-0.00748834,-0.0031848,-0.0024356,-3.58462e-06,29,-21,2.92919e-08,29,-56.0049,35.0049,2.472
2.96359,2.96797,0.963916,0.964962,-0.00751099,-0.00321725,-0.00244297,-2.38974e-06,29,-21,1.9727e-08,29,-56.0049,35.0049,2.476
2.96356,2.96795,0.963907,0.964962,-0.00753367,-0.00326768,-0.00245035,-1.59316e-06,29,-20,1.33574e-08,29,-56.0049,36.0049,2.48
2.96353,2.96794,0.963897,0.964962,-0.00755638,-0.0033013,-0.00245773,-1.06211e-06,29,-20,8.99658e-09,29,-56.0049,36.0049,2.484
2.9635,2.96793,0.963887,0.964962,-0.00757912,-0.00326613,-0.00246513,-7.08072e-07,29,-20,5.93383e-09,29,-56.0049,36.0049,2.488
2.96347,2.96792,0.963877,0.964962,-0.00760189,-0.00304115,-0.00247253,-4.72048e-07,30,-20,3.68339e-09,30,-56.0049,36.0049,2.492
2.96344,2.96791,0.963867,0.964962,-0.00762469,-0.00271841,-0.00247995,-3.14699e-07,31,-20,2.195e-09,31,-56.0049,36.0049,2.496
2.96341,2.9679,0.963857,0.964961,-0.00764751,-0.00230172,-0.00248737,-2.90007e-05,33,-20,1.71272e-07,33,-56.0049,36.0049,2.5
2.96338,2.9679,0.963847,0.964962,-0.00767037,-0.00182239,-0.00249481,9.45711e-06,35,-19,-4.42205e-08,35,-56.0049,37.0049,2.504
2.96335,2.9679,0.963837,0.964961,-0.00769325,-0.00133009,-0.00250225,-2.24862e-05,36,-19,7.67398e-08,36,-56.0049,37.0049,2.508
2.96332,2.9679,0.963827,0.964961,-0.00771617,-0.000857936,-0.0025097,-1.49908e-05,38,-19,3.29992e-08,38,-56.0049,37.0049,2.512
2.96329,2.9679,0.963817,0.964961,-0.00773911,-0.000514376,-0.00251716,-9.99386e-06,39,-19,1.31898e-08,39,-56.0049,37.0049,2.516
2.96326,2.9679,0.963807,0.964962,-0.00776208,-0.000371708,-0.00252464,2.21284e-05,40,-18,-2.11045e-08,40,-56.0049,38.0049,2.52
2.96323,2.9679,0.963797,0.964961,-0.00778508,-0.000276596,-0.00253212,-1.40387e-05,40,-19,9.96315e-09,40,-56.0049,37.0049,2.524
2.9632,2.9679,0.963787,0.964961,-0.0078081,-0.000213188,-0.00253961,-9.35913e-06,41,-18,5.11944e-09,41,-56.0049,38.0049,2.528
2.96316,2.9679,0.963777,0.964961,-0.00783116,-0.000142126,-0.00254711,-6.23942e-06,41,-18,2.27531e-09,41,-56.0049,38.0049,2.532
2.96313,2.9679,0.963766,0.964961,-0.00785425,-9.47504e-05,-0.00255461,-4.15961e-06,42,-18,1.01125e-09,42,-56.0049,38.0049,2.536
2.9631,2.9679,0.963756,0.964961,-0.00787736,-6.31669e-05,-0.00256213,-2.77307e-06,42,-18,4.49444e-10,42,-56.0049,38.0049,2.54
2.96307,2.9679,0.963746,0.964961,-0.0079005,-4.21113e-05,-0.00256966,-1.84872e-06,42,-18,1.99753e-10,42,-56.0049,38.0049,2.544
2.96304,2.9679,0.963736,0.964961,-0.00792367,-2.80742e-05,-0.0025772,-1.23248e-06,42,-17,8.8779e-11,42,-56.0049,39.0049,2.548
2.96301,2.9679,0.963725,0.964961,-0.00794687,-4.75071e-05,-0.00258474,-8.21652e-07,43,-17,1.00154e-10,43,-56.0049,39.0049,2.552
2.96297,2.9679,0.963715,0.964961,-0.0079701,-3.16714e-05,-0.0025923,-5.47768e-07,43,-17,4.4513e-11,43,-56.0049,39.0049,2.556
2.96294,2.9679,0.963705,0.964961,-0.00799336,7.67668e-06,-0.00259986,-2.91561e-05,43,-17,-5.74284e-10,43,-56.005,39.005,2.56
2.96291,2.9679,0.963694,0.964961,-0.00801665,-2.36731e-05,-0.00260743,9.35352e-06,43,-17,-5.68139e-10,43,-56.0049,39.0049,2.564
2.96288,2.9679,0.963684,0.964961,-0.00803996,-1.57821e-05,-0.00261502,-2.25552e-05,43,-17,9.13347e-10,43,-56.005,39.005,2.568
2.96285,2.9679,0.963673,0.964961,-0.0080633,-1.05214e-05,-0.00262261,-1.50368e-05,44,-16,4.05932e-10,44,-56.005,40.005,2.572
2.96281,2.9679,0.963663,0.964961,-0.00808667,-7.01426e-06,-0.00263021,-1.00246e-05,44,-16,1.80414e-10,44,-56.005,40.005,2.576
2.96278,2.9679,0.963652,0.964961,-0.00811007,-4.67618e-06,-0.00263782,-6.68303e-06,44,-16,8.01841e-11,44,-56.005,40.005,2.58
2.96275,2.9679,0.963642,0.964961,-0.0081335,-3.11745e-06,-0.00264544,-4.45536e-06,44,-16,3.56374e-11,44,-56.005,40.005,2.584
2.96272,2.9679,0.963631,0.964961,-0.00815696,-3.08692e-05,-0.00265307,-2.97024e-06,44,-15,2.35256e-10,44,-56.005,41.005,2.588
2.96268,2.9679,0.96362,0.964961,-0.00818044,-2.05795e-05,-0.00266071,-1.98016e-06,45,-15,1.04558e-10,45,-56.005,41.005,2.592
2.96265,2.9679,0.96361,0.964961,-0.00820395,-1.37197e-05,-0.00266836,-3.0111e-05,45,-15,1.05997e-09,45,-56.005,41.005,2.596
2.96262,2.9679,0.963599,0.964961,-0.0082275,-9.14644e-06,-0.00267601,-2.0074e-05,45,-15,4.71097e-10,45,-56.005,41.005,2.6
2.96259,2.9679,0.963588,0.964961,-0.00825107,-6.09762e-06,-0.00268368,-1.33827e-05,45,-15,2.09376e-10,45,-56.005,41.005,2.604
2.96255,2.9679,0.963578,0.964961,-0.00827466,-3.2856e-05,-0.00269136,-8.92179e-06,45,-15,7.52126e-10,45,-56.005,41.005,2.608
2.96252,2.9679,0.963567,0.964961,-0.00829829,-2.1904e-05,-0.00269904,-5.94786e-06,46,-14,3.34278e-10,46,-56.005,42.005,2.612
2.96249,2.9679,0.963556,0.96496,-0.00832194,-4.33936e-05,-0.00270673,-3.27562e-05,46,-14,3.64706e-09,46,-56.005,42.005,2.616
2.96245,2.9679,0.963545,0.96496,-0.00834563,-5.772e-05,-0.00271444,-2.18374e-05,46,-14,3.23409e-09,46,-56.005,42.005,2.62
2.96242,2.9679,0.963534,0.96496,-0.00836934,-9.60618e-05,-0.00272215,-1.45583e-05,46,-14,3.58827e-09,46,-56.005,42.005,2.624
2.96239,2.9679,0.963523,0.96496,-0.00839308,-0.000121623,-0.00272987,-9.70553e-06,46,-14,3.02872e-09,46,-56.005,42.005,2.628
2.96235,2.9679,0.963512,0.96496,-0.00841684,-0.000109873,-0.0027376,-3.52613e-05,46,-14,9.94061e-09,46,-56.0051,42.0051,2.632
2.96232,2.96789,0.963501,0.96496,-0.00844064,-0.000130831,-0.00274534,-2.35075e-05,46,-13,7.89114e-09,46,-56.0051,43.0051,2.636
2.96228,2.96789,0.96349,0.96496,-0.00846446,-0.000116011,-0.00275309,-1.56717e-05,47,-13,4.66487e-09,47,-56.0051,43.0051,2.64
2.96225,2.96789,0.963479,0.96496,-0.00848831,-7.73408e-05,-0.00276085,-1.04478e-05,47,-13,2.07328e-09,47,-56.0051,43.0051,2.644
2.96222,2.96789,0.963468,0.96496,-0.00851219,-8.03515e-05,-0.00276861,-6.96519e-06,47,-13,1.43599e-09,47,-56.0051,43.0051,2.648
2.96218,2.96789,0.963457,0.96496,-0.0085361,-8.23586e-05,-0.00277639,-4.64346e-06,47,-12,9.81239e-10,47,-56.0051,44.0051,2.652
2.96215,2.96789,0.963446,0.96496,-0.00856004,-5.49057e-05,-0.00278417,-3.09564e-06,48,-12,4.36106e-10,48,-56.0051,44.0051,2.656
2.96211,2.96789,0.963435,0.96496,-0.008584,-6.53947e-05,-0.00279197,-2.06376e-06,48,-12,3.46279e-10,48,-56.0051,44.0051,2.66
2.96208,2.96789,0.963424,0.96496,-0.00860799,-4.35965e-05,-0.00279977,-1.37584e-06,48,-12,1.53902e-10,48,-56.0051,44.0051,2.664
2.96205,2.96789,0.963413,0.96496,-0.00863201,-2.90643e-05,-0.00280758,-2.97082e-05,48,-12,2.21544e-09,48,-56.0051,44.0051,2.668
2.96201,2.96789,0.963401,0.96496,-0.00865606,-4.81671e-05,-0.0028154,-1.98054e-05,48,-12,2.44771e-09,48,-56.0051,44.0051,2.672
2.96198,2.96789,0.96339,0.96496,-0.00868013,-6.09024e-05,-0.00282323,-1.32036e-05,49,-11,2.06325e-09,49,-56.0051,45.0051,2.676
2.96194,2.96789,0.963379,0.96496,-0.00870423,-9.81834e-05,-0.00283107,-8.80242e-06,49,-11,2.2175e-09,49,-56.0051,45.0051,2.68
2.96191,2.96789,0.963367,0.96496,-0.00872837,-9.42465e-05,-0.00283892,-5.86828e-06,49,-11,1.41906e-09,49,-56.0051,45.0051,2.684
2.96187,2.96789,0.963356,0.96496,-0.00875252,-0.000120413,-0.00284678,-3.91218e-06,49,-11,1.20869e-09,49,-56.0051,45.0051,2.688
2.96184,2.96789,0.963345,0.96496,-0.00877671,-0.000137857,-0.00285465,-2.60812e-06,49,-10,9.22532e-10,49,-56.0051,46.0051,2.692
2.9618,2.96789,0.963333,0.96496,-0.00880093,-0.000149487,-0.00286252,-1.73875e-06,49,-10,6.66904e-10,49,-56.0051,46.0051,2.696
2.96177,2.96789,0.963322,0.96496,-0.00882517,-0.00015724,-0.00287041,-1.15917e-06,49,-10,4.67662e-10,49,-56.0051,46.0051,2.7
2.96173,2.96789,0.96331,0.964959,-0.00884944,-0.000104826,-0.0028783,-2.95637e-05,50,-10,7.95159e-09,50,-56.0051,46.0051,2.704
2.96169,2.96789,0.963299,0.964959,-0.00887373,-6.98843e-05,-0.0028862,-1.97091e-05,50,-10,3.53404e-09,50,-56.0051,46.0051,2.708
2.96166,2.96789,0.963287,0.964959,-0.00889806,-4.65895e-05,-0.00289412,-1.31394e-05,50,-10,1.57068e-09,50,-56.0051,46.0051,2.712
2.96162,2.96789,0.963276,0.964959,-0.00892241,-5.98506e-05,-0.00290204,-8.75962e-06,51,-9,1.34517e-09,51,-56.0051,47.0051,2.716
2.96159,2.96789,0.963264,0.964959,-0.00894679,-3.99004e-05,-0.00290997,-5.83974e-06,51,-9,5.97854e-10,51,-56.0051,47.0051,2.72
2.96155,2.96789,0.963252,0.964959,-0.0089712,-5.53912e-05,-0.00291791,-3.26841e-05,51,-9,4.64517e-09,51,-56.0051,47.0051,2.724
2.96152,2.96789,0.963241,0.964959,-0.00899564,-6.57184e-05,-0.00292585,-2.17894e-05,51,-9,3.67415e-09,51,-56.0051,47.0051,2.728
2.96148,2.96789,0.963229,0.964959,-0.0090201,-7.26032e-05,-0.00293381,-1.45263e-05,51,-9,2.70604e-09,51,-56.0051,47.0051,2.732
2.96144,2.96789,0.963217,0.964959,-0.00904459,-0.000134775,-0.00294178,-9.68417e-06,51,-8,3.34885e-09,51,-56.0051,48.0051,2.736
2.96141,2.96789,0.963205,0.964959,-0.00906911,-0.000118641,-0.00294975,-3.5247e-05,52,-8,1.07296e-08,52,-56.0052,48.0052,2.74
2.96137,2.96789,0.963194,0.964959,-0.00909365,-0.000165467,-0.00295773,-2.3498e-05,52,-8,9.97623e-09,52,-56.0052,48.0052,2.744
2.96134,2.96788,0.963182,0.964958,-0.00911823,-0.000167893,-0.00296573,-4.44563e-05,52,-8,1.91509e-08,52,-56.0052,48.0052,2.748
2.9613,2.96788,0.96317,0.964958,-0.00914283,-0.000227092,-0.00297373,-2.96375e-05,52,-8,1.72691e-08,52,-56.0052,48.0052,2.752
2.96126,2.96788,0.963158,0.964958,-0.00916746,-0.000237768,-0.00298174,-1.97583e-05,52,-7,1.20539e-08,52,-56.0052,49.0052,2.756
2.96123,2.96788,0.963146,0.964958,-0.00919211,-0.000273675,-0.00298976,-1.31722e-05,52,-7,9.24954e-09,52,-56.0052,49.0052,2.76
2.96119,2.96788,0.963134,0.964958,-0.00921679,-0.000297614,-0.00299779,-3.75724e-05,52,-7,2.86911e-08,52,-56.0052,49.0052,2.764
2.96115,2.96788,0.963122,0.964958,-0.0092415,-0.000313573,-0.00300582,-2.50483e-05,52,-7,2.01531e-08,52,-56.0052,49.0052,2.768
2.96111,2.96788,0.96311,0.964958,-0.00926624,-0.000324212,-0.00301387,-1.66988e-05,53,-6,1.38912e-08,53,-56.0052,50.0052,2.772
2.96108,2.96788,0.963098,0.964958,-0.00929101,-0.000331305,-0.00302192,-3.99235e-05,53,-7,3.39377e-08,53,-56.0052,49.0052,2.776
2.96104,2.96787,0.963086,0.964957,-0.0093158,-0.000336034,-0.00302999,-5.54066e-05,53,-6,4.77716e-08,53,-56.0053,50.0053,2.78
2.961,2.96787,0.963074,0.964957,-0.00934062,-0.000310395,-0.00303806,-3.69377e-05,53,-6,2.94178e-08,53,-56.0053,50.0053,2.784
2.96097,2.96787,0.963061,0.964957,-0.00936546,-0.000293303,-0.00304614,-5.34161e-05,54,-6,4.01989e-08,54,-56.0053,50.0053,2.788
2.96093,2.96787,0.963049,0.964957,-0.00939034,-0.000281908,-0.00305423,-3.56107e-05,54,-6,2.57581e-08,54,-56.0053,50.0053,2.792
2.96089,2.96787,0.963037,0.964957,-0.00941524,-0.000274312,-0.00306233,-2.37405e-05,54,-5,1.67093e-08,54,-56.0053,51.0053,2.796
2.96085,2.96787,0.963025,0.964957,-0.00944017,-0.000269247,-0.00307044,-1.5827e-05,54,-5,1.09339e-08,54,-56.0053,51.0053,2.8
2.96081,2.96787,0.963012,0.964957,-0.00946512,-0.00023708,-0.00307856,-1.05513e-05,55,-5,6.4184e-09,55,-56.0053,51.0053,2.804
2.96078,2.96787,0.963,0.964957,-0.00949011,-0.000186844,-0.00308668,-7.03422e-06,55,-5,3.37226e-09,55,-56.0053,51.0053,2.808
2.96074,2.96787,0.962988,0.964957,-0.00951511,-0.000124563,-0.00309482,-3.34804e-05,55,-5,1.07005e-08,55,-56.0053,51.0053,2.812
2.9607,2.96787,0.962975,0.964956,-0.00954015,-8.30419e-05,-0.00310296,-5.11112e-05,56,-5,1.08903e-08,56,-56.0054,51.0054,2.816
2.96066,2.96787,0.962963,0.964956,-0.00956521,-8.41522e-05,-0.00311111,-3.40741e-05,56,-4,7.35725e-09,56,-56.0054,52.0054,2.82
2.96062,2.96787,0.962951,0.964956,-0.00959031,-5.61014e-05,-0.00311927,-2.27161e-05,56,-4,3.26989e-09,56,-56.0054,52.0054,2.824
2.96059,2.96787,0.962938,0.964956,-0.00961542,-3.7401e-05,-0.00312744,-4.3935e-05,57,-4,4.21618e-09,57,-56.0054,52.0054,2.828
2.96055,2.96787,0.962925,0.964956,-0.00964057,-5.37249e-05,-0.00313562,-5.80809e-05,57,-4,8.00635e-09,57,-56.0054,52.0054,2.832
2.96051,2.96787,0.962913,0.964956,-0.00966574,-6.46075e-05,-0.00314381,-3.87206e-05,57,-3,6.41876e-09,57,-56.0054,53.0054,2.836
2.96047,2.96787,0.9629,0.964956,-0.00969094,-7.18626e-05,-0.003152,-2.58137e-05,57,-3,4.7597e-09,57,-56.0054,53.0054,2.84
2.96043,2.96787,0.962888,0.964956,-0.00971616,-7.66993e-05,-0.00316021,-1.72092e-05,57,-3,3.3867e-09,57,-56.0054,53.0054,2.844
2.96039,2.96787,0.962875,0.964955,-0.00974142,-0.000108715,-0.00316842,-4.02637e-05,57,-3,1.12312e-08,57,-56.0054,53.0054,2.848
2.96035,2.96786,0.962862,0.964955,-0.0097667,-0.000101267,-0.00317664,-2.68425e-05,58,-2,6.97458e-09,58,-56.0054,54.0054,2.852
2.96031,2.96786,0.96285,0.964955,-0.009792,-9.63025e-05,-0.00318487,-1.7895e-05,58,-2,4.42175e-09,58,-56.0054,54.0054,2.856
2.96027,2.96786,0.962837,0.964955,-0.00981734,-0.000121784,-0.00319311,-1.193e-05,58,-2,3.72781e-09,58,-56.0054,54.0054,2.86
2.96024,2.96786,0.962824,0.964955,-0.00984269,-0.00010998,-0.00320136,-3.67442e-05,58,-2,1.03688e-08,58,-56.0055,54.0055,2.864
2.9602,2.96786,0.962811,0.964955,-0.00986808,-0.000188484,-0.00320962,-2.44962e-05,58,-1,1.18467e-08,58,-56.0055,55.0055,2.868
2.96016,2.96786,0.962798,0.964955,-0.00989349,-0.000212029,-0.00321788,-1.63308e-05,58,-1,8.88438e-09,58,-56.0055,55.0055,2.872
2.96012,2.96786,0.962786,0.964955,-0.00991893,-0.000227725,-0.00322616,-3.96781e-05,59,-1,2.3184e-08,59,-56.0055,55.0055,2.876
2.96008,2.96786,0.962773,0.964955,-0.0099444,-0.00026698,-0.00323444,-2.64521e-05,59,-1,1.81203e-08,59,-56.0055,55.0055,2.88
2.96004,2.96786,0.96276,0.964955,-0.0099699,-0.000293151,-0.00324273,-1.76347e-05,59,-1,1.32643e-08,59,-56.0055,55.0055,2.884
2.96,2.96786,0.962747,0.964954,-0.00999542,-0.000310597,-0.00325103,-4.05474e-05,59,-1,3.23137e-08,59,-56.0055,55.0055,2.888
2.95996,2.96785,0.962734,0.964954,-0.010021,-0.000293438,-0.00325934,-2.70316e-05,59,0,2.03523e-08,59,-56.0055,56.0055,2.892
2.95992,2.96785,0.962721,0.964954,-0.0100465,-0.000224416,-0.00326766,-1.80211e-05,60,0,1.03767e-08,60,-56.0055,56.0055,2.896
2.95988,2.96785,0.962708,0.964954,-0.0100721,-0.000207193,-0.00327599,-1.2014e-05,60,0,6.38689e-09,60,-56.0055,56.0055,2.9
2.95984,2.96785,0.962694,0.964954,-0.0100978,-0.000166919,-0.00328432,-8.00936e-06,60,0,3.43029e-09,60,-56.0055,56.0055,2.904
2.9598,2.96785,0.962681,0.964954,-0.0101234,-0.00014007,-0.00329267,-3.41305e-05,61,0,1.22664e-08,61,-56.0056,56.0056,2.908
2.95976,2.96785,0.962668,0.964954,-0.0101491,-9.33803e-05,-0.00330102,-2.27537e-05,61,0,5.45171e-09,61,-56.0056,56.0056,2.912
2.95972,2.96785,0.962655,0.964954,-0.0101748,-6.22535e-05,-0.00330938,-1.51691e-05,61,0,2.42298e-09,61,-56.0056,56.0056,2.916
2.95967,2.96785,0.962642,0.964954,-0.0102005,-4.15024e-05,-0.00331775,-3.89037e-05,62,0,4.14276e-09,62,-56.0056,56.0056,2.92
2.95963,2.96785,0.962628,0.964954,-0.0102263,-5.64592e-05,-0.00332613,2.85515e-06,62,1,-4.13608e-10,62,-56.0056,57.0056,2.924
2.95959,2.96785,0.962615,0.964954,-0.0102521,-3.76394e-05,-0.00333451,-2.68875e-05,62,1,2.59669e-09,62,-56.0056,57.0056,2.928
2.95955,2.96785,0.962602,0.964954,-0.0102779,-5.38839e-05,-0.00334291,-1.7925e-05,62,1,2.47825e-09,62,-56.0056,57.0056,2.932
2.95951,2.96785,0.962588,0.964954,-0.0103037,-3.59226e-05,-0.00335131,-1.195e-05,63,1,1.10144e-09,63,-56.0056,57.0056,2.936
2.95947,2.96785,0.962575,0.964954,-0.0103296,-8.15302e-05,-0.00335973,-7.96666e-06,63,2,1.66656e-09,63,-56.0056,58.0056,2.94
2.95943,2.96785,0.962561,0.964954,-0.0103555,-8.31444e-05,-0.00336815,-5.31111e-06,63,2,1.13304e-09,63,-56.0056,58.0056,2.944
2.95939,2.96785,0.962548,0.964953,-0.0103814,-0.000141802,-0.00337658,-3.23317e-05,63,2,1.17635e-08,63,-56.0056,58.0056,2.948
2.95934,2.96785,0.962534,0.964953,-0.0104073,-0.000152117,-0.00338502,-2.15544e-05,63,2,8.4128e-09,63,-56.0056,58.0056,2.952
2.9593,2.96785,0.962521,0.964953,-0.0104333,-0.000187784,-0.00339346,-1.43696e-05,63,3,6.92358e-09,63,-56.0056,59.0056,2.956
2.95926,2.96785,0.962507,0.964953,-0.0104593,-0.000182771,-0.00340192,-3.83707e-05,64,3,1.79942e-08,64,-56.0056,59.0056,2.96
2.95922,2.96785,0.962494,0.964953,-0.0104853,-0.000179429,-0.00341038,-2.55805e-05,64,3,1.17768e-08,64,-56.0056,59.0056,2.964
2.95918,2.96785,0.96248,0.964953,-0.0105114,-0.000205992,-0.00341885,-1.70536e-05,64,3,9.01352e-09,64,-56.0056,59.0056,2.968
2.95914,2.96785,0.962466,0.964953,-0.0105375,-0.00019491,-0.00342733,-1.13691e-05,64,4,5.68573e-09,64,-56.0056,60.0056,2.972
2.95909,2.96784,0.962452,0.964953,-0.0105636,-0.000187522,-0.00343582,-7.57939e-06,64,4,3.64681e-09,64,-56.0056,60.0056,2.976
2.95905,2.96784,0.962439,0.964952,-0.0105897,-0.000153806,-0.00344432,-3.38439e-05,65,4,1.33561e-08,65,-56.0057,60.0057,2.98
2.95901,2.96784,0.962425,0.964952,-0.0106158,-0.000131328,-0.00345283,-2.25626e-05,65,4,7.60278e-09,65,-56.0057,60.0057,2.984
2.95897,2.96784,0.962411,0.964952,-0.010642,-0.000145134,-0.00346134,-1.50417e-05,65,4,5.60135e-09,65,-56.0057,60.0057,2.988
2.95892,2.96784,0.962397,0.964952,-0.0106682,-9.67559e-05,-0.00346987,-1.00278e-05,66,5,2.48949e-09,66,-56.0057,61.0057,2.992
2.95888,2.96784,0.962383,0.964952,-0.0106945,-9.32948e-05,-0.0034784,-6.68521e-06,66,5,1.60029e-09,66,-56.0057,61.0057,2.996
2.95884,2.96784,0.962369,0.964952,-0.0107207,-9.09875e-05,-0.00348694,-4.4568e-06,66,5,1.04048e-09,66,-56.0057,61.0057,3
2.95879,2.96784,0.962355,0.964952,-0.010747,-8.94492e-05,-0.00349549,-2.9712e-06,66,5,6.81923e-10,66,-56.0057,61.0057,3.004
2.95875,2.96784,0.962341,0.964952,-0.0107733,-8.84238e-05,-0.00350405,-1.9808e-06,67,6,4.49404e-10,67,-56.0057,62.0057,3.008
2.95871,2.96784,0.962327,0.964952,-0.0107996,-5.89492e-05,-0.00351261,-1.32053e-06,67,6,1.99735e-10,67,-56.0057,62.0057,3.012
2.95867,2.96784,0.962313,0.964952,-0.010826,-6.80904e-05,-0.00352119,-8.80356e-07,67,6,1.53805e-10,67,-56.0057,62.0057,3.016
2.95862,2.96784,0.962299,0.964952,-0.0108524,-7.41845e-05,-0.00352977,-5.86904e-07,67,6,1.11714e-10,67,-56.0057,62.0057,3.02
2.95858,2.96784,0.962285,0.964952,-0.0108788,-7.82473e-05,-0.00353836,-2.91822e-05,68,6,5.85887e-09,68,-56.0057,62.0057,3.024
2.95853,2.96784,0.962271,0.964952,-0.0109052,-0.000109747,-0.00354696,-1.94548e-05,68,7,5.47829e-09,68,-56.0057,63.0057,3.028
2.95849,2.96784,0.962257,0.964952,-0.0109317,-0.000101955,-0.00355557,-1.29699e-05,68,7,3.39291e-09,68,-56.0057,63.0057,3.032
2.95845,2.96784,0.962242,0.964952,-0.0109582,-0.000125552,-0.00356418,-3.74375e-05,68,7,1.20603e-08,68,-56.0057,63.0057,3.036
2.9584,2.96784,0.962228,0.964952,-0.0109847,-0.000141283,-0.00357281,-2.49583e-05,68,7,9.0476e-09,68,-56.0057,63.0057,3.04
2.95836,2.96784,0.962214,0.964951,-0.0110113,-0.00012298,-0.00358144,-7.42207e-05,69,7,2.342e-08,69,-56.0058,63.0058,3.044
2.95832,2.96784,0.9622,0.96495,-0.0110378,-0.000139568,-0.00359008,-0.000107062,69,7,3.83399e-08,69,-56.0058,63.0058,3.048
2.95827,2.96784,0.962185,0.964949,-0.0110644,-0.000150627,-0.00359873,-0.000157748,69,7,6.0967e-08,69,-56.0059,63.0059,3.052
2.95823,2.96784,0.962171,0.964949,-0.011091,-0.000129209,-0.00360739,-0.000162747,69,7,5.39553e-08,69,-56.006,63.006,3.056
2.95818,2.96784,0.962156,0.964948,-0.0111177,-0.000172512,-0.00361606,-0.00016608,70,7,7.35131e-08,70,-56.006,63.006,3.06
2.95814,2.96784,0.962142,0.964948,-0.0111444,-0.000143799,-0.00362473,-0.000139511,70,8,5.14745e-08,70,-56.0061,64.0061,3.064
2.95809,2.96783,0.962127,0.964947,-0.0111711,-0.000153448,-0.00363341,-0.000121798,70,8,4.79546e-08,70,-56.0061,64.0061,3.068
2.95805,2.96783,0.962113,0.964947,-0.0111978,-0.000188671,-0.0036421,-0.00010999,70,8,5.32459e-08,70,-56.0061,64.0061,3.072
2.958,2.96783,0.962098,0.964947,-0.0112245,-0.000212154,-0.0036508,-7.33265e-05,70,9,3.99153e-08,70,-56.0061,65.0061,3.076
2.95796,2.96783,0.962084,0.964947,-0.0112513,-0.00028539,-0.00365951,-7.76752e-05,70,9,5.68788e-08,70,-56.0061,65.0061,3.08
2.95791,2.96783,0.962069,0.964947,-0.0112781,-0.000219051,-0.00366823,-5.17835e-05,71,10,2.91049e-08,71,-56.0061,66.0061,3.084
2.95787,2.96783,0.962054,0.964947,-0.0113049,-0.000203616,-0.00367695,-3.45223e-05,71,10,1.8036e-08,71,-56.0061,66.0061,3.088
2.95782,2.96783,0.962039,0.964947,-0.0113318,-0.000193326,-0.00368569,-2.30149e-05,71,11,1.14163e-08,71,-56.0061,67.0061,3.092
2.95778,2.96783,0.962025,0.964946,-0.0113586,-0.000157675,-0.00369443,-4.41342e-05,72,11,1.78553e-08,72,-56.0062,67.0062,3.096
2.95773,2.96783,0.96201,0.964946,-0.0113855,-0.000133907,-0.00370318,-8.70046e-05,72,10,2.98935e-08,72,-56.0062,66.0062,3.1
2.95769,2.96783,0.961995,0.964945,-0.0114125,-0.000118063,-0.00371194,-8.6794e-05,72,11,2.62924e-08,72,-56.0063,67.0063,3.104
2.95764,2.96783,0.96198,0.964945,-0.0114394,-0.00013629,-0.0037207,-8.66536e-05,73,11,3.03026e-08,73,-56.0063,67.0063,3.108
