peachynonah/Fire_monitor_KIRO_CDSL/csv_datas/trial13/cdsl_data_t14_1_FLDOB_u.csv
joint1_pos_desired, joint1_pos, joint2_pos_desired, joint2_pos, joint1_vel_desired, joint1_vel_filtered, joint2_vel_desired, joint2_vel_filtered, target_torque_joint1, target_torque_joint2, estimated_disturbance_joint1, saturated_DOB_joint1, estimated_disturbance_joint2, saturated_DOB_joint2, current_time
3.13953e-11,-0.000667834,1.03984e-11,-6.70253e-05,2.35453e-08,0,7.79844e-09,0,-7,0,-0,-0,-98.3494,-98.3494,0.004
2.51125e-10,-0.000668525,8.3175e-11,-6.70253e-05,9.41623e-08,-5.75818e-05,3.11875e-08,0,-7,0,0.0328375,0.0328375,-98.3462,-98.3462,0.008
8.47419e-10,-0.00066818,2.80674e-10,-6.66798e-05,2.11823e-07,-9.59697e-06,7.01579e-08,2.87909e-05,-7,0,0.0678533,0.0678533,-98.343,-98.343,0.012
2.00839e-09,-0.00066818,6.65201e-10,-6.66798e-05,3.76499e-07,-6.39798e-06,1.247e-07,1.91939e-05,-7,0,0.100941,0.100941,-98.341,-98.341,0.016
3.92206e-09,-0.00066818,1.29903e-09,-6.70253e-05,5.88161e-07,-4.26532e-06,1.94805e-07,-1.5995e-05,-7,0,0.133902,0.133902,-98.3384,-98.3384,0.02
6.7763e-09,-0.00066818,2.24438e-09,-6.70253e-05,8.46783e-07,-2.84355e-06,2.80463e-07,-1.06633e-05,-7,0,0.166784,0.166784,-98.3345,-98.3345,0.024
1.07589e-08,-0.00066818,3.56346e-09,-6.70253e-05,1.15234e-06,-1.8957e-06,3.81665e-07,-7.10887e-06,-7,0,0.199617,0.199617,-98.3308,-98.3308,0.028
1.60575e-08,-0.00066818,5.31841e-09,-6.70253e-05,1.50479e-06,-1.2638e-06,4.98402e-07,-4.73925e-06,-7,0,0.232424,0.232424,-98.3272,-98.3272,0.032
2.28597e-08,-0.00066818,7.57137e-09,-6.70253e-05,1.90412e-06,-8.42533e-07,6.30663e-07,-3.1595e-06,-7,0,0.265221,0.265221,-98.3238,-98.3238,0.036
3.13529e-08,-0.00066818,1.03844e-08,-6.70253e-05,2.35029e-06,-5.61689e-07,7.78441e-07,-2.10633e-06,-7,0,0.298017,0.298017,-98.3204,-98.3204,0.04
4.17245e-08,-0.00066818,1.38196e-08,-6.70253e-05,2.84328e-06,-3.74459e-07,9.41725e-07,-1.40422e-06,-7,0,0.330821,0.330821,-98.317,-98.317,0.044
5.41616e-08,-0.00066818,1.79389e-08,-6.70253e-05,3.38307e-06,-2.49639e-07,1.12051e-06,-9.36148e-07,-7,0,0.363639,0.363639,-98.3136,-98.3136,0.048
6.88513e-08,-0.00066818,2.28043e-08,-6.70253e-05,3.96961e-06,-1.66426e-07,1.31477e-06,-6.24098e-07,-7,0,0.396476,0.396476,-98.3103,-98.3103,0.052
8.59808e-08,-0.00066818,2.84777e-08,-6.70253e-05,4.60288e-06,-1.10951e-07,1.52452e-06,-4.16066e-07,-7,0,0.429335,0.429335,-98.307,-98.307,0.056
1.05737e-07,-0.00066818,3.50211e-08,-6.70253e-05,5.28287e-06,-7.39672e-08,1.74974e-06,-2.77377e-07,-7,0,0.46222,0.46222,-98.3036,-98.3036,0.06
1.28306e-07,-0.00066818,4.24962e-08,-6.70253e-05,6.00952e-06,-4.93115e-08,1.99042e-06,-1.84918e-07,-7,0,0.495134,0.495134,-98.3003,-98.3003,0.064
1.53875e-07,-0.00066818,5.0965e-08,-6.70253e-05,6.78283e-06,-3.28743e-08,2.24654e-06,-1.23279e-07,-7,0,0.528079,0.528079,-98.297,-98.297,0.068
1.82631e-07,-0.00066818,6.04892e-08,-6.70253e-05,7.60276e-06,-2.19162e-08,2.51811e-06,-8.21858e-08,-8,0,0.561058,0.561058,-98.2936,-98.2936,0.072
2.14759e-07,-0.00066818,7.11305e-08,-6.70253e-05,8.46927e-06,-1.46108e-08,2.80511e-06,-5.47905e-08,-8,0,0.594073,0.594073,-98.2902,-98.2902,0.076
2.50447e-07,-0.00066818,8.29506e-08,-6.70253e-05,9.38236e-06,-9.74054e-09,3.10753e-06,-3.6527e-08,-8,0,0.627126,0.627126,-98.2869,-98.2869,0.08
2.8988e-07,-0.00066818,9.60113e-08,-6.70253e-05,1.0342e-05,-6.49369e-09,3.42537e-06,-2.43513e-08,-8,0,0.66022,0.66022,-98.2835,-98.2835,0.084
3.33245e-07,-0.00066818,1.10374e-07,-6.70253e-05,1.13481e-05,-4.32913e-09,3.75861e-06,-1.62342e-08,-8,0,0.693358,0.693358,-98.2801,-98.2801,0.088
3.80727e-07,-0.00066818,1.26101e-07,-6.70253e-05,1.24007e-05,-2.88609e-09,4.10724e-06,-1.08228e-08,-8,0,0.72654,0.72654,-98.2766,-98.2766,0.092
4.32512e-07,-0.00066818,1.43253e-07,-6.70253e-05,1.34998e-05,-1.92406e-09,4.47126e-06,-7.21521e-09,-8,0,0.75977,0.75977,-98.2732,-98.2732,0.096
4.88787e-07,-0.00066818,1.61891e-07,-6.70253e-05,1.46452e-05,-1.2827e-09,4.85066e-06,-4.81014e-09,-8,0,0.793049,0.793049,-98.2698,-98.2698,0.1
5.49736e-07,-0.00066818,1.82078e-07,-6.70253e-05,1.58371e-05,-8.55136e-10,5.24542e-06,-3.20676e-09,-8,0,0.826381,0.826381,-98.2663,-98.2663,0.104
6.15546e-07,-0.00066818,2.03875e-07,-6.70253e-05,1.70754e-05,-5.70091e-10,5.65554e-06,-2.13784e-09,-8,0,0.859766,0.859766,-98.2628,-98.2628,0.108
6.86401e-07,-0.00066818,2.27343e-07,-6.70253e-05,1.836e-05,-3.80061e-10,6.081e-06,-1.42523e-09,-8,0,0.893208,0.893208,-98.2593,-98.2593,0.112
7.62487e-07,-0.00066818,2.52544e-07,-6.66798e-05,1.96908e-05,-2.53374e-10,6.52181e-06,2.879e-05,-8,0,0.926709,0.926709,-98.2559,-98.2559,0.116
8.43989e-07,-0.00066818,2.79538e-07,-6.70253e-05,2.1068e-05,-1.68916e-10,6.97794e-06,-9.59761e-06,-8,0,0.96027,0.96027,-98.2535,-98.2535,0.12
9.31093e-07,-0.00066818,3.08387e-07,-6.70253e-05,2.24915e-05,-1.12611e-10,7.4494e-06,-6.39841e-06,-8,0,0.993894,0.993894,-98.2495,-98.2495,0.124
1.02398e-06,-0.00066818,3.39154e-07,-6.70253e-05,2.39611e-05,-7.50737e-11,7.93616e-06,-4.2656e-06,-8,0,1.02758,1.02758,-98.2456,-98.2456,0.128
1.12284e-06,-0.00066818,3.71897e-07,-6.70253e-05,2.5477e-05,-5.00491e-11,8.43823e-06,-2.84374e-06,-8,0,1.06134,1.06134,-98.2419,-98.2419,0.132
1.22786e-06,-0.00066818,4.0668e-07,-6.70253e-05,2.7039e-05,-3.33661e-11,8.95559e-06,-1.89582e-06,-8,0,1.09517,1.09517,-98.2381,-98.2381,0.136
1.33922e-06,-0.00066818,4.43562e-07,-6.70253e-05,2.86472e-05,-2.22441e-11,9.48823e-06,-1.26388e-06,-8,0,1.12907,1.12907,-98.2344,-98.2344,0.14
1.4571e-06,-0.000668525,4.82606e-07,-6.70253e-05,3.03014e-05,-2.87909e-05,1.00361e-05,-8.42588e-07,-9,0,1.16313,1.16313,-98.2307,-98.2307,0.144
1.58169e-06,-0.00066818,5.23872e-07,-6.63343e-05,3.20018e-05,9.59697e-06,1.05993e-05,5.70201e-05,-8,0,1.19831,1.19831,-98.2271,-98.2271,0.148
1.71317e-06,-0.000668525,5.67421e-07,-6.70253e-05,3.37482e-05,-2.23929e-05,1.11778e-05,-1.95684e-05,-9,-1,1.23213,1.23213,-98.2256,-98.2256,0.152
1.85174e-06,-0.000667489,6.13314e-07,-6.70253e-05,3.55407e-05,7.14441e-05,1.17714e-05,-1.30456e-05,-8,-1,1.26703,1.26703,-98.221,-98.221,0.156
1.99756e-06,-0.00066818,6.61613e-07,-6.70253e-05,3.73792e-05,-9.95242e-06,1.23804e-05,-8.69708e-06,-9,-1,1.29848,1.29848,-98.2167,-98.2167,0.16
2.15083e-06,-0.000667489,7.12377e-07,-6.70253e-05,3.92636e-05,5.09469e-05,1.30045e-05,-5.79805e-06,-8,-1,1.3331,1.3331,-98.2125,-98.2125,0.164
2.31173e-06,-0.000667834,7.65669e-07,-6.70253e-05,4.1194e-05,5.17368e-06,1.36439e-05,-3.86537e-06,-9,-1,1.36549,1.36549,-98.2084,-98.2084,0.168
2.48044e-06,-0.000667489,8.21549e-07,-6.70253e-05,4.31703e-05,3.224e-05,1.42984e-05,-2.57691e-06,-8,-1,1.39973,1.39973,-98.2044,-98.2044,0.172
2.65716e-06,-0.000667834,8.80077e-07,-6.70253e-05,4.51925e-05,-7.29756e-06,1.49682e-05,-1.71794e-06,-9,-1,1.43309,1.43309,-98.2004,-98.2004,0.176
2.84205e-06,-0.000667834,9.41315e-07,-6.70253e-05,4.72605e-05,-4.86504e-06,1.56532e-05,-1.14529e-06,-9,-1,1.46812,1.46812,-98.1964,-98.1964,0.18
3.0353e-06,-0.000667834,1.00532e-06,-6.70253e-05,4.93744e-05,-3.24336e-06,1.63533e-05,-7.6353e-07,-9,-1,1.50316,1.50316,-98.1924,-98.1924,0.184
3.2371e-06,-0.000667834,1.07216e-06,-6.70253e-05,5.15341e-05,-2.16224e-06,1.70686e-05,-5.0902e-07,-9,-1,1.53822,1.53822,-98.1884,-98.1884,0.188
3.44763e-06,-0.000667834,1.14189e-06,-6.70253e-05,5.37396e-05,-1.44149e-06,1.77991e-05,-3.39347e-07,-9,-1,1.57334,1.57334,-98.1843,-98.1843,0.192
3.66708e-06,-0.000667834,1.21457e-06,-6.63343e-05,5.59908e-05,-9.60996e-07,1.85447e-05,5.73556e-05,-9,0,1.60854,1.60854,-98.1804,-98.1804,0.196
3.89562e-06,-0.000667834,1.29027e-06,-6.70253e-05,5.82877e-05,-6.40664e-07,1.93055e-05,-1.93448e-05,-9,-1,1.64382,1.64382,-98.1786,-98.1786,0.2
4.13344e-06,-0.000667834,1.36904e-06,-6.70253e-05,6.06304e-05,-4.27109e-07,2.00814e-05,-1.28965e-05,-9,-1,1.6792,1.6792,-98.1736,-98.1736,0.204
4.38073e-06,-0.000667834,1.45094e-06,-6.70253e-05,6.30187e-05,-2.8474e-07,2.08724e-05,-8.59768e-06,-9,-1,1.71468,1.71468,-98.1689,-98.1689,0.208
4.63765e-06,-0.000667834,1.53604e-06,-6.70253e-05,6.54526e-05,-1.89826e-07,2.16786e-05,-5.73178e-06,-9,-1,1.75027,1.75027,-98.1643,-98.1643,0.212
4.90441e-06,-0.000667834,1.62439e-06,-6.70253e-05,6.79321e-05,-1.26551e-07,2.24998e-05,-3.82119e-06,-9,-1,1.78597,1.78597,-98.1599,-98.1599,0.216
5.18117e-06,-0.000667834,1.71606e-06,-6.70253e-05,7.04573e-05,-8.43673e-08,2.33362e-05,-2.54746e-06,-9,-1,1.82179,1.82179,-98.1554,-98.1554,0.22
5.46813e-06,-0.000667834,1.8111e-06,-6.70253e-05,7.3028e-05,-5.62448e-08,2.41876e-05,-1.69831e-06,-10,-1,1.85773,1.85773,-98.151,-98.151,0.224
5.76545e-06,-0.000667834,1.90958e-06,-6.70253e-05,7.56442e-05,-3.74966e-08,2.50541e-05,-1.1322e-06,-10,-1,1.8938,1.8938,-98.1465,-98.1465,0.228
6.07334e-06,-0.000667834,2.01155e-06,-6.70253e-05,7.83059e-05,-2.49977e-08,2.59357e-05,-7.54803e-07,-10,-1,1.92999,1.92999,-98.1421,-98.1421,0.232
6.39196e-06,-0.000667834,2.11708e-06,-6.70253e-05,8.10131e-05,-1.66651e-08,2.68324e-05,-5.03202e-07,-10,-1,1.9663,1.9663,-98.1376,-98.1376,0.236
6.7215e-06,-0.000667834,2.22623e-06,-6.70253e-05,8.37657e-05,-1.11101e-08,2.77441e-05,-3.35468e-07,-10,-1,2.00275,2.00275,-98.1331,-98.1331,0.24
7.06215e-06,-0.000667834,2.33906e-06,-6.70253e-05,8.65637e-05,-7.40673e-09,2.86708e-05,-2.23645e-07,-10,-1,2.03933,2.03933,-98.1285,-98.1285,0.244
7.41408e-06,-0.000667834,2.45562e-06,-6.70253e-05,8.94072e-05,-4.93782e-09,2.96126e-05,-1.49097e-07,-10,-1,2.07605,2.07605,-98.1239,-98.1239,0.248
7.77747e-06,-0.000667834,2.57598e-06,-6.70253e-05,9.22959e-05,-3.29188e-09,3.05694e-05,-9.93979e-08,-10,-1,2.11291,2.11291,-98.1193,-98.1193,0.252
8.1525e-06,-0.000667834,2.70019e-06,-6.70253e-05,9.52301e-05,-2.19459e-09,3.15412e-05,-6.62653e-08,-10,-1,2.14991,2.14991,-98.1146,-98.1146,0.256
8.53937e-06,-0.000667834,2.82833e-06,-6.70253e-05,9.82095e-05,-1.46306e-09,3.2528e-05,-4.41768e-08,-10,-1,2.18705,2.18705,-98.1099,-98.1099,0.26
8.93824e-06,-0.000667834,2.96044e-06,-6.70253e-05,0.000101234,-9.75372e-10,3.35298e-05,-2.94512e-08,-10,-1,2.22434,2.22434,-98.1051,-98.1051,0.264
9.3493e-06,-0.000667834,3.09658e-06,-6.70253e-05,0.000104304,-6.50248e-10,3.45466e-05,-1.96342e-08,-10,-1,2.26178,2.26178,-98.1003,-98.1003,0.268
9.77273e-06,-0.000667834,3.23683e-06,-6.70253e-05,0.000107419,-4.33499e-10,3.55784e-05,-1.30894e-08,-10,-1,2.29937,2.29937,-98.0954,-98.0954,0.272
1.02087e-05,-0.000667834,3.38123e-06,-6.63343e-05,0.00011058,-2.88999e-10,3.66251e-05,5.75731e-05,-10,0,2.33712,2.33712,-98.0907,-98.0907,0.276
1.06574e-05,-0.000667834,3.52985e-06,-6.70253e-05,0.000113785,-1.92666e-10,3.76868e-05,-1.91998e-05,-10,-1,2.37502,2.37502,-98.0879,-98.0879,0.28
1.11191e-05,-0.000667834,3.68274e-06,-6.70253e-05,0.000117036,-1.28444e-10,3.87634e-05,-1.27998e-05,-11,-1,2.41308,2.41308,-98.0821,-98.0821,0.284
1.15938e-05,-0.000667834,3.83998e-06,-6.70253e-05,0.000120332,-8.56293e-11,3.9855e-05,-8.53323e-06,-11,-1,2.4513,2.4513,-98.0765,-98.0765,0.288
1.20818e-05,-0.000667834,4.0016e-06,-6.70253e-05,0.000123672,-5.70862e-11,4.09615e-05,-5.68882e-06,-11,-1,2.48969,2.48969,-98.071,-98.071,0.292
1.25832e-05,-0.00066818,4.16769e-06,-6.70253e-05,0.000127058,-2.8791e-05,4.2083e-05,-3.79255e-06,-11,-1,2.52833,2.52833,-98.0656,-98.0656,0.296
1.30983e-05,-0.000667489,4.33829e-06,-6.70253e-05,0.000130489,3.83879e-05,4.32193e-05,-2.52836e-06,-10,-1,2.56809,2.56809,-98.0602,-98.0602,0.3
1.36272e-05,-0.00066818,4.51346e-06,-6.73708e-05,0.000133965,-3.19899e-05,4.43706e-05,-3.04765e-05,-11,-1,2.60555,2.60555,-98.0547,-98.0547,0.304
1.41701e-05,-0.000667143,4.69327e-06,-6.70253e-05,0.000137486,6.50462e-05,4.55368e-05,8.47326e-06,-10,-1,2.6457,2.6457,-98.0482,-98.0482,0.308
1.47271e-05,-0.000667489,4.87778e-06,-6.70253e-05,0.000141052,1.45732e-05,4.67178e-05,5.64884e-06,-11,-1,2.68229,2.68229,-98.0431,-98.0431,0.312
1.52985e-05,-0.000667489,5.06704e-06,-6.70253e-05,0.000144663,9.71545e-06,4.79137e-05,3.76589e-06,-11,-1,2.72109,2.72109,-98.0379,-98.0379,0.316
1.58845e-05,-0.000667489,5.26111e-06,-6.63343e-05,0.000148318,6.47697e-06,4.91245e-05,6.00924e-05,-11,0,2.76028,2.76028,-98.0327,-98.0327,0.32
1.64852e-05,-0.000667489,5.46005e-06,-6.70253e-05,0.000152019,4.31798e-06,5.03501e-05,-1.75202e-05,-11,-1,2.79979,2.79979,-98.0294,-98.0294,0.324
1.71007e-05,-0.000667489,5.66393e-06,-6.70253e-05,0.000155764,2.87865e-06,5.15906e-05,-1.16801e-05,-11,-1,2.83957,2.83957,-98.023,-98.023,0.328
1.77313e-05,-0.000667489,5.8728e-06,-6.70253e-05,0.000159554,1.9191e-06,5.28459e-05,-7.78676e-06,-11,-1,2.87961,2.87961,-98.0168,-98.0168,0.332
1.83772e-05,-0.000667489,6.08671e-06,-6.70253e-05,0.000163389,1.2794e-06,5.41161e-05,-5.19118e-06,-12,-1,2.91988,2.91988,-98.0107,-98.0107,0.336
1.90385e-05,-0.000667489,6.30574e-06,-6.63343e-05,0.000167269,8.52934e-07,5.5401e-05,5.41211e-05,-12,-1,2.96037,2.96037,-98.0048,-98.0048,0.34
1.97154e-05,-0.000667489,6.52994e-06,-6.73708e-05,0.000171193,5.68623e-07,5.67008e-05,-5.02921e-05,-12,-2,3.00108,3.00108,-98.0009,-98.0009,0.344
2.04081e-05,-0.000667489,6.75937e-06,-6.70253e-05,0.000175162,3.79082e-07,5.80154e-05,-4.73712e-06,-12,-1,3.042,3.042,-97.9929,-97.9929,0.348
2.11168e-05,-0.000667489,6.99409e-06,-6.70253e-05,0.000179176,2.52721e-07,5.93448e-05,-3.15808e-06,-12,-1,3.08313,3.08313,-97.9867,-97.9867,0.352
2.18416e-05,-0.000667489,7.23415e-06,-6.70253e-05,0.000183234,1.68481e-07,6.06889e-05,-2.10539e-06,-12,-1,3.12448,3.12448,-97.9805,-97.9805,0.356
2.25827e-05,-0.000667489,7.47962e-06,-6.70253e-05,0.000187337,1.12321e-07,6.20479e-05,-1.40359e-06,-12,-1,3.16604,3.16604,-97.9742,-97.9742,0.36
2.33403e-05,-0.000667489,7.73055e-06,-6.70253e-05,0.000191484,7.48803e-08,6.34216e-05,-9.35727e-07,-12,-1,3.20781,3.20781,-97.9679,-97.9679,0.364
2.41146e-05,-0.000667489,7.98701e-06,-6.70253e-05,0.000195676,4.99202e-08,6.481e-05,-6.23818e-07,-12,-1,3.2498,3.2498,-97.9615,-97.9615,0.368
2.49058e-05,-0.000667489,8.24905e-06,-6.73708e-05,0.000199913,3.32802e-08,6.62132e-05,-2.92068e-05,-12,-2,3.292,3.292,-97.955,-97.955,0.372
2.5714e-05,-0.000667489,8.51673e-06,-6.70253e-05,0.000204194,2.21868e-08,6.76312e-05,9.31972e-06,-12,-1,3.33443,3.33443,-97.9474,-97.9474,0.376
2.65394e-05,-0.000667489,8.79012e-06,-6.70253e-05,0.00020852,1.47912e-08,6.90638e-05,6.21315e-06,-13,-1,3.37708,3.37708,-97.9413,-97.9413,0.38
2.73822e-05,-0.000667489,9.06927e-06,-6.70253e-05,0.00021289,9.86079e-09,7.05112e-05,4.1421e-06,-13,-1,3.41996,3.41996,-97.9349,-97.9349,0.384
2.82426e-05,-0.000667489,9.35423e-06,-6.70253e-05,0.000217304,6.57386e-09,7.19733e-05,2.7614e-06,-13,-1,3.46306,3.46306,-97.9284,-97.9284,0.388
2.91207e-05,-0.000667489,9.64507e-06,-6.70253e-05,0.000221763,4.38257e-09,7.34501e-05,1.84093e-06,-13,-1,3.5064,3.5064,-97.9217,-97.9217,0.392
3.00167e-05,-0.000667489,9.94185e-06,-6.70253e-05,0.000226266,2.92171e-09,7.49416e-05,1.22729e-06,-13,-1,3.54997,3.54997,-97.915,-97.915,0.396
3.09309e-05,-0.000667489,1.02446e-05,-6.70253e-05,0.000230814,1.94781e-09,7.64478e-05,8.18192e-07,-13,-2,3.59378,3.59378,-97.9081,-97.9081,0.4
3.18633e-05,-0.000667489,1.05535e-05,-6.73708e-05,0.000235405,1.29854e-09,7.79686e-05,-2.82455e-05,-13,-2,3.63783,3.63783,-97.901,-97.901,0.404
3.28142e-05,-0.000667489,1.08684e-05,-6.70253e-05,0.000240041,8.65693e-10,7.95042e-05,9.96062e-06,-13,-1,3.68212,3.68212,-97.8929,-97.8929,0.408
3.37837e-05,-0.000667489,1.11895e-05,-6.70253e-05,0.000244722,5.77129e-10,8.10543e-05,6.64041e-06,-13,-2,3.72665,3.72665,-97.8861,-97.8861,0.412
3.4772e-05,-0.000666798,1.15168e-05,-6.70253e-05,0.000249446,5.75822e-05,8.26191e-05,4.42694e-06,-13,-2,3.77126,3.77126,-97.8792,-97.8792,0.416
3.57793e-05,-0.000667489,1.18505e-05,-6.70253e-05,0.000254215,-1.91937e-05,8.41986e-05,2.95129e-06,-14,-2,3.81403,3.81403,-97.872,-97.872,0.42
3.68058e-05,-0.000666798,1.21905e-05,-6.70253e-05,0.000259028,4.47861e-05,8.57927e-05,1.96753e-06,-13,-2,3.85994,3.85994,-97.8647,-97.8647,0.424
3.78516e-05,-0.000667489,1.25368e-05,-6.70253e-05,0.000263885,-2.77245e-05,8.74014e-05,1.31169e-06,-14,-2,3.90375,3.90375,-97.8573,-97.8573,0.428
3.89169e-05,-0.000667834,1.28897e-05,-6.70253e-05,0.000268786,-4.72739e-05,8.90247e-05,8.74457e-07,-14,-2,3.9508,3.9508,-97.8498,-97.8498,0.432
4.0002e-05,-0.000666798,1.32491e-05,-6.70253e-05,0.000273731,5.48568e-05,9.06626e-05,5.82972e-07,-13,-2,3.99859,3.99859,-97.8422,-97.8422,0.436
4.11068e-05,-0.000667834,1.3615e-05,-6.70253e-05,0.00027872,-4.98016e-05,9.23151e-05,3.88648e-07,-15,-2,4.04286,4.04286,-97.8345,-97.8345,0.44
4.22318e-05,-0.000667489,1.39876e-05,-6.70253e-05,0.000283754,-4.41011e-06,9.39821e-05,2.59098e-07,-14,-2,4.09146,4.09146,-97.8266,-97.8266,0.444
4.33769e-05,-0.000667489,1.43669e-05,-6.70253e-05,0.000288831,-2.94007e-06,9.56638e-05,1.72732e-07,-14,-2,4.13851,4.13851,-97.8187,-97.8187,0.448
4.45425e-05,-0.000666798,1.47529e-05,-6.63343e-05,0.000293952,5.56218e-05,9.736e-05,5.7697e-05,-14,-1,4.1856,4.1856,-97.8109,-97.8109,0.452
4.57286e-05,-0.000667489,1.51458e-05,-6.70253e-05,0.000299118,-2.05006e-05,9.90708e-05,-1.91172e-05,-15,-2,4.23083,4.23083,-97.805,-97.805,0.456
4.69355e-05,-0.000667143,1.55455e-05,-6.70253e-05,0.000304327,1.51238e-05,0.000100796,-1.27448e-05,-14,-2,4.2793,4.2793,-97.7961,-97.7961,0.46
4.81633e-05,-0.000667143,1.59522e-05,-6.70253e-05,0.00030958,1.00826e-05,0.000102536,-8.49652e-06,-15,-2,4.32663,4.32663,-97.7872,-97.7872,0.464
4.94122e-05,-0.000667143,1.63658e-05,-6.63343e-05,0.000314876,6.7217e-06,0.00010429,5.19175e-05,-15,-1,4.37445,4.37445,-97.7787,-97.7787,0.468
5.06824e-05,-0.000666798,1.67865e-05,-6.70253e-05,0.000320217,3.32721e-05,0.000106059,-2.29702e-05,-15,-2,4.42262,4.42262,-97.7722,-97.7722,0.472
5.1974e-05,-0.000667143,1.72143e-05,-6.73708e-05,0.000325602,-6.60955e-06,0.000107843,-4.41044e-05,-15,-2,4.47012,4.47012,-97.7626,-97.7626,0.476
5.32872e-05,-0.000667143,1.76493e-05,-6.70253e-05,0.00033103,-4.40637e-06,0.00010964,-6.11995e-07,-15,-2,4.51952,4.51952,-97.7522,-97.7522,0.48
5.46223e-05,-0.000667143,1.80915e-05,-6.70253e-05,0.000336502,-2.93758e-06,0.000111453,-4.07997e-07,-15,-2,4.56911,4.56911,-97.7434,-97.7434,0.484
5.59793e-05,-0.000667143,1.85409e-05,-6.73708e-05,0.000342018,-1.95839e-06,0.00011328,-2.90629e-05,-15,-2,4.61895,4.61895,-97.7344,-97.7344,0.488
5.73585e-05,-0.000667143,1.89977e-05,-6.70253e-05,0.000347577,-1.30559e-06,0.000115121,9.41564e-06,-16,-2,4.66905,4.66905,-97.7243,-97.7243,0.492
5.876e-05,-0.000667143,1.94619e-05,-6.70253e-05,0.00035318,-8.70394e-07,0.000116977,6.2771e-06,-16,-2,4.71943,4.71943,-97.7156,-97.7156,0.496
6.0184e-05,-0.000667143,1.99335e-05,-6.70253e-05,0.000358827,-5.80263e-07,0.000118847,4.18473e-06,-16,-2,4.77009,4.77009,-97.7067,-97.7067,0.5
6.16306e-05,-0.000667143,2.04127e-05,-6.70253e-05,0.000364517,-3.86842e-07,0.000120732,2.78982e-06,-16,-2,4.82106,4.82106,-97.6976,-97.6976,0.504
6.31002e-05,-0.000667143,2.08994e-05,-6.73708e-05,0.000370251,-2.57894e-07,0.000122631,-2.6931e-05,-16,-3,4.87233,4.87233,-97.6883,-97.6883,0.508
6.45927e-05,-0.000666452,2.13938e-05,-6.70253e-05,0.000376029,5.74099e-05,0.000124545,1.08369e-05,-16,-2,4.92374,4.92374,-97.6778,-97.6778,0.512
6.61085e-05,-0.000667143,2.18958e-05,-6.70253e-05,0.00038185,-1.93086e-05,0.000126473,7.2246e-06,-16,-2,4.97338,4.97338,-97.6687,-97.6687,0.516
6.76476e-05,-0.000667489,2.24056e-05,-6.70253e-05,0.000387714,-4.16633e-05,0.000128415,4.8164e-06,-17,-2,5.02649,5.02649,-97.6593,-97.6593,0.52
6.92102e-05,-0.000667143,2.29231e-05,-6.70253e-05,0.000393622,1.01539e-06,0.000130372,3.21093e-06,-17,-2,5.0807,5.0807,-97.6497,-97.6497,0.524
7.07966e-05,-0.000666798,2.34486e-05,-6.70253e-05,0.000399574,2.94679e-05,0.000132343,2.14062e-06,-16,-2,5.13345,5.13345,-97.6399,-97.6399,0.528
7.24069e-05,-0.000666798,2.39819e-05,-6.70253e-05,0.000405569,1.96452e-05,0.000134328,1.42708e-06,-17,-2,5.1854,5.1854,-97.63,-97.63,0.532
7.40412e-05,-0.000666798,2.45232e-05,-6.63343e-05,0.000411607,1.30968e-05,0.000136328,5.85332e-05,-17,-2,5.23811,5.23811,-97.6201,-97.6201,0.536
7.56998e-05,-0.000666798,2.50725e-05,-6.70253e-05,0.000417689,8.73121e-06,0.000138343,-1.85597e-05,-17,-3,5.29142,5.29142,-97.6121,-97.6121,0.54
7.73828e-05,-0.000666798,2.563e-05,-6.70253e-05,0.000423814,5.82081e-06,0.000140371,-1.23731e-05,-17,-3,5.34526,5.34526,-97.601,-97.601,0.544
7.90904e-05,-0.000666798,2.61955e-05,-6.70253e-05,0.000429982,3.88054e-06,0.000142414,-8.24875e-06,-17,-3,5.39957,5.39957,-97.5901,-97.5901,0.548
8.08227e-05,-0.000666798,2.67693e-05,-6.73708e-05,0.000436193,2.58703e-06,0.000144472,-3.42901e-05,-17,-3,5.4543,5.4543,-97.5791,-97.5791,0.552
8.258e-05,-0.000666798,2.73513e-05,-6.70253e-05,0.000442448,1.72468e-06,0.000146543,5.93086e-06,-18,-3,5.50944,5.50944,-97.567,-97.567,0.556
8.43623e-05,-0.000666798,2.79417e-05,-6.70253e-05,0.000448746,1.14979e-06,0.000148629,3.95391e-06,-18,-3,5.56497,5.56497,-97.5565,-97.5565,0.56
8.617e-05,-0.000666798,2.85404e-05,-6.70253e-05,0.000455087,7.66526e-07,0.00015073,2.63594e-06,-18,-3,5.62088,5.62088,-97.5457,-97.5457,0.564
8.80031e-05,-0.000666798,2.91475e-05,-6.70253e-05,0.000461472,5.11018e-07,0.000152844,1.75729e-06,-18,-3,5.67716,5.67716,-97.5348,-97.5348,0.568
8.98618e-05,-0.000667143,2.97632e-05,-6.70253e-05,0.000467899,-2.84502e-05,0.000154973,1.17153e-06,-18,-3,5.73391,5.73391,-97.5237,-97.5237,0.572
9.17463e-05,-0.000666798,3.03873e-05,-6.70253e-05,0.00047437,9.82409e-06,0.000157116,7.81019e-07,-18,-3,5.79207,5.79207,-97.5125,-97.5125,0.576
9.36568e-05,-0.000666798,3.10201e-05,-6.73708e-05,0.000480884,6.5494e-06,0.000159274,-2.82702e-05,-18,-3,5.84908,5.84908,-97.501,-97.501,0.58
9.55935e-05,-0.000666798,3.16615e-05,-6.70253e-05,0.000487441,4.36626e-06,0.000161445,9.94409e-06,-19,-3,5.90659,5.90659,-97.4884,-97.4884,0.584
9.75564e-05,-0.000666452,3.23117e-05,-6.63343e-05,0.00049404,3.17018e-05,0.000163631,6.42112e-05,-18,-2,5.96448,5.96448,-97.4773,-97.4773,0.588
9.95459e-05,-0.000666452,3.29706e-05,-6.73708e-05,0.000500683,2.11345e-05,0.000165831,-4.35653e-05,-19,-3,6.02169,6.02169,-97.468,-97.468,0.592
0.000101562,-0.000666452,3.36384e-05,-6.70253e-05,0.000507369,1.40897e-05,0.000168046,-2.52593e-07,-19,-3,6.07971,6.07971,-97.4543,-97.4543,0.596
0.000103605,-0.000666452,3.4315e-05,-6.70253e-05,0.000514098,9.39312e-06,0.000170274,-1.68396e-07,-19,-3,6.13841,6.13841,-97.4423,-97.4423,0.6
0.000105675,-0.000666452,3.50006e-05,-6.70253e-05,0.00052087,6.26208e-06,0.000172517,-1.12264e-07,-19,-3,6.1977,6.1977,-97.4302,-97.4302,0.604
0.000107772,-0.000666452,3.56951e-05,-6.70253e-05,0.000527684,4.17472e-06,0.000174774,-7.48425e-08,-19,-3,6.25751,6.25751,-97.4179,-97.4179,0.608
0.000109896,-0.000666452,3.63988e-05,-6.70253e-05,0.000534542,2.78315e-06,0.000177046,-4.9895e-08,-20,-3,6.3178,6.3178,-97.4055,-97.4055,0.612
0.000112048,-0.000666452,3.71115e-05,-6.70253e-05,0.000541442,1.85543e-06,0.000179331,-3.32633e-08,-20,-3,6.37854,6.37854,-97.3929,-97.3929,0.616
0.000114228,-0.000666452,3.78334e-05,-6.70253e-05,0.000548385,1.23695e-06,0.000181631,-2.21755e-08,-20,-3,6.43973,6.43973,-97.3803,-97.3803,0.62
0.000116435,-0.000666452,3.85646e-05,-6.70253e-05,0.000555371,8.24636e-07,0.000183945,-1.47837e-08,-20,-3,6.50134,6.50134,-97.3674,-97.3674,0.624
0.000118671,-0.000666452,3.9305e-05,-6.70253e-05,0.0005624,5.49757e-07,0.000186273,-9.8558e-09,-20,-3,6.56338,6.56338,-97.3545,-97.3545,0.628
0.000120935,-0.000666452,4.00548e-05,-6.70253e-05,0.000569471,3.66505e-07,0.000188615,-6.57053e-09,-20,-3,6.62584,6.62584,-97.3414,-97.3414,0.632
0.000123227,-0.000666452,4.0814e-05,-6.63343e-05,0.000576585,2.44337e-07,0.000190971,5.75775e-05,-20,-3,6.68873,6.68873,-97.3284,-97.3284,0.636
0.000125547,-0.000666452,4.15826e-05,-6.70253e-05,0.000583742,1.62891e-07,0.000193341,-1.91969e-05,-21,-4,6.75203,6.75203,-97.3173,-97.3173,0.64
0.000127897,-0.000666107,4.23607e-05,-6.70253e-05,0.000590942,2.88995e-05,0.000195726,-1.27979e-05,-21,-4,6.81567,6.81567,-97.303,-97.303,0.644
0.000130275,-0.000666107,4.31484e-05,-6.70253e-05,0.000598184,1.92663e-05,0.000198125,-8.53194e-06,-21,-4,6.8786,6.8786,-97.2889,-97.2889,0.648
0.000132682,-0.000666107,4.39457e-05,-6.70253e-05,0.000605468,1.28442e-05,0.000200537,-5.68796e-06,-21,-4,6.94236,6.94236,-97.2748,-97.2748,0.652
0.000135119,-0.000666107,4.47527e-05,-6.70253e-05,0.000612796,8.56282e-06,0.000202964,-3.79197e-06,-21,-4,7.00682,7.00682,-97.2606,-97.2606,0.656
0.000137585,-0.000666107,4.55695e-05,-6.73708e-05,0.000620165,5.70855e-06,0.000205405,-3.13189e-05,-21,-4,7.07189,7.07189,-97.2463,-97.2463,0.66
0.00014008,-0.000666107,4.6396e-05,-6.70253e-05,0.000627578,3.8057e-06,0.00020786,7.91165e-06,-22,-4,7.13752,7.13752,-97.2309,-97.2309,0.664
0.000142605,-0.000666107,4.72324e-05,-6.70253e-05,0.000635032,2.53713e-06,0.000210329,5.27444e-06,-22,-4,7.20367,7.20367,-97.2169,-97.2169,0.668
0.00014516,-0.000666107,4.80786e-05,-6.63343e-05,0.00064253,1.69142e-06,0.000212812,6.10981e-05,-22,-3,7.27031,7.27031,-97.2028,-97.2028,0.672
0.000147746,-0.000665761,4.89349e-05,-6.73708e-05,0.000650069,2.99185e-05,0.00021531,-4.56407e-05,-22,-4,7.33734,7.33734,-97.1905,-97.1905,0.676
0.000150361,-0.000665416,4.98011e-05,-6.70253e-05,0.000657651,4.87366e-05,0.000217821,-1.6362e-06,-22,-4,7.40363,7.40363,-97.1739,-97.1739,0.68
0.000153007,-0.00066507,5.06775e-05,-6.63343e-05,0.000665276,6.1282e-05,0.000220346,5.64911e-05,-22,-4,7.46956,7.46956,-97.1591,-97.1591,0.684
0.000155683,-0.000664725,5.15639e-05,-6.70253e-05,0.000672943,6.96456e-05,0.000222885,-1.99211e-05,-22,-4,7.53542,7.53542,-97.1462,-97.1462,0.688
0.000158391,-0.000664725,5.24606e-05,-6.70253e-05,0.000680652,4.64304e-05,0.000225439,-1.32808e-05,-22,-4,7.60145,7.60145,-97.1302,-97.1302,0.692
0.000161129,-0.000664725,5.33674e-05,-6.70253e-05,0.000688403,3.09536e-05,0.000228006,-8.85384e-06,-23,-4,7.66891,7.66891,-97.1143,-97.1143,0.696
0.000163898,-0.000664725,5.42846e-05,-6.73708e-05,0.000696197,2.06357e-05,0.000230588,-3.46935e-05,-23,-5,7.73749,7.73749,-97.0983,-97.0983,0.7
0.000166698,-0.000664725,5.52122e-05,-6.70253e-05,0.000704033,1.37572e-05,0.000233183,5.66193e-06,-23,-4,7.80697,7.80697,-97.0813,-97.0813,0.704
0.00016953,-0.000664725,5.61501e-05,-6.73708e-05,0.000711911,9.17144e-06,0.000235792,-2.50163e-05,-23,-5,7.8772,7.8772,-97.0656,-97.0656,0.708
0.000172394,-0.000664725,5.70985e-05,-6.70253e-05,0.000719831,6.11429e-06,0.000238415,1.21134e-05,-24,-4,7.94811,7.94811,-97.0486,-97.0486,0.712
0.000175289,-0.000664725,5.80575e-05,-6.70253e-05,0.000727794,4.07619e-06,0.000241053,8.07559e-06,-24,-4,8.01962,8.01962,-97.033,-97.033,0.716
0.000178216,-0.000664725,5.9027e-05,-6.63343e-05,0.000735798,2.71746e-06,0.000243704,6.29656e-05,-24,-4,8.0917,8.0917,-97.0172,-97.0172,0.72
0.000181175,-0.000664725,6.00071e-05,-6.70253e-05,0.000743845,1.81164e-06,0.000246369,-1.56048e-05,-24,-5,8.16432,8.16432,-97.0032,-97.0032,0.724
0.000184167,-0.000664725,6.09979e-05,-6.70253e-05,0.000751934,1.20776e-06,0.000249048,-1.04032e-05,-24,-5,8.23747,8.23747,-96.9859,-96.9859,0.728
0.000187191,-0.000664725,6.19995e-05,-6.70253e-05,0.000760065,8.05174e-07,0.000251741,-6.93547e-06,-25,-5,8.31113,8.31113,-96.9687,-96.9687,0.732
0.000190247,-0.000664725,6.30119e-05,-6.70253e-05,0.000768238,5.36783e-07,0.000254448,-4.62364e-06,-25,-5,8.38531,8.38531,-96.9514,-96.9514,0.736
0.000193337,-0.000664725,6.40351e-05,-6.70253e-05,0.000776453,3.57855e-07,0.000257169,-3.08243e-06,-25,-5,8.46,8.46,-96.9341,-96.9341,0.74
0.000196459,-0.000664725,6.50693e-05,-6.70253e-05,0.000784709,2.3857e-07,0.000259904,-2.05495e-06,-25,-5,8.5352,8.5352,-96.9167,-96.9167,0.744
0.000199615,-0.000664379,6.61144e-05,-6.73708e-05,0.000793008,2.895e-05,0.000262652,-3.01609e-05,-25,-5,8.61082,8.61082,-96.8991,-96.8991,0.748
0.000202803,-0.000664379,6.71705e-05,-6.63343e-05,0.000801349,1.93e-05,0.000265415,6.62655e-05,-25,-4,8.68582,8.68582,-96.8805,-96.8805,0.752
0.000206025,-0.000664379,6.82377e-05,-6.73708e-05,0.000809732,1.28667e-05,0.000268191,-4.21958e-05,-26,-5,8.76174,8.76174,-96.8652,-96.8652,0.756
0.000209281,-0.000664379,6.9316e-05,-6.70253e-05,0.000818156,8.57777e-06,0.000270982,6.60414e-07,-26,-5,8.83845,8.83845,-96.8456,-96.8456,0.76
0.000212571,-0.000664379,7.04056e-05,-6.66798e-05,0.000826622,5.71851e-06,0.000273786,2.92312e-05,-26,-5,8.91585,8.91585,-96.8276,-96.8276,0.764
0.000215894,-0.000664379,7.15063e-05,-6.73708e-05,0.00083513,3.81234e-06,0.000276604,-3.80944e-05,-26,-6,8.9939,8.9939,-96.8103,-96.8103,0.768
0.000219252,-0.000664379,7.26184e-05,-6.70253e-05,0.00084368,2.54156e-06,0.000279435,3.39467e-06,-26,-5,9.07255,9.07255,-96.7904,-96.7904,0.772
0.000222644,-0.000664034,7.37418e-05,-6.70253e-05,0.000852272,3.04853e-05,0.000282281,2.26311e-06,-26,-5,9.1517,9.1517,-96.7719,-96.7719,0.776
0.00022607,-0.000664034,7.48767e-05,-6.73708e-05,0.000860905,2.03235e-05,0.000285141,-2.72822e-05,-27,-6,9.23029,9.23029,-96.753,-96.753,0.78
0.000229531,-0.000664034,7.6023e-05,-6.73708e-05,0.00086958,1.3549e-05,0.000288014,-1.81881e-05,-27,-6,9.30984,9.30984,-96.7329,-96.7329,0.784
0.000233027,-0.000663688,7.71808e-05,-6.70253e-05,0.000878297,3.78236e-05,0.000290901,1.66655e-05,-27,-5,9.39012,9.39012,-96.713,-96.713,0.788
0.000236557,-0.000663688,7.83502e-05,-6.73708e-05,0.000887055,2.52157e-05,0.000293802,-1.76806e-05,-27,-6,9.47,9.47,-96.6943,-96.6943,0.792
0.000240123,-0.000663343,7.95313e-05,-6.70253e-05,0.000895855,4.56014e-05,0.000296716,1.70039e-05,-27,-5,9.55087,9.55087,-96.6741,-96.6741,0.796
0.000243724,-0.000663343,8.0724e-05,-6.63343e-05,0.000904697,3.04009e-05,0.000299645,6.89178e-05,-28,-5,9.63151,9.63151,-96.6553,-96.6553,0.8
0.000247361,-0.000662997,8.19284e-05,-6.63343e-05,0.00091358,4.90582e-05,0.000302587,4.59452e-05,-28,-5,9.71326,9.71326,-96.6383,-96.6383,0.804
0.000251033,-0.000662997,8.31447e-05,-6.70253e-05,0.000922505,3.27055e-05,0.000305543,-2.69517e-05,-28,-6,9.79485,9.79485,-96.62,-96.62,0.808
0.000254741,-0.000662997,8.43728e-05,-6.70253e-05,0.000931471,2.18037e-05,0.000308513,-1.79678e-05,-28,-6,9.87769,9.87769,-96.5986,-96.5986,0.812
0.000258485,-0.000662652,8.56128e-05,-6.70253e-05,0.000940478,4.33267e-05,0.000311496,-1.19785e-05,-28,-6,9.96146,9.96146,-96.5774,-96.5774,0.816
0.000262265,-0.000662652,8.68648e-05,-6.63343e-05,0.000949527,2.88845e-05,0.000314493,4.95962e-05,-29,-6,10.045,10.045,-96.5564,-96.5564,0.82
0.000266081,-0.000662652,8.81288e-05,-6.70253e-05,0.000958618,1.92563e-05,0.000317504,-2.45177e-05,-29,-6,10.1297,10.1297,-96.5375,-96.5375,0.824
0.000269934,-0.000662652,8.94048e-05,-6.70253e-05,0.00096775,1.28375e-05,0.000320529,-1.63452e-05,-29,-6,10.2153,10.2153,-96.5155,-96.5155,0.828
0.000273823,-0.000662652,9.0693e-05,-6.66798e-05,0.000976923,8.55836e-06,0.000323567,1.78941e-05,-30,-6,10.3018,10.3018,-96.4937,-96.4937,0.832
0.000277749,-0.000662306,9.19934e-05,-6.63343e-05,0.000986138,3.44965e-05,0.000326619,4.07204e-05,-29,-6,10.389,10.389,-96.4732,-96.4732,0.836
0.000281712,-0.000662306,9.3306e-05,-6.66798e-05,0.000995394,2.29977e-05,0.000329685,-1.64402e-06,-30,-6,10.4758,10.4758,-96.4532,-96.4532,0.84
0.000285712,-0.000661961,9.46309e-05,-6.73708e-05,0.00100469,4.41227e-05,0.000332764,-5.86779e-05,-30,-7,10.5635,10.5635,-96.4312,-96.4312,0.844
0.00028975,-0.000661961,9.59681e-05,-6.70253e-05,0.00101403,2.94151e-05,0.000335857,-1.03277e-05,-30,-7,10.651,10.651,-96.4069,-96.4069,0.848
0.000293825,-0.000661615,9.73177e-05,-6.70253e-05,0.00102341,4.8401e-05,0.000338964,-6.8851e-06,-30,-7,10.7397,10.7397,-96.3843,-96.3843,0.852
0.000297937,-0.00066127,9.86798e-05,-6.70253e-05,0.00103283,6.10583e-05,0.000342084,-4.59007e-06,-30,-7,10.8281,10.8281,-96.3616,-96.3616,0.856
0.000302087,-0.000660579,0.000100054,-6.63343e-05,0.00104229,9.82874e-05,0.000345218,5.45218e-05,-30,-6,10.9165,10.9165,-96.339,-96.339,0.86
0.000306276,-0.000659888,0.000101442,-6.73708e-05,0.0010518,0.000123107,0.000348365,-5.00249e-05,-30,-7,11.004,11.004,-96.3183,-96.3183,0.864
0.000310502,-0.000659197,0.000102841,-6.70253e-05,0.00106134,0.000139653,0.000351527,-4.55901e-06,-30,-7,11.0909,11.0909,-96.2933,-96.2933,0.868
0.000314766,-0.000658506,0.000104254,-6.73708e-05,0.00107093,0.000150684,0.000354701,-3.18303e-05,-30,-7,11.1778,11.1778,-96.2699,-96.2699,0.872
0.000319069,-0.000657815,0.000105679,-6.73708e-05,0.00108055,0.000158038,0.00035789,-2.12202e-05,-30,-7,11.2648,11.2648,-96.2452,-96.2452,0.876
0.000323411,-0.000656779,0.000107117,-6.66798e-05,0.00109022,0.000191731,0.000361092,4.34351e-05,-30,-7,11.3519,11.3519,-96.2209,-96.2209,0.88
0.000327791,-0.000656088,0.000108568,-6.73708e-05,0.00109993,0.000185403,0.000364307,-2.86251e-05,-31,-7,11.4384,11.4384,-96.1987,-96.1987,0.884
0.00033221,-0.000655051,0.000110031,-6.66798e-05,0.00110968,0.000209975,0.000367537,3.84984e-05,-31,-7,11.5256,11.5256,-96.1737,-96.1737,0.888
0.000336669,-0.000653669,0.000111508,-6.63343e-05,0.00111947,0.000255147,0.000370779,5.44565e-05,-30,-7,11.6123,11.6123,-96.1512,-96.1512,0.892
0.000341166,-0.000652287,0.000112998,-6.66798e-05,0.0011293,0.000285262,0.000374036,7.51344e-06,-30,-7,11.6976,11.6976,-96.129,-96.129,0.896
0.000345703,-0.000651251,0.0001145,-6.66798e-05,0.00113917,0.000276547,0.000377306,5.00896e-06,-31,-7,11.7824,11.7824,-96.1047,-96.1047,0.9
0.00035028,-0.000650214,0.000116016,-6.66798e-05,0.00114909,0.000270738,0.000380589,3.3393e-06,-31,-7,11.8681,11.8681,-96.0801,-96.0801,0.904
0.000354896,-0.000648832,0.000117545,-6.66798e-05,0.00115904,0.000295655,0.000383886,2.2262e-06,-31,-7,11.9546,11.9546,-96.0552,-96.0552,0.908
0.000359552,-0.00064745,0.000119087,-6.66798e-05,0.00116904,0.000312267,0.000387196,1.48414e-06,-31,-8,12.0406,12.0406,-96.0301,-96.0301,0.912
0.000364248,-0.000646414,0.000120643,-6.66798e-05,0.00117907,0.000294551,0.00039052,9.89424e-07,-31,-8,12.1266,12.1266,-96.0047,-96.0047,0.916
0.000368985,-0.000645032,0.000122211,-6.66798e-05,0.00118915,0.000311531,0.000393858,6.59616e-07,-31,-8,12.2138,12.2138,-95.9791,-95.9791,0.92
0.000373761,-0.00064365,0.000123794,-6.66798e-05,0.00119926,0.000322851,0.000397209,4.39744e-07,-32,-8,12.301,12.301,-95.9532,-95.9532,0.924
0.000378579,-0.000642268,0.000125389,-6.63343e-05,0.00120942,0.000330398,0.000400573,2.90841e-05,-32,-8,12.3882,12.3882,-95.9272,-95.9272,0.928
0.000383437,-0.000640886,0.000126998,-6.66798e-05,0.00121962,0.000335429,0.000403951,-9.40153e-06,-32,-8,12.4758,12.4758,-95.902,-95.902,0.932
0.000388336,-0.00063985,0.000128621,-6.66798e-05,0.00122986,0.000309992,0.000407343,-6.26769e-06,-32,-8,12.5638,12.5638,-95.8751,-95.8751,0.936
0.000393276,-0.000638122,0.000130257,-6.66798e-05,0.00124014,0.000350616,0.000410747,-4.17846e-06,-32,-8,12.6534,12.6534,-95.848,-95.848,0.94
0.000398257,-0.000635704,0.000131907,-6.66798e-05,0.00125046,0.00043528,0.000414166,-2.78564e-06,-32,-8,12.7417,12.7417,-95.8209,-95.8209,0.944
0.000403279,-0.00063294,0.00013357,-6.66798e-05,0.00126082,0.000520514,0.000417597,-1.85709e-06,-31,-8,12.8269,12.8269,-95.7935,-95.7935,0.948
0.000408344,-0.00062983,0.000135248,-6.66798e-05,0.00127123,0.000606128,0.000421043,-1.23806e-06,-30,-8,12.909,12.909,-95.766,-95.766,0.952
0.000413449,-0.000626375,0.000136939,-6.66798e-05,0.00128167,0.000691995,0.000424501,-8.25375e-07,-30,-8,12.988,12.988,-95.7383,-95.7383,0.956
0.000418597,-0.000622575,0.000138644,-6.66798e-05,0.00129215,0.00077803,0.000427973,-5.5025e-07,-29,-9,13.0639,13.0639,-95.7103,-95.7103,0.96
0.000423787,-0.000618429,0.000140362,-6.66798e-05,0.00130267,0.000864178,0.000431459,-3.66833e-07,-28,-9,13.1365,13.1365,-95.6822,-95.6822,0.964
0.000429018,-0.000613938,0.000142095,-6.66798e-05,0.00131324,0.0009504,0.000434958,-2.44555e-07,-28,-9,13.206,13.206,-95.6538,-95.6538,0.968
0.000434293,-0.000609101,0.000143842,-6.66798e-05,0.00132384,0.00103667,0.00043847,-1.63037e-07,-27,-9,13.2723,13.2723,-95.6252,-95.6252,0.972
0.000439609,-0.000603918,0.000145603,-6.66798e-05,0.00133449,0.00112298,0.000441995,-1.08691e-07,-26,-9,13.3354,13.3354,-95.5963,-95.5963,0.976
0.000444968,-0.000599427,0.000147378,-6.66798e-05,0.00134517,0.00112293,0.000445534,-7.24609e-08,-27,-9,13.3955,13.3955,-95.5673,-95.5673,0.98
0.000450371,-0.000594936,0.000149167,-6.66798e-05,0.0013559,0.00112291,0.000449087,-4.83073e-08,-27,-9,13.4562,13.4562,-95.538,-95.538,0.984
0.000455816,-0.000590099,0.000150971,-6.66798e-05,0.00136666,0.00115168,0.000452653,-3.22048e-08,-27,-9,13.5172,13.5172,-95.5084,-95.5084,0.988
0.000461304,-0.000584916,0.000152789,-6.66798e-05,0.00137747,0.00119965,0.000456232,-2.14699e-08,-26,-9,13.5774,13.5774,-95.4786,-95.4786,0.992
0.000466836,-0.000579389,0.000154621,-6.66798e-05,0.00138831,0.00126042,0.000459824,-1.43133e-08,-26,-9,13.6361,13.6361,-95.4486,-95.4486,0.996
0.000472411,-0.000573515,0.000156467,-6.66798e-05,0.0013992,0.00132973,0.00046343,-9.54217e-09,-25,-9,13.6925,13.6925,-95.4183,-95.4183,1
0.000478029,-0.000567987,0.000158328,-6.66798e-05,0.00141013,0.00134714,0.000467049,-6.36145e-09,-25,-9,13.7466,13.7466,-95.3878,-95.3878,1.004
0.000483692,-0.000562805,0.000160204,-6.66798e-05,0.00142109,0.00132996,0.000470681,-4.24097e-09,-26,-9,13.8006,13.8006,-95.3571,-95.3571,1.008
0.000489398,-0.000557623,0.000162094,-6.66798e-05,0.0014321,0.0013185,0.000474327,-2.82731e-09,-26,-10,13.8557,13.8557,-95.3261,-95.3261,1.012
0.000495148,-0.00055244,0.000163998,-6.66798e-05,0.00144315,0.00131086,0.000477986,-1.88487e-09,-26,-10,13.9118,13.9118,-95.2949,-95.2949,1.016
0.000500943,-0.000548294,0.000165918,-6.66798e-05,0.00145424,0.0012194,0.000481658,-1.25658e-09,-27,-10,13.969,13.969,-95.2634,-95.2634,1.02
0.000506782,-0.000544148,0.000167852,-6.66798e-05,0.00146536,0.00115843,0.000485343,-8.37722e-10,-28,-10,14.0306,14.0306,-95.2316,-95.2316,1.024
0.000512666,-0.000540003,0.0001698,-6.66798e-05,0.00147653,0.00111777,0.000489042,-5.58481e-10,-29,-10,14.0953,14.0953,-95.1996,-95.1996,1.028
0.000518595,-0.000536548,0.000171764,-6.66798e-05,0.00148774,0.00103309,0.000492754,-3.72321e-10,-30,-10,14.1624,14.1624,-95.1674,-95.1674,1.032
0.000524568,-0.000533438,0.000173742,-6.66798e-05,0.00149899,0.000947846,0.000496479,-2.48214e-10,-31,-10,14.2338,14.2338,-95.1349,-95.1349,1.036
0.000530587,-0.000530329,0.000175736,-6.66798e-05,0.00151027,0.000891016,0.000500218,-1.65476e-10,-32,-10,14.3093,14.3093,-95.1022,-95.1022,1.04
0.00053665,-0.000526874,0.000177744,-6.66798e-05,0.0015216,0.00088192,0.00050397,-1.10317e-10,-32,-10,14.3878,14.3878,-95.0692,-95.0692,1.044
0.00054276,-0.000523419,0.000179767,-6.66798e-05,0.00153297,0.000875856,0.000507735,-7.35448e-11,-32,-10,14.4672,14.4672,-95.0359,-95.0359,1.048
0.000548914,-0.000519273,0.000181806,-6.66798e-05,0.00154437,0.000929395,0.000511513,-4.90299e-11,-32,-10,14.5473,14.5473,-95.0024,-95.0024,1.052
0.000555115,-0.000514782,0.00018386,-6.66798e-05,0.00155582,0.000993879,0.000515304,-3.26866e-11,-31,-11,14.6257,14.6257,-94.9686,-94.9686,1.056
0.000561361,-0.000509945,0.000185928,-6.66798e-05,0.00156731,0.00106566,0.000519109,-2.17911e-11,-31,-11,14.7019,14.7019,-94.9346,-94.9346,1.06
0.000567653,-0.000504762,0.000188012,-6.66798e-05,0.00157884,0.0011423,0.000522926,-1.45274e-11,-30,-11,14.7756,14.7756,-94.9003,-94.9003,1.064
0.000573992,-0.000498889,0.000190112,-6.66798e-05,0.0015904,0.00125098,0.000526757,-9.68492e-12,-29,-11,14.8464,14.8464,-94.8657,-94.8657,1.068
0.000580376,-0.000493707,0.000192227,-6.66798e-05,0.00160201,0.00126585,0.000530601,-6.45661e-12,-30,-11,14.9134,14.9134,-94.8309,-94.8309,1.072
0.000586808,-0.000488179,0.000194357,-6.66798e-05,0.00161365,0.00130456,0.000534459,-4.30441e-12,-29,-11,14.9802,14.9802,-94.7958,-94.7958,1.076
0.000593286,-0.000482651,0.000196502,-6.66798e-05,0.00162534,0.00133036,0.000538329,-2.8696e-12,-29,-11,15.046,15.046,-94.7604,-94.7604,1.08
0.00059981,-0.000476432,0.000198663,-6.66798e-05,0.00163706,0.00140514,0.000542213,-1.91307e-12,-29,-11,15.111,15.111,-94.7248,-94.7248,1.084
0.000606382,-0.000470559,0.00020084,-6.66798e-05,0.00164883,0.00142621,0.000546109,-1.27538e-12,-29,-11,15.1735,15.1735,-94.6889,-94.6889,1.088
0.000613001,-0.000463995,0.000203032,-6.63343e-05,0.00166063,0.00149783,0.000550019,2.87909e-05,-28,-11,15.2356,15.2356,-94.6528,-94.6528,1.092
0.000619667,-0.00045743,0.00020524,-6.66798e-05,0.00167248,0.00154558,0.000553942,-9.59698e-06,-28,-12,15.2951,15.2951,-94.6175,-94.6175,1.096
0.000626381,-0.000451211,0.000207464,-6.66798e-05,0.00168436,0.00154862,0.000557878,-6.39798e-06,-28,-12,15.3532,15.3532,-94.5804,-94.5804,1.1
0.000633142,-0.000443611,0.000209703,-6.63343e-05,0.00169629,0.00166582,0.000561827,2.45256e-05,-27,-11,15.4114,15.4114,-94.5433,-94.5433,1.104
0.000639951,-0.000434973,0.000211958,-6.63343e-05,0.00170825,0.00183032,0.000565789,1.63504e-05,-26,-12,15.4649,15.4649,-94.507,-94.507,1.108
0.000646808,-0.000426682,0.00021423,-6.63343e-05,0.00172025,0.00191119,0.000569765,1.09003e-05,-25,-12,15.512,15.512,-94.4702,-94.4702,1.112
0.000653713,-0.000418735,0.000216517,-6.63343e-05,0.00173229,0.00193632,0.000573753,7.26685e-06,-25,-12,15.5563,15.5563,-94.4328,-94.4328,1.116
0.000660667,-0.000409752,0.00021882,-6.63343e-05,0.00174437,0.00203944,0.000577754,4.84456e-06,-24,-12,15.5998,15.5998,-94.395,-94.395,1.12
0.000667668,-0.000401461,0.000221139,-6.63343e-05,0.00175649,0.00205061,0.000581769,3.22971e-06,-24,-12,15.6395,15.6395,-94.3569,-94.3569,1.124
0.000674719,-0.000393169,0.000223474,-6.63343e-05,0.00176865,0.00205806,0.000585796,2.15314e-06,-24,-12,15.6792,15.6792,-94.3184,-94.3184,1.128
0.000681818,-0.000384877,0.000225825,-6.63343e-05,0.00178085,0.00206302,0.000589837,1.43543e-06,-24,-12,15.7191,15.7191,-94.2795,-94.2795,1.132
0.000688966,-0.000376585,0.000228192,-6.59888e-05,0.00179309,0.00206633,0.00059389,2.97479e-05,-24,-12,15.7592,15.7592,-94.2404,-94.2404,1.136
0.000696163,-0.000368639,0.000230576,-6.59888e-05,0.00180537,0.00203974,0.000597957,1.98319e-05,-25,-12,15.7997,15.7997,-94.2022,-94.2022,1.14
0.000703409,-0.000361729,0.000232976,-6.59888e-05,0.00181769,0.00193565,0.000602037,1.32213e-05,-26,-13,15.8421,15.8421,-94.1632,-94.1632,1.144
0.000710704,-0.000355165,0.000235392,-6.59888e-05,0.00183004,0.00183746,0.000606129,8.81419e-06,-27,-13,15.8895,15.8895,-94.1237,-94.1237,1.148
0.000718049,-0.000348946,0.000237825,-6.59888e-05,0.00184244,0.00174321,0.000610235,5.87612e-06,-28,-13,15.9416,15.9416,-94.0837,-94.0837,1.152
0.000725444,-0.000342036,0.000240274,-6.59888e-05,0.00185487,0.00173796,0.000614353,3.91742e-06,-28,-13,15.9981,15.9981,-94.0433,-94.0433,1.156
0.000732888,-0.000335472,0.00024274,-6.59888e-05,0.00186735,0.00170567,0.000618485,2.61161e-06,-29,-13,16.0555,16.0555,-94.0025,-94.0025,1.16
0.000740383,-0.000328217,0.000245222,-6.59888e-05,0.00187986,0.00174172,0.000622629,1.74107e-06,-29,-13,16.1146,16.1146,-93.9614,-93.9614,1.164
0.000747927,-0.000319925,0.000247721,-6.56433e-05,0.00189241,0.00185213,0.000626787,2.99516e-05,-28,-13,16.1724,16.1724,-93.92,-93.92,1.168
0.000755522,-0.000311633,0.000250237,-6.56433e-05,0.00190501,0.00192573,0.000630957,1.99678e-05,-27,-13,16.2262,16.2262,-93.8794,-93.8794,1.172
0.000763167,-0.000302305,0.000252769,-6.56433e-05,0.00191764,0.00206118,0.000635141,1.33118e-05,-26,-13,16.2771,16.2771,-93.8382,-93.8382,1.176
0.000770863,-0.000293322,0.000255318,-6.56433e-05,0.00193031,0.00212268,0.000639337,8.87456e-06,-26,-14,16.3229,16.3229,-93.7963,-93.7963,1.18
0.00077861,-0.00028503,0.000257883,-6.56433e-05,0.00194301,0.0021061,0.000643546,5.91637e-06,-26,-14,16.3668,16.3668,-93.7539,-93.7539,1.184
0.000786407,-0.000277084,0.000260466,-6.56433e-05,0.00195576,0.00206626,0.000647768,3.94425e-06,-27,-14,16.412,16.412,-93.7112,-93.7112,1.188
0.000794256,-0.000269829,0.000263066,-6.56433e-05,0.00196855,0.00198212,0.000652003,2.6295e-06,-28,-14,16.4596,16.4596,-93.668,-93.668,1.192
0.000802156,-0.000263264,0.000265682,-6.56433e-05,0.00198137,0.00186844,0.000656251,1.753e-06,-29,-14,16.5114,16.5114,-93.6245,-93.6245,1.196
0.000810107,-0.000257045,0.000268316,-6.56433e-05,0.00199424,0.00176386,0.000660512,1.16867e-06,-30,-14,16.5687,16.5687,-93.5806,-93.5806,1.2
0.00081811,-0.000250136,0.000270966,-6.52978e-05,0.00200714,0.00175173,0.000664785,2.957e-05,-30,-14,16.6309,16.6309,-93.5365,-93.5365,1.204
0.000826164,-0.00024288,0.000273634,-6.52978e-05,0.00202008,0.00177243,0.000669072,1.97134e-05,-30,-14,16.694,16.694,-93.4932,-93.4932,1.208
0.00083427,-0.000234588,0.000276319,-6.52978e-05,0.00203306,0.0018726,0.000673371,1.31422e-05,-30,-14,16.7566,16.7566,-93.4492,-93.4492,1.212
0.000842429,-0.000225606,0.000279021,-6.52978e-05,0.00204608,0.00199696,0.000677684,8.76149e-06,-29,-15,16.8154,16.8154,-93.4045,-93.4045,1.216
0.000850639,-0.000215586,0.00028174,-6.52978e-05,0.00205914,0.00216625,0.000682009,5.84099e-06,-27,-15,16.8693,16.8693,-93.3594,-93.3594,1.22
0.000858902,-0.000204876,0.000284477,-6.52978e-05,0.00207224,0.00233668,0.000686347,3.894e-06,-26,-15,16.9164,16.9164,-93.3139,-93.3139,1.224
0.000867217,-0.00019313,0.000287231,-6.52978e-05,0.00208537,0.00253668,0.000690697,2.596e-06,-24,-15,16.9565,16.9565,-93.2679,-93.2679,1.228
0.000875585,-0.000181383,0.000290003,-6.49523e-05,0.00209855,0.00267001,0.000695061,3.05216e-05,-23,-15,16.9887,16.9887,-93.2217,-93.2217,1.232
0.000884005,-0.000169636,0.000292792,-6.46068e-05,0.00211176,0.0027589,0.000699437,4.91387e-05,-22,-15,17.0157,17.0157,-93.1763,-93.1763,1.236
0.000892479,-0.000158926,0.000295598,-6.42613e-05,0.00212501,0.00273178,0.000703826,6.155e-05,-22,-15,17.0396,17.0396,-93.1314,-93.1314,1.24
0.000901006,-0.000149598,0.000298422,-6.42613e-05,0.0021383,0.00259854,0.000708228,4.10334e-05,-24,-15,17.0655,17.0655,-93.0866,-93.0866,1.244
0.000909585,-0.000141651,0.000301264,-6.42613e-05,0.00215163,0.00239455,0.000712643,2.73556e-05,-26,-15,17.0979,17.0979,-93.0406,-93.0406,1.248
0.000918219,-0.000134396,0.000304123,-6.39159e-05,0.002165,0.00220098,0.000717071,4.7028e-05,-28,-15,17.1395,17.1395,-92.9939,-92.9939,1.252
0.000926905,-0.000127832,0.000307001,-6.39159e-05,0.00217841,0.00201435,0.000721511,3.1352e-05,-30,-16,17.1901,17.1901,-92.9475,-92.9475,1.256
0.000935646,-0.000120922,0.000309895,-6.39159e-05,0.00219185,0.00191872,0.000725964,2.09013e-05,-31,-16,17.249,17.249,-92.9002,-92.9002,1.26
0.00094444,-0.000113667,0.000312808,-6.35704e-05,0.00220534,0.00188375,0.00073043,4.27251e-05,-32,-16,17.3125,17.3125,-92.8522,-92.8522,1.264
0.000953289,-0.000104684,0.000315739,-6.35704e-05,0.00221886,0.0020044,0.000734908,2.84834e-05,-31,-16,17.3777,17.3777,-92.8047,-92.8047,1.268
0.000962191,-9.46646e-05,0.000318688,-6.32249e-05,0.00223242,0.0021712,0.000739399,4.77799e-05,-29,-16,17.4382,17.4382,-92.7563,-92.7563,1.272
0.000971148,-8.39543e-05,0.000321654,-6.25339e-05,0.00224602,0.00233999,0.000743903,8.94351e-05,-28,-16,17.492,17.492,-92.7086,-92.7086,1.276
0.000980159,-7.32441e-05,0.000324639,-6.25339e-05,0.00225965,0.00245251,0.00074842,5.96234e-05,-27,-16,17.5393,17.5393,-92.6621,-92.6621,1.28
0.000989225,-6.21884e-05,0.000327642,-6.21884e-05,0.00227333,0.00255632,0.000752949,6.85399e-05,-26,-16,17.5823,17.5823,-92.6141,-92.6141,1.284
0.000998346,-5.18237e-05,0.000330662,-6.18429e-05,0.00228704,0.00256794,0.000757491,7.44842e-05,-26,-16,17.6216,17.6216,-92.5661,-92.5661,1.288
0.00100752,-4.21499e-05,0.000333701,-6.11519e-05,0.00230079,0.00251811,0.000762046,0.000107238,-27,-16,17.6611,17.6611,-92.5182,-92.5182,1.292
0.00101675,-3.24762e-05,0.000336759,-6.08064e-05,0.00231458,0.00248488,0.000766613,0.000100283,-27,-16,17.7033,17.7033,-92.4712,-92.4712,1.296
0.00102604,-2.34934e-05,0.000339834,-6.04609e-05,0.00232841,0.00240515,0.000771193,9.56462e-05,-28,-16,17.7476,17.7476,-92.4236,-92.4236,1.3
0.00103538,-1.45106e-05,0.000342928,-6.01155e-05,0.00234228,0.002352,0.000775786,9.25551e-05,-29,-16,17.7958,17.7958,-92.3755,-92.3755,1.304
0.00104478,-5.52786e-06,0.000346041,-5.977e-05,0.00235618,0.00231656,0.000780391,9.04943e-05,-29,-17,17.8469,17.8469,-92.3269,-92.3269,1.308
0.00105423,4.49138e-06,0.000349172,-5.977e-05,0.00237012,0.00237931,0.000785009,6.03295e-05,-29,-17,17.8998,17.8998,-92.2778,-92.2778,1.312
0.00106374,1.55471e-05,0.000352321,-5.94245e-05,0.00238411,0.00250752,0.00078964,6.90106e-05,-28,-17,17.9504,17.9504,-92.2272,-92.2272,1.316
0.0010733,2.76393e-05,0.000355489,-5.9079e-05,0.00239812,0.00267936,0.000794283,7.4798e-05,-26,-17,17.9959,17.9959,-92.1767,-92.1767,1.32
0.00108292,3.9386e-05,0.000358675,-5.9079e-05,0.00241218,0.00276513,0.000798939,4.98653e-05,-26,-17,18.0348,18.0348,-92.1259,-92.1259,1.324
0.0010926,5.07872e-05,0.00036188,-5.87335e-05,0.00242628,0.00279352,0.000803608,6.20345e-05,-26,-18,18.0707,18.0707,-92.0739,-92.0739,1.328
0.00110233,6.14974e-05,0.000365104,-5.87335e-05,0.00244041,0.00275487,0.000808289,4.13563e-05,-26,-18,18.1061,18.1061,-92.022,-92.022,1.332
0.00111212,7.15167e-05,0.000368346,-5.8388e-05,0.00245458,0.00267151,0.000812982,5.63618e-05,-27,-18,18.1438,18.1438,-91.9689,-91.9689,1.336
0.00112197,8.11904e-05,0.000371608,-5.80425e-05,0.00246879,0.00258716,0.000817689,6.63655e-05,-28,-18,18.1857,18.1857,-91.9161,-91.9161,1.34
0.00113187,9.05187e-05,0.000374888,-5.80425e-05,0.00248304,0.00250213,0.000822407,4.42436e-05,-29,-18,18.2319,18.2319,-91.8633,-91.8633,1.344
0.00114183,0.000100538,0.000378187,-5.7697e-05,0.00249732,0.00250302,0.000827139,5.82867e-05,-29,-18,18.282,18.282,-91.8093,-91.8093,1.348
0.00115185,0.000111248,0.000381505,-5.73515e-05,0.00251165,0.0025612,0.000831883,6.76487e-05,-29,-18,18.3326,18.3326,-91.7555,-91.7555,1.352
0.00116193,0.000121958,0.000384842,-5.7006e-05,0.00252601,0.00259998,0.000836639,7.38901e-05,-29,-18,18.3813,18.3813,-91.7018,-91.7018,1.356
0.00117206,0.000133014,0.000388198,-5.7006e-05,0.00254041,0.00265463,0.000841408,4.926e-05,-28,-19,18.4288,18.4288,-91.6479,-91.6479,1.36
0.00118225,0.000145106,0.000391573,-5.66605e-05,0.00255484,0.00277744,0.00084619,6.1631e-05,-27,-19,18.4744,18.4744,-91.5927,-91.5927,1.364
0.0011925,0.000156507,0.000394968,-5.59696e-05,0.00256932,0.00280173,0.000850984,9.86692e-05,-27,-18,18.5156,18.5156,-91.5378,-91.5378,1.368
0.00120281,0.000168945,0.000398381,-5.56241e-05,0.00258383,0.00290429,0.00085579,9.45704e-05,-26,-19,18.5561,18.5561,-91.4839,-91.4839,1.372
0.00121317,0.000181728,0.000401814,-5.56241e-05,0.00259838,0.00300146,0.000860609,6.30469e-05,-26,-19,18.5927,18.5927,-91.4295,-91.4295,1.376
0.00122359,0.00019313,0.000405266,-5.52786e-05,0.00261297,0.00295107,0.000865441,7.08222e-05,-26,-19,18.626,18.626,-91.3735,-91.3735,1.38
0.00123407,0.000205222,0.000408738,-5.52786e-05,0.00262759,0.00297506,0.000870285,4.72148e-05,-26,-20,18.6619,18.6619,-91.3173,-91.3173,1.384
0.00124461,0.000217659,0.000412229,-5.49331e-05,0.00264225,0.00301985,0.000875141,6.02675e-05,-26,-20,18.6973,18.6973,-91.2599,-91.2599,1.388
0.00125521,0.000229752,0.000415739,-5.42421e-05,0.00265695,0.00302092,0.00088001,9.77602e-05,-26,-19,18.7314,18.7314,-91.2027,-91.2027,1.392
0.00126587,0.000242189,0.000419269,-5.35511e-05,0.00267169,0.00305042,0.000884892,0.000122755,-26,-19,18.7659,18.7659,-91.1468,-91.1468,1.396
0.00127659,0.000253936,0.000422818,-5.28601e-05,0.00268647,0.0030125,0.000889785,0.000139419,-26,-19,18.8,18.8,-91.0915,-91.0915,1.4
0.00128736,0.000266028,0.000426387,-5.21692e-05,0.00270128,0.00301602,0.000894692,0.000150528,-27,-19,18.836,18.836,-91.0366,-91.0366,1.404
0.0012982,0.000277775,0.000429976,-5.18237e-05,0.00271613,0.00298957,0.000899611,0.000129143,-27,-20,18.8727,18.8727,-90.9818,-90.9818,1.408
0.00130909,0.000289522,0.000433584,-5.14782e-05,0.00273102,0.00297194,0.000904542,0.000114886,-27,-20,18.911,18.911,-90.9256,-90.9256,1.412
0.00132004,0.000301614,0.000437212,-5.14782e-05,0.00274595,0.00298897,0.000909485,7.65907e-05,-27,-20,18.9505,18.9505,-90.8685,-90.8685,1.416
0.00133106,0.000313706,0.00044086,-5.11327e-05,0.00276091,0.00300033,0.000914441,7.98514e-05,-27,-20,18.9899,18.9899,-90.8094,-90.8094,1.42
0.00134213,0.000325107,0.000444527,-5.11327e-05,0.00277591,0.00295032,0.00091941,5.32343e-05,-28,-21,19.0296,19.0296,-90.75,-90.75,1.424
0.00135326,0.000336508,0.000448215,-5.11327e-05,0.00279095,0.00291698,0.00092439,3.54895e-05,-29,-21,19.072,19.072,-90.6891,-90.6891,1.428
0.00136446,0.000346528,0.000451923,-5.07872e-05,0.00280602,0.00277959,0.000929383,5.24506e-05,-30,-21,19.1168,19.1168,-90.6272,-90.6272,1.432
0.00137571,0.000357238,0.00045565,-5.07872e-05,0.00282114,0.00274558,0.000934389,3.49671e-05,-31,-21,19.1679,19.1679,-90.5656,-90.5656,1.436
0.00138703,0.00036933,0.000459398,-5.04417e-05,0.00283629,0.00283807,0.000939407,5.21023e-05,-30,-21,19.2207,19.2207,-90.5028,-90.5028,1.44
0.0013984,0.000381422,0.000463165,-5.00962e-05,0.00285147,0.00289973,0.000944437,6.35258e-05,-30,-21,19.2703,19.2703,-90.4405,-90.4405,1.444
0.00140984,0.000394551,0.000466953,-4.97507e-05,0.0028667,0.00302721,0.000949479,7.11415e-05,-28,-22,19.3176,19.3176,-90.3782,-90.3782,1.448
0.00142134,0.000409061,0.000470761,-4.94052e-05,0.00288196,0.00322736,0.000954534,7.62186e-05,-27,-22,19.3598,19.3598,-90.3159,-90.3159,1.452
0.0014329,0.000423227,0.00047459,-4.90597e-05,0.00289726,0.003332,0.000959602,7.96033e-05,-26,-22,19.3943,19.3943,-90.2533,-90.2533,1.456
0.00144451,0.000437392,0.000478438,-4.87142e-05,0.00291259,0.00340176,0.000964681,8.18598e-05,-25,-22,19.4249,19.4249,-90.1906,-90.1906,1.46
0.0014562,0.000450866,0.000482307,-4.80233e-05,0.00292797,0.00339069,0.000969773,0.000112155,-26,-22,19.4533,19.4533,-90.1276,-90.1276,1.464
0.00146794,0.000463304,0.000486196,-4.76778e-05,0.00294338,0.00329693,0.000974877,0.000103561,-27,-22,19.483,19.483,-90.0655,-90.0655,1.468
0.00147974,0.00047505,0.000490106,-4.73323e-05,0.00295883,0.00317685,0.000979993,9.78316e-05,-28,-22,19.5174,19.5174,-90.0025,-90.0025,1.472
0.00149161,0.000486797,0.000494036,-4.73323e-05,0.00297431,0.00309679,0.000985122,6.5221e-05,-29,-23,19.5575,19.5575,-89.9389,-89.9389,1.476
0.00150354,0.000499235,0.000497987,-4.69868e-05,0.00298983,0.003101,0.000990263,7.22716e-05,-29,-23,19.6014,19.6014,-89.8736,-89.8736,1.48
0.00151553,0.000512363,0.000501958,-4.69868e-05,0.00300539,0.00316139,0.000995416,4.81811e-05,-29,-23,19.6456,19.6456,-89.8081,-89.8081,1.484
0.00152758,0.000525492,0.00050595,-4.66413e-05,0.00302099,0.00320165,0.00100058,6.09116e-05,-29,-23,19.6879,19.6879,-89.7413,-89.7413,1.488
0.0015397,0.000538275,0.000509963,-4.66413e-05,0.00303662,0.0031997,0.00100576,4.06078e-05,-29,-24,19.7293,19.7293,-89.6746,-89.6746,1.492
0.00155187,0.000550022,0.000513996,-4.62958e-05,0.00305229,0.00311202,0.00101095,5.58628e-05,-30,-24,19.7716,19.7716,-89.6066,-89.6066,1.496
0.00156411,0.000562114,0.000518051,-4.59503e-05,0.003068,0.00308236,0.00101615,6.60328e-05,-30,-24,19.8182,19.8182,-89.5389,-89.5389,1.5
0.00157642,0.000574206,0.000522126,-4.56048e-05,0.00308374,0.00306259,0.00102137,7.28128e-05,-31,-24,19.8667,19.8667,-89.4712,-89.4712,1.504
0.00158878,0.000585953,0.000526222,-4.52593e-05,0.00309952,0.00302062,0.00102659,7.73328e-05,-31,-24,19.9168,19.9168,-89.4034,-89.4034,1.508
0.00160121,0.000599427,0.000530338,-4.49138e-05,0.00311534,0.00313659,0.00103183,8.03461e-05,-30,-24,19.9689,19.9689,-89.3354,-89.3354,1.512
0.00161371,0.000612901,0.000534476,-4.45684e-05,0.00313119,0.00321391,0.00103708,8.2355e-05,-30,-24,20.0168,20.0168,-89.2671,-89.2671,1.516
0.00162626,0.000627066,0.000538635,-4.42229e-05,0.00314708,0.00332303,0.00104235,8.36943e-05,-29,-24,20.0619,20.0619,-89.1985,-89.1985,1.52
0.00163888,0.000642268,0.000542815,-4.42229e-05,0.00316301,0.00348216,0.00104762,5.57962e-05,-28,-25,20.1028,20.1028,-89.1294,-89.1294,1.524
0.00165157,0.000655051,0.000547016,-4.42229e-05,0.00317898,0.0033867,0.00105291,3.71974e-05,-29,-25,20.1382,20.1382,-89.0588,-89.0588,1.528
0.00166432,0.000667143,0.000551238,-4.38774e-05,0.00319498,0.00326548,0.00105821,5.35892e-05,-30,-25,20.1785,20.1785,-88.987,-88.987,1.532
0.00167713,0.000677508,0.000555482,-4.38774e-05,0.00321101,0.00304072,0.00106352,3.57261e-05,-32,-25,20.225,20.225,-88.9155,-88.9155,1.536
0.00169,0.000686836,0.000559747,-4.35319e-05,0.00322709,0.0028045,0.00106884,5.26084e-05,-35,-25,20.2819,20.2819,-88.8428,-88.8428,1.54
0.00170294,0.000695474,0.000564033,-4.31864e-05,0.0032432,0.00258944,0.00107418,6.38632e-05,-37,-25,20.3498,20.3498,-88.7704,-88.7704,1.544
0.00171595,0.000704802,0.00056834,-4.31864e-05,0.00325935,0.00250365,0.00107953,4.25754e-05,-38,-26,20.4273,20.4273,-88.698,-88.698,1.548
0.00172902,0.000714821,0.000572669,-4.28409e-05,0.00327553,0.00250404,0.00108489,5.71746e-05,-39,-26,20.5091,20.5091,-88.6244,-88.6244,1.552
0.00174215,0.000725186,0.000577019,-4.24954e-05,0.00329175,0.00253308,0.00109026,6.69073e-05,-39,-26,20.5917,20.5917,-88.5509,-88.5509,1.556
0.00175535,0.000735205,0.000581391,-4.21499e-05,0.00330801,0.00252366,0.00109565,7.33958e-05,-39,-26,20.674,20.674,-88.4774,-88.4774,1.56
0.00176862,0.000745224,0.000585784,-4.18044e-05,0.0033243,0.00251738,0.00110104,7.77214e-05,-39,-26,20.7575,20.7575,-88.4038,-88.4038,1.564
0.00178195,0.000754898,0.000590199,-4.14589e-05,0.00334064,0.0024844,0.00110645,8.06052e-05,-40,-26,20.8422,20.8422,-88.3299,-88.3299,1.568
0.00179534,0.00076319,0.000594636,-4.11134e-05,0.003357,0.00234725,0.00111187,8.25277e-05,-42,-26,20.9296,20.9296,-88.2557,-88.2557,1.572
0.0018088,0.0007701,0.000599094,-4.11134e-05,0.00337341,0.00214065,0.00111731,5.50185e-05,-44,-27,21.024,21.024,-88.1811,-88.1811,1.576
0.00182233,0.0007777,0.000603574,-4.11134e-05,0.00338985,0.0020605,0.00112275,3.6679e-05,-45,-27,21.1278,21.1278,-88.1049,-88.1049,1.58
0.00183592,0.000782192,0.000608076,-4.07679e-05,0.00340632,0.00174795,0.00112821,5.32436e-05,-48,-27,21.2368,21.2368,-88.0275,-88.0275,1.584
0.00184958,0.000786683,0.0006126,-4.04225e-05,0.00342283,0.00153958,0.00113368,6.42867e-05,-51,-27,21.36,21.36,-87.9504,-87.9504,1.588
0.00186331,0.000790484,0.000617146,-4.04225e-05,0.00343938,0.00134309,0.00113916,4.28578e-05,-53,-28,21.4932,21.4932,-87.8733,-87.8733,1.592
0.0018771,0.000793939,0.000621713,-3.97315e-05,0.00345597,0.0011833,0.00114465,8.61537e-05,-55,-27,21.6359,21.6359,-87.795,-87.795,1.596
0.00189095,0.000797393,0.000626303,-3.97315e-05,0.00347259,0.00107678,0.00115016,5.74358e-05,-57,-28,21.7865,21.7865,-87.7179,-87.7179,1.6
0.00190488,0.000800848,0.000630915,-3.97315e-05,0.00348925,0.00100576,0.00115567,3.82905e-05,-58,-28,21.9428,21.9428,-87.6391,-87.6391,1.604
0.00191887,0.000803958,0.000635548,-3.97315e-05,0.00350594,0.000929625,0.0011612,2.5527e-05,-59,-29,22.1033,22.1033,-87.5591,-87.5591,1.608
0.00193292,0.000807413,0.000640204,-3.97315e-05,0.00352267,0.000907659,0.00116674,1.7018e-05,-60,-29,22.2682,22.2682,-87.4781,-87.4781,1.612
0.00194705,0.000810868,0.000644882,-3.97315e-05,0.00353944,0.000893015,0.0011723,1.13453e-05,-60,-29,22.4352,22.4352,-87.3963,-87.3963,1.616
0.00196124,0.000814323,0.000649583,-3.9386e-05,0.00355624,0.000883253,0.00117786,3.63545e-05,-61,-29,22.6041,22.6041,-87.3139,-87.3139,1.62
0.0019755,0.000818123,0.000654305,-3.9386e-05,0.00357308,0.000905535,0.00118344,2.42363e-05,-61,-29,22.7746,22.7746,-87.2319,-87.2319,1.624
0.00198982,0.000821923,0.00065905,-3.9386e-05,0.00358995,0.00092039,0.00118903,1.61575e-05,-61,-30,22.9453,22.9453,-87.149,-87.149,1.628
0.00200422,0.000825378,0.000663818,-3.9386e-05,0.00360686,0.000901503,0.00119463,1.07717e-05,-62,-30,23.1168,23.1168,-87.0653,-87.0653,1.632
0.00201868,0.000827797,0.000668607,-3.90405e-05,0.00362381,0.000802538,0.00120024,3.59721e-05,-63,-30,23.2906,23.2906,-86.981,-86.981,1.636
0.00203321,0.000830906,0.000673419,-3.90405e-05,0.00364079,0.000794144,0.00120587,2.39814e-05,-64,-30,23.4696,23.4696,-86.8973,-86.8973,1.64
0.00204781,0.000832979,0.000678254,-3.90405e-05,0.00365781,0.000702175,0.0012115,1.59876e-05,-65,-30,23.6506,23.6506,-86.8125,-86.8125,1.644
0.00206247,0.000835052,0.000683112,-3.8695e-05,0.00367487,0.000640862,0.00121715,3.94493e-05,-66,-30,23.8367,23.8367,-86.727,-86.727,1.648
0.0020772,0.000836088,0.000687991,-3.83495e-05,0.00369196,0.000513614,0.00122281,5.50905e-05,-68,-30,24.027,24.027,-86.642,-86.642,1.652
0.00209201,0.000836434,0.000692894,-3.8004e-05,0.00370908,0.0003712,0.00122849,6.55179e-05,-70,-30,24.2242,24.2242,-86.5573,-86.5573,1.656
0.00210688,0.000836434,0.000697819,-3.7313e-05,0.00372624,0.000247467,0.00123417,0.00010126,-72,-30,24.4288,24.4288,-86.4725,-86.4725,1.66
0.00212182,0.000836434,0.000702767,-3.69675e-05,0.00374344,0.000164978,0.00123987,9.62979e-05,-73,-31,24.6401,24.6401,-86.3888,-86.3888,1.664
0.00213683,0.000836779,0.000707738,-3.66221e-05,0.00376068,0.000138776,0.00124557,9.29895e-05,-74,-31,24.8563,24.8563,-86.3043,-86.3043,1.668
0.0021519,0.000836779,0.000712732,-3.62766e-05,0.00377795,9.25175e-05,0.00125129,9.07839e-05,-75,-31,25.075,25.075,-86.2193,-86.2193,1.672
0.00216705,0.000837816,0.000717749,-3.55856e-05,0.00379525,0.000148051,0.00125703,0.000118104,-75,-31,25.2969,25.2969,-86.1337,-86.1337,1.676
0.00218226,0.000837816,0.000722788,-3.48946e-05,0.00381259,9.87007e-05,0.00126277,0.000136318,-76,-31,25.5182,25.5182,-86.0489,-86.0489,1.68
0.00219755,0.000838507,0.000727851,-3.35126e-05,0.00382997,0.000123382,0.00126853,0.000206042,-76,-30,25.7429,25.7429,-85.9645,-85.9645,1.684
0.0022129,0.000839198,0.000732936,-3.14397e-05,0.00384738,0.000139837,0.00127429,0.000310107,-77,-30,25.9679,25.9679,-85.8828,-85.8828,1.688
0.00222833,0.000840234,0.000738045,-2.86758e-05,0.00386483,0.000179597,0.00128007,0.000437066,-77,-29,26.1937,26.1937,-85.8052,-85.8052,1.692
0.00224382,0.000841271,0.000743177,-2.62573e-05,0.00388232,0.000206104,0.00128586,0.000492913,-77,-28,26.4193,26.4193,-85.7323,-85.7323,1.696
0.00225939,0.000842998,0.000748332,-2.38389e-05,0.00389984,0.000281357,0.00129167,0.000530145,-77,-28,26.645,26.645,-85.6615,-85.6615,1.7
0.00227502,0.000845071,0.00075351,-2.17659e-05,0.00391739,0.000360317,0.00129748,0.000526176,-77,-28,26.8689,26.8689,-85.5917,-85.5917,1.704
0.00229073,0.00084749,0.000758712,-1.9693e-05,0.00393498,0.000441748,0.00130331,0.000523529,-76,-28,27.0909,27.0909,-85.5213,-85.5213,1.708
0.0023065,0.000850599,0.000763937,-1.79655e-05,0.00395261,0.000553617,0.00130914,0.000492974,-76,-29,27.3106,27.3106,-85.4503,-85.4503,1.712
0.00232235,0.000853708,0.000769185,-1.62381e-05,0.00397027,0.000628196,0.00131499,0.000472604,-76,-29,27.5271,27.5271,-85.3777,-85.3777,1.716
0.00233826,0.000856818,0.000774457,-1.45106e-05,0.00398797,0.000677916,0.00132086,0.000459024,-76,-29,27.7418,27.7418,-85.3038,-85.3038,1.72
0.00235425,0.000859236,0.000779752,-1.27832e-05,0.0040057,0.00065348,0.00132673,0.000449971,-76,-30,27.9561,27.9561,-85.2289,-85.2289,1.724
0.00237031,0.000860964,0.000785071,-1.14012e-05,0.00402347,0.000579608,0.00133261,0.000415144,-78,-30,28.1729,28.1729,-85.1531,-85.1531,1.728
0.00238644,0.000861655,0.000790413,-1.03647e-05,0.00404127,0.000443987,0.00133851,0.000363136,-80,-31,28.3946,28.3946,-85.0753,-85.0753,1.732
0.00240264,0.000862346,0.000795779,-8.98277e-06,0.00405911,0.000353573,0.00134442,0.000357254,-81,-31,28.6234,28.6234,-84.9951,-84.9951,1.736
0.00241891,0.000862346,0.000801168,-7.6008e-06,0.00407699,0.000235716,0.00135034,0.000353333,-83,-31,28.8577,28.8577,-84.9141,-84.9141,1.74
0.00243526,0.000862346,0.000806582,-6.21884e-06,0.0040949,0.000157144,0.00135627,0.000350719,-84,-32,29.0985,29.0985,-84.8325,-84.8325,1.744
0.00245167,0.000862691,0.000812018,-4.49138e-06,0.00411284,0.000133553,0.00136222,0.000377767,-85,-31,29.344,29.344,-84.7505,-84.7505,1.748
0.00246816,0.000863037,0.000817479,-3.10942e-06,0.00413082,0.000117827,0.00136817,0.000367009,-86,-32,29.5921,29.5921,-84.669,-84.669,1.752
0.00248472,0.000863382,0.000822964,-1.38196e-06,0.00414884,0.000107342,0.00137414,0.000388627,-86,-32,29.8424,29.8424,-84.5868,-84.5868,1.756
0.00250135,0.000863728,0.000828472,3.45491e-07,0.00416689,0.000100352,0.00138012,0.000403039,-87,-32,30.0948,30.0948,-84.505,-84.505,1.76
0.00251805,0.00086511,0.000834005,1.72746e-06,0.00418498,0.000182065,0.00138611,0.000383857,-87,-32,30.3487,30.3487,-84.4233,-84.4233,1.764
0.00253483,0.000865801,0.000839561,3.10942e-06,0.0042031,0.000178959,0.00139211,0.000371068,-87,-32,30.6009,30.6009,-84.3403,-84.3403,1.768
0.00255168,0.000867183,0.000845142,4.14589e-06,0.00422125,0.000234469,0.00139812,0.000333751,-88,-33,30.8546,30.8546,-84.2563,-84.2563,1.772
0.0025686,0.000869256,0.000850746,4.83688e-06,0.00423945,0.000329059,0.00140415,0.000280083,-87,-34,31.1073,31.1073,-84.1701,-84.1701,1.776
0.00258559,0.000870983,0.000856375,4.83688e-06,0.00425767,0.000363327,0.00141018,0.000186722,-87,-35,31.3577,31.3577,-84.0811,-84.0811,1.78
0.00260266,0.000872365,0.000862028,5.18237e-06,0.00427594,0.000357382,0.00141623,0.000153272,-88,-35,31.6083,31.6083,-83.9877,-83.9877,1.784
0.0026198,0.000873401,0.000867705,5.87335e-06,0.00429423,0.000324627,0.00142229,0.000159763,-89,-36,31.8607,31.8607,-83.8926,-83.8926,1.788
0.00263701,0.000874092,0.000873406,6.56433e-06,0.00431256,0.000274,0.00142837,0.000164091,-90,-36,32.1162,32.1162,-83.7972,-83.7972,1.792
0.0026543,0.000874092,0.000879132,8.29179e-06,0.00433093,0.000182667,0.00143445,0.000253348,-92,-35,32.3756,32.3756,-83.7017,-83.7017,1.796
0.00267166,0.000874092,0.000884882,9.67375e-06,0.00434933,0.000121778,0.00144054,0.000284063,-93,-35,32.6404,32.6404,-83.6094,-83.6094,1.8
0.0026891,0.000874438,0.000890656,1.20922e-05,0.00436777,0.000109976,0.00144665,0.000390912,-94,-34,32.9093,32.9093,-83.5182,-83.5182,1.804
0.0027066,0.000874438,0.000896455,1.58926e-05,0.00438624,7.33174e-05,0.00145277,0.000577308,-95,-32,33.1804,33.1804,-83.4313,-83.4313,1.808
0.00272419,0.000874783,0.000902278,1.9002e-05,0.00440475,7.76692e-05,0.0014589,0.00064399,-95,-32,33.4546,33.4546,-83.3516,-83.3516,1.812
0.00274184,0.00087582,0.000908126,2.31479e-05,0.00442329,0.000138152,0.00146504,0.000774818,-95,-31,33.7301,33.7301,-83.2745,-83.2745,1.816
0.00275957,0.000876511,0.000913999,2.72938e-05,0.00444187,0.000149683,0.00147119,0.000862036,-96,-30,34.0047,34.0047,-83.2026,-83.2026,1.82
0.00277738,0.000876856,0.000919896,3.04032e-05,0.00446048,0.00012858,0.00147736,0.000833809,-97,-31,34.2806,34.2806,-83.1336,-83.1336,1.824
0.00279526,0.000878584,0.000925817,3.45491e-05,0.00447912,0.000229675,0.00148353,0.000901364,-96,-30,34.5587,34.5587,-83.0633,-83.0633,1.828
0.00281321,0.000879966,0.000931764,3.8004e-05,0.00449781,0.00026828,0.00148972,0.000888819,-97,-30,34.8342,34.8342,-82.9953,-82.9953,1.832
0.00283124,0.000883075,0.000937735,4.24954e-05,0.00451652,0.000437972,0.00149592,0.000966828,-96,-30,35.1093,35.1093,-82.9267,-82.9267,1.836
0.00284934,0.00088653,0.000943731,4.62958e-05,0.00453527,0.00057989,0.00150213,0.000961252,-95,-30,35.3787,35.3787,-82.8608,-82.8608,1.84
0.00286752,0.000890331,0.000949752,5.04417e-05,0.00455406,0.000703294,0.00150835,0.000986326,-94,-30,35.6436,35.6436,-82.7943,-82.7943,1.844
0.00288578,0.000894476,0.000955798,5.49331e-05,0.00457288,0.000814354,0.00151458,0.00103183,-94,-30,35.9048,35.9048,-82.7287,-82.7287,1.848
0.0029041,0.000898968,0.000961869,5.94245e-05,0.00459173,0.000917184,0.00152083,0.00106217,-93,-29,36.1628,36.1628,-82.6646,-82.6646,1.852
0.00292251,0.000903459,0.000967965,6.46068e-05,0.00461062,0.000985738,0.00152708,0.00113998,-93,-29,36.4179,36.4179,-82.6015,-82.6015,1.856
0.00294099,0.000907605,0.000974086,7.01347e-05,0.00462954,0.00100265,0.00153335,0.00122064,-94,-28,36.6718,36.6718,-82.5415,-82.5415,1.86
0.00295955,0.000910024,0.000980232,7.53171e-05,0.0046485,0.00086997,0.00153963,0.00124562,-96,-28,36.9269,36.9269,-82.4844,-82.4844,1.864
0.00297818,0.000913478,0.000986403,8.08449e-05,0.00466749,0.000867889,0.00154592,0.00129107,-96,-28,37.1889,37.1889,-82.4282,-82.4282,1.868
0.00299689,0.000915206,0.000992599,8.70638e-05,0.00468652,0.000722547,0.00155222,0.00137895,-98,-27,37.453,37.453,-82.3737,-82.3737,1.872
0.00301567,0.000917624,0.00099882,9.32826e-05,0.00470558,0.000683235,0.00155854,0.00143754,-99,-27,37.7246,37.7246,-82.3226,-82.3226,1.876
0.00303453,0.000919352,0.00100507,9.98469e-05,0.00472468,0.000599444,0.00156486,0.00150539,-101,-26,37.9996,37.9996,-82.2737,-82.2737,1.88
0.00305347,0.000920734,0.00101134,0.000106411,0.00474381,0.000514793,0.0015712,0.00155062,-102,-26,38.2799,38.2799,-82.2274,-82.2274,1.884
0.00307248,0.000922461,0.00101764,0.000112285,0.00476298,0.00048715,0.00157755,0.00152319,-103,-26,38.5653,38.5653,-82.1825,-82.1825,1.888
0.00309157,0.000923152,0.00102396,0.000117467,0.00478218,0.000382349,0.00158391,0.00144732,-105,-27,38.8538,38.8538,-82.136,-82.136,1.892
0.00311074,0.000924189,0.00103031,0.000121958,0.00480141,0.000341272,0.00159028,0.00133917,-106,-28,39.1483,39.1483,-82.0859,-82.0859,1.896
0.00312998,0.000925571,0.00103668,0.000125759,0.00482068,0.000342678,0.00159666,0.00120948,-107,-30,39.4461,39.4461,-82.0308,-82.0308,1.9
0.0031493,0.000927298,0.00104308,0.000129559,0.00483998,0.000372407,0.00160305,0.00112302,-107,-31,39.7455,39.7455,-81.9699,-81.9699,1.904
0.0031687,0.000930062,0.00104951,0.000133014,0.00485932,0.000478599,0.00160946,0.00103659,-107,-31,40.0451,40.0451,-81.9049,-81.9049,1.908
0.00318818,0.000931789,0.00105596,0.000135778,0.00487869,0.00046302,0.00161587,0.000921386,-107,-33,40.3422,40.3422,-81.8358,-81.8358,1.912
0.00320773,0.000934553,0.00106243,0.000139578,0.00489809,0.000539008,0.0016223,0.000930958,-107,-33,40.6413,40.6413,-81.7617,-81.7617,1.916
0.00322736,0.000936972,0.00106894,0.000142688,0.00491753,0.000560875,0.00162874,0.000879757,-108,-34,40.939,40.939,-81.6874,-81.6874,1.92
0.00324707,0.000939045,0.00107546,0.000145797,0.00493701,0.000546662,0.00163519,0.000845623,-109,-34,41.2375,41.2375,-81.6106,-81.6106,1.924
0.00326686,0.000942154,0.00108202,0.000148907,0.00495651,0.00062356,0.00164165,0.000822867,-109,-34,41.5381,41.5381,-81.5319,-81.5319,1.928
0.00328672,0.000944573,0.0010886,0.000152362,0.00497606,0.000617243,0.00164812,0.000836487,-109,-34,41.8373,41.8373,-81.4519,-81.4519,1.932
0.00330667,0.000947337,0.0010952,0.000155471,0.00499563,0.000641823,0.0016546,0.000816776,-110,-35,42.1383,42.1383,-81.3719,-81.3719,1.936
0.00332669,0.000949755,0.00110183,0.000160308,0.00501524,0.000629418,0.0016611,0.000947591,-111,-34,42.4401,42.4401,-81.2912,-81.2912,1.94
0.00334679,0.000951828,0.00110849,0.00016549,0.00503489,0.000592358,0.00166761,0.00106359,-112,-33,42.7442,42.7442,-81.2155,-81.2155,1.944
0.00336697,0.000954937,0.00111517,0.000171364,0.00505457,0.000654023,0.00167412,0.00119851,-112,-32,43.0513,43.0513,-81.1445,-81.1445,1.948
0.00338723,0.000957356,0.00112188,0.000177582,0.00507428,0.000637552,0.00168065,0.00131724,-113,-31,43.3577,43.3577,-81.0789,-81.0789,1.952
0.00340756,0.000959083,0.00112862,0.000183801,0.00509402,0.000568989,0.00168719,0.0013964,-114,-30,43.6666,43.6666,-81.0179,-81.0179,1.956
0.00342798,0.000960811,0.00113538,0.000190366,0.0051138,0.000523281,0.00169374,0.00147796,-115,-29,43.9802,43.9802,-80.96,-80.96,1.96
0.00344847,0.000962884,0.00114217,0.000197275,0.00513362,0.000521599,0.00170031,0.00156112,-116,-29,44.2974,44.2974,-80.9052,-80.9052,1.964
0.00346905,0.000963575,0.00114898,0.00020384,0.00515347,0.000405315,0.00170688,0.00158778,-118,-29,44.6167,44.6167,-80.8535,-80.8535,1.968
0.0034897,0.000965302,0.00115582,0.000210404,0.00517335,0.000414165,0.00171347,0.00160555,-118,-28,44.9425,44.9425,-80.8027,-80.8027,1.972
0.00351043,0.000966684,0.00116269,0.000216277,0.00519326,0.000391273,0.00172006,0.00155981,-119,-29,45.2697,45.2697,-80.7521,-80.7521,1.976
0.00353125,0.000968066,0.00116959,0.00022146,0.00521321,0.000376013,0.00172667,0.00147174,-120,-30,45.5997,45.5997,-80.6991,-80.6991,1.98
0.00355214,0.000969448,0.0011765,0.000226642,0.0052332,0.000365839,0.00173329,0.00141302,-121,-31,45.9321,45.9321,-80.642,-80.642,1.984
0.00357311,0.00097083,0.00118345,0.000231825,0.00525321,0.000359056,0.00173992,0.00137388,-122,-31,46.2668,46.2668,-80.5822,-80.5822,1.988
0.00359417,0.000972212,0.00119042,0.000236661,0.00527327,0.000354535,0.00174656,0.00131899,-123,-32,46.6036,46.6036,-80.5204,-80.5204,1.992
0.0036153,0.000973594,0.00119742,0.000240807,0.00529335,0.00035152,0.00175321,0.00122482,-123,-33,46.9423,46.9423,-80.4556,-80.4556,1.996
0.00363651,0.000975321,0.00120445,0.000244262,0.00531347,0.000378301,0.00175988,0.00110446,-124,-34,47.283,47.283,-80.3864,-80.3864,2
0.00365781,0.000976703,0.0012115,0.000247372,0.00533362,0.000367365,0.00176655,0.000995422,-125,-36,47.6244,47.6244,-80.3117,-80.3117,2.004
0.00367918,0.000978085,0.00121858,0.000250136,0.00535381,0.000360073,0.00177324,0.000893942,-126,-37,47.9681,47.9681,-80.2319,-80.2319,2.008
0.00370064,0.000979467,0.00122569,0.000253245,0.00537403,0.000355213,0.00177993,0.00085508,-126,-37,48.314,48.314,-80.1474,-80.1474,2.012
0.00372217,0.000982231,0.00123282,0.000256009,0.00539428,0.000467136,0.00178664,0.00080038,-126,-38,48.6616,48.6616,-80.0608,-80.0608,2.016
0.00374379,0.000984304,0.00123998,0.000259464,0.00541457,0.000484169,0.00179336,0.000821496,-127,-38,49.0064,49.0064,-79.9716,-79.9716,2.02
0.00376549,0.000987068,0.00124717,0.000263264,0.00543489,0.000553107,0.00180009,0.000864364,-127,-38,49.3522,49.3522,-79.8829,-79.8829,2.024
0.00378727,0.000988796,0.00125438,0.00026741,0.00545524,0.000512693,0.00180683,0.000921734,-128,-37,49.6971,49.6971,-79.7956,-79.7956,2.028
0.00380913,0.000990868,0.00126162,0.000272247,0.00547563,0.000514541,0.00181358,0.00101756,-129,-37,50.0456,50.0456,-79.7104,-79.7104,2.032
0.00383108,0.000992941,0.00126889,0.000277775,0.00549605,0.000515773,0.00182035,0.00113903,-129,-36,50.3957,50.3957,-79.629,-79.629,2.036
0.0038531,0.000994669,0.00127619,0.000283994,0.0055165,0.000487803,0.00182712,0.00127759,-130,-34,50.7478,50.7478,-79.5524,-79.5524,2.04
0.00387521,0.000996396,0.00128351,0.000291594,0.00553699,0.000469157,0.00183391,0.00148513,-131,-33,51.1029,51.1029,-79.4816,-79.4816,2.044
0.0038974,0.000998469,0.00129086,0.000299541,0.00555751,0.000485517,0.0018407,0.00165228,-132,-31,51.4606,51.4606,-79.4191,-79.4191,2.048
0.00391967,0.000999851,0.00129823,0.000309215,0.00557806,0.000438841,0.00184751,0.00190766,-133,-29,51.8196,51.8196,-79.3638,-79.3638,2.052
0.00394202,0.00100227,0.00130564,0.000317852,0.00559865,0.000494097,0.00185433,0.00199155,-134,-28,52.1822,52.1822,-79.3186,-79.3186,2.056
0.00396446,0.00100434,0.00131307,0.000326489,0.00561927,0.000502144,0.00186116,0.00204747,-134,-28,52.5444,52.5444,-79.2767,-79.2767,2.06
0.00398698,0.00100607,0.00132053,0.000334435,0.00563993,0.000478717,0.001868,0.00202717,-135,-28,52.9083,52.9083,-79.2367,-79.2367,2.064
0.00400958,0.00100883,0.00132801,0.000341345,0.00566061,0.000549472,0.00187485,0.00192727,-135,-29,53.2748,53.2748,-79.1953,-79.1953,2.068
0.00403226,0.00101056,0.00133553,0.000346873,0.00568133,0.000510269,0.00188172,0.0017455,-137,-31,53.6404,53.6404,-79.149,-79.149,2.072
0.00405503,0.00101333,0.00134307,0.000351364,0.00570209,0.000570507,0.00188859,0.00153795,-137,-33,54.0094,54.0094,-79.0947,-79.0947,2.076
0.00407788,0.00101574,0.00135063,0.000355165,0.00572288,0.000581874,0.00189547,0.001342,-137,-35,54.3777,54.3777,-79.0311,-79.0311,2.08
0.00410081,0.00101747,0.00135823,0.000357929,0.0057437,0.000531871,0.00190237,0.00112499,-139,-37,54.7477,54.7477,-78.9586,-78.9586,2.084
0.00412383,0.00101989,0.00136585,0.000360693,0.00576455,0.000556117,0.00190928,0.000980323,-139,-39,55.1215,55.1215,-78.8766,-78.8766,2.088
0.00414693,0.00102162,0.0013735,0.000362766,0.00578544,0.000514699,0.0019162,0.000826294,-141,-41,55.4964,55.4964,-78.7879,-78.7879,2.092
0.00417011,0.001023,0.00138118,0.000366221,0.00580636,0.000458297,0.00192312,0.000838772,-142,-41,55.875,55.875,-78.6927,-78.6927,2.096
0.00419338,0.00102507,0.00138889,0.000368984,0.00582731,0.000478277,0.00193006,0.000789509,-143,-41,56.2577,56.2577,-78.5973,-78.5973,2.1
0.00421673,0.00102715,0.00139662,0.00037313,0.00584829,0.000491597,0.00193701,0.00087183,-143,-41,56.6416,56.6416,-78.4996,-78.4996,2.104
0.00424016,0.00102887,0.00140439,0.000376931,0.00586931,0.000471686,0.00194398,0.00089792,-144,-41,57.0269,57.0269,-78.4048,-78.4048,2.108
0.00426368,0.00103095,0.00141218,0.000380731,0.00589036,0.000487203,0.00195095,0.000915314,-145,-41,57.415,57.415,-78.3106,-78.3106,2.112
0.00428729,0.00103371,0.00141999,0.000385568,0.00591145,0.000555129,0.00195793,0.00101328,-145,-40,57.8041,57.8041,-78.2169,-78.2169,2.116
0.00431097,0.00103613,0.00142784,0.000391096,0.00593257,0.000571623,0.00196493,0.00113618,-146,-39,58.1925,58.1925,-78.127,-78.127,2.12
0.00433475,0.00103855,0.00143571,0.000397315,0.00595372,0.000582618,0.00197193,0.00127569,-146,-38,58.5821,58.5821,-78.0419,-78.0419,2.124
0.0043586,0.00104062,0.00144361,0.000403879,0.0059749,0.000561158,0.00197895,0.00139749,-148,-37,58.9732,58.9732,-77.9623,-77.9623,2.128
0.00438255,0.00104338,0.00145154,0.000411134,0.00599612,0.000604433,0.00198597,0.00153627,-148,-36,59.3671,59.3671,-77.8876,-77.8876,2.132
0.00440657,0.00104615,0.0014595,0.000418735,0.00601737,0.000633282,0.00199301,0.00165758,-148,-35,59.7611,59.7611,-77.8184,-77.8184,2.136
0.00443069,0.0010496,0.00146749,0.000426682,0.00603865,0.000710098,0.00200006,0.00176724,-149,-34,60.1557,60.1557,-77.754,-77.754,2.14
0.00445488,0.00105375,0.0014755,0.000434973,0.00605996,0.000818889,0.00200712,0.00186914,-148,-33,60.5488,60.5488,-77.6939,-77.6939,2.144
0.00447917,0.00105824,0.00148355,0.000443611,0.00608131,0.000920208,0.00201419,0.00196587,-148,-32,60.9391,60.9391,-77.6379,-77.6379,2.148
0.00450353,0.00106342,0.00149162,0.00045052,0.00610269,0.00104534,0.00202127,0.0018864,-148,-33,61.327,61.327,-77.5851,-77.5851,2.152
0.00452799,0.0010686,0.00149972,0.00045743,0.0061241,0.00112875,0.00202837,0.00183342,-148,-34,61.7114,61.7114,-77.5287,-77.5287,2.156
0.00455253,0.00107413,0.00150784,0.000462613,0.00614555,0.00121316,0.00203547,0.00165414,-148,-36,62.0942,62.0942,-77.4693,-77.4693,2.16
0.00457715,0.00108001,0.001516,0.000467449,0.00616703,0.00129822,0.00204258,0.00150583,-148,-37,62.4751,62.4751,-77.4019,-77.4019,2.164
0.00460186,0.00108622,0.00152418,0.000471595,0.00618854,0.00138372,0.00204971,0.00134938,-148,-39,62.8543,62.8543,-77.3278,-77.3278,2.168
0.00462666,0.0010921,0.0015324,0.000476087,0.00621008,0.00141192,0.00205684,0.00127387,-148,-40,63.2318,63.2318,-77.2468,-77.2468,2.172
0.00465154,0.00109693,0.00154064,0.000480233,0.00623166,0.00134435,0.00206399,0.00119474,-150,-41,63.6103,63.6103,-77.162,-77.162,2.176
0.00467651,0.00110143,0.00154891,0.000485415,0.00625327,0.00127052,0.00207115,0.00122836,-151,-41,63.9936,63.9936,-77.0738,-77.0738,2.18
0.00470157,0.00110523,0.00155721,0.000490943,0.00627491,0.00116371,0.00207831,0.00127956,-153,-40,64.382,64.382,-76.9865,-76.9865,2.184
0.00472671,0.0011073,0.00156554,0.000497507,0.00629658,0.000948554,0.00208549,0.00140007,-156,-39,64.7773,64.7773,-76.9013,-76.9013,2.188
0.00475194,0.00110972,0.00157389,0.000505108,0.00631829,0.000833906,0.00209268,0.00156678,-158,-38,65.1836,65.1836,-76.8209,-76.8209,2.192
0.00477726,0.00111075,0.00158228,0.000513745,0.00634003,0.00064231,0.00209988,0.00176429,-161,-36,65.5971,65.5971,-76.7473,-76.7473,2.196
0.00480266,0.00111248,0.00159069,0.000522383,0.0063618,0.000572161,0.00210709,0.00189597,-162,-35,66.0205,66.0205,-76.6816,-76.6816,2.2
0.00482815,0.00111386,0.00159913,0.000531711,0.0063836,0.000496605,0.00211431,0.00204133,-164,-34,66.449,66.449,-76.6212,-76.6212,2.204
0.00485373,0.00111559,0.00160761,0.000541039,0.00640544,0.000475024,0.00212155,0.00213824,-165,-33,66.8827,66.8827,-76.5666,-76.5666,2.208
0.0048794,0.00111697,0.00161611,0.000550022,0.00642731,0.000431847,0.00212879,0.00217406,-166,-33,67.3195,67.3195,-76.5157,-76.5157,2.212
0.00490515,0.00111939,0.00162464,0.000558314,0.00644921,0.000489434,0.00213604,0.00214036,-167,-33,67.7599,67.7599,-76.4657,-76.4657,2.216
0.00493099,0.00112112,0.00163319,0.000565569,0.00647114,0.000470244,0.00214331,0.00203151,-168,-34,68.2002,68.2002,-76.4139,-76.4139,2.22
0.00495692,0.0011225,0.00164178,0.000572479,0.00649311,0.00042866,0.00215058,0.00193016,-169,-35,68.6435,68.6435,-76.357,-76.357,2.224
0.00498294,0.00112423,0.0016504,0.000578698,0.0065151,0.000429728,0.00215787,0.00180501,-170,-37,69.0906,69.0906,-76.2954,-76.2954,2.228
0.00500904,0.00112596,0.00165905,0.000583534,0.00653713,0.00043044,0.00216516,0.00160641,-171,-39,69.5398,69.5398,-76.2278,-76.2278,2.232
0.00503523,0.00112837,0.00166772,0.000588026,0.00655919,0.000488496,0.00217247,0.00144522,-171,-41,69.9909,69.9909,-76.1514,-76.1514,2.236
0.00506151,0.00112976,0.00167642,0.000592863,0.00658129,0.000440828,0.00217979,0.00136656,-173,-41,70.4419,70.4419,-76.0679,-76.0679,2.24
0.00508788,0.00113148,0.00168516,0.000598045,0.00660342,0.00043784,0.00218712,0.0013429,-174,-42,70.8971,70.8971,-75.9807,-75.9807,2.244
0.00511434,0.00113321,0.00169392,0.000604609,0.00662557,0.000435848,0.00219446,0.00144229,-175,-41,71.3545,71.3545,-75.8924,-75.8924,2.248
0.00514089,0.00113528,0.00170271,0.000611174,0.00664776,0.000463311,0.00220181,0.00150856,-175,-41,71.814,71.814,-75.8078,-75.8078,2.252
0.00516752,0.00113667,0.00171154,0.000618429,0.00666999,0.000424038,0.00220917,0.00161031,-177,-40,72.2747,72.2747,-75.7258,-75.7258,2.256
0.00519425,0.00113874,0.00172039,0.00062603,0.00669224,0.000455437,0.00221654,0.00170694,-177,-39,72.7391,72.7391,-75.6476,-75.6476,2.26
0.00522106,0.00114081,0.00172927,0.000634667,0.00671453,0.00047637,0.00222392,0.00185774,-178,-38,73.2043,73.2043,-75.5733,-75.5733,2.264
0.00524796,0.00114358,0.00173818,0.00064365,0.00673685,0.000547908,0.00223131,0.00198705,-178,-37,73.6707,73.6707,-75.505,-75.505,2.268
0.00527496,0.00114668,0.00174712,0.000652978,0.0067592,0.00062439,0.00223872,0.00210206,-179,-36,74.1361,74.1361,-75.4419,-75.4419,2.272
0.00530204,0.00114979,0.00175609,0.000662306,0.00678158,0.000675378,0.00224613,0.00217873,-179,-35,74.6004,74.6004,-75.3832,-75.3832,2.276
0.00532921,0.00115256,0.00176509,0.000671635,0.006804,0.00068058,0.00225355,0.00222984,-180,-35,75.0648,75.0648,-75.3274,-75.3274,2.28
0.00535647,0.00115601,0.00177412,0.000680617,0.00682644,0.000741629,0.00226099,0.00223512,-180,-35,75.531,75.531,-75.2734,-75.2734,2.284
0.00538382,0.00115912,0.00178318,0.000689255,0.00684892,0.000753538,0.00226843,0.00220986,-181,-35,75.9968,75.9968,-75.2192,-75.2192,2.288
0.00541126,0.00116223,0.00179226,0.000698238,0.00687143,0.000761477,0.00227589,0.0022218,-182,-35,76.4643,76.4643,-75.1636,-75.1636,2.292
0.00543879,0.00116603,0.00180138,0.000707566,0.00689397,0.000824351,0.00228335,0.00225856,-182,-35,76.9334,76.9334,-75.1083,-75.1083,2.296
0.00546641,0.00117018,0.00181053,0.000716549,0.00691655,0.000895059,0.00229083,0.00225427,-183,-35,77.4019,77.4019,-75.0542,-75.0542,2.3
0.00549412,0.00117398,0.00181971,0.00072484,0.00693915,0.000913406,0.00229832,0.00219383,-183,-36,77.8697,77.8697,-74.9994,-74.9994,2.304
0.00552193,0.00117812,0.00182892,0.000733823,0.00696179,0.000954428,0.00230582,0.00221112,-184,-36,78.3388,78.3388,-74.9419,-74.9419,2.308
0.00554982,0.00118227,0.00183816,0.000741424,0.00698446,0.000981777,0.00231332,0.00210748,-185,-37,78.8083,78.8083,-74.8844,-74.8844,2.312
0.0055778,0.00118676,0.00184742,0.000749716,0.00700716,0.0010288,0.00232084,0.00209597,-185,-37,79.2787,79.2787,-74.8224,-74.8224,2.316
0.00560588,0.0011916,0.00185672,0.000756971,0.00702989,0.00108894,0.00232837,0.00200192,-186,-38,79.7491,79.7491,-74.7593,-74.7593,2.32
0.00563404,0.00119609,0.00186605,0.000764917,0.00705266,0.00110024,0.00233591,0.00199681,-186,-38,80.2193,80.2193,-74.692,-74.692,2.324
0.0056623,0.00120093,0.00187541,0.0007739,0.00707545,0.00113657,0.00234346,0.00207977,-187,-38,80.691,80.691,-74.6245,-74.6245,2.328
0.00569064,0.00120507,0.0018848,0.000782192,0.00709828,0.0011032,0.00235102,0.00207749,-188,-38,81.1635,81.1635,-74.5598,-74.5598,2.332
0.00571908,0.00120887,0.00189422,0.000790829,0.00712114,0.00105217,0.00235859,0.00210477,-190,-38,81.6396,81.6396,-74.4948,-74.4948,2.336
0.00574761,0.00121302,0.00190367,0.000799121,0.00714403,0.00104694,0.00236618,0.00209416,-191,-38,82.12,82.12,-74.4304,-74.4304,2.34
0.00577624,0.00121682,0.00191315,0.000808104,0.00716695,0.00101466,0.00237377,0.00214467,-192,-38,82.6028,82.6028,-74.3654,-74.3654,2.344
0.00580495,0.00122027,0.00192266,0.000816395,0.00718991,0.000964348,0.00238137,0.00212076,-193,-38,83.0893,83.0893,-74.302,-74.302,2.348
0.00583375,0.00122269,0.0019322,0.000824687,0.00721289,0.000844435,0.00238898,0.00210482,-196,-38,83.5803,83.5803,-74.2372,-74.2372,2.352
0.00586265,0.00122442,0.00194177,0.000832979,0.00723591,0.000706911,0.00239661,0.0020942,-198,-39,84.0788,84.0788,-74.1714,-74.1714,2.356
0.00589164,0.0012258,0.00195137,0.000841616,0.00725896,0.000586438,0.00240424,0.00211591,-200,-39,84.5855,84.5855,-74.1048,-74.1048,2.36
0.00592072,0.00122718,0.001961,0.000849563,0.00728204,0.000506122,0.00241188,0.00207279,-202,-39,85.0995,85.0995,-74.0386,-74.0386,2.364
0.0059499,0.00122822,0.00197067,0.000856472,0.00730515,0.000423788,0.00241954,0.00195768,-204,-41,85.6193,85.6193,-73.9699,-73.9699,2.368
0.00597917,0.00122891,0.00198036,0.000863728,0.00732829,0.000340107,0.0024272,0.00190973,-206,-41,86.145,86.145,-73.8961,-73.8961,2.372
0.00600852,0.00123029,0.00199008,0.00087202,0.00735146,0.000341902,0.00243488,0.00196414,-207,-41,86.6764,86.6764,-73.8201,-73.8201,2.376
0.00603798,0.00123202,0.00199984,0.00087962,0.00737467,0.000371889,0.00244257,0.00194282,-208,-41,87.21,87.21,-73.7458,-73.7458,2.38
0.00606752,0.00123375,0.00200963,0.000888949,0.0073979,0.000391881,0.00245026,0.00207257,-208,-40,87.7447,87.7447,-73.6706,-73.6706,2.384
0.00609716,0.00123582,0.00201944,0.000898968,0.00742117,0.000433999,0.00245797,0.00221665,-209,-39,88.2809,88.2809,-73.6006,-73.6006,2.388
0.00612689,0.00123824,0.00202929,0.000910024,0.00744447,0.000490869,0.00246568,0.00239908,-210,-37,88.8175,88.8175,-73.5366,-73.5366,2.392
0.00615672,0.00124031,0.00203917,0.00092177,0.0074678,0.000499992,0.00247341,0.00257828,-211,-36,89.3542,89.3542,-73.48,-73.48,2.396
0.00618663,0.00124273,0.00204908,0.000933171,0.00749116,0.000534864,0.00248115,0.00266895,-211,-35,89.8928,89.8928,-73.4305,-73.4305,2.4
0.00621665,0.00124515,0.00205902,0.000944227,0.00751455,0.000558113,0.0024889,0.00270061,-212,-35,90.4322,90.4322,-73.3844,-73.3844,2.404
0.00624675,0.00124722,0.00206899,0.000951828,0.00753798,0.000544821,0.00249665,0.00243381,-213,-37,90.9731,90.9731,-73.3385,-73.3385,2.408
0.00627695,0.00124999,0.00207899,0.00096012,0.00756143,0.000593541,0.00250442,0.00231352,-214,-39,91.5168,91.5168,-73.2812,-73.2812,2.412
0.00630724,0.00125241,0.00208902,0.000965993,0.00758492,0.000597231,0.0025122,0.00203179,-215,-42,92.0609,92.0609,-73.218,-73.218,2.416
0.00633763,0.00125551,0.00209909,0.000970139,0.00760843,0.000657272,0.00251999,0.00170002,-216,-45,92.607,92.607,-73.1421,-73.1421,2.42
0.00636811,0.00125828,0.00210918,0.000973939,0.00763198,0.000668509,0.00252779,0.00145005,-216,-48,93.153,93.153,-73.0517,-73.0517,2.424
0.00639868,0.00126104,0.00211931,0.000976703,0.00765556,0.000676,0.0025356,0.00119703,-217,-50,93.7009,93.7009,-72.9501,-72.9501,2.428
0.00642935,0.00126415,0.00212947,0.000978776,0.00767917,0.000709785,0.00254342,0.000970762,-218,-53,94.2508,94.2508,-72.8372,-72.8372,2.432
0.00646012,0.00126692,0.00213966,0.000981195,0.00770281,0.000703517,0.00255125,0.000848711,-219,-54,94.8017,94.8017,-72.7142,-72.7142,2.436
0.00649098,0.00127037,0.00214988,0.000982922,0.00772648,0.000756921,0.00255909,0.000709762,-220,-56,95.3551,95.3551,-72.5853,-72.5853,2.44
0.00652193,0.00127383,0.00216013,0.000984304,0.00775018,0.000792523,0.00256694,0.000588338,-221,-57,95.9087,95.9087,-72.4498,-72.4498,2.444
0.00655298,0.00127797,0.00217041,0.000987414,0.00777392,0.00087384,0.0025748,0.000651344,-221,-57,96.4629,96.4629,-72.309,-72.309,2.448
0.00658412,0.00128212,0.00218073,0.000990523,0.00779768,0.000928051,0.00258267,0.000693348,-222,-57,97.016,97.016,-72.1701,-72.1701,2.452
0.00661536,0.00128695,0.00219107,0.000994323,0.00782148,0.00102177,0.00259055,0.000778932,-222,-56,97.5691,97.5691,-72.0324,-72.0324,2.456
0.00664669,0.00129214,0.00220145,0.000998469,0.0078453,0.00111305,0.00259844,0.000864779,-222,-56,98.1204,98.1204,-71.8977,-71.8977,2.46
0.00667812,0.00129766,0.00221186,0.00100365,0.00786916,0.00120269,0.00260635,0.00100838,-222,-55,98.6702,98.6702,-71.7661,-71.7661,2.464
0.00670965,0.00130423,0.0022223,0.00100814,0.00789305,0.00134882,0.00261426,0.00104654,-222,-55,99.2182,99.2182,-71.6398,-71.6398,2.468
0.00674127,0.00131079,0.00223278,0.00101298,0.00791696,0.00144624,0.00262218,0.00110076,-222,-54,99.7623,99.7623,-71.5145,-71.5145,2.472
0.00677298,0.0013177,0.00224328,0.00101713,0.00794091,0.00153998,0.00263011,0.00107933,-222,-55,100.305,100.305,-71.3907,-71.3907,2.476
0.00680479,0.00132496,0.00225382,0.00102024,0.00796489,0.00163126,0.00263805,0.000978674,-222,-56,100.845,100.845,-71.265,-71.265,2.48
0.0068367,0.00133187,0.00226439,0.00102231,0.0079889,0.00166333,0.00264601,0.000825195,-223,-58,101.384,101.384,-71.1343,-71.1343,2.484
0.0068687,0.00133809,0.00227499,0.001023,0.00801294,0.00162712,0.00265397,0.000607712,-224,-60,101.924,101.924,-70.9961,-70.9961,2.488
0.0069008,0.00134327,0.00228562,0.00102334,0.00803702,0.00151661,0.00266194,0.000433932,-226,-62,102.468,102.468,-70.8479,-70.8479,2.492
0.006933,0.00134776,0.00229628,0.00102334,0.00806112,0.00138536,0.00266992,0.000289288,-229,-64,103.02,103.02,-70.6917,-70.6917,2.496
0.00696529,0.00135122,0.00230698,0.00102369,0.00808525,0.00121148,0.00267792,0.00022165,-232,-65,103.579,103.579,-70.5287,-70.5287,2.5
0.00699768,0.00135363,0.0023177,0.00102404,0.00810941,0.00100919,0.00268592,0.000176557,-235,-66,104.148,104.148,-70.362,-70.362,2.504
0.00703017,0.00135536,0.00232846,0.00102438,0.00813361,0.000816748,0.00269393,0.000146496,-238,-66,104.729,104.729,-70.1926,-70.1926,2.508
0.00706275,0.0013564,0.00233926,0.00102507,0.00815783,0.000630871,0.00270196,0.000155246,-241,-67,105.32,105.32,-70.0212,-70.0212,2.512
0.00709543,0.00135813,0.00235008,0.00102611,0.00818209,0.000564535,0.00270999,0.00018987,-243,-67,105.922,105.922,-69.8495,-69.8495,2.516
0.00712821,0.00135985,0.00236094,0.00102715,0.00820637,0.000520312,0.00271803,0.000212953,-244,-67,106.528,106.528,-69.6783,-69.6783,2.52
0.00716108,0.00136193,0.00237182,0.00102853,0.00823069,0.00051962,0.00272609,0.000257132,-245,-67,107.139,107.139,-69.5074,-69.5074,2.524
0.00719405,0.00136434,0.00238274,0.00102991,0.00825503,0.00054795,0.00273415,0.000286585,-246,-67,107.753,107.753,-69.3375,-69.3375,2.528
0.00722712,0.00136745,0.0023937,0.00103164,0.00827941,0.000624418,0.00274222,0.000335011,-247,-67,108.368,108.368,-69.1682,-69.1682,2.532
0.00726029,0.00137091,0.00240468,0.00103336,0.00830382,0.000704188,0.00275031,0.000367296,-247,-67,108.982,108.982,-69,-69,2.536
0.00729355,0.00137471,0.0024157,0.0010344,0.00832825,0.000786159,0.0027584,0.000331236,-247,-67,109.595,109.595,-68.8322,-68.8322,2.54
0.00732692,0.00137885,0.00242675,0.00103578,0.00835272,0.000869597,0.00276651,0.000335988,-248,-68,110.207,110.207,-68.6622,-68.6622,2.544
0.00736038,0.00138404,0.00243783,0.00103682,0.00837722,0.0010116,0.00277462,0.000310365,-248,-68,110.818,110.818,-68.4914,-68.4914,2.548
0.00739393,0.00138922,0.00244895,0.00103751,0.00840175,0.00110626,0.00278274,0.000264492,-248,-69,111.425,111.425,-68.3187,-68.3187,2.552
0.00742759,0.00139544,0.00246009,0.00103786,0.0084263,0.00125574,0.00279088,0.000205119,-248,-70,112.03,112.03,-68.1432,-68.1432,2.556
0.00746134,0.00140338,0.00247127,0.0010382,0.00845089,0.00149935,0.00279902,0.000165537,-246,-71,112.631,112.631,-67.9643,-67.9643,2.56
0.0074952,0.00141168,0.00248249,0.00103889,0.00847551,0.00169055,0.00280718,0.00016794,-246,-71,113.225,113.225,-67.783,-67.783,2.564
0.00752915,0.001421,0.00249373,0.00103889,0.00850016,0.00190439,0.00281534,0.00011196,-245,-72,113.812,113.812,-67.6007,-67.6007,2.568
0.0075632,0.00143033,0.00250501,0.00103924,0.00852484,0.00204695,0.00282351,0.000103431,-244,-73,114.392,114.392,-67.4154,-67.4154,2.572
0.00759735,0.00143897,0.00251632,0.00103958,0.00854955,0.0020844,0.0028317,9.77448e-05,-245,-73,114.97,114.97,-67.2288,-67.2288,2.576
0.00763159,0.00144657,0.00252766,0.00103958,0.00857429,0.002023,0.00283989,6.51632e-05,-247,-74,115.548,115.548,-67.041,-67.041,2.58
0.00766594,0.00145279,0.00253904,0.00103993,0.00859905,0.00186691,0.00284809,7.2233e-05,-249,-74,116.131,116.131,-66.851,-66.851,2.584
0.00770039,0.00145728,0.00255045,0.00104027,0.00862385,0.00161889,0.00285631,7.69463e-05,-253,-74,116.724,116.724,-66.6605,-66.6605,2.588
0.00773493,0.00146039,0.00256189,0.00104027,0.00864868,0.00133838,0.00286453,5.12975e-05,-257,-75,117.33,117.33,-66.4692,-66.4692,2.592
0.00776958,0.00146177,0.00257336,0.00104096,0.00867354,0.00100741,0.00287277,9.17802e-05,-261,-75,117.951,117.951,-66.2761,-66.2761,2.596
0.00780432,0.00146246,0.00258487,0.00104131,0.00869843,0.000729191,0.00288101,8.99777e-05,-265,-75,118.588,118.588,-66.0837,-66.0837,2.6
0.00783916,0.00146281,0.00259641,0.00104166,0.00872335,0.000514918,0.00288926,8.87761e-05,-269,-76,119.24,119.24,-65.8903,-65.8903,2.604
0.00787411,0.0014635,0.00260798,0.001042,0.0087483,0.000400861,0.00289753,8.7975e-05,-271,-76,119.903,119.903,-65.696,-65.696,2.608
0.00790915,0.00146419,0.00261959,0.00104269,0.00877328,0.000324822,0.0029058,0.000116232,-273,-76,120.574,120.574,-65.5008,-65.5008,2.612
0.00794429,0.00146557,0.00263123,0.00104269,0.00879828,0.000331712,0.00291408,7.74879e-05,-274,-77,121.251,121.251,-65.3058,-65.3058,2.616
0.00797954,0.0014673,0.0026429,0.00104304,0.00882332,0.000365096,0.00292237,8.04495e-05,-275,-78,121.93,121.93,-65.1083,-65.1083,2.62
0.00801488,0.00146972,0.00265461,0.00104338,0.00884839,0.000444934,0.00293068,8.24239e-05,-276,-78,122.611,122.611,-64.9101,-64.9101,2.624
0.00805032,0.00147248,0.00266635,0.00104373,0.00887349,0.00052695,0.00293899,8.37402e-05,-276,-78,123.29,123.29,-64.711,-64.711,2.628
0.00808587,0.00147628,0.00267812,0.00104407,0.00889862,0.000668,0.00294731,8.46177e-05,-276,-79,123.969,123.969,-64.5111,-64.5111,2.632
0.00812151,0.00148008,0.00268993,0.00104407,0.00892377,0.000762034,0.00295564,5.64118e-05,-276,-79,124.644,124.644,-64.3102,-64.3102,2.636
0.00815726,0.00148492,0.00270177,0.00104442,0.00894896,0.000911095,0.00296399,6.63988e-05,-276,-80,125.318,125.318,-64.1073,-64.1073,2.64
0.0081931,0.00149045,0.00271364,0.00104511,0.00897418,0.00106805,0.00297234,0.000101848,-276,-80,125.987,125.987,-63.904,-63.904,2.644
0.00822905,0.00149667,0.00272555,0.00104615,0.00899942,0.00123027,0.0029807,0.000154271,-276,-80,126.653,126.653,-63.7014,-63.7014,2.648
0.0082651,0.00150461,0.00273749,0.00104718,0.0090247,0.00148237,0.00298907,0.00018922,-274,-80,127.314,127.314,-63.5001,-63.5001,2.652
0.00830125,0.00151256,0.00274946,0.00104822,0.00905,0.00165044,0.00299745,0.00021252,-274,-80,127.967,127.967,-63.2993,-63.2993,2.656
0.0083375,0.00152223,0.00276146,0.00104926,0.00907534,0.00190644,0.00300584,0.000228053,-273,-80,128.615,128.615,-63.0986,-63.0986,2.66
0.00837385,0.00153363,0.00277351,0.00105029,0.0091007,0.00222106,0.00301425,0.000238408,-271,-80,129.254,129.254,-62.8976,-62.8976,2.664
0.00841031,0.00154573,0.00278558,0.00105098,0.0091261,0.00248839,0.00302266,0.00021652,-269,-81,129.882,129.882,-62.6961,-62.6961,2.668
0.00844686,0.00155782,0.00279769,0.00105167,0.00915152,0.00266661,0.00303108,0.000201929,-269,-82,130.502,130.502,-62.4928,-62.4928,2.672
0.00848352,0.00156991,0.00280983,0.00105202,0.00917697,0.00278542,0.00303951,0.00016341,-269,-82,131.116,131.116,-62.2879,-62.2879,2.676
0.00852028,0.00158131,0.002822,0.00105202,0.00920246,0.00280705,0.00304795,0.00010894,-270,-83,131.727,131.727,-62.0804,-62.0804,2.68
0.00855714,0.00159168,0.00283421,0.00105237,0.00922797,0.00273509,0.0030564,0.000101418,-272,-84,132.341,132.341,-61.8697,-61.8697,2.684
0.0085941,0.00160273,0.00284645,0.00105271,0.00925351,0.0027447,0.00306486,9.64027e-05,-273,-84,132.959,132.959,-61.6578,-61.6578,2.688
0.00863117,0.00161413,0.00285873,0.00105306,0.00927908,0.0027799,0.00307333,9.30594e-05,-274,-85,133.58,133.58,-61.4448,-61.4448,2.692
0.00866833,0.00162623,0.00287104,0.0010534,0.00930468,0.00286095,0.00308181,9.08305e-05,-274,-85,134.201,134.201,-61.2307,-61.2307,2.696
0.0087056,0.00164074,0.00288338,0.0010534,0.00933031,0.00311652,0.00309029,6.05537e-05,-273,-86,134.82,134.82,-61.0155,-61.0155,2.7
0.00874298,0.00165698,0.00289576,0.00105375,0.00935597,0.00343085,0.00309879,6.916e-05,-271,-86,135.431,135.431,-60.7981,-60.7981,2.704
0.00878045,0.00167667,0.00290817,0.00105409,0.00938166,0.00392832,0.0031073,7.48976e-05,-267,-87,136.029,136.029,-60.5801,-60.5801,2.708
0.00881803,0.00169913,0.00292062,0.00105444,0.00940738,0.00449029,0.00311582,7.87227e-05,-262,-87,136.608,136.608,-60.3615,-60.3615,2.712
0.00885571,0.00172366,0.0029331,0.00105478,0.00943312,0.00503768,0.00312435,8.12727e-05,-258,-87,137.165,137.165,-60.142,-60.142,2.716
0.00889349,0.00175095,0.00294562,0.00105513,0.0094589,0.00563294,0.00313288,8.29727e-05,-253,-88,137.7,137.7,-59.9218,-59.9218,2.72
0.00893138,0.00178239,0.00295816,0.00105513,0.0094847,0.00637527,0.00314143,5.53152e-05,-247,-89,138.211,138.211,-59.7005,-59.7005,2.724
0.00896937,0.00181797,0.00297075,0.00105582,0.00951054,0.00721564,0.00314999,9.44586e-05,-239,-89,138.692,138.692,-59.4773,-59.4773,2.728
0.00900747,0.00185805,0.00298336,0.00105617,0.0095364,0.00815018,0.00315855,9.17633e-05,-231,-89,139.137,139.137,-59.2547,-59.2547,2.732
0.00904566,0.00190366,0.00299602,0.00105617,0.00956229,0.00923385,0.00316713,6.11756e-05,-221,-90,139.542,139.542,-59.0309,-59.0309,2.736
0.00908396,0.00195583,0.0030087,0.00105651,0.00958822,0.0105033,0.00317571,6.95746e-05,-209,-90,139.902,139.902,-58.805,-58.805,2.74
0.00912237,0.00201283,0.00302142,0.00105686,0.00961417,0.0117527,0.00318431,7.5174e-05,-198,-91,140.208,140.208,-58.5784,-58.5784,2.744
0.00916088,0.00207606,0.00303418,0.0010572,0.00964015,0.0131039,0.00319291,7.89069e-05,-185,-91,140.46,140.46,-58.3512,-58.3512,2.748
0.00919949,0.00214274,0.00304696,0.00105789,0.00966615,0.0142926,0.00320153,0.000110186,-173,-91,140.654,140.654,-58.1232,-58.1232,2.752
0.00923821,0.00221633,0.00305979,0.00105858,0.00969219,0.0156608,0.00321015,0.000131039,-160,-91,140.798,140.798,-57.8955,-57.8955,2.756
0.00927703,0.00229544,0.00307265,0.00105962,0.00971826,0.0170337,0.00321879,0.000173732,-147,-91,140.881,140.881,-57.6679,-57.6679,2.76
0.00931595,0.00238009,0.00308554,0.00106031,0.00974435,0.0184096,0.00322743,0.000173403,-133,-92,140.906,140.906,-57.4409,-57.4409,2.764
0.00935498,0.00246681,0.00309847,0.00106135,0.00977048,0.0194996,0.00323608,0.000201975,-122,-92,140.871,140.871,-57.2131,-57.2131,2.768
0.00939412,0.00255767,0.00311143,0.00106204,0.00979663,0.0205717,0.00324474,0.000192232,-112,-93,140.788,140.788,-56.9855,-56.9855,2.772
0.00943336,0.00265303,0.00312442,0.00106308,0.00982281,0.0216608,0.00325342,0.000214527,-101,-93,140.658,140.658,-56.7566,-56.7566,2.776
0.0094727,0.00275218,0.00313745,0.00106411,0.00984903,0.0227035,0.0032621,0.000229391,-90,-93,140.48,140.48,-56.5276,-56.5276,2.78
0.00951215,0.00285168,0.00315052,0.00106515,0.00987527,0.0234275,0.00327079,0.0002393,-82,-93,140.257,140.257,-56.2983,-56.2983,2.784
0.0095517,0.00295188,0.00316362,0.00106619,0.00990153,0.0239677,0.00327949,0.000245906,-76,-94,140.001,140.001,-56.0685,-56.0685,2.788
0.00959136,0.00305518,0.00317676,0.00106722,0.00992783,0.0245869,0.0032882,0.00025031,-70,-94,139.72,139.72,-55.838,-55.838,2.792
0.00963112,0.00315779,0.00318993,0.00106791,0.00995416,0.0249422,0.00329692,0.000224455,-66,-95,139.411,139.411,-55.6066,-55.6066,2.796
0.00967099,0.00326005,0.00320313,0.00106895,0.00998051,0.0251502,0.00330565,0.00023601,-63,-95,139.086,139.086,-55.3733,-55.3733,2.8
0.00971097,0.00336439,0.00321637,0.00106964,0.0100069,0.0254617,0.00331439,0.000214922,-59,-96,138.749,138.749,-55.1394,-55.1394,2.804
0.00975105,0.00346804,0.00322965,0.00107033,0.0100333,0.0256117,0.00332313,0.000200863,-57,-97,138.398,138.398,-54.9036,-54.9036,2.808
0.00979123,0.00357065,0.00324296,0.00107137,0.0100598,0.0256254,0.00333189,0.000220281,-56,-97,138.039,138.039,-54.6664,-54.6664,2.812
0.00983153,0.00367326,0.0032563,0.0010724,0.0100862,0.0256345,0.00334066,0.000233227,-55,-97,137.677,137.677,-54.429,-54.429,2.816
0.00987192,0.00377622,0.00326968,0.00107344,0.0101127,0.0256694,0.00334944,0.000241857,-54,-98,137.313,137.313,-54.1912,-54.1912,2.82
0.00991243,0.00387883,0.0032831,0.00107448,0.0101392,0.0256638,0.00335822,0.000247611,-53,-98,136.945,136.945,-53.9527,-53.9527,2.824
0.00995304,0.00397868,0.00329655,0.0010762,0.0101658,0.0254298,0.00336702,0.000309029,-55,-98,136.577,136.577,-53.7137,-53.7137,2.828
0.00999375,0.00408232,0.00331003,0.00107793,0.0101924,0.0255905,0.00337582,0.000349974,-52,-98,136.215,136.215,-53.4763,-53.4763,2.832
