peachynonah/Fire_monitor_KIRO_CDSL/csv_datas/trial13/cdsl_data_t13_1_FLDOB_d.csv
joint1_pos_desired, joint1_pos, joint2_pos_desired, joint2_pos, joint1_vel_desired, joint1_vel_filtered, joint2_vel_desired, joint2_vel_filtered, target_torque_joint1, target_torque_joint2, estimated_disturbance_joint1, saturated_DOB_joint1, estimated_disturbance_joint2, saturated_DOB_joint2, current_time
1.505,1.5043,1.039,1.03777,-9.02639e-08,0,-6.23151e-08,0,-2,-13,-0,-0,-49.9756,-49.9756,0.004
1.505,1.5043,1.039,1.03769,-3.60911e-07,0,-2.49161e-07,-0.00650675,-2,-76,0.00910254,0.00910254,-49.9027,-49.9027,0.008
1.505,1.5043,1.039,1.03763,-8.11725e-07,0.000115164,-5.60387e-07,-0.00914592,-1,-103,0.0181086,0.0181086,-49.56,-49.56,0.012
1.505,1.5043,1.039,1.03759,-1.44249e-06,0.000191939,-9.95845e-07,-0.010128,-1,-113,0.0258219,0.0258219,-49.1067,-49.1067,0.016
1.505,1.5043,1.039,1.03755,-2.25299e-06,0.00012796,-1.55538e-06,-0.00965989,-1,-109,0.0327601,0.0327601,-48.6126,-48.6126,0.02
1.505,1.5043,1.039,1.03753,-3.243e-06,0.000171679,-2.23886e-06,-0.00825375,-1,-97,0.0403245,0.0403245,-48.1384,-48.1384,0.024
1.505,1.5043,1.039,1.03752,-4.41232e-06,0.000172035,-3.04611e-06,-0.00610711,-1,-77,0.0474061,0.0474061,-47.7239,-47.7239,0.028
1.505,1.5043,1.039,1.03752,-5.76072e-06,0.000143481,-3.977e-06,-0.00401383,-1,-57,0.054485,0.054485,-47.3994,-47.3994,0.032
1.505,1.5043,1.039,1.03753,-7.28799e-06,9.56538e-05,-5.03138e-06,-0.0019849,-1,-37,0.0618823,0.0618823,-47.163,-47.163,0.036
1.505,1.5043,1.039,1.03754,-8.99392e-06,6.37692e-05,-6.20909e-06,-0.000286795,-1,-21,0.0697894,0.0697894,-47.0117,-47.0117,0.04
1.505,1.5043,1.039,1.03756,-1.08783e-05,4.25128e-05,-7.50999e-06,0.00104681,-1,-8,0.0780283,0.0780283,-46.9319,-46.9319,0.044
1.505,1.5043,1.039,1.03757,-1.29409e-05,2.83419e-05,-8.93392e-06,0.00202226,-2,0,0.0864795,0.0864795,-46.9083,-46.9083,0.048
1.505,1.5043,1.039,1.03759,-1.51814e-05,1.88946e-05,-1.04807e-05,0.00267255,-2,7,0.0950626,0.0950626,-46.926,-46.926,0.052
1.505,1.5043,1.039,1.0376,-1.75998e-05,1.25964e-05,-1.21503e-05,0.0030485,-2,11,0.103723,0.103723,-46.9713,-46.9713,0.056
1.505,1.5043,1.039,1.03762,-2.01958e-05,8.39759e-06,-1.39425e-05,0.00304002,-2,11,0.112425,0.112425,-47.0325,-47.0325,0.06
1.505,1.5043,1.039,1.03762,-2.29691e-05,5.59839e-06,-1.58571e-05,0.00271766,-2,8,0.121142,0.121142,-47.0933,-47.0933,0.064
1.505,1.5043,1.039,1.03763,-2.59195e-05,3.73226e-06,-1.7894e-05,0.00209968,-2,2,0.129857,0.129857,-47.1405,-47.1405,0.068
1.505,1.5043,1.039,1.03763,-2.90469e-05,2.48817e-06,-2.0053e-05,0.00139979,-2,-4,0.138558,0.138558,-47.1617,-47.1617,0.072
1.505,1.5043,1.039,1.03763,-3.2351e-05,1.65878e-06,-2.2334e-05,0.000789238,-2,-10,0.147236,0.147236,-47.1538,-47.1538,0.076
1.505,1.5043,1.039,1.03763,-3.58316e-05,1.10586e-06,-2.47369e-05,0.000439786,-2,-13,0.155884,0.155884,-47.1207,-47.1207,0.08
1.505,1.5043,1.039,1.03763,-3.94885e-05,-2.80537e-05,-2.72615e-05,0.0002644,-2,-15,0.164519,0.164519,-47.0732,-47.0732,0.084
1.505,1.5043,1.039,1.03762,-4.33214e-05,1.00885e-05,-2.99076e-05,0.000147476,-2,-16,0.173392,0.173392,-47.0187,-47.0187,0.088
1.505,1.5043,1.039,1.03762,-4.73302e-05,6.72564e-06,-3.26752e-05,9.8317e-05,-2,-16,0.181816,0.181816,-46.9594,-46.9594,0.092
1.505,1.5043,1.039,1.03763,-5.15147e-05,6.20656e-05,-3.5564e-05,9.43356e-05,-1,-16,0.190183,0.190183,-46.8983,-46.8983,0.096
1.505,1.5043,1.039,1.03763,-5.58745e-05,-1.62048e-05,-3.85738e-05,0.000120472,-2,-16,0.197973,0.197973,-46.8372,-46.8372,0.1
1.505,1.5043,1.039,1.03763,-6.04096e-05,4.67787e-05,-4.17047e-05,0.000109106,-1,-16,0.206491,0.206491,-46.7773,-46.7773,0.104
1.505,1.5043,1.039,1.03763,-6.51197e-05,-2.63961e-05,-4.49564e-05,7.27372e-05,-2,-17,0.214344,0.214344,-46.717,-46.717,0.108
1.505,1.5043,1.039,1.03763,-7.00045e-05,-1.75974e-05,-4.83287e-05,4.84914e-05,-2,-17,0.22291,0.22291,-46.6554,-46.6554,0.112
1.505,1.5043,1.039,1.03763,-7.50639e-05,-1.17316e-05,-5.18215e-05,3.23276e-05,-2,-17,0.23132,0.23132,-46.5929,-46.5929,0.116
1.505,1.5043,1.039,1.03763,-8.02977e-05,-7.82106e-06,-5.54347e-05,2.15518e-05,-2,-17,0.239604,0.239604,-46.5299,-46.5299,0.12
1.505,1.5043,1.039,1.03763,-8.57056e-05,-5.21404e-06,-5.91682e-05,1.43678e-05,-2,-17,0.247781,0.247781,-46.4666,-46.4666,0.124
1.505,1.5043,1.039,1.03763,-9.12874e-05,-3.2267e-05,-6.30217e-05,9.57856e-06,-2,-17,0.255887,0.255887,-46.4032,-46.4032,0.128
1.505,1.5043,1.039,1.03763,-9.70429e-05,7.27962e-06,-6.69951e-05,6.3857e-06,-2,-17,0.264183,0.264183,-46.3398,-46.3398,0.132
1.505,1.5043,1.039,1.03763,-0.000102972,4.85308e-06,-7.10883e-05,4.25714e-06,-2,-18,0.27199,0.27199,-46.2764,-46.2764,0.136
1.50499,1.5043,1.039,1.03763,-0.000109074,-2.55555e-05,-7.53011e-05,2.83809e-06,-2,-18,0.279775,0.279775,-46.2131,-46.2131,0.14
1.50499,1.5043,1.039,1.03763,-0.00011535,1.17539e-05,-7.96334e-05,1.89206e-06,-1,-18,0.287778,0.287778,-46.15,-46.15,0.144
1.50499,1.5043,1.039,1.03763,-0.000121798,7.83593e-06,-8.40851e-05,1.26137e-06,-1,-18,0.295312,0.295312,-46.087,-46.087,0.148
1.50499,1.5043,1.039,1.03763,-0.000128419,5.22396e-06,-8.86559e-05,8.40916e-07,-1,-18,0.30281,0.30281,-46.0242,-46.0242,0.152
1.50499,1.5043,1.039,1.03763,-0.000135212,3.48264e-06,-9.33457e-05,5.60611e-07,-1,-18,0.310255,0.310255,-45.9616,-45.9616,0.156
1.50499,1.5043,1.03899,1.03763,-0.000142178,2.32176e-06,-9.81545e-05,3.7374e-07,-1,-18,0.317636,0.317636,-45.8992,-45.8992,0.16
1.50499,1.5043,1.03899,1.03763,-0.000149315,1.54784e-06,-0.000103082,2.4916e-07,-1,-18,0.324943,0.324943,-45.837,-45.837,0.164
1.50499,1.5043,1.03899,1.03763,-0.000156624,1.03189e-06,-0.000108128,1.66107e-07,-1,-18,0.33217,0.33217,-45.775,-45.775,0.168
1.50499,1.5043,1.03899,1.03763,-0.000164105,6.87928e-07,-0.000113293,1.10738e-07,-1,-18,0.339313,0.339313,-45.7133,-45.7133,0.172
1.50499,1.5043,1.03899,1.03763,-0.000171757,4.58619e-07,-0.000118575,7.38253e-08,-1,-18,0.346366,0.346366,-45.6518,-45.6518,0.176
1.50499,1.5043,1.03899,1.03763,-0.000179581,3.05746e-07,-0.000123976,4.92168e-08,-1,-18,0.353326,0.353326,-45.5906,-45.5906,0.18
1.50499,1.5043,1.03899,1.03763,-0.000187575,2.03831e-07,-0.000129495,3.28112e-08,-1,-18,0.36019,0.36019,-45.5296,-45.5296,0.184
1.50499,1.5043,1.03899,1.03763,-0.00019574,1.35887e-07,-0.000135132,2.18742e-08,-1,-18,0.366955,0.366955,-45.4688,-45.4688,0.188
1.50499,1.5043,1.03899,1.03763,-0.000204076,9.05914e-08,-0.000140887,1.45828e-08,-1,-18,0.373619,0.373619,-45.4084,-45.4084,0.192
1.50499,1.5043,1.03899,1.03763,-0.000212582,6.03943e-08,-0.000146759,9.72185e-09,-1,-18,0.380178,0.380178,-45.3482,-45.3482,0.196
1.50499,1.5043,1.03899,1.03763,-0.000221258,4.02628e-08,-0.000152749,6.48123e-09,-1,-18,0.386631,0.386631,-45.2882,-45.2882,0.2
1.50498,1.5043,1.03899,1.03763,-0.000230103,2.68419e-08,-0.000158855,4.32082e-09,-1,-18,0.392974,0.392974,-45.2286,-45.2286,0.204
1.50498,1.5043,1.03899,1.03763,-0.000239119,1.78946e-08,-0.000165079,2.88055e-09,-1,-18,0.399206,0.399206,-45.1692,-45.1692,0.208
1.50498,1.5043,1.03899,1.03763,-0.000248304,1.19297e-08,-0.00017142,1.92036e-09,-1,-18,0.405323,0.405323,-45.1102,-45.1102,0.212
1.50498,1.5043,1.03899,1.03763,-0.000257658,7.95315e-09,-0.000177878,1.28024e-09,-1,-18,0.411324,0.411324,-45.0514,-45.0514,0.216
1.50498,1.5043,1.03899,1.03763,-0.000267181,5.3021e-09,-0.000184453,-2.87901e-05,-1,-18,0.417205,0.417205,-44.9929,-44.9929,0.22
1.50498,1.5043,1.03899,1.03763,-0.000276873,3.53473e-09,-0.000191144,9.59754e-06,-1,-18,0.422966,0.422966,-44.9337,-44.9337,0.224
1.50498,1.5043,1.03898,1.03763,-0.000286734,2.35649e-09,-0.000197951,6.39836e-06,-1,-18,0.428602,0.428602,-44.8762,-44.8762,0.228
1.50498,1.5043,1.03898,1.03763,-0.000296763,1.57099e-09,-0.000204875,4.26558e-06,-1,-18,0.434113,0.434113,-44.819,-44.819,0.232
1.50498,1.5043,1.03898,1.03763,-0.00030696,1.04733e-09,-0.000211914,2.84372e-06,-1,-18,0.439494,0.439494,-44.7621,-44.7621,0.236
1.50497,1.5043,1.03898,1.03763,-0.000317325,6.98219e-10,-0.00021907,1.89581e-06,-1,-18,0.444745,0.444745,-44.7054,-44.7054,0.24
1.50497,1.5043,1.03898,1.03763,-0.000327858,4.65479e-10,-0.000226342,1.26387e-06,-1,-18,0.449862,0.449862,-44.649,-44.649,0.244
1.50497,1.5043,1.03898,1.03763,-0.000338558,3.1032e-10,-0.000233729,8.42583e-07,-1,-17,0.454843,0.454843,-44.5929,-44.5929,0.248
1.50497,1.5043,1.03898,1.03763,-0.000349426,2.0688e-10,-0.000241232,5.61722e-07,-1,-17,0.459685,0.459685,-44.5372,-44.5372,0.252
1.50497,1.5043,1.03898,1.03763,-0.000360461,1.3792e-10,-0.00024885,3.74481e-07,-1,-17,0.464387,0.464387,-44.4818,-44.4818,0.256
1.50497,1.5043,1.03898,1.03763,-0.000371663,9.19466e-11,-0.000256583,2.49654e-07,-1,-17,0.468945,0.468945,-44.4268,-44.4268,0.26
1.50497,1.5043,1.03898,1.03763,-0.000383031,6.12977e-11,-0.000264431,1.66436e-07,-1,-17,0.473358,0.473358,-44.3722,-44.3722,0.264
1.50496,1.5043,1.03898,1.03763,-0.000394566,4.08651e-11,-0.000272395,1.10957e-07,-1,-17,0.477622,0.477622,-44.318,-44.318,0.268
1.50496,1.5043,1.03897,1.03763,-0.000406267,2.72434e-11,-0.000280473,7.39716e-08,-1,-17,0.481736,0.481736,-44.2641,-44.2641,0.272
1.50496,1.5043,1.03897,1.03763,-0.000418134,1.81623e-11,-0.000288666,4.93144e-08,-1,-17,0.485697,0.485697,-44.2106,-44.2106,0.276
1.50496,1.5043,1.03897,1.03763,-0.000430168,1.21082e-11,-0.000296973,3.28763e-08,-1,-17,0.489501,0.489501,-44.1576,-44.1576,0.28
1.50496,1.5043,1.03897,1.03763,-0.000442366,8.07213e-12,-0.000305394,2.19175e-08,-1,-17,0.493148,0.493148,-44.1049,-44.1049,0.284
1.50496,1.5043,1.03897,1.03763,-0.000454731,5.38142e-12,-0.00031393,1.46117e-08,-1,-17,0.496634,0.496634,-44.0527,-44.0527,0.288
1.50495,1.5043,1.03897,1.03763,-0.00046726,3.58761e-12,-0.00032258,9.74112e-09,-1,-17,0.499956,0.499956,-44.0009,-44.0009,0.292
1.50495,1.5043,1.03897,1.03763,-0.000479954,2.39174e-12,-0.000331344,6.49408e-09,-1,-17,0.503113,0.503113,-43.9495,-43.9495,0.296
1.50495,1.5043,1.03897,1.03763,-0.000492814,1.59449e-12,-0.000340222,4.32938e-09,-1,-17,0.506102,0.506102,-43.8985,-43.8985,0.3
1.50495,1.5043,1.03896,1.03763,-0.000505837,2.87909e-05,-0.000349213,2.88626e-09,-1,-17,0.508896,0.508896,-43.848,-43.848,0.304
1.50495,1.5043,1.03896,1.03763,-0.000519026,-9.59697e-06,-0.000358317,1.92417e-09,-1,-17,0.511242,0.511242,-43.7979,-43.7979,0.308
1.50494,1.5043,1.03896,1.03763,-0.000532378,-6.39798e-06,-0.000367535,1.28278e-09,-1,-17,0.513817,0.513817,-43.7483,-43.7483,0.312
1.50494,1.5043,1.03896,1.03763,-0.000545894,-4.26532e-06,-0.000376867,8.55187e-10,-1,-17,0.516178,0.516178,-43.6992,-43.6992,0.316
1.50494,1.5043,1.03896,1.03763,-0.000559575,-2.84355e-06,-0.000386311,5.70125e-10,0,-17,0.518334,0.518334,-43.6505,-43.6505,0.32
1.50494,1.5043,1.03896,1.03763,-0.000573418,-1.8957e-06,-0.000395868,3.80083e-10,0,-17,0.520292,0.520292,-43.6023,-43.6023,0.324
1.50494,1.5043,1.03896,1.03763,-0.000587425,-1.2638e-06,-0.000405538,2.53389e-10,0,-17,0.522053,0.522053,-43.5546,-43.5546,0.328
1.50493,1.5043,1.03895,1.03763,-0.000601595,-8.42533e-07,-0.000415321,1.68926e-10,0,-17,0.523618,0.523618,-43.5074,-43.5074,0.332
1.50493,1.5043,1.03895,1.03763,-0.000615928,-5.61688e-07,-0.000425216,1.12617e-10,0,-16,0.524988,0.524988,-43.4607,-43.4607,0.336
1.50493,1.5043,1.03895,1.03763,-0.000630424,-3.74459e-07,-0.000435223,7.50782e-11,0,-16,0.52616,0.52616,-43.4144,-43.4144,0.34
1.50493,1.5043,1.03895,1.03763,-0.000645082,-2.49639e-07,-0.000445342,5.00521e-11,0,-16,0.527135,0.527135,-43.3687,-43.3687,0.344
1.50492,1.5043,1.03895,1.03763,-0.000659903,-1.66426e-07,-0.000455574,3.33681e-11,0,-16,0.527908,0.527908,-43.3235,-43.3235,0.348
1.50492,1.5043,1.03894,1.03763,-0.000674885,-1.10951e-07,-0.000465917,2.22454e-11,0,-16,0.52848,0.52848,-43.2788,-43.2788,0.352
1.50492,1.5043,1.03894,1.03763,-0.000690029,-7.39672e-08,-0.000476372,1.48303e-11,0,-16,0.528847,0.528847,-43.2346,-43.2346,0.356
1.50491,1.5043,1.03894,1.03763,-0.000705336,-4.93115e-08,-0.000486939,9.88684e-12,0,-16,0.529006,0.529006,-43.191,-43.191,0.36
1.50491,1.5043,1.03894,1.03763,-0.000720803,-3.28743e-08,-0.000497617,2.87909e-05,0,-16,0.528956,0.528956,-43.148,-43.148,0.364
1.50491,1.5043,1.03894,1.03763,-0.000736432,-2.19162e-08,-0.000508407,-3.83879e-05,0,-16,0.528694,0.528694,-43.1066,-43.1066,0.368
1.50491,1.5043,1.03893,1.03763,-0.000752222,-1.46108e-08,-0.000519308,3.19899e-06,0,-16,0.528217,0.528217,-43.063,-43.063,0.372
1.5049,1.5043,1.03893,1.03763,-0.000768172,-9.74054e-09,-0.000530319,2.13266e-06,0,-16,0.527523,0.527523,-43.0218,-43.0218,0.376
1.5049,1.5043,1.03893,1.03763,-0.000784283,-6.49369e-09,-0.000541442,1.42178e-06,0,-16,0.526608,0.526608,-42.981,-42.981,0.38
1.5049,1.5043,1.03893,1.03763,-0.000800555,-4.32913e-09,-0.000552675,9.4785e-07,0,-16,0.525472,0.525472,-42.9408,-42.9408,0.384
1.50489,1.5043,1.03893,1.03763,-0.000816987,-2.88609e-09,-0.000564019,6.319e-07,0,-15,0.52411,0.52411,-42.9012,-42.9012,0.388
1.50489,1.5043,1.03892,1.03763,-0.000833579,-1.92406e-09,-0.000575474,4.21267e-07,0,-15,0.52252,0.52252,-42.8621,-42.8621,0.392
1.50489,1.5043,1.03892,1.03763,-0.00085033,-1.2827e-09,-0.000587038,2.80845e-07,0,-15,0.520699,0.520699,-42.8236,-42.8236,0.396
1.50488,1.5043,1.03892,1.03763,-0.000867241,-8.55136e-10,-0.000598713,1.8723e-07,0,-15,0.518646,0.518646,-42.7857,-42.7857,0.4
1.50488,1.5043,1.03892,1.03763,-0.000884312,-5.70091e-10,-0.000610498,1.2482e-07,0,-15,0.516356,0.516356,-42.7485,-42.7485,0.404
1.50488,1.5043,1.03891,1.03763,-0.000901541,-3.80061e-10,-0.000622393,8.32132e-08,0,-15,0.513828,0.513828,-42.7118,-42.7118,0.408
1.50487,1.5043,1.03891,1.03763,-0.00091893,-2.53374e-10,-0.000634397,2.88464e-05,0,-15,0.511059,0.511059,-42.6758,-42.6758,0.412
1.50487,1.5043,1.03891,1.03763,-0.000936477,-1.68916e-10,-0.000646512,-9.55999e-06,0,-15,0.508046,0.508046,-42.6416,-42.6416,0.416
1.50486,1.5043,1.03891,1.03763,-0.000954183,-1.12611e-10,-0.000658735,-6.37333e-06,0,-15,0.504786,0.504786,-42.6064,-42.6064,0.42
1.50486,1.5043,1.0389,1.03763,-0.000972047,-7.50737e-11,-0.000671068,-4.24889e-06,0,-15,0.501277,0.501277,-42.572,-42.572,0.424
1.50486,1.5043,1.0389,1.03763,-0.00099007,-5.00491e-11,-0.00068351,-2.83259e-06,0,-14,0.497516,0.497516,-42.5384,-42.5384,0.428
1.50485,1.5043,1.0389,1.03763,-0.00100825,-3.33661e-11,-0.000696061,-1.88839e-06,0,-14,0.493501,0.493501,-42.5055,-42.5055,0.432
1.50485,1.5043,1.0389,1.03763,-0.00102659,-2.22441e-11,-0.000708721,-1.25893e-06,0,-14,0.489227,0.489227,-42.4732,-42.4732,0.436
1.50484,1.5043,1.03889,1.03763,-0.00104508,-1.48294e-11,-0.000721489,-2.96302e-05,0,-14,0.484694,0.484694,-42.4417,-42.4417,0.44
1.50484,1.5043,1.03889,1.03763,-0.00106374,-9.88625e-12,-0.000734366,-1.97535e-05,0,-14,0.479897,0.479897,-42.4096,-42.4096,0.444
1.50484,1.5043,1.03889,1.03763,-0.00108255,-6.59083e-12,-0.000747352,-1.3169e-05,0,-14,0.474835,0.474835,-42.3787,-42.3787,0.448
1.50483,1.5043,1.03888,1.03763,-0.00110151,-4.39389e-12,-0.000760446,-8.77932e-06,0,-14,0.469505,0.469505,-42.3487,-42.3487,0.452
1.50483,1.5043,1.03888,1.03763,-0.00112064,-2.92926e-12,-0.000773648,-5.85288e-06,0,-14,0.463903,0.463903,-42.3197,-42.3197,0.456
1.50482,1.5043,1.03888,1.03763,-0.00113992,-1.95284e-12,-0.000786958,-3.90192e-06,0,-13,0.458028,0.458028,-42.2914,-42.2914,0.46
1.50482,1.5043,1.03887,1.03763,-0.00115935,-1.30189e-12,-0.000800376,-2.60128e-06,1,-13,0.451876,0.451876,-42.2639,-42.2639,0.464
1.50481,1.5043,1.03887,1.03763,-0.00117894,-8.67929e-13,-0.000813902,-1.73419e-06,1,-13,0.445444,0.445444,-42.2373,-42.2373,0.468
1.50481,1.5043,1.03887,1.03763,-0.00119869,-5.78619e-13,-0.000827535,-1.15612e-06,1,-13,0.43873,0.43873,-42.2114,-42.2114,0.472
1.5048,1.5043,1.03886,1.03763,-0.00121859,-3.85746e-13,-0.000841276,-7.7075e-07,1,-13,0.431731,0.431731,-42.1862,-42.1862,0.476
1.5048,1.5043,1.03886,1.03763,-0.00123865,-2.57164e-13,-0.000855124,-5.13833e-07,1,-13,0.424444,0.424444,-42.1618,-42.1618,0.48
1.50479,1.5043,1.03886,1.03763,-0.00125887,-1.71443e-13,-0.000869079,-3.42555e-07,1,-13,0.416867,0.416867,-42.1382,-42.1382,0.484
1.50479,1.5043,1.03885,1.03763,-0.00127924,-1.14295e-13,-0.000883141,-2.2837e-07,1,-12,0.408996,0.408996,-42.1154,-42.1154,0.488
1.50478,1.5043,1.03885,1.03763,-0.00129976,-7.61967e-14,-0.00089731,-1.52247e-07,1,-12,0.400829,0.400829,-42.0933,-42.0933,0.492
1.50478,1.5043,1.03885,1.03763,-0.00132044,-5.07978e-14,-0.000911586,-1.01498e-07,1,-12,0.392363,0.392363,-42.072,-42.072,0.496
1.50477,1.5043,1.03884,1.03763,-0.00134127,-3.38652e-14,-0.000925968,-6.76653e-08,1,-12,0.383596,0.383596,-42.0514,-42.0514,0.5
1.50477,1.5043,1.03884,1.03763,-0.00136226,-2.25768e-14,-0.000940457,-4.51102e-08,1,-12,0.374523,0.374523,-42.0317,-42.0317,0.504
1.50476,1.5043,1.03884,1.03763,-0.0013834,-1.50512e-14,-0.000955052,-3.00735e-08,1,-12,0.365144,0.365144,-42.0128,-42.0128,0.508
1.50476,1.5043,1.03883,1.03763,-0.0014047,-1.00341e-14,-0.000969753,-2.0049e-08,1,-11,0.355454,0.355454,-41.9946,-41.9946,0.512
1.50475,1.5043,1.03883,1.03763,-0.00142614,-6.68943e-15,-0.000984561,-1.3366e-08,1,-11,0.345451,0.345451,-41.9773,-41.9773,0.516
1.50475,1.5043,1.03882,1.03763,-0.00144775,-4.45962e-15,-0.000999474,-8.91065e-09,2,-11,0.335131,0.335131,-41.9608,-41.9608,0.52
1.50474,1.5043,1.03882,1.03763,-0.0014695,-2.97308e-15,-0.00101449,-5.94044e-09,2,-11,0.324493,0.324493,-41.9452,-41.9452,0.524
1.50473,1.5043,1.03882,1.03763,-0.00149141,-1.98205e-15,-0.00102962,-3.96029e-09,2,-11,0.313534,0.313534,-41.9303,-41.9303,0.528
1.50473,1.5043,1.03881,1.03763,-0.00151347,-1.32137e-15,-0.00104485,-2.64019e-09,2,-11,0.30225,0.30225,-41.9163,-41.9163,0.532
1.50472,1.5043,1.03881,1.03763,-0.00153568,-8.80912e-16,-0.00106018,-1.76013e-09,2,-10,0.290638,0.290638,-41.9032,-41.9032,0.536
1.50472,1.5043,1.0388,1.03763,-0.00155805,-5.87275e-16,-0.00107562,-1.17342e-09,2,-10,0.278696,0.278696,-41.8909,-41.8909,0.54
1.50471,1.5043,1.0388,1.03763,-0.00158057,-3.91516e-16,-0.00109117,-7.8228e-10,2,-10,0.266422,0.266422,-41.8794,-41.8794,0.544
1.5047,1.5043,1.03879,1.03763,-0.00160324,-2.61011e-16,-0.00110682,-5.2152e-10,2,-10,0.253811,0.253811,-41.8689,-41.8689,0.548
1.5047,1.5043,1.03879,1.03763,-0.00162606,-1.74007e-16,-0.00112257,-3.4768e-10,2,-10,0.240861,0.240861,-41.8592,-41.8592,0.552
1.50469,1.5043,1.03879,1.03763,-0.00164903,-1.16005e-16,-0.00113843,-2.31787e-10,2,-9,0.227569,0.227569,-41.8504,-41.8504,0.556
1.50468,1.5043,1.03878,1.03763,-0.00167215,-7.73366e-17,-0.0011544,-1.54524e-10,2,-9,0.213933,0.213933,-41.8425,-41.8425,0.56
1.50468,1.5043,1.03878,1.03763,-0.00169543,-5.15577e-17,-0.00117047,-1.03016e-10,3,-9,0.199949,0.199949,-41.8355,-41.8355,0.564
1.50467,1.5043,1.03877,1.03763,-0.00171886,-3.43718e-17,-0.00118664,-2.8791e-05,3,-9,0.185615,0.185615,-41.8293,-41.8293,0.568
1.50466,1.5043,1.03877,1.03763,-0.00174243,-2.29145e-17,-0.00120292,-1.9194e-05,3,-9,0.170927,0.170927,-41.8229,-41.8229,0.572
1.50466,1.5043,1.03876,1.03763,-0.00176616,-2.87909e-05,-0.0012193,-1.2796e-05,3,-9,0.155906,0.155906,-41.8179,-41.8179,0.576
1.50465,1.5043,1.03876,1.03763,-0.00179004,9.59697e-06,-0.00123578,-8.53066e-06,3,-8,0.140801,0.140801,-41.814,-41.814,0.58
1.50464,1.5043,1.03875,1.03763,-0.00181407,-2.23929e-05,-0.00125237,-5.68711e-06,3,-8,0.124953,0.124953,-41.8112,-41.8112,0.584
1.50463,1.5043,1.03875,1.03763,-0.00183824,1.38623e-05,-0.00126906,-3.79141e-06,3,-8,0.109051,0.109051,-41.8095,-41.8095,0.588
1.50463,1.5043,1.03874,1.03763,-0.00186257,9.24153e-06,-0.00128585,-2.5276e-06,3,-8,0.0923988,0.0923988,-41.8089,-41.8089,0.592
1.50462,1.5043,1.03874,1.03763,-0.00188705,6.16102e-06,-0.00130275,-1.68507e-06,3,-7,0.0754268,0.0754268,-41.8092,-41.8092,0.596
1.50461,1.5043,1.03873,1.03763,-0.00191167,4.10735e-06,-0.00131975,-1.12338e-06,3,-7,0.0581149,0.0581149,-41.8105,-41.8105,0.6
1.5046,1.5043,1.03873,1.03763,-0.00193645,2.73823e-06,-0.00133686,-7.4892e-07,4,-7,0.0404487,0.0404487,-41.8129,-41.8129,0.604
1.5046,1.5043,1.03872,1.03763,-0.00196137,1.82549e-06,-0.00135406,-4.9928e-07,4,-7,0.0224178,0.0224178,-41.8162,-41.8162,0.608
1.50459,1.5043,1.03872,1.03763,-0.00198645,1.21699e-06,-0.00137137,-3.32853e-07,4,-6,0.00401407,0.00401407,-41.8206,-41.8206,0.612
1.50458,1.5043,1.03871,1.03763,-0.00201167,8.11328e-07,-0.00138879,-2.21902e-07,4,-6,-0.0147688,-0.0147688,-41.826,-41.826,0.616
1.50457,1.5043,1.0387,1.03763,-0.00203704,-2.825e-05,-0.0014063,-1.47935e-07,4,-6,-0.0339127,-0.0339127,-41.8323,-41.8323,0.62
1.50456,1.5043,1.0387,1.03763,-0.00206255,9.95757e-06,-0.00142392,-9.86232e-08,4,-6,-0.0531696,-0.0531696,-41.8397,-41.8397,0.624
1.50456,1.5043,1.03869,1.03763,-0.00208822,-2.21525e-05,-0.00144163,-6.57488e-08,4,-6,-0.0732011,-0.0732011,-41.8481,-41.8481,0.628
1.50455,1.5043,1.03869,1.03763,-0.00211403,-1.47684e-05,-0.00145945,-4.38325e-08,4,-5,-0.0932946,-0.0932946,-41.8576,-41.8576,0.632
1.50454,1.5043,1.03868,1.03762,-0.00213999,-9.84558e-06,-0.00147738,-5.76111e-05,4,-6,-0.113871,-0.113871,-41.8679,-41.8679,0.636
1.50453,1.5043,1.03868,1.03763,-0.0021661,-6.56372e-06,-0.0014954,4.79654e-05,4,-4,-0.134905,-0.134905,-41.8772,-41.8772,0.64
1.50452,1.5043,1.03867,1.03763,-0.00219235,-4.37581e-06,-0.00151353,3.186e-06,5,-4,-0.156382,-0.156382,-41.8918,-41.8918,0.644
1.50451,1.5043,1.03866,1.03763,-0.00221876,-2.91721e-06,-0.00153175,2.124e-06,5,-4,-0.178293,-0.178293,-41.9055,-41.9055,0.648
1.5045,1.5043,1.03866,1.03763,-0.0022453,-1.94481e-06,-0.00155008,-2.73749e-05,5,-4,-0.200633,-0.200633,-41.9203,-41.9203,0.652
1.50449,1.5043,1.03865,1.03763,-0.002272,-1.29654e-06,-0.00156851,-1.82499e-05,5,-4,-0.223399,-0.223399,-41.9349,-41.9349,0.656
1.50449,1.5043,1.03864,1.03763,-0.00229884,-8.64358e-07,-0.00158704,-1.21666e-05,5,-4,-0.246592,-0.246592,-41.951,-41.951,0.66
1.50448,1.5043,1.03864,1.03763,-0.00232583,-5.76239e-07,-0.00160567,-8.11109e-06,5,-3,-0.270212,-0.270212,-41.9685,-41.9685,0.664
1.50447,1.5043,1.03863,1.03763,-0.00235296,-3.84159e-07,-0.0016244,-5.40739e-06,5,-3,-0.294259,-0.294259,-41.9872,-41.9872,0.668
1.50446,1.5043,1.03863,1.03763,-0.00238024,-2.56106e-07,-0.00164323,-3.60493e-06,5,-3,-0.318737,-0.318737,-42.0071,-42.0071,0.672
1.50445,1.5043,1.03862,1.03763,-0.00240766,-1.70737e-07,-0.00166217,-2.40329e-06,6,-2,-0.343647,-0.343647,-42.0283,-42.0283,0.676
1.50444,1.5043,1.03861,1.03762,-0.00243523,-1.13825e-07,-0.0016812,-5.9184e-05,6,-3,-0.368993,-0.368993,-42.0504,-42.0504,0.68
1.50443,1.5043,1.03861,1.03763,-0.00246294,-7.58833e-08,-0.00170033,1.81258e-05,6,-2,-0.394776,-0.394776,-42.0716,-42.0716,0.684
1.50442,1.5043,1.0386,1.03762,-0.0024908,-5.05888e-08,-0.00171956,-4.5498e-05,6,-2,-0.421,-0.421,-42.0969,-42.0969,0.688
1.50441,1.5043,1.03859,1.03762,-0.0025188,-2.88247e-05,-0.0017389,-1.54105e-06,6,-1,-0.447645,-0.447645,-42.1209,-42.1209,0.692
1.5044,1.5043,1.03858,1.03762,-0.00254695,9.57449e-06,-0.00175833,-1.02737e-06,6,-1,-0.47446,-0.47446,-42.1478,-42.1478,0.696
1.50439,1.5043,1.03858,1.03762,-0.00257524,6.38299e-06,-0.00177786,-6.84913e-07,6,-1,-0.50213,-0.50213,-42.1759,-42.1759,0.7
1.50438,1.5043,1.03857,1.03762,-0.00260368,4.25533e-06,-0.00179749,-4.56608e-07,6,0,-0.530217,-0.530217,-42.2052,-42.2052,0.704
1.50437,1.5043,1.03856,1.03762,-0.00263226,2.83689e-06,-0.00181722,-3.04406e-07,7,0,-0.558737,-0.558737,-42.2356,-42.2356,0.708
1.50436,1.5043,1.03856,1.03762,-0.00266098,-2.68997e-05,-0.00183705,-2.02937e-07,7,0,-0.587676,-0.587676,-42.2673,-42.2673,0.712
1.50435,1.5043,1.03855,1.03762,-0.00268985,-1.79331e-05,-0.00185698,-1.35291e-07,7,0,-0.616768,-0.616768,-42.3001,-42.3001,0.716
1.50434,1.5043,1.03854,1.03762,-0.00271886,-1.19554e-05,-0.00187701,-9.01943e-08,7,0,-0.646424,-0.646424,-42.3342,-42.3342,0.72
1.50432,1.5043,1.03853,1.03762,-0.00274801,-7.97027e-06,-0.00189713,-6.01295e-08,7,0,-0.676614,-0.676614,-42.3695,-42.3695,0.724
1.50431,1.5043,1.03853,1.03762,-0.00277731,-5.31351e-06,-0.00191736,-4.00863e-08,7,0,-0.707319,-0.707319,-42.406,-42.406,0.728
1.5043,1.5043,1.03852,1.03762,-0.00280675,-3.54234e-06,-0.00193768,-2.67242e-08,7,1,-0.738528,-0.738528,-42.4437,-42.4437,0.732
1.50429,1.5043,1.03851,1.03762,-0.00283633,-2.36156e-06,-0.0019581,-1.78162e-08,8,1,-0.770234,-0.770234,-42.4827,-42.4827,0.736
1.50428,1.5043,1.0385,1.03762,-0.00286605,-1.57437e-06,-0.00197862,-1.18774e-08,8,1,-0.802434,-0.802434,-42.5229,-42.5229,0.74
1.50427,1.5043,1.03849,1.03762,-0.00289591,-1.04958e-06,-0.00199924,-7.91829e-09,8,2,-0.835126,-0.835126,-42.5644,-42.5644,0.744
1.50426,1.5043,1.03849,1.03762,-0.00292592,-6.99722e-07,-0.00201996,-5.27886e-09,8,2,-0.868311,-0.868311,-42.6071,-42.6071,0.748
1.50424,1.5043,1.03848,1.03762,-0.00295607,-4.66481e-07,-0.00204077,-3.51924e-09,8,2,-0.90199,-0.90199,-42.6511,-42.6511,0.752
1.50423,1.5043,1.03847,1.03762,-0.00298636,-3.10988e-07,-0.00206168,-2.34616e-09,8,3,-0.936165,-0.936165,-42.6964,-42.6964,0.756
1.50422,1.5043,1.03846,1.03762,-0.00301679,-2.07325e-07,-0.00208269,-1.56411e-09,8,3,-0.970838,-0.970838,-42.7429,-42.7429,0.76
1.50421,1.5043,1.03845,1.03762,-0.00304736,-1.38217e-07,-0.00210379,-1.04274e-09,9,3,-1.00601,-1.00601,-42.7908,-42.7908,0.764
1.5042,1.5043,1.03845,1.03762,-0.00307807,-9.21445e-08,-0.002125,-6.95158e-10,9,4,-1.04169,-1.04169,-42.84,-42.84,0.768
1.50418,1.5043,1.03844,1.03762,-0.00310893,-6.14296e-08,-0.0021463,-4.63439e-10,9,4,-1.07787,-1.07787,-42.8904,-42.8904,0.772
1.50417,1.5043,1.03843,1.03762,-0.00313992,-4.09531e-08,-0.00216769,-3.08959e-10,9,4,-1.11457,-1.11457,-42.9422,-42.9422,0.776
1.50416,1.5043,1.03842,1.03762,-0.00317105,-2.73021e-08,-0.00218919,-2.05973e-10,9,5,-1.15177,-1.15177,-42.9953,-42.9953,0.78
1.50415,1.5043,1.03841,1.03762,-0.00320233,-1.82014e-08,-0.00221078,-1.37315e-10,9,5,-1.18949,-1.18949,-43.0498,-43.0498,0.784
1.50413,1.5043,1.0384,1.03762,-0.00323374,-1.21343e-08,-0.00223246,-9.15435e-11,9,6,-1.22773,-1.22773,-43.1056,-43.1056,0.788
1.50412,1.5043,1.03839,1.03762,-0.0032653,-8.0895e-09,-0.00225425,-6.1029e-11,10,6,-1.2665,-1.2665,-43.1627,-43.1627,0.792
1.50411,1.5043,1.03838,1.03762,-0.00329699,-5.393e-09,-0.00227613,-2.8791e-05,10,6,-1.30578,-1.30578,-43.2212,-43.2212,0.796
1.50409,1.5043,1.03837,1.03762,-0.00332882,-2.87945e-05,-0.0022981,-7.67758e-05,10,6,-1.34558,-1.34558,-43.2797,-43.2797,0.8
1.50408,1.5043,1.03837,1.03762,-0.00336079,9.59458e-06,-0.00232017,-0.000137557,10,6,-1.38562,-1.38562,-43.3376,-43.3376,0.804
1.50407,1.5043,1.03836,1.03762,-0.0033929,-2.23945e-05,-0.00234234,-0.000149286,10,6,-1.42659,-1.42659,-43.3943,-43.3943,0.808
1.50405,1.5043,1.03835,1.03762,-0.00342515,1.38612e-05,-0.0023646,-0.000157106,10,6,-1.46778,-1.46778,-43.4519,-43.4519,0.812
1.50404,1.5043,1.03834,1.03762,-0.00345753,9.24082e-06,-0.00238696,-0.000104737,11,7,-1.5099,-1.5099,-43.5106,-43.5106,0.816
1.50403,1.5043,1.03833,1.03762,-0.00349006,6.16055e-06,-0.00240942,-9.86158e-05,11,8,-1.5525,-1.5525,-43.5729,-43.5729,0.82
1.50401,1.5043,1.03832,1.03762,-0.00352272,4.10703e-06,-0.00243196,-0.000123326,11,8,-1.59563,-1.59563,-43.6368,-43.6368,0.824
1.504,1.5043,1.03831,1.03762,-0.00355552,-2.60529e-05,-0.00245461,-5.34262e-05,11,9,-1.63925,-1.63925,-43.7012,-43.7012,0.828
1.50398,1.5043,1.0383,1.03762,-0.00358846,-1.73686e-05,-0.00247735,-3.56175e-05,11,9,-1.68312,-1.68312,-43.7699,-43.7699,0.832
1.50397,1.5043,1.03829,1.03762,-0.00362153,-1.15791e-05,-0.00250018,-5.25359e-05,11,10,-1.72764,-1.72764,-43.8407,-43.8407,0.836
1.50395,1.5043,1.03828,1.03762,-0.00365475,-7.71938e-06,-0.00252311,-3.50239e-05,12,10,-1.77279,-1.77279,-43.9124,-43.9124,0.84
1.50394,1.5043,1.03827,1.03762,-0.0036881,-5.14625e-06,-0.00254613,-5.21402e-05,12,10,-1.81854,-1.81854,-43.9861,-43.9861,0.844
1.50392,1.5043,1.03826,1.03762,-0.00372158,-3.43084e-06,-0.00256925,-3.47601e-05,12,11,-1.86489,-1.86489,-44.0607,-44.0607,0.848
1.50391,1.5043,1.03825,1.03762,-0.00375521,-2.28722e-06,-0.00259246,-5.19644e-05,12,11,-1.91182,-1.91182,-44.1374,-44.1374,0.852
1.50389,1.5043,1.03824,1.03762,-0.00378897,-1.52482e-06,-0.00261577,-3.46429e-05,12,12,-1.95935,-1.95935,-44.2149,-44.2149,0.856
1.50388,1.5043,1.03823,1.03762,-0.00382286,-1.01654e-06,-0.00263917,-5.18862e-05,13,12,-2.00746,-2.00746,-44.2945,-44.2945,0.86
1.50386,1.5043,1.03822,1.03762,-0.00385689,-6.77696e-07,-0.00266267,-3.45908e-05,13,13,-2.05615,-2.05615,-44.375,-44.375,0.864
1.50385,1.5043,1.0382,1.03762,-0.00389106,-4.51797e-07,-0.00268625,-2.30605e-05,13,13,-2.10543,-2.10543,-44.4577,-44.4577,0.868
1.50383,1.5043,1.03819,1.03762,-0.00392536,-2.90921e-05,-0.00270994,-4.41646e-05,13,13,-2.15528,-2.15528,-44.5424,-44.5424,0.872
1.50382,1.5043,1.03818,1.03762,-0.0039598,9.39618e-06,-0.00273371,-8.70249e-05,13,13,-2.20545,-2.20545,-44.6277,-44.6277,0.876
1.5038,1.5043,1.03817,1.03762,-0.00399438,-2.25268e-05,-0.00275758,-2.92257e-05,13,14,-2.25659,-2.25659,-44.7128,-44.7128,0.88
1.50379,1.5043,1.03816,1.03762,-0.00402908,1.37731e-05,-0.00278154,-1.94838e-05,14,15,-2.30802,-2.30802,-44.8018,-44.8018,0.884
1.50377,1.5043,1.03815,1.03762,-0.00406393,9.18204e-06,-0.0028056,-1.29892e-05,14,15,-2.36043,-2.36043,-44.8928,-44.8928,0.888
1.50375,1.5043,1.03814,1.03762,-0.00409891,-2.26696e-05,-0.00282974,-6.62413e-05,14,15,-2.41337,-2.41337,-44.9856,-44.9856,0.892
1.50374,1.5043,1.03813,1.03762,-0.00413402,-1.5113e-05,-0.00285398,-1.537e-05,14,16,-2.46658,-2.46658,-45.0778,-45.0778,0.896
1.50372,1.5043,1.03812,1.03762,-0.00416927,-1.00754e-05,-0.00287832,-3.90376e-05,14,16,-2.52049,-2.52049,-45.1736,-45.1736,0.9
1.5037,1.5043,1.0381,1.03762,-0.00420465,-6.71691e-06,-0.00290274,-0.000141189,15,16,-2.57506,-2.57506,-45.2698,-45.2698,0.904
1.50369,1.5043,1.03809,1.03762,-0.00424016,-4.47794e-06,-0.00292726,-0.000122917,15,17,-2.6303,-2.6303,-45.3635,-45.3635,0.908
1.50367,1.5043,1.03808,1.03762,-0.00427581,-2.98529e-06,-0.00295187,-0.000168317,15,17,-2.68617,-2.68617,-45.4595,-45.4595,0.912
1.50365,1.5043,1.03807,1.03761,-0.00431159,-1.9902e-06,-0.00297657,-0.000227375,15,16,-2.74269,-2.74269,-45.555,-45.555,0.916
1.50363,1.5043,1.03806,1.03761,-0.00434751,-1.3268e-06,-0.00300137,-0.000180374,15,17,-2.79984,-2.79984,-45.6499,-45.6499,0.92
1.50362,1.5043,1.03805,1.03761,-0.00438355,-8.84531e-07,-0.00302625,-0.000149041,16,18,-2.85764,-2.85764,-45.7483,-45.7483,0.924
1.5036,1.5043,1.03803,1.03761,-0.00441973,-5.89687e-07,-0.00305123,-9.93604e-05,16,19,-2.91607,-2.91607,-45.8497,-45.8497,0.928
1.50358,1.5043,1.03802,1.03761,-0.00445605,-3.93125e-07,-0.0030763,-6.62402e-05,16,20,-2.97514,-2.97514,-45.9548,-45.9548,0.932
1.50356,1.5043,1.03801,1.03761,-0.00449249,-2.62083e-07,-0.00310146,-4.41602e-05,16,21,-3.03485,-3.03485,-46.0629,-46.0629,0.936
1.50355,1.5043,1.038,1.03761,-0.00452907,-2.89656e-05,-0.00312672,-5.8231e-05,16,21,-3.09519,-3.09519,-46.1735,-46.1735,0.94
1.50353,1.5043,1.03798,1.03761,-0.00456578,-1.93104e-05,-0.00315206,-3.88207e-05,17,22,-3.15587,-3.15587,-46.2853,-46.2853,0.944
1.50351,1.5043,1.03797,1.03761,-0.00460263,-1.28736e-05,-0.00317749,-5.46714e-05,17,22,-3.21731,-3.21731,-46.3995,-46.3995,0.948
1.50349,1.5043,1.03796,1.03761,-0.0046396,-8.58241e-06,-0.00320302,-0.00012282,17,22,-3.27948,-3.27948,-46.5147,-46.5147,0.952
1.50347,1.5043,1.03795,1.03761,-0.0046767,-5.72161e-06,-0.00322864,-0.000139462,17,22,-3.34235,-3.34235,-46.6287,-46.6287,0.956
1.50345,1.5043,1.03793,1.03761,-0.00471394,-3.81441e-06,-0.00325434,-0.000150557,17,23,-3.40592,-3.40592,-46.7437,-46.7437,0.96
1.50343,1.5043,1.03792,1.03761,-0.00475131,-2.54294e-06,-0.00328014,-0.000100371,18,24,-3.47017,-3.47017,-46.86,-46.86,0.964
1.50342,1.5043,1.03791,1.03761,-0.00478881,-3.04862e-05,-0.00330603,-6.6914e-05,18,24,-3.53508,-3.53508,-46.9802,-46.9802,0.968
1.5034,1.5043,1.03789,1.03761,-0.00482644,8.46678e-06,-0.003332,-0.000130982,18,24,-3.60039,-3.60039,-47.1033,-47.1033,0.972
1.50338,1.5043,1.03788,1.03761,-0.0048642,5.64452e-06,-0.00335807,-0.000144903,18,25,-3.66679,-3.66679,-47.2255,-47.2255,0.976
1.50336,1.5043,1.03787,1.03761,-0.00490209,3.76301e-06,-0.00338423,-0.000154184,19,25,-3.73384,-3.73384,-47.3488,-47.3488,0.98
1.50334,1.5043,1.03785,1.03761,-0.00494011,2.50868e-06,-0.00341048,-0.000160371,19,25,-3.80154,-3.80154,-47.4735,-47.4735,0.984
1.50332,1.5043,1.03784,1.03761,-0.00497826,-2.71185e-05,-0.00343682,-0.000164496,19,26,-3.8699,-3.8699,-47.5997,-47.5997,0.988
1.5033,1.5043,1.03782,1.03761,-0.00501654,-1.8079e-05,-0.00346324,-0.000138455,19,27,-3.93863,-3.93863,-47.7275,-47.7275,0.992
1.50328,1.5043,1.03781,1.03761,-0.00505495,-1.20527e-05,-0.00348976,-0.000149885,19,27,-4.00816,-4.00816,-47.8581,-47.8581,0.996
1.50326,1.5043,1.0378,1.0376,-0.00509348,-8.0351e-06,-0.00351637,-0.000157505,20,28,-4.07845,-4.07845,-47.99,-47.99,1
1.50324,1.5043,1.03778,1.0376,-0.00513215,-5.35674e-06,-0.00354306,-0.000191376,20,28,-4.14948,-4.14948,-48.1233,-48.1233,1.004
1.50322,1.5043,1.03777,1.0376,-0.00517095,-3.57116e-06,-0.00356984,-0.000185166,20,28,-4.22124,-4.22124,-48.257,-48.257,1.008
1.5032,1.5043,1.03775,1.0376,-0.00520987,-2.38077e-06,-0.00359672,-0.000209817,20,29,-4.29373,-4.29373,-48.3927,-48.3927,1.012
1.50317,1.5043,1.03774,1.0376,-0.00524893,-1.58718e-06,-0.00362368,-0.00019746,21,29,-4.36694,-4.36694,-48.5293,-48.5293,1.016
1.50315,1.5043,1.03773,1.0376,-0.00528811,-1.05812e-06,-0.00365073,-0.000189222,21,30,-4.44087,-4.44087,-48.6681,-48.6681,1.02
1.50313,1.5043,1.03771,1.0376,-0.00532742,-2.94963e-05,-0.00367787,-0.000241311,21,30,-4.5155,-4.5155,-48.809,-48.809,1.024
1.50311,1.5043,1.0377,1.0376,-0.00536686,-1.96642e-05,-0.00370509,-0.000189665,21,31,-4.59056,-4.59056,-48.9498,-48.9498,1.028
1.50309,1.5043,1.03768,1.0376,-0.00540643,-1.31095e-05,-0.00373241,-0.000212816,21,31,-4.66644,-4.66644,-49.0944,-49.0944,1.032
1.50307,1.5043,1.03767,1.0376,-0.00544612,-3.75306e-05,-0.00375981,-0.000170668,22,32,-4.74311,-4.74311,-49.2399,-49.2399,1.036
1.50305,1.5043,1.03765,1.0376,-0.00548594,-2.50204e-05,-0.0037873,-0.000228943,22,32,-4.82025,-4.82025,-49.389,-49.389,1.04
1.50302,1.5043,1.03764,1.0376,-0.00552589,-1.66803e-05,-0.00381488,-0.000181419,22,33,-4.89826,-4.89826,-49.5376,-49.5376,1.044
1.503,1.5043,1.03762,1.03759,-0.00556596,-1.11202e-05,-0.00384255,-0.000207319,22,34,-4.9771,-4.9771,-49.69,-49.69,1.048
1.50298,1.5043,1.0376,1.03759,-0.00560617,-7.41345e-06,-0.0038703,-0.000224585,23,34,-5.05675,-5.05675,-49.8431,-49.8431,1.052
1.50296,1.5043,1.03759,1.03759,-0.0056465,-4.9423e-06,-0.00389815,-0.000322469,23,34,-5.13718,-5.13718,-49.9973,-49.9973,1.056
1.50293,1.5043,1.03757,1.03759,-0.00568695,-3.29487e-06,-0.00392607,-0.000330143,23,34,-5.21838,-5.21838,-50.1493,-50.1493,1.06
1.50291,1.5043,1.03756,1.03759,-0.00572753,-2.19658e-06,-0.00395409,-0.000335259,23,35,-5.30035,-5.30035,-50.3029,-50.3029,1.064
1.50289,1.5043,1.03754,1.03759,-0.00576824,-1.46438e-06,-0.00398219,-0.000309879,24,36,-5.38309,-5.38309,-50.4583,-50.4583,1.068
1.50286,1.5043,1.03753,1.03759,-0.00580907,-9.76257e-07,-0.00401038,-0.00032175,24,36,-5.4666,-5.4666,-50.6165,-50.6165,1.072
1.50284,1.5043,1.03751,1.03759,-0.00585003,-6.50838e-07,-0.00403866,-0.000300873,24,37,-5.55088,-5.55088,-50.7762,-50.7762,1.076
1.50282,1.5043,1.03749,1.03758,-0.00589112,-2.92248e-05,-0.00406702,-0.000373327,24,37,-5.6359,-5.6359,-50.9386,-50.9386,1.08
1.50279,1.5043,1.03748,1.03758,-0.00593233,-1.94832e-05,-0.00409547,-0.000335258,25,38,-5.72139,-5.72139,-51.1,-51.1,1.084
1.50277,1.5043,1.03746,1.03758,-0.00597366,-1.29888e-05,-0.00412401,-0.000425042,25,38,-5.80776,-5.80776,-51.2647,-51.2647,1.088
1.50275,1.5043,1.03744,1.03758,-0.00601512,-8.6592e-06,-0.00415263,-0.000456107,25,38,-5.89498,-5.89498,-51.4276,-51.4276,1.092
1.50272,1.5043,1.03743,1.03757,-0.0060567,-5.7728e-06,-0.00418134,-0.000534398,26,38,-5.98303,-5.98303,-51.591,-51.591,1.096
1.5027,1.5043,1.03741,1.03757,-0.00609841,-3.84854e-06,-0.00421013,-0.000586593,26,38,-6.07189,-6.07189,-51.7531,-51.7531,1.1
1.50267,1.5043,1.03739,1.03757,-0.00614024,-2.56569e-06,-0.00423901,-0.00065018,26,38,-6.16157,-6.16157,-51.9149,-51.9149,1.104
1.50265,1.5043,1.03738,1.03757,-0.0061822,-1.71046e-06,-0.00426798,-0.000692572,26,38,-6.25204,-6.25204,-52.0759,-52.0759,1.108
1.50262,1.5043,1.03736,1.03756,-0.00622428,-5.87222e-05,-0.00429703,-0.000778415,27,38,-6.34328,-6.34328,-52.237,-52.237,1.112
1.5026,1.5043,1.03734,1.03756,-0.00626649,-3.91481e-05,-0.00432617,-0.000922016,27,37,-6.43472,-6.43472,-52.3962,-52.3962,1.116
1.50257,1.5043,1.03733,1.03755,-0.00630882,-5.48897e-05,-0.00435539,-0.000931378,27,37,-6.52715,-6.52715,-52.5515,-52.5515,1.12
1.50255,1.5043,1.03731,1.03755,-0.00635127,-3.65931e-05,-0.00438469,-0.00102399,27,37,-6.62024,-6.62024,-52.7081,-52.7081,1.124
1.50252,1.5043,1.03729,1.03754,-0.00639384,-2.43954e-05,-0.00441409,-0.00108573,28,37,-6.71434,-6.71434,-52.8627,-52.8627,1.128
1.5025,1.5043,1.03727,1.03754,-0.00643654,-4.50545e-05,-0.00444356,-0.00118448,28,37,-6.80936,-6.80936,-53.0165,-53.0165,1.132
1.50247,1.5043,1.03725,1.03753,-0.00647936,-3.00364e-05,-0.00447313,-0.00130789,28,36,-6.90499,-6.90499,-53.168,-53.168,1.136
1.50245,1.5043,1.03724,1.03753,-0.0065223,-2.00242e-05,-0.00450277,-0.00141895,29,36,-7.00161,-7.00161,-53.3161,-53.3161,1.14
1.50242,1.5043,1.03722,1.03752,-0.00656537,-1.33495e-05,-0.0045325,-0.00155058,29,35,-7.09916,-7.09916,-53.4613,-53.4613,1.144
1.50239,1.5043,1.0372,1.03751,-0.00660855,-3.76906e-05,-0.00456232,-0.00169591,29,34,-7.19759,-7.19759,-53.6027,-53.6027,1.148
1.50237,1.5043,1.03718,1.0375,-0.00665186,3.66387e-06,-0.00459222,-0.00185038,29,33,-7.29662,-7.29662,-53.7397,-53.7397,1.152
1.50234,1.5043,1.03716,1.03749,-0.00669529,-2.63483e-05,-0.0046222,-0.00189578,30,33,-7.39691,-7.39691,-53.8722,-53.8722,1.156
1.50231,1.5043,1.03715,1.03749,-0.00673885,-1.75656e-05,-0.00465227,-0.00195483,30,33,-7.49772,-7.49772,-54.0046,-54.0046,1.16
1.50229,1.5043,1.03713,1.03748,-0.00678252,-4.05013e-05,-0.00468242,-0.00190783,30,34,-7.59945,-7.59945,-54.1364,-54.1364,1.164
1.50226,1.50429,1.03711,1.03747,-0.00682632,-5.57918e-05,-0.00471265,-0.0018765,30,35,-7.70177,-7.70177,-54.272,-54.272,1.168
1.50223,1.50429,1.03709,1.03746,-0.00687023,-6.59855e-05,-0.00474297,-0.00182682,31,36,-7.80477,-7.80477,-54.4108,-54.4108,1.172
1.5022,1.50429,1.03707,1.03746,-0.00691427,-4.39903e-05,-0.00477337,-0.00176491,31,37,-7.90852,-7.90852,-54.5536,-54.5536,1.176
1.50218,1.50429,1.03705,1.03745,-0.00695843,-5.81178e-05,-0.00480386,-0.00172363,31,38,-8.01335,-8.01335,-54.7009,-54.7009,1.18
1.50215,1.50429,1.03703,1.03744,-0.0070027,-6.75361e-05,-0.00483443,-0.00178249,32,38,-8.11889,-8.11889,-54.8516,-54.8516,1.184
1.50212,1.50429,1.03701,1.03743,-0.0070471,-0.000102606,-0.00486508,-0.0019081,32,38,-8.22515,-8.22515,-55.0016,-55.0016,1.188
1.50209,1.50429,1.03699,1.03742,-0.00709162,-0.000125986,-0.00489581,-0.00207821,32,36,-8.33189,-8.33189,-55.148,-55.148,1.192
1.50206,1.50429,1.03697,1.03741,-0.00713626,-0.000170363,-0.00492663,-0.00222041,32,36,-8.43922,-8.43922,-55.2891,-55.2891,1.196
1.50203,1.50429,1.03695,1.0374,-0.00718102,-0.000199948,-0.00495753,-0.002344,33,35,-8.54691,-8.54691,-55.426,-55.426,1.2
1.50201,1.50429,1.03693,1.03739,-0.00722589,-0.000306044,-0.00498851,-0.0024264,33,35,-8.65508,-8.65508,-55.5595,-55.5595,1.204
1.50198,1.50429,1.03691,1.03738,-0.00727089,-0.000319193,-0.00501957,-0.00248132,33,35,-8.76297,-8.76297,-55.6914,-55.6914,1.208
1.50195,1.50428,1.03689,1.03737,-0.00731601,-0.000443123,-0.00505072,-0.00246036,33,35,-8.8715,-8.8715,-55.823,-55.823,1.212
1.50192,1.50428,1.03687,1.03736,-0.00736124,-0.000496952,-0.00508195,-0.0024176,33,36,-8.97954,-8.97954,-55.9573,-55.9573,1.216
1.50189,1.50428,1.03685,1.03736,-0.0074066,-0.00059042,-0.00511326,-0.0023315,33,38,-9.0878,-9.0878,-56.0953,-56.0953,1.22
1.50186,1.50428,1.03683,1.03735,-0.00745207,-0.000566359,-0.00514465,-0.00215895,33,40,-9.19596,-9.19596,-56.239,-56.239,1.224
1.50183,1.50427,1.03681,1.03734,-0.00749766,-0.000550318,-0.00517612,-0.00204391,34,42,-9.30526,-9.30526,-56.3919,-56.3919,1.228
1.5018,1.50427,1.03679,1.03734,-0.00754337,-0.000597206,-0.00520768,-0.00185205,34,44,-9.41557,-9.41557,-56.5518,-56.5518,1.232
1.50177,1.50427,1.03677,1.03733,-0.00758919,-0.000628465,-0.00523932,-0.00178173,34,46,-9.52623,-9.52623,-56.7215,-56.7215,1.236
1.50174,1.50427,1.03675,1.03732,-0.00763514,-0.000735677,-0.00527103,-0.00164847,34,47,-9.63736,-9.63736,-56.8964,-56.8964,1.24
1.50171,1.50426,1.03673,1.03732,-0.0076812,-0.000864733,-0.00530283,-0.00150206,34,50,-9.74812,-9.74812,-57.079,-57.079,1.244
1.50168,1.50426,1.03671,1.03731,-0.00772738,-0.00100835,-0.00533471,-0.00140444,34,51,-9.85827,-9.85827,-57.2698,-57.2698,1.248
1.50165,1.50425,1.03668,1.03731,-0.00777367,-0.00113289,-0.00536668,-0.00131058,34,53,-9.96767,-9.96767,-57.4669,-57.4669,1.252
1.50161,1.50424,1.03666,1.0373,-0.00782009,-0.00133108,-0.00539872,-0.001248,34,54,-10.0764,-10.0764,-57.67,-57.67,1.256
1.50158,1.50424,1.03664,1.0373,-0.00786662,-0.00152079,-0.00543084,-0.00120628,34,55,-10.1838,-10.1838,-57.8779,-57.8779,1.26
1.50155,1.50423,1.03662,1.0373,-0.00791326,-0.00182,-0.00546304,-0.00117847,33,56,-10.2898,-10.2898,-58.0897,-58.0897,1.264
1.50152,1.50422,1.0366,1.03729,-0.00796003,-0.00210585,-0.00549533,-0.00115993,33,57,-10.3932,-10.3932,-58.3049,-58.3049,1.268
1.50149,1.5042,1.03658,1.03729,-0.00800691,-0.00229642,-0.00552769,-0.00111878,33,58,-10.4943,-10.4943,-58.5232,-58.5232,1.272
1.50146,1.50419,1.03655,1.03728,-0.0080539,-0.00242347,-0.00556014,-0.00103376,33,60,-10.5941,-10.5941,-58.7455,-58.7455,1.276
1.50142,1.50418,1.03653,1.03728,-0.00810101,-0.00247937,-0.00559266,-0.000977083,33,61,-10.6933,-10.6933,-58.9736,-58.9736,1.28
1.50139,1.50417,1.03651,1.03728,-0.00814824,-0.00248785,-0.00562526,-0.000910507,33,62,-10.7927,-10.7927,-59.2064,-59.2064,1.284
1.50136,1.50416,1.03649,1.03727,-0.00819558,-0.0024935,-0.00565795,-0.000837332,33,64,-10.8928,-10.8928,-59.4443,-59.4443,1.288
1.50133,1.50415,1.03646,1.03727,-0.00824304,-0.00258365,-0.00569071,-0.000759758,33,65,-10.9937,-10.9937,-59.6877,-59.6877,1.292
1.50129,1.50414,1.03644,1.03727,-0.00829062,-0.00270132,-0.00572355,-0.000708042,33,67,-11.0943,-11.0943,-59.9367,-59.9367,1.296
1.50126,1.50413,1.03642,1.03727,-0.0083383,-0.00289494,-0.00575648,-0.000644773,33,68,-11.1943,-11.1943,-60.1903,-60.1903,1.3
1.50123,1.50411,1.03639,1.03727,-0.00838611,-0.00311039,-0.00578948,-0.000631385,33,69,-11.293,-11.293,-60.4488,-60.4488,1.304
1.50119,1.5041,1.03637,1.03726,-0.00843402,-0.00336918,-0.00582256,-0.00062246,32,70,-11.3899,-11.3899,-60.7103,-60.7103,1.308
1.50116,1.50408,1.03635,1.03726,-0.00848206,-0.00359929,-0.00585572,-0.000645301,32,70,-11.4848,-11.4848,-60.9745,-60.9745,1.312
1.50112,1.50406,1.03632,1.03726,-0.0085302,-0.00381029,-0.00588896,-0.000660528,32,71,-11.5778,-11.5778,-61.2402,-61.2402,1.316
1.50109,1.50405,1.0363,1.03725,-0.00857846,-0.00383578,-0.00592227,-0.000641888,32,72,-11.6693,-11.6693,-61.5077,-61.5077,1.32
1.50106,1.50403,1.03628,1.03725,-0.00862683,-0.00376641,-0.00595567,-0.000658253,32,73,-11.7614,-11.7614,-61.7784,-61.7784,1.324
1.50102,1.50402,1.03625,1.03725,-0.00867532,-0.00383532,-0.00598914,-0.000640372,33,74,-11.855,-11.855,-62.0509,-62.0509,1.328
1.50099,1.504,1.03623,1.03725,-0.00872392,-0.00388126,-0.00602269,-0.000628451,33,75,-11.9486,-11.9486,-62.3266,-62.3266,1.332
1.50095,1.50399,1.03621,1.03724,-0.00877264,-0.0038831,-0.00605633,-0.000620504,33,76,-12.0426,-12.0426,-62.6052,-62.6052,1.336
1.50092,1.50397,1.03618,1.03724,-0.00882146,-0.00385553,-0.00609003,-0.000615206,33,77,-12.1373,-12.1373,-62.8867,-62.8867,1.34
1.50088,1.50396,1.03616,1.03724,-0.0088704,-0.00380837,-0.00612382,-0.000554092,34,78,-12.2332,-12.2332,-63.171,-63.171,1.344
1.50085,1.50394,1.03613,1.03724,-0.00891946,-0.00380571,-0.00615768,-0.00054214,34,79,-12.3304,-12.3304,-63.4603,-63.4603,1.348
1.50081,1.50393,1.03611,1.03724,-0.00896862,-0.00383273,-0.00619163,-0.000505381,34,80,-12.4284,-12.4284,-63.7527,-63.7527,1.352
1.50077,1.50391,1.03608,1.03724,-0.0090179,-0.00382196,-0.00622565,-0.000480876,35,81,-12.527,-12.527,-64.0492,-64.0492,1.356
1.50074,1.5039,1.03606,1.03723,-0.00906729,-0.00381477,-0.00625974,-0.000435747,35,83,-12.6265,-12.6265,-64.3493,-64.3493,1.36
1.5007,1.50388,1.03603,1.03723,-0.00911679,-0.00378119,-0.00629392,-0.000405662,35,84,-12.7269,-12.7269,-64.6539,-64.6539,1.364
1.50066,1.50387,1.03601,1.03723,-0.0091664,-0.00381639,-0.00632817,-0.000356814,35,85,-12.8286,-12.8286,-64.9624,-64.9624,1.368
1.50063,1.50385,1.03598,1.03723,-0.00921613,-0.00363831,-0.0063625,-0.000324249,36,86,-12.9308,-12.9308,-65.2755,-65.2755,1.372
1.50059,1.50384,1.03596,1.03723,-0.00926596,-0.00340443,-0.0063969,-0.00033133,37,87,-13.0359,-13.0359,-65.5925,-65.5925,1.376
1.50055,1.50383,1.03593,1.03723,-0.00931591,-0.00316214,-0.00643138,-0.000307259,38,88,-13.1446,-13.1446,-65.912,-65.912,1.38
1.50052,1.50382,1.0359,1.03723,-0.00936597,-0.00282787,-0.00646594,-0.000291212,39,89,-13.2571,-13.2571,-66.2351,-66.2351,1.384
1.50048,1.50381,1.03588,1.03723,-0.00941614,-0.00254744,-0.00650058,-0.000251723,40,91,-13.3742,-13.3742,-66.5616,-66.5616,1.388
1.50044,1.50381,1.03585,1.03723,-0.00946642,-0.00224532,-0.00653529,-0.000225397,41,92,-13.4955,-13.4955,-66.8924,-66.8924,1.392
1.5004,1.5038,1.03583,1.03722,-0.00951681,-0.00181358,-0.00657007,-0.000236638,43,93,-13.6212,-13.6212,-67.227,-67.227,1.396
1.50036,1.5038,1.0358,1.03722,-0.00956731,-0.00143938,-0.00660494,-0.000244131,44,94,-13.7528,-13.7528,-67.5638,-67.5638,1.4
1.50033,1.5038,1.03577,1.03722,-0.00961792,-0.00107475,-0.00663988,-0.000249127,45,95,-13.8897,-13.8897,-67.903,-67.903,1.404
1.50029,1.5038,1.03575,1.03722,-0.00966864,-0.0007165,-0.00667489,-0.000281248,47,95,-14.0318,-14.0318,-68.2447,-68.2447,1.408
1.50025,1.5038,1.03572,1.03722,-0.00971947,-0.000535249,-0.00670998,-0.000302663,48,96,-14.1788,-14.1788,-68.5877,-68.5877,1.412
1.50021,1.5038,1.03569,1.03722,-0.00977041,-0.000299251,-0.00674515,-0.000374521,49,96,-14.329,-14.329,-68.9324,-68.9324,1.416
1.50017,1.5038,1.03567,1.03722,-0.00982146,-0.000228291,-0.00678039,-0.000451217,49,96,-14.4829,-14.4829,-69.2769,-69.2769,1.42
1.50013,1.5038,1.03564,1.03721,-0.00987261,-0.000180985,-0.00681571,-0.000444766,50,97,-14.6386,-14.6386,-69.6209,-69.6209,1.424
1.50009,1.5038,1.03561,1.03721,-0.00992388,-0.000178239,-0.0068511,-0.000469256,50,98,-14.7959,-14.7959,-69.9679,-69.9679,1.428
1.50005,1.5038,1.03558,1.03721,-0.00997526,-0.00026278,-0.00688657,-0.000485583,50,99,-14.9542,-14.9542,-70.3166,-70.3166,1.432
1.50001,1.50379,1.03556,1.03721,-0.0100267,-0.000290351,-0.00692212,-0.000496468,51,100,-15.1128,-15.1128,-70.6673,-70.6673,1.436
1.49997,1.50379,1.03553,1.03721,-0.0100783,-0.00027994,-0.00695773,-0.000474933,51,101,-15.2721,-15.2721,-71.0205,-71.0205,1.44
1.49993,1.50379,1.0355,1.0372,-0.01013,-0.000388163,-0.00699343,-0.000489368,51,102,-15.4325,-15.4325,-71.3772,-71.3772,1.444
1.49989,1.50379,1.03547,1.0372,-0.0101818,-0.00040273,-0.00702919,-0.0004702,52,103,-15.5929,-15.5929,-71.7361,-71.7361,1.448
1.49985,1.50379,1.03544,1.0372,-0.0102338,-0.000354859,-0.00706503,-0.000457421,52,104,-15.7542,-15.7542,-72.0987,-72.0987,1.452
1.49981,1.50379,1.03542,1.0372,-0.0102858,-0.000409319,-0.00710095,-0.000477693,52,105,-15.9171,-15.9171,-72.4645,-72.4645,1.456
1.49977,1.50378,1.03539,1.0372,-0.0103379,-0.000359252,-0.00713694,-0.000462417,53,106,-16.0805,-16.0805,-72.8323,-72.8323,1.46
1.49973,1.50378,1.03536,1.03719,-0.0103902,-0.000383456,-0.007173,-0.000509814,53,107,-16.2456,-16.2456,-73.2035,-73.2035,1.464
1.49968,1.50378,1.03533,1.03719,-0.0104425,-0.000428383,-0.00720914,-0.000512622,54,108,-16.4115,-16.4115,-73.5756,-73.5756,1.468
1.49964,1.50378,1.0353,1.03719,-0.010495,-0.000400752,-0.00724535,-0.000543284,54,108,-16.5781,-16.5781,-73.9503,-73.9503,1.472
1.4996,1.50378,1.03527,1.03719,-0.0105475,-0.000382332,-0.00728164,-0.000563726,55,109,-16.7461,-16.7461,-74.3266,-74.3266,1.476
1.49956,1.50378,1.03524,1.03718,-0.0106002,-0.000283679,-0.007318,-0.000577354,55,110,-16.9154,-16.9154,-74.7048,-74.7048,1.48
1.49952,1.50378,1.03521,1.03718,-0.010653,-0.000275492,-0.00735443,-0.00061523,56,111,-17.087,-17.087,-75.0853,-75.0853,1.484
1.49947,1.50378,1.03518,1.03718,-0.0107058,-0.000270034,-0.00739093,-0.00061169,56,112,-17.2598,-17.2598,-75.4671,-75.4671,1.488
1.49943,1.50377,1.03515,1.03718,-0.0107588,-0.000266396,-0.00742751,-0.000638121,57,113,-17.4338,-17.4338,-75.8519,-75.8519,1.492
1.49939,1.50377,1.03512,1.03717,-0.0108119,-0.00026397,-0.00746417,-0.000655741,57,114,-17.6089,-17.6089,-76.2384,-76.2384,1.496
1.49934,1.50377,1.0351,1.03717,-0.0108651,-0.000262353,-0.00750089,-0.000667488,57,114,-17.7853,-17.7853,-76.6271,-76.6271,1.5
1.4993,1.50377,1.03506,1.03717,-0.0109184,-0.000290065,-0.00753769,-0.000646529,58,116,-17.9628,-17.9628,-77.0182,-77.0182,1.504
1.49926,1.50377,1.03503,1.03717,-0.0109718,-0.000250959,-0.00757456,-0.000661346,58,117,-18.1412,-18.1412,-77.413,-77.413,1.508
1.49921,1.50377,1.035,1.03716,-0.0110253,-0.000311261,-0.0076115,-0.000671225,59,118,-18.3211,-18.3211,-77.8101,-77.8101,1.512
1.49917,1.50377,1.03497,1.03716,-0.0110789,-0.000265089,-0.00764852,-0.00064902,59,119,-18.5016,-18.5016,-78.2097,-78.2097,1.516
1.49912,1.50377,1.03494,1.03716,-0.0111327,-0.00029189,-0.0076856,-0.000634216,60,120,-18.6837,-18.6837,-78.6133,-78.6133,1.52
1.49908,1.50377,1.03491,1.03716,-0.0111865,-0.000309757,-0.00772276,-0.000624347,60,121,-18.8666,-18.8666,-79.0203,-79.0203,1.524
1.49903,1.50376,1.03488,1.03715,-0.0112404,-0.000350459,-0.00775999,-0.000588977,60,123,-19.0506,-19.0506,-79.4308,-79.4308,1.528
1.49899,1.50376,1.03485,1.03715,-0.0112944,-0.000348803,-0.0077973,-0.000565397,61,124,-19.2353,-19.2353,-79.8458,-79.8458,1.532
1.49894,1.50376,1.03482,1.03715,-0.0113486,-0.000347699,-0.00783467,-0.00063605,61,124,-19.4211,-19.4211,-80.2645,-80.2645,1.536
1.4989,1.50376,1.03479,1.03715,-0.0114028,-0.000318172,-0.00787212,-0.00065436,62,125,-19.6082,-19.6082,-80.6833,-80.6833,1.54
1.49885,1.50376,1.03476,1.03714,-0.0114572,-0.000298488,-0.00790964,-0.000666568,62,126,-19.7968,-19.7968,-81.1044,-81.1044,1.544
1.49881,1.50376,1.03472,1.03714,-0.0115116,-0.000227783,-0.00794723,-0.000703497,63,127,-19.9869,-19.9869,-81.5278,-81.5278,1.548
1.49876,1.50376,1.03469,1.03714,-0.0115662,-0.000238228,-0.00798489,-0.000728116,63,128,-20.1789,-20.1789,-81.9527,-81.9527,1.552
1.49871,1.50376,1.03466,1.03713,-0.0116208,-0.000245191,-0.00802262,-0.000744529,64,129,-20.372,-20.372,-82.3796,-82.3796,1.556
1.49867,1.50376,1.03463,1.03713,-0.0116756,-0.000221043,-0.00806042,-0.00072668,64,130,-20.5663,-20.5663,-82.8089,-82.8089,1.56
1.49862,1.50376,1.0346,1.03713,-0.0117304,-0.000204944,-0.0080983,-0.000743572,65,131,-20.762,-20.762,-83.2419,-83.2419,1.564
1.49857,1.50375,1.03456,1.03712,-0.0117854,-0.000223002,-0.00813624,-0.000726042,65,132,-20.9591,-20.9591,-83.6773,-83.6773,1.568
1.49853,1.50375,1.03453,1.03712,-0.0118405,-0.000235041,-0.00817426,-0.000743146,66,133,-21.1573,-21.1573,-84.1163,-84.1163,1.572
1.49848,1.50375,1.0345,1.03712,-0.0118956,-0.000300648,-0.00821234,-0.000754549,66,134,-21.3565,-21.3565,-84.5578,-84.5578,1.576
1.49843,1.50375,1.03447,1.03712,-0.0119509,-0.000258014,-0.0082505,-0.00073336,67,136,-21.5562,-21.5562,-85.0018,-85.0018,1.58
1.49838,1.50375,1.03443,1.03711,-0.0120063,-0.000287173,-0.00828873,-0.000719234,67,137,-21.7576,-21.7576,-85.4499,-85.4499,1.584
1.49834,1.50375,1.0344,1.03711,-0.0120618,-0.000277822,-0.00832702,-0.000681026,67,138,-21.96,-21.96,-85.9016,-85.9016,1.588
1.49829,1.50375,1.03437,1.03711,-0.0121173,-0.000271587,-0.00836539,-0.000684345,68,140,-22.1637,-22.1637,-86.358,-86.358,1.592
1.49824,1.50375,1.03433,1.0371,-0.012173,-0.00023864,-0.00840383,-0.000715348,69,140,-22.3687,-22.3687,-86.8174,-86.8174,1.596
1.49819,1.50375,1.0343,1.0371,-0.0122288,-0.000159093,-0.00844233,-0.000736017,69,141,-22.5754,-22.5754,-87.2785,-87.2785,1.6
1.49814,1.50375,1.03426,1.0371,-0.0122847,-0.000221226,-0.00848091,-0.000778587,70,142,-22.7841,-22.7841,-87.7419,-87.7419,1.604
1.49809,1.50375,1.03423,1.03709,-0.0123406,-0.000147484,-0.00851955,-0.000864549,70,143,-22.9935,-22.9935,-88.2064,-88.2064,1.608
1.49804,1.50374,1.0342,1.03709,-0.0123967,-0.000155904,-0.00855827,-0.000893066,71,143,-23.2049,-23.2049,-88.6706,-88.6706,1.612
1.49799,1.50374,1.03416,1.03709,-0.0124529,-0.000190309,-0.00859705,-0.000940869,71,144,-23.4175,-23.4175,-89.1367,-89.1367,1.616
1.49794,1.50374,1.03413,1.03708,-0.0125092,-0.000270827,-0.00863591,-0.00100153,71,145,-23.631,-23.631,-89.6038,-89.6038,1.62
1.49789,1.50374,1.03409,1.03708,-0.0125656,-0.000295715,-0.00867483,-0.00109955,72,145,-23.8448,-23.8448,-90.0714,-90.0714,1.624
1.49784,1.50374,1.03406,1.03707,-0.012622,-0.000283516,-0.00871382,-0.0011649,72,145,-24.0597,-24.0597,-90.538,-90.538,1.628
1.49779,1.50374,1.03402,1.03707,-0.0126786,-0.000361756,-0.00875288,-0.00129483,73,145,-24.2759,-24.2759,-91.0048,-91.0048,1.632
1.49774,1.50374,1.03399,1.03706,-0.0127353,-0.000385126,-0.00879201,-0.00152541,73,144,-24.4925,-24.4925,-91.469,-91.469,1.636
1.49769,1.50373,1.03395,1.03705,-0.0127921,-0.000343123,-0.0088312,-0.00167913,74,144,-24.7102,-24.7102,-91.9266,-91.9266,1.64
1.49764,1.50373,1.03392,1.03704,-0.0128489,-0.000372703,-0.00887047,-0.00189678,74,143,-24.9297,-24.9297,-92.3806,-92.3806,1.644
1.49759,1.50373,1.03388,1.03703,-0.0129059,-0.00027726,-0.0089098,-0.00209946,75,142,-25.1502,-25.1502,-92.8284,-92.8284,1.648
1.49753,1.50373,1.03385,1.03702,-0.012963,-0.000242422,-0.0089492,-0.0021482,76,143,-25.373,-25.373,-93.2709,-93.2709,1.652
1.49748,1.50373,1.03381,1.03701,-0.0130202,-0.000247987,-0.00898867,-0.00212312,76,144,-25.5975,-25.5975,-93.7145,-93.7145,1.656
1.49743,1.50373,1.03377,1.03701,-0.0130774,-0.000136534,-0.00902821,-0.00202002,77,146,-25.8234,-25.8234,-94.1623,-94.1623,1.66
1.49738,1.50373,1.03374,1.037,-0.0131348,-0.000119814,-0.00906782,-0.00183613,78,149,-26.0517,-26.0517,-94.6176,-94.6176,1.664
1.49733,1.50373,1.0337,1.03699,-0.0131923,-0.000108667,-0.00910749,-0.00159837,78,153,-26.2816,-26.2816,-95.084,-95.084,1.668
1.49727,1.50373,1.03367,1.03699,-0.0132498,-0.000158817,-0.00914723,-0.0012959,78,157,-26.5129,-26.5129,-95.5637,-95.5637,1.672
1.49722,1.50373,1.03363,1.03699,-0.0133075,-0.000105878,-0.00918704,-0.00106547,79,160,-26.7451,-26.7451,-96.0594,-96.0594,1.676
1.49717,1.50373,1.03359,1.03699,-0.0133653,-9.93763e-05,-0.00922691,-0.000825479,80,164,-26.9791,-26.9791,-96.5681,-96.5681,1.68
1.49711,1.50373,1.03355,1.03699,-0.0134231,-0.000123833,-0.00926685,-0.000665483,80,167,-27.2146,-27.2146,-97.0902,-97.0902,1.684
1.49706,1.50373,1.03352,1.03699,-0.0134811,-0.000111346,-0.00930686,-0.000530028,81,169,-27.4511,-27.4511,-97.6223,-97.6223,1.688
1.497,1.50373,1.03348,1.03698,-0.0135391,-0.000103022,-0.00934694,-0.000497307,81,171,-27.6892,-27.6892,-98.1635,-98.1635,1.692
1.49695,1.50373,1.03344,1.03698,-0.0135973,-0.000126263,-0.00938708,-0.000504283,82,172,-27.9286,-27.9286,-98.7093,-98.7093,1.696
1.4969,1.50373,1.03341,1.03698,-0.0136555,-0.000141757,-0.00942729,-0.000537725,82,173,-28.1692,-28.1692,-99.2583,-99.2583,1.7
1.49684,1.50372,1.03337,1.03698,-0.0137138,-0.000209668,-0.00946757,-0.000617602,83,174,-28.4108,-28.4108,-99.8091,-99.8091,1.704
1.49679,1.50372,1.03333,1.03697,-0.0137723,-0.000197361,-0.00950791,-0.000728435,83,174,-28.6532,-28.6532,-100.36,-100.36,1.708
1.49673,1.50372,1.03329,1.03697,-0.0138308,-0.000160365,-0.00954832,-0.000831114,84,174,-28.8971,-28.8971,-100.909,-100.909,1.712
1.49668,1.50372,1.03325,1.03696,-0.0138894,-0.000164492,-0.00958879,-0.000957149,84,174,-29.1427,-29.1427,-101.458,-101.458,1.716
1.49662,1.50372,1.03321,1.03696,-0.0139482,-0.000167243,-0.00962933,-0.00106996,85,175,-29.3897,-29.3897,-102.005,-102.005,1.72
1.49656,1.50372,1.03318,1.03695,-0.014007,-0.000169077,-0.00966994,-0.00123155,86,174,-29.638,-29.638,-102.55,-102.55,1.724
1.49651,1.50372,1.03314,1.03694,-0.0140659,-0.0001703,-0.00971061,-0.00148322,86,173,-29.8877,-29.8877,-103.091,-103.091,1.728
1.49645,1.50372,1.0331,1.03694,-0.0141249,-0.000228697,-0.00975135,-0.00170859,87,172,-30.1387,-30.1387,-103.625,-103.625,1.732
1.49639,1.50372,1.03306,1.03693,-0.014184,-0.000181256,-0.00979215,-0.001974,87,171,-30.3905,-30.3905,-104.153,-104.153,1.736
1.49634,1.50372,1.03302,1.03691,-0.0142432,-0.000178419,-0.00983302,-0.0022661,88,169,-30.6442,-30.6442,-104.672,-104.672,1.74
1.49628,1.50372,1.03298,1.0369,-0.0143025,-0.000118946,-0.00987395,-0.00246083,89,169,-30.8995,-30.8995,-105.183,-105.183,1.744
1.49622,1.50372,1.03294,1.03689,-0.0143619,-0.00016567,-0.00991495,-0.00259066,89,169,-31.1567,-31.1567,-105.689,-105.689,1.748
1.49617,1.50372,1.0329,1.03688,-0.0144214,-0.000168029,-0.00995602,-0.00259083,90,170,-31.4149,-31.4149,-106.192,-106.192,1.752
1.49611,1.50372,1.03286,1.03687,-0.0144809,-0.00014081,-0.00999714,-0.00253337,90,172,-31.6744,-31.6744,-106.699,-106.699,1.756
1.49605,1.50372,1.03282,1.03686,-0.0145406,-0.000209037,-0.0100383,-0.00246627,91,174,-31.9357,-31.9357,-107.211,-107.211,1.76
1.49599,1.50371,1.03278,1.03685,-0.0146004,-0.00019694,-0.0100796,-0.00245032,91,175,-32.1976,-32.1976,-107.73,-107.73,1.764
1.49593,1.50371,1.03274,1.03684,-0.0146602,-0.000160084,-0.0101209,-0.00252607,92,176,-32.4611,-32.4611,-108.252,-108.252,1.768
1.49587,1.50371,1.0327,1.03683,-0.0147202,-0.000221886,-0.0101623,-0.00260535,92,176,-32.7265,-32.7265,-108.774,-108.774,1.772
1.49582,1.50371,1.03266,1.03682,-0.0147802,-0.000176715,-0.0102038,-0.00283096,93,175,-32.9926,-32.9926,-109.296,-109.296,1.776
1.49576,1.50371,1.03262,1.0368,-0.0148404,-0.000175392,-0.0102453,-0.00303894,94,174,-33.2607,-33.2607,-109.811,-109.811,1.78
1.4957,1.50371,1.03258,1.03679,-0.0149006,-0.000145719,-0.0102869,-0.00326397,94,173,-33.5302,-33.5302,-110.32,-110.32,1.784
1.49564,1.50371,1.03254,1.03677,-0.0149609,-0.000154728,-0.0103285,-0.0033852,95,173,-33.8015,-33.8015,-110.824,-110.824,1.788
1.49558,1.50371,1.03249,1.03676,-0.0150213,-0.000189525,-0.0103702,-0.00340844,95,174,-34.0742,-34.0742,-111.325,-111.325,1.792
1.49552,1.50371,1.03245,1.03675,-0.0150818,-0.00012635,-0.010412,-0.00333756,96,176,-34.348,-34.348,-111.829,-111.829,1.796
1.49546,1.50371,1.03241,1.03674,-0.0151424,-0.000113024,-0.0104538,-0.00323272,97,178,-34.624,-34.624,-112.339,-112.339,1.8
1.4954,1.50371,1.03237,1.03672,-0.0152031,-0.00010414,-0.0104957,-0.00316283,97,180,-34.9016,-34.9016,-112.857,-112.857,1.804
1.49533,1.50371,1.03233,1.03671,-0.0152639,-9.82178e-05,-0.0105377,-0.00317382,98,182,-35.1807,-35.1807,-113.38,-113.38,1.808
1.49527,1.50371,1.03229,1.0367,-0.0153248,-9.42695e-05,-0.0105797,-0.00318114,99,183,-35.4614,-35.4614,-113.907,-113.907,1.812
1.49521,1.50371,1.03224,1.03668,-0.0153857,-9.16372e-05,-0.0106218,-0.00324361,99,183,-35.7437,-35.7437,-114.436,-114.436,1.816
1.49515,1.50371,1.0322,1.03667,-0.0154468,-0.000147464,-0.0106639,-0.00328525,100,184,-36.0274,-36.0274,-114.966,-114.966,1.82
1.49509,1.50371,1.03216,1.03666,-0.0155079,-9.83095e-05,-0.0107061,-0.0033418,101,185,-36.3121,-36.3121,-115.497,-115.497,1.824
1.49503,1.50371,1.03211,1.03664,-0.0155692,-0.000123122,-0.0107484,-0.00337951,101,186,-36.5988,-36.5988,-116.029,-116.029,1.828
1.49496,1.50371,1.03207,1.03663,-0.0156305,-0.000110872,-0.0107908,-0.00343343,102,187,-36.8867,-36.8867,-116.563,-116.563,1.832
1.4949,1.50371,1.03203,1.03662,-0.0156919,-0.000131496,-0.0108332,-0.0034118,102,188,-37.1763,-37.1763,-117.097,-117.097,1.836
1.49484,1.5037,1.03198,1.0366,-0.0157534,-0.000145246,-0.0108756,-0.00345496,103,189,-37.4672,-37.4672,-117.636,-117.636,1.84
1.49478,1.5037,1.03194,1.03659,-0.015815,-0.000154413,-0.0109181,-0.00339736,104,191,-37.7594,-37.7594,-118.176,-118.176,1.844
1.49471,1.5037,1.0319,1.03657,-0.0158767,-0.000160524,-0.0109607,-0.00347413,104,191,-38.053,-38.053,-118.722,-118.722,1.848
1.49465,1.5037,1.03185,1.03656,-0.0159385,-0.000222179,-0.0110034,-0.00349651,105,192,-38.3481,-38.3481,-119.268,-119.268,1.852
1.49458,1.5037,1.03181,1.03655,-0.0160004,-0.000176911,-0.0110461,-0.00351144,105,193,-38.644,-38.644,-119.816,-119.816,1.856
1.49452,1.5037,1.03177,1.03653,-0.0160623,-0.000146731,-0.0110889,-0.00357897,106,194,-38.942,-38.942,-120.367,-120.367,1.86
1.49446,1.5037,1.03172,1.03652,-0.0161244,-0.000126612,-0.0111317,-0.0035952,107,195,-39.2419,-39.2419,-120.918,-120.918,1.864
1.49439,1.5037,1.03168,1.0365,-0.0161865,-8.44079e-05,-0.0111746,-0.0036636,108,196,-39.5436,-39.5436,-121.472,-121.472,1.868
1.49433,1.5037,1.03163,1.03649,-0.0162487,-8.50628e-05,-0.0112176,-0.00376678,108,196,-39.8473,-39.8473,-122.026,-122.026,1.872
1.49426,1.5037,1.03159,1.03647,-0.016311,-8.54995e-05,-0.0112606,-0.0037492,109,198,-40.1525,-40.1525,-122.579,-122.579,1.876
1.4942,1.5037,1.03154,1.03645,-0.0163734,-8.57906e-05,-0.0113037,-0.00391022,110,197,-40.4593,-40.4593,-123.136,-123.136,1.88
1.49413,1.5037,1.0315,1.03643,-0.0164359,-0.000114776,-0.0113468,-0.00416152,110,196,-40.7677,-40.7677,-123.689,-123.689,1.884
1.49406,1.5037,1.03145,1.03641,-0.0164985,-0.000134099,-0.01139,-0.0045018,111,194,-41.0773,-41.0773,-124.234,-124.234,1.888
1.494,1.5037,1.0314,1.03639,-0.0165612,-0.000146981,-0.0114333,-0.00469987,111,193,-41.3882,-41.3882,-124.769,-124.769,1.892
1.49393,1.5037,1.03136,1.03637,-0.0166239,-0.00018436,-0.0114766,-0.00477433,112,194,-41.7006,-41.7006,-125.298,-125.298,1.896
1.49387,1.5037,1.03131,1.03636,-0.0166868,-0.00020928,-0.01152,-0.00459364,113,197,-42.0141,-42.0141,-125.828,-125.828,1.9
1.4938,1.50369,1.03127,1.03634,-0.0167497,-0.000225892,-0.0115634,-0.00435802,113,201,-42.3289,-42.3289,-126.369,-126.369,1.904
1.49373,1.50369,1.03122,1.03633,-0.0168127,-0.000265759,-0.0116069,-0.00397061,114,206,-42.6452,-42.6452,-126.923,-126.923,1.908
1.49366,1.50369,1.03117,1.03632,-0.0168758,-0.000234754,-0.0116505,-0.00359717,115,211,-42.9626,-42.9626,-127.497,-127.497,1.912
1.4936,1.50369,1.03113,1.03631,-0.016939,-0.000185294,-0.0116941,-0.00320426,115,216,-43.2819,-43.2819,-128.091,-128.091,1.916
1.49353,1.50369,1.03108,1.0363,-0.0170023,-0.00015232,-0.0117378,-0.00282716,116,221,-43.6035,-43.6035,-128.704,-128.704,1.92
1.49346,1.50369,1.03103,1.03629,-0.0170656,-0.000101547,-0.0117815,-0.00237422,117,227,-43.927,-43.927,-129.338,-129.338,1.924
1.49339,1.50369,1.03099,1.03629,-0.0171291,-9.64888e-05,-0.0118253,-0.00195709,118,232,-44.2526,-44.2526,-129.994,-129.994,1.928
1.49332,1.50369,1.03094,1.03629,-0.0171926,-0.000121908,-0.0118692,-0.00153506,118,238,-44.5799,-44.5799,-130.672,-130.672,1.932
1.49325,1.50369,1.03089,1.03629,-0.0172562,-0.000110063,-0.0119131,-0.00110974,119,244,-44.9086,-44.9086,-131.371,-131.371,1.936
1.49319,1.50369,1.03084,1.03628,-0.01732,-0.000159748,-0.0119571,-0.000797411,120,248,-45.2389,-45.2389,-132.092,-132.092,1.94
1.49312,1.50369,1.0308,1.03628,-0.0173837,-0.000192871,-0.0120011,-0.000589189,120,252,-45.5704,-45.5704,-132.831,-132.831,1.944
1.49305,1.50369,1.03075,1.03628,-0.0174476,-0.000272536,-0.0120452,-0.000479166,121,255,-45.903,-45.903,-133.582,-133.582,1.948
1.49298,1.50368,1.0307,1.03628,-0.0175116,-0.000325645,-0.0120894,-0.000463398,121,256,-46.2363,-46.2363,-134.342,-134.342,1.952
1.49291,1.50368,1.03065,1.03628,-0.0175756,-0.000361051,-0.0121336,-0.000481678,122,258,-46.5707,-46.5707,-135.106,-135.106,1.956
1.49284,1.50368,1.0306,1.03628,-0.0176398,-0.000384655,-0.0121779,-0.000551446,123,259,-46.9063,-46.9063,-135.874,-135.874,1.96
1.49276,1.50368,1.03055,1.03627,-0.017704,-0.000371601,-0.0122222,-0.00065554,123,260,-47.2432,-47.2432,-136.643,-136.643,1.964
1.49269,1.50368,1.0305,1.03627,-0.0177683,-0.000391688,-0.0122666,-0.000782518,124,260,-47.582,-47.582,-137.411,-137.411,1.968
1.49262,1.50368,1.03046,1.03626,-0.0178327,-0.000318707,-0.0123111,-0.000953542,125,260,-47.9222,-47.9222,-138.178,-138.178,1.972
1.49255,1.50368,1.03041,1.03626,-0.0178972,-0.000270053,-0.0123556,-0.00100998,126,261,-48.2648,-48.2648,-138.942,-138.942,1.976
1.49248,1.50368,1.03036,1.03625,-0.0179617,-0.000237618,-0.0124001,-0.00119155,127,261,-48.6097,-48.6097,-139.708,-139.708,1.98
1.49241,1.50368,1.03031,1.03625,-0.0180264,-0.000215994,-0.0124448,-0.00128382,127,262,-48.9566,-48.9566,-140.47,-140.47,1.984
1.49234,1.50367,1.03026,1.03624,-0.0180911,-0.000201578,-0.0124895,-0.0014029,128,263,-49.3054,-49.3054,-141.232,-141.232,1.988
1.49226,1.50367,1.03021,1.03623,-0.0181559,-0.000191967,-0.0125342,-0.00151109,129,263,-49.656,-49.656,-141.993,-141.993,1.992
1.49219,1.50367,1.03016,1.03623,-0.0182208,-0.00018556,-0.012579,-0.00166958,130,263,-50.0084,-50.0084,-142.754,-142.754,1.996
1.49212,1.50367,1.03011,1.03622,-0.0182858,-0.000210079,-0.0126239,-0.00177525,130,264,-50.3626,-50.3626,-143.512,-143.512,2
1.49204,1.50367,1.03006,1.03621,-0.0183508,-0.000255217,-0.0126688,-0.00187448,131,265,-50.7181,-50.7181,-144.269,-144.269,2.004
1.49197,1.50367,1.03,1.0362,-0.0184159,-0.000285308,-0.0127137,-0.00188305,132,266,-51.0748,-51.0748,-145.027,-145.027,2.008
1.4919,1.50367,1.02995,1.0362,-0.0184812,-0.000305369,-0.0127588,-0.0018024,132,269,-51.4329,-51.4329,-145.788,-145.788,2.012
1.49182,1.50367,1.0299,1.03619,-0.0185465,-0.000318743,-0.0128038,-0.00174863,133,271,-51.7924,-51.7924,-146.557,-146.557,2.016
1.49175,1.50367,1.02985,1.03618,-0.0186119,-0.00035645,-0.012849,-0.00151124,134,275,-52.1535,-52.1535,-147.332,-147.332,2.02
1.49167,1.50366,1.0298,1.03618,-0.0186773,-0.000352797,-0.0128942,-0.0012954,134,279,-52.5158,-52.5158,-148.121,-148.121,2.024
1.4916,1.50366,1.02975,1.03618,-0.0187429,-0.000321571,-0.0129394,-0.00103635,135,283,-52.88,-52.88,-148.924,-148.924,2.028
1.49152,1.50366,1.0297,1.03618,-0.0188085,-0.000300753,-0.0129848,-0.000777271,136,287,-53.2461,-53.2461,-149.742,-149.742,2.032
1.49145,1.50366,1.02964,1.03618,-0.0188742,-0.000286875,-0.0130301,-0.000575763,137,291,-53.6142,-53.6142,-150.576,-150.576,2.036
1.49137,1.50366,1.02959,1.03618,-0.01894,-0.000277623,-0.0130755,-0.000412633,138,294,-53.9842,-53.9842,-151.422,-151.422,2.04
1.4913,1.50366,1.02954,1.03618,-0.0190059,-0.000300246,-0.013121,-0.000303879,138,297,-54.356,-54.356,-152.279,-152.279,2.044
1.49122,1.50366,1.02949,1.03618,-0.0190719,-0.000286536,-0.0131666,-0.000260168,139,300,-54.7293,-54.7293,-153.146,-153.146,2.048
1.49114,1.50366,1.02943,1.03617,-0.0191379,-0.000306188,-0.0132122,-0.000259818,140,302,-55.1044,-55.1044,-154.018,-154.018,2.052
1.49107,1.50365,1.02938,1.03617,-0.019204,-0.000319289,-0.0132578,-0.000317167,140,303,-55.481,-55.481,-154.895,-154.895,2.056
1.49099,1.50365,1.02933,1.03617,-0.0192702,-0.000356814,-0.0133035,-0.00038419,141,304,-55.8592,-55.8592,-155.774,-155.774,2.06
1.49091,1.50365,1.02928,1.03617,-0.0193365,-0.00035304,-0.0133493,-0.000428872,142,306,-56.2387,-56.2387,-156.654,-156.654,2.064
1.49084,1.50365,1.02922,1.03617,-0.0194029,-0.000379314,-0.0133951,-0.000516242,143,307,-56.62,-56.62,-157.537,-157.537,2.068
1.49076,1.50365,1.02917,1.03616,-0.0194693,-0.00036804,-0.013441,-0.000545698,143,308,-57.0028,-57.0028,-158.421,-158.421,2.072
1.49068,1.50365,1.02911,1.03616,-0.0195359,-0.000418106,-0.0134869,-0.000594126,144,310,-57.3874,-57.3874,-159.308,-159.308,2.076
1.4906,1.50364,1.02906,1.03616,-0.0196025,-0.00036511,-0.0135329,-0.00059762,145,312,-57.7732,-57.7732,-160.197,-160.197,2.08
1.49052,1.50364,1.02901,1.03616,-0.0196691,-0.000329779,-0.0135789,-0.00059995,146,313,-58.1614,-58.1614,-161.091,-161.091,2.084
1.49044,1.50364,1.02895,1.03615,-0.0197359,-0.000248644,-0.013625,-0.000601503,147,315,-58.5518,-58.5518,-161.989,-161.989,2.088
1.49037,1.50364,1.0289,1.03615,-0.0198027,-0.000194553,-0.0136711,-0.000602539,148,317,-58.9449,-58.9449,-162.891,-162.891,2.092
1.49029,1.50364,1.02884,1.03615,-0.0198697,-0.000158493,-0.0137173,-0.000603229,149,319,-59.3404,-59.3404,-163.798,-163.798,2.096
1.49021,1.50364,1.02879,1.03615,-0.0199367,-0.000134453,-0.0137636,-0.000603689,150,321,-59.7381,-59.7381,-164.71,-164.71,2.1
1.49013,1.50364,1.02873,1.03614,-0.0200037,-0.000147217,-0.0138099,-0.000603996,150,323,-60.1378,-60.1378,-165.625,-165.625,2.104
1.49005,1.50364,1.02868,1.03614,-0.0200709,-0.000126936,-0.0138563,-0.000661782,151,324,-60.5392,-60.5392,-166.546,-166.546,2.108
1.48997,1.50364,1.02862,1.03614,-0.0201381,-0.000170997,-0.0139027,-0.000757888,152,325,-60.9425,-60.9425,-167.468,-167.468,2.112
1.48989,1.50364,1.02857,1.03613,-0.0202054,-0.000200371,-0.0139491,-0.00085075,153,326,-61.3472,-61.3472,-168.391,-168.391,2.116
1.4898,1.50364,1.02851,1.03613,-0.0202728,-0.000219953,-0.0139957,-0.000999031,153,327,-61.7534,-61.7534,-169.314,-169.314,2.12
1.48972,1.50364,1.02845,1.03612,-0.0203403,-0.000261799,-0.0140422,-0.00106909,154,328,-62.1611,-62.1611,-170.235,-170.235,2.124
1.48964,1.50364,1.0284,1.03612,-0.0204079,-0.000289696,-0.0140889,-0.00117338,155,329,-62.5702,-62.5702,-171.158,-171.158,2.128
1.48956,1.50363,1.02834,1.03611,-0.0204755,-0.000279504,-0.0141356,-0.00130049,156,330,-62.9808,-62.9808,-172.081,-172.081,2.132
1.48948,1.50363,1.02828,1.0361,-0.0205432,-0.000272709,-0.0141823,-0.00138523,157,331,-63.3933,-63.3933,-173.003,-173.003,2.136
1.4894,1.50363,1.02823,1.0361,-0.020611,-0.000296969,-0.0142291,-0.0015281,157,331,-63.8078,-63.8078,-173.926,-173.926,2.14
1.48931,1.50363,1.02817,1.03609,-0.0206788,-0.000284352,-0.0142759,-0.00159455,158,333,-64.2238,-64.2238,-174.848,-174.848,2.144
1.48923,1.50363,1.02811,1.03608,-0.0207468,-0.000304732,-0.0143228,-0.00161006,159,335,-64.6417,-64.6417,-175.771,-175.771,2.148
1.48915,1.50363,1.02806,1.03608,-0.0208148,-0.000318318,-0.0143698,-0.00156282,160,337,-65.0613,-65.0613,-176.698,-176.698,2.152
1.48906,1.50363,1.028,1.03607,-0.0208828,-0.000356167,-0.0144168,-0.00141616,161,340,-65.4826,-65.4826,-177.631,-177.631,2.156
1.48898,1.50362,1.02794,1.03607,-0.020951,-0.00041019,-0.0144639,-0.00126081,161,344,-65.9052,-65.9052,-178.576,-178.576,2.16
1.4889,1.50362,1.02788,1.03607,-0.0210193,-0.000474997,-0.014511,-0.00109966,162,347,-66.3291,-66.3291,-179.531,-179.531,2.164
1.48881,1.50362,1.02782,1.03606,-0.0210876,-0.000546992,-0.0145581,-0.00090585,163,351,-66.7541,-66.7541,-180.499,-180.499,2.168
1.48873,1.50362,1.02777,1.03606,-0.021156,-0.000594989,-0.0146053,-0.000776646,163,354,-67.1801,-67.1801,-181.478,-181.478,2.172
1.48864,1.50361,1.02771,1.03606,-0.0212244,-0.000626986,-0.0146526,-0.000604137,164,358,-67.6074,-67.6074,-182.469,-182.469,2.176
1.48856,1.50361,1.02765,1.03606,-0.021293,-0.000590737,-0.0146999,-0.000517921,165,361,-68.0362,-68.0362,-183.471,-183.471,2.18
1.48847,1.50361,1.02759,1.03606,-0.0213616,-0.000508988,-0.0147473,-0.000460445,166,364,-68.4674,-68.4674,-184.481,-184.481,2.184
1.48839,1.50361,1.02753,1.03606,-0.0214303,-0.000396907,-0.0147947,-0.000479709,167,366,-68.9014,-68.9014,-185.499,-185.499,2.188
1.4883,1.50361,1.02747,1.03605,-0.021499,-0.000293396,-0.0148422,-0.000492551,168,368,-69.3385,-69.3385,-186.52,-186.52,2.192
1.48821,1.50361,1.02741,1.03605,-0.0215679,-0.000224388,-0.0148897,-0.000529904,169,369,-69.7787,-69.7787,-187.546,-187.546,2.196
1.48813,1.50361,1.02735,1.03605,-0.0216368,-0.000178383,-0.0149373,-0.000554806,170,371,-70.2216,-70.2216,-188.574,-188.574,2.2
1.48804,1.50361,1.02729,1.03605,-0.0217058,-0.000147713,-0.0149849,-0.000571407,171,373,-70.6669,-70.6669,-189.607,-189.607,2.204
1.48795,1.50361,1.02723,1.03605,-0.0217749,-0.000127266,-0.0150326,-0.000553684,172,376,-71.1144,-71.1144,-190.644,-190.644,2.208
1.48787,1.50361,1.02717,1.03604,-0.021844,-0.000142426,-0.0150803,-0.000541868,173,378,-71.564,-71.564,-191.686,-191.686,2.212
1.48778,1.50361,1.02711,1.03604,-0.0219132,-0.000152533,-0.0151281,-0.000533991,174,380,-72.0154,-72.0154,-192.734,-192.734,2.216
1.48769,1.50361,1.02705,1.03604,-0.0219825,-0.000188061,-0.015176,-0.00055753,175,382,-72.4686,-72.4686,-193.787,-193.787,2.22
1.4876,1.5036,1.02699,1.03604,-0.0220519,-0.000269329,-0.0152238,-0.000602014,175,384,-72.9232,-72.9232,-194.844,-194.844,2.224
1.48752,1.5036,1.02693,1.03603,-0.0221213,-0.000352298,-0.0152718,-0.000602879,176,386,-73.3789,-73.3789,-195.903,-195.903,2.228
1.48743,1.5036,1.02687,1.03603,-0.0221908,-0.000407611,-0.0153198,-0.000689829,177,387,-73.8355,-73.8355,-196.968,-196.968,2.232
1.48734,1.5036,1.02681,1.03603,-0.0222604,-0.000415695,-0.0153678,-0.000747795,178,389,-74.2934,-74.2934,-198.033,-198.033,2.236
1.48725,1.5036,1.02675,1.03602,-0.0223301,-0.000449876,-0.0154159,-0.000728857,179,391,-74.7532,-74.7532,-199.102,-199.102,2.24
1.48716,1.50359,1.02668,1.03602,-0.0223998,-0.000415081,-0.015464,-0.000831396,180,392,-75.2146,-75.2146,-200.175,-200.175,2.244
1.48707,1.50359,1.02662,1.03602,-0.0224696,-0.000363093,-0.0155122,-0.000957337,181,393,-75.6783,-75.6783,-201.249,-201.249,2.248
1.48698,1.50359,1.02656,1.03601,-0.0225395,-0.000328435,-0.0155605,-0.00107009,182,394,-76.1446,-76.1446,-202.323,-202.323,2.252
1.48689,1.50359,1.0265,1.036,-0.0226094,-0.000276539,-0.0156087,-0.00120284,183,395,-76.6132,-76.6132,-203.397,-203.397,2.256
1.4868,1.50359,1.02643,1.036,-0.0226794,-0.000241941,-0.0156571,-0.00132013,184,396,-77.0844,-77.0844,-204.47,-204.47,2.26
1.48671,1.50359,1.02637,1.03599,-0.0227495,-0.000190085,-0.0157055,-0.00159986,185,396,-77.5579,-77.5579,-205.542,-205.542,2.264
1.48662,1.50359,1.02631,1.03598,-0.0228197,-0.000184305,-0.0157539,-0.00207425,186,393,-78.034,-78.034,-206.607,-206.607,2.268
1.48653,1.50359,1.02625,1.03596,-0.0228899,-0.000180452,-0.0158024,-0.00267843,187,389,-78.5122,-78.5122,-207.656,-207.656,2.272
1.48643,1.50359,1.02618,1.03594,-0.0229602,-0.000206674,-0.0158509,-0.00328275,187,386,-78.9923,-78.9923,-208.684,-208.684,2.276
1.48634,1.50359,1.02612,1.03592,-0.0230306,-0.000224155,-0.0158995,-0.00394474,188,381,-79.4742,-79.4742,-209.691,-209.691,2.28
1.48625,1.50359,1.02606,1.0359,-0.023101,-0.000264601,-0.0159482,-0.0046164,189,377,-79.9579,-79.9579,-210.674,-210.674,2.284
1.48616,1.50358,1.02599,1.03587,-0.0231715,-0.000291564,-0.0159968,-0.00543846,190,371,-80.4432,-80.4432,-211.633,-211.633,2.288
1.48606,1.50358,1.02593,1.03584,-0.0232421,-0.000280749,-0.0160456,-0.00647594,191,362,-80.9302,-80.9302,-212.56,-212.56,2.292
1.48597,1.50358,1.02586,1.0358,-0.0233128,-0.00030233,-0.0160943,-0.00765704,192,353,-81.4193,-81.4193,-213.447,-213.447,2.296
1.48588,1.50358,1.0258,1.03575,-0.0233835,-0.000287926,-0.0161432,-0.00907784,193,341,-81.9103,-81.9103,-214.287,-214.287,2.3
1.48578,1.50358,1.02573,1.03569,-0.0234543,-0.000249532,-0.0161921,-0.0107448,194,326,-82.4036,-82.4036,-215.069,-215.069,2.304
1.48569,1.50358,1.02567,1.03563,-0.0235252,-0.000252728,-0.016241,-0.0125471,195,310,-82.8994,-82.8994,-215.783,-215.783,2.308
1.4856,1.50358,1.0256,1.03555,-0.0235961,-0.000226067,-0.01629,-0.0146412,196,291,-83.3973,-83.3973,-216.423,-216.423,2.312
1.4855,1.50358,1.02554,1.03547,-0.0236671,-0.000208293,-0.016339,-0.0167858,197,271,-83.8976,-83.8976,-216.977,-216.977,2.316
1.48541,1.50358,1.02547,1.03537,-0.0237382,-0.000196444,-0.0163881,-0.019108,198,249,-84.4003,-84.4003,-217.441,-217.441,2.32
1.48531,1.50358,1.02541,1.03527,-0.0238094,-0.000217335,-0.0164372,-0.0215775,199,226,-84.9053,-84.9053,-217.807,-217.807,2.324
1.48522,1.50358,1.02534,1.03515,-0.0238806,-0.000231263,-0.0164863,-0.024433,200,199,-85.4123,-85.4123,-218.069,-218.069,2.328
1.48512,1.50357,1.02528,1.03502,-0.0239519,-0.000240548,-0.0165356,-0.0270853,201,173,-85.9214,-85.9214,-218.21,-218.21,2.332
1.48502,1.50357,1.02521,1.03488,-0.0240232,-0.000217947,-0.0165848,-0.0294869,202,150,-86.4326,-86.4326,-218.239,-218.239,2.336
1.48493,1.50357,1.02514,1.03474,-0.0240947,-0.000260462,-0.0166341,-0.0315198,203,130,-86.9464,-86.9464,-218.167,-218.167,2.34
1.48483,1.50357,1.02508,1.03459,-0.0241662,-0.000260014,-0.0166835,-0.0331629,204,114,-87.462,-87.462,-218.008,-218.008,2.344
1.48473,1.50357,1.02501,1.03444,-0.0242377,-0.000317297,-0.0167329,-0.0347191,205,98,-87.9798,-87.9798,-217.778,-217.778,2.348
1.48464,1.50357,1.02494,1.03429,-0.0243094,-0.000326695,-0.0167823,-0.0359004,206,86,-88.4994,-88.4994,-217.482,-217.482,2.352
1.48454,1.50357,1.02488,1.03414,-0.0243811,-0.000332961,-0.0168318,-0.0365152,207,79,-89.0211,-89.0211,-217.135,-217.135,2.356
1.48444,1.50356,1.02481,1.03398,-0.0244528,-0.000365928,-0.0168814,-0.0370403,208,73,-89.5452,-89.5452,-216.76,-216.76,2.36
1.48434,1.50356,1.02474,1.03383,-0.0245247,-0.000416698,-0.016931,-0.0372752,209,70,-90.0711,-90.0711,-216.361,-216.361,2.364
1.48425,1.50356,1.02467,1.03368,-0.0245966,-0.000450544,-0.0169806,-0.037403,210,68,-90.5988,-90.5988,-215.952,-215.952,2.368
1.48415,1.50356,1.0246,1.03353,-0.0246685,-0.00053069,-0.0170303,-0.037229,211,69,-91.1285,-91.1285,-215.535,-215.535,2.372
1.48405,1.50356,1.02454,1.03339,-0.0247406,-0.000584121,-0.01708,-0.037257,212,68,-91.6596,-91.6596,-215.123,-215.123,2.376
1.48395,1.50355,1.02447,1.03324,-0.0248127,-0.000677323,-0.0171298,-0.037103,212,68,-92.1923,-92.1923,-214.709,-214.709,2.38
1.48385,1.50355,1.0244,1.03309,-0.0248848,-0.000768249,-0.0171796,-0.0372306,213,66,-92.7264,-92.7264,-214.299,-214.299,2.384
1.48375,1.50354,1.02433,1.03294,-0.0249571,-0.000886448,-0.0172295,-0.0373156,214,65,-93.2617,-93.2617,-213.882,-213.882,2.388
1.48365,1.50354,1.02426,1.03279,-0.0250294,-0.000936456,-0.0172794,-0.037286,215,64,-93.7981,-93.7981,-213.46,-213.46,2.392
1.48355,1.50353,1.02419,1.03264,-0.0251018,-0.000998586,-0.0173294,-0.0373526,216,63,-94.3362,-94.3362,-213.037,-213.037,2.396
1.48345,1.50353,1.02412,1.03249,-0.0251742,-0.0010688,-0.0173794,-0.0372242,217,63,-94.876,-94.876,-212.61,-212.61,2.4
1.48335,1.50352,1.02405,1.03234,-0.0252467,-0.00117319,-0.0174294,-0.0374266,218,60,-95.4172,-95.4172,-212.186,-212.186,2.404
1.48325,1.50352,1.02398,1.03219,-0.0253193,-0.00127157,-0.0174795,-0.0373024,218,61,-95.9597,-95.9597,-211.753,-211.753,2.408
1.48315,1.50351,1.02391,1.03204,-0.0253919,-0.00133716,-0.0175297,-0.0373347,219,60,-96.5034,-96.5034,-211.322,-211.322,2.412
1.48304,1.50351,1.02384,1.03189,-0.0254646,-0.00135209,-0.0175799,-0.0372987,220,59,-97.0487,-97.0487,-210.889,-210.889,2.416
1.48294,1.5035,1.02377,1.03175,-0.0255374,-0.00133326,-0.0176301,-0.0371307,221,60,-97.5962,-97.5962,-210.455,-210.455,2.42
1.48284,1.5035,1.0237,1.03159,-0.0256102,-0.00126312,-0.0176804,-0.0374218,223,56,-98.1464,-98.1464,-210.027,-210.027,2.424
1.48274,1.50349,1.02363,1.03145,-0.0256831,-0.0011012,-0.0177307,-0.0369537,224,60,-98.6999,-98.6999,-209.585,-209.585,2.428
1.48264,1.50349,1.02356,1.03131,-0.0257561,-0.00093567,-0.0177811,-0.0365265,226,63,-99.2577,-99.2577,-209.162,-209.162,2.432
1.48253,1.50349,1.02349,1.03117,-0.0258291,-0.000710152,-0.0178315,-0.0360113,227,68,-99.8199,-99.8199,-208.756,-208.756,2.436
1.48243,1.50349,1.02342,1.03103,-0.0259022,-0.000473435,-0.017882,-0.0353799,229,73,-100.387,-100.387,-208.37,-208.37,2.44
1.48232,1.50349,1.02335,1.0309,-0.0259753,-0.000344414,-0.0179325,-0.0349015,231,77,-100.959,-100.959,-208.01,-208.01,2.444
1.48222,1.50349,1.02327,1.03076,-0.0260486,-0.00022961,-0.017983,-0.0342658,232,83,-101.536,-101.536,-207.669,-207.669,2.448
1.48212,1.50349,1.0232,1.03063,-0.0261219,-0.000153073,-0.0180336,-0.0337268,233,87,-102.116,-102.116,-207.354,-207.354,2.452
1.48201,1.50349,1.02313,1.0305,-0.0261952,-0.000159631,-0.0180843,-0.0333963,235,90,-102.699,-102.699,-207.061,-207.061,2.456
1.48191,1.50349,1.02306,1.03038,-0.0262686,-0.000135211,-0.0181349,-0.0328305,236,95,-103.285,-103.285,-206.781,-206.781,2.46
1.4818,1.50349,1.02298,1.03025,-0.0263421,-0.000176514,-0.0181857,-0.0326548,237,96,-103.873,-103.873,-206.524,-206.524,2.464
1.4817,1.50349,1.02291,1.03012,-0.0264156,-0.000232839,-0.0182364,-0.0323649,238,99,-104.464,-104.464,-206.274,-206.274,2.468
1.48159,1.50349,1.02284,1.02999,-0.0264892,-0.000327972,-0.0182873,-0.0319126,239,103,-105.056,-105.056,-206.036,-206.036,2.472
1.48148,1.50348,1.02277,1.02987,-0.0265629,-0.000391393,-0.0183381,-0.0315534,240,106,-105.649,-105.649,-205.816,-205.816,2.476
1.48138,1.50348,1.02269,1.02975,-0.0266366,-0.000462465,-0.018389,-0.0312852,241,108,-106.245,-106.245,-205.611,-205.611,2.48
1.48127,1.50348,1.02262,1.02963,-0.0267104,-0.000509847,-0.01844,-0.0309912,242,111,-106.842,-106.842,-205.417,-205.417,2.484
1.48116,1.50348,1.02254,1.0295,-0.0267843,-0.000512643,-0.0184909,-0.0309391,243,111,-107.441,-107.441,-205.235,-205.235,2.488
1.48106,1.50347,1.02247,1.02938,-0.0268582,-0.000514508,-0.018542,-0.0307605,244,112,-108.042,-108.042,-205.055,-205.055,2.492
1.48095,1.50347,1.0224,1.02926,-0.0269322,-0.000458169,-0.018593,-0.0306126,245,114,-108.646,-108.646,-204.883,-204.883,2.496
1.48084,1.50347,1.02232,1.02914,-0.0270062,-0.00042061,-0.0186442,-0.0308019,247,112,-109.253,-109.253,-204.716,-204.716,2.5
1.48073,1.50347,1.02225,1.02901,-0.0270803,-0.000366779,-0.0186953,-0.0307842,248,112,-109.863,-109.863,-204.541,-204.541,2.504
1.48062,1.50347,1.02217,1.02889,-0.0271545,-0.000330892,-0.0187465,-0.0311466,249,108,-110.477,-110.477,-204.366,-204.366,2.508
1.48052,1.50347,1.0221,1.02876,-0.0272287,-0.000306968,-0.0187978,-0.0315322,250,104,-111.093,-111.093,-204.175,-204.175,2.512
1.48041,1.50347,1.02202,1.02863,-0.027303,-0.000291018,-0.0188491,-0.0317605,252,101,-111.712,-111.712,-203.968,-203.968,2.516
1.4803,1.50347,1.02195,1.0285,-0.0273774,-0.000280385,-0.0189004,-0.0319127,253,100,-112.333,-112.333,-203.751,-203.751,2.52
1.48019,1.50346,1.02187,1.02837,-0.0274518,-0.000359669,-0.0189518,-0.0323308,254,95,-112.958,-112.958,-203.526,-203.526,2.524
1.48008,1.50346,1.02179,1.02824,-0.0275263,-0.000326152,-0.0190032,-0.0321202,255,97,-113.584,-113.584,-203.285,-203.285,2.528
1.47997,1.50346,1.02172,1.0281,-0.0276008,-0.000332598,-0.0190546,-0.0326419,256,91,-114.213,-114.213,-203.051,-203.051,2.532
1.47986,1.50346,1.02164,1.02798,-0.0276754,-0.000423269,-0.0191061,-0.0325003,257,92,-114.844,-114.844,-202.795,-202.795,2.536
1.47975,1.50346,1.02157,1.02785,-0.02775,-0.000454925,-0.0191577,-0.0323771,259,93,-115.477,-115.477,-202.545,-202.545,2.54
1.47964,1.50345,1.02149,1.02772,-0.0278248,-0.000476029,-0.0192093,-0.0323237,260,93,-116.113,-116.113,-202.3,-202.3,2.544
1.47952,1.50345,1.02141,1.0276,-0.0278995,-0.000461307,-0.0192609,-0.0317411,261,99,-116.75,-116.75,-202.058,-202.058,2.548
1.47941,1.50345,1.02133,1.02747,-0.0279744,-0.000480284,-0.0193125,-0.0314679,262,101,-117.391,-117.391,-201.839,-201.839,2.552
1.4793,1.50345,1.02126,1.02735,-0.0280493,-0.000521726,-0.0193642,-0.0314297,263,101,-118.033,-118.033,-201.632,-201.632,2.556
1.47919,1.50345,1.02118,1.02722,-0.0281242,-0.000549353,-0.019416,-0.0310875,264,104,-118.678,-118.678,-201.427,-201.427,2.56
1.47907,1.50344,1.0211,1.0271,-0.0281992,-0.000654145,-0.0194678,-0.0308019,265,107,-119.325,-119.325,-201.236,-201.236,2.564
1.47896,1.50344,1.02102,1.02698,-0.0282743,-0.000637633,-0.0195196,-0.030669,267,108,-119.974,-119.974,-201.057,-201.057,2.568
1.47885,1.50344,1.02095,1.02686,-0.0283495,-0.000712998,-0.0195715,-0.0306956,268,108,-120.625,-120.625,-200.883,-200.883,2.572
1.47874,1.50343,1.02087,1.02674,-0.0284247,-0.000792032,-0.0196234,-0.0307133,269,107,-121.278,-121.278,-200.708,-200.708,2.576
1.47862,1.50343,1.02079,1.02661,-0.0284999,-0.000815931,-0.0196754,-0.0308402,270,106,-121.933,-121.933,-200.532,-200.532,2.58
1.47851,1.50343,1.02071,1.02649,-0.0285752,-0.000774281,-0.0197273,-0.0307522,271,107,-122.59,-122.59,-200.351,-200.351,2.584
1.47839,1.50342,1.02063,1.02637,-0.0286506,-0.000775306,-0.0197794,-0.0308374,273,106,-123.25,-123.25,-200.174,-200.174,2.588
1.47828,1.50342,1.02055,1.02624,-0.028726,-0.000718407,-0.0198315,-0.030779,274,106,-123.913,-123.913,-199.994,-199.994,2.592
1.47816,1.50342,1.02047,1.02612,-0.0288015,-0.000709265,-0.0198836,-0.0303658,275,110,-124.579,-124.579,-199.816,-199.816,2.596
1.47805,1.50342,1.02039,1.02601,-0.0288771,-0.000703171,-0.0199357,-0.030148,277,112,-125.248,-125.248,-199.657,-199.657,2.6
1.47793,1.50341,1.02031,1.02589,-0.0289527,-0.000699108,-0.0199879,-0.0297724,278,115,-125.919,-125.919,-199.506,-199.506,2.604
1.47782,1.50341,1.02023,1.02578,-0.0290283,-0.000753981,-0.0200402,-0.028831,279,124,-126.594,-126.594,-199.374,-199.374,2.608
1.4777,1.50341,1.02015,1.02568,-0.029104,-0.000761773,-0.0200924,-0.0280307,280,132,-127.27,-127.27,-199.281,-199.281,2.612
1.47758,1.5034,1.02007,1.02557,-0.0291798,-0.000824549,-0.0201447,-0.0272093,281,140,-127.949,-127.949,-199.223,-199.223,2.616
1.47747,1.5034,1.01999,1.02548,-0.0292557,-0.00089519,-0.0201971,-0.0263449,282,149,-128.629,-128.629,-199.202,-199.202,2.62
1.47735,1.50339,1.01991,1.02538,-0.0293316,-0.00102866,-0.0202495,-0.0256535,283,156,-129.312,-129.312,-199.217,-199.217,2.624
1.47723,1.50339,1.01983,1.02528,-0.0294075,-0.00103126,-0.0203019,-0.0251926,285,161,-129.995,-129.995,-199.263,-199.263,2.628
1.47711,1.50338,1.01975,1.02519,-0.0294835,-0.00114816,-0.0203544,-0.0247414,286,165,-130.681,-130.681,-199.329,-199.329,2.632
1.477,1.50338,1.01967,1.02509,-0.0295596,-0.00113972,-0.0204069,-0.0242966,287,170,-131.369,-131.369,-199.416,-199.416,2.636
1.47688,1.50337,1.01959,1.025,-0.0296357,-0.0011341,-0.0204595,-0.0242304,288,171,-132.059,-132.059,-199.523,-199.523,2.64
1.47676,1.50337,1.0195,1.0249,-0.0297119,-0.00110156,-0.020512,-0.0242438,290,171,-132.752,-132.752,-199.633,-199.633,2.644
1.47664,1.50337,1.01942,1.0248,-0.0297881,-0.000964698,-0.0205647,-0.0242528,291,172,-133.448,-133.448,-199.745,-199.745,2.648
1.47652,1.50337,1.01934,1.0247,-0.0298644,-0.00087346,-0.0206173,-0.0243164,293,172,-134.148,-134.148,-199.858,-199.858,2.652
1.4764,1.50336,1.01926,1.0246,-0.0299407,-0.000841425,-0.02067,-0.0244739,294,171,-134.852,-134.852,-199.969,-199.969,2.656
1.47628,1.50336,1.01917,1.02451,-0.0300171,-0.000791277,-0.0207228,-0.0246077,296,170,-135.559,-135.559,-200.075,-200.075,2.66
1.47616,1.50336,1.01909,1.02441,-0.0300936,-0.000757846,-0.0207756,-0.0243802,297,172,-136.27,-136.27,-200.178,-200.178,2.664
1.47604,1.50335,1.01901,1.02432,-0.0301701,-0.00079314,-0.0208284,-0.0240558,298,176,-136.983,-136.983,-200.292,-200.292,2.668
1.47592,1.50335,1.01892,1.02422,-0.0302467,-0.000816669,-0.0208813,-0.023782,299,179,-137.699,-137.699,-200.421,-200.421,2.672
1.4758,1.50335,1.01884,1.02413,-0.0303233,-0.000832355,-0.0209342,-0.0234267,301,183,-138.417,-138.417,-200.564,-200.564,2.676
1.47568,1.50334,1.01876,1.02404,-0.0304,-0.000871604,-0.0209871,-0.0230746,302,187,-139.137,-139.137,-200.724,-200.724,2.68
1.47555,1.50334,1.01867,1.02396,-0.0304767,-0.000897769,-0.0210401,-0.0225808,303,192,-139.86,-139.86,-200.9,-200.9,2.684
1.47543,1.50333,1.01859,1.02387,-0.0305535,-0.000944004,-0.0210931,-0.0223092,304,196,-140.585,-140.585,-201.1,-201.1,2.688
1.47531,1.50333,1.0185,1.02378,-0.0306303,-0.00103241,-0.0211461,-0.0220417,306,199,-141.313,-141.313,-201.312,-201.312,2.692
1.47519,1.50332,1.01842,1.0237,-0.0307072,-0.00114893,-0.0211992,-0.0216043,307,204,-142.042,-142.042,-201.539,-201.539,2.696
1.47506,1.50332,1.01833,1.02362,-0.0307842,-0.0012554,-0.0212523,-0.0214567,308,206,-142.772,-142.772,-201.786,-201.786,2.7
1.47494,1.50331,1.01825,1.02353,-0.0308612,-0.00141275,-0.0213055,-0.0213582,309,208,-143.504,-143.504,-202.041,-202.041,2.704
1.47482,1.50331,1.01816,1.02345,-0.0309382,-0.00146007,-0.0213587,-0.0211486,310,211,-144.236,-144.236,-202.302,-202.302,2.708
1.47469,1.5033,1.01808,1.02337,-0.0310153,-0.00146283,-0.0214119,-0.0209513,311,213,-144.971,-144.971,-202.575,-202.575,2.712
1.47457,1.50329,1.01799,1.02329,-0.0310925,-0.00143587,-0.0214652,-0.0205895,313,218,-145.709,-145.709,-202.859,-202.859,2.716
1.47445,1.50329,1.01791,1.02321,-0.0311697,-0.00150428,-0.0215185,-0.0204058,314,220,-146.449,-146.449,-203.161,-203.161,2.72
1.47432,1.50328,1.01782,1.02313,-0.031247,-0.00160746,-0.0215719,-0.0201394,315,224,-147.191,-147.191,-203.473,-203.473,2.724
1.4742,1.50327,1.01773,1.02305,-0.0313243,-0.00158988,-0.0216252,-0.0196739,316,229,-147.935,-147.935,-203.799,-203.799,2.728
1.47407,1.50327,1.01765,1.02298,-0.0314017,-0.00154936,-0.0216787,-0.0191332,318,235,-148.682,-148.682,-204.148,-204.148,2.732
1.47394,1.50326,1.01756,1.02291,-0.0314791,-0.00157994,-0.0217321,-0.0185713,319,242,-149.432,-149.432,-204.522,-204.522,2.736
1.47382,1.50326,1.01747,1.02284,-0.0315566,-0.00151395,-0.0217856,-0.0180239,320,248,-150.184,-150.184,-204.923,-204.923,2.74
1.47369,1.50325,1.01739,1.02278,-0.0316342,-0.00155632,-0.0218391,-0.0176013,322,253,-150.94,-150.94,-205.351,-205.351,2.744
1.47356,1.50324,1.0173,1.02271,-0.0317117,-0.00155579,-0.0218927,-0.0171181,323,259,-151.698,-151.698,-205.799,-205.799,2.748
1.47344,1.50324,1.01721,1.02265,-0.0317894,-0.00158422,-0.0219463,-0.0168248,324,263,-152.459,-152.459,-206.271,-206.271,2.752
1.47331,1.50323,1.01712,1.02258,-0.0318671,-0.00166076,-0.0219999,-0.0167156,326,266,-153.222,-153.222,-206.758,-206.758,2.756
1.47318,1.50322,1.01703,1.02251,-0.0319448,-0.00176936,-0.0220536,-0.0167867,327,266,-153.986,-153.986,-207.252,-207.252,2.76
1.47306,1.50321,1.01695,1.02244,-0.0320226,-0.00189935,-0.0221073,-0.0169493,328,266,-154.753,-154.753,-207.747,-207.747,2.764
1.47293,1.5032,1.01686,1.02237,-0.0321005,-0.00204359,-0.0221611,-0.0171153,329,265,-155.52,-155.52,-208.238,-208.238,2.768
1.4728,1.50319,1.01677,1.02231,-0.0321784,-0.00222612,-0.0222148,-0.0171396,330,266,-156.288,-156.288,-208.726,-208.726,2.772
1.47267,1.50318,1.01668,1.02224,-0.0322563,-0.00243418,-0.0222686,-0.017271,330,266,-157.057,-157.057,-209.216,-209.216,2.776
1.47254,1.50317,1.01659,1.02216,-0.0323343,-0.00274563,-0.0223225,-0.0173873,331,266,-157.826,-157.826,-209.703,-209.703,2.78
1.47241,1.50315,1.0165,1.02209,-0.0324124,-0.00309722,-0.0223764,-0.0175513,331,266,-158.594,-158.594,-210.188,-210.188,2.784
1.47228,1.50313,1.01641,1.02202,-0.0324905,-0.00356194,-0.0224303,-0.0176606,331,266,-159.36,-159.36,-210.67,-210.67,2.788
1.47215,1.50311,1.01632,1.02195,-0.0325686,-0.00421725,-0.0224843,-0.0176471,331,267,-160.123,-160.123,-211.151,-211.151,2.792
1.47202,1.50309,1.01623,1.02188,-0.0326468,-0.00499961,-0.0225382,-0.0177244,330,268,-160.881,-160.881,-211.635,-211.635,2.796
1.47189,1.50305,1.01614,1.02181,-0.0327251,-0.00598184,-0.0225923,-0.0178624,329,268,-161.632,-161.632,-212.119,-212.119,2.8
1.47176,1.50302,1.01605,1.02173,-0.0328034,-0.00718368,-0.0226463,-0.0179543,327,268,-162.373,-162.373,-212.601,-212.601,2.804
1.47163,1.50297,1.01596,1.02166,-0.0328817,-0.00850315,-0.0227004,-0.0178429,325,270,-163.103,-163.103,-213.082,-213.082,2.808
1.4715,1.50292,1.01587,1.02159,-0.0329601,-0.010045,-0.0227545,-0.0177686,322,272,-163.819,-163.819,-213.571,-213.571,2.812
1.47136,1.50286,1.01578,1.02152,-0.0330386,-0.011879,-0.0228087,-0.0176615,318,275,-164.518,-164.518,-214.067,-214.067,2.816
1.47123,1.50279,1.01569,1.02145,-0.0331171,-0.0138791,-0.0228629,-0.0175901,314,277,-165.197,-165.197,-214.571,-214.571,2.82
1.4711,1.5027,1.0156,1.02138,-0.0331957,-0.0163065,-0.0229171,-0.0175713,308,278,-165.854,-165.854,-215.08,-215.08,2.824
1.47097,1.5026,1.0155,1.02131,-0.0332743,-0.0190764,-0.0229714,-0.0175012,302,280,-166.484,-166.484,-215.594,-215.594,2.828
1.47083,1.50249,1.01541,1.02125,-0.0333529,-0.0217867,-0.0230257,-0.0174256,295,282,-167.082,-167.082,-216.115,-216.115,2.832
1.4707,1.50237,1.01532,1.02118,-0.0334316,-0.0248316,-0.02308,-0.0172601,288,285,-167.649,-167.649,-216.642,-216.642,2.836
1.47056,1.50223,1.01523,1.02111,-0.0335104,-0.0281572,-0.0231344,-0.017121,280,288,-168.18,-168.18,-217.179,-217.179,2.84
1.47043,1.50208,1.01513,1.02104,-0.0335892,-0.0314107,-0.0231888,-0.0170858,272,289,-168.673,-168.673,-217.726,-217.726,2.844
1.4703,1.50191,1.01504,1.02097,-0.033668,-0.035048,-0.0232432,-0.0170048,262,291,-169.127,-169.127,-218.278,-218.278,2.848
1.47016,1.50173,1.01495,1.02091,-0.0337469,-0.0385957,-0.0232977,-0.0168932,253,294,-169.539,-169.539,-218.837,-218.837,2.852
1.47003,1.50153,1.01486,1.02084,-0.0338258,-0.0421413,-0.0233522,-0.0167612,244,296,-169.909,-169.909,-219.405,-219.405,2.856
1.46989,1.50132,1.01476,1.02077,-0.0339048,-0.0455991,-0.0234067,-0.0168171,235,297,-170.236,-170.236,-219.981,-219.981,2.86
1.46975,1.5011,1.01467,1.0207,-0.0339839,-0.0491135,-0.0234613,-0.0170272,226,297,-170.523,-170.523,-220.558,-220.558,2.864
1.46962,1.50086,1.01457,1.02063,-0.0340629,-0.0527232,-0.0235159,-0.017196,216,296,-170.767,-170.767,-221.13,-221.13,2.868
1.46948,1.50061,1.01448,1.02057,-0.0341421,-0.055648,-0.0235705,-0.0171934,208,298,-170.968,-170.968,-221.698,-221.698,2.872
1.46935,1.50035,1.01439,1.0205,-0.0342213,-0.0589797,-0.0236252,-0.0172205,199,299,-171.133,-171.133,-222.271,-222.271,2.876
1.46921,1.50007,1.01429,1.02043,-0.0343005,-0.0620647,-0.0236799,-0.01744,191,298,-171.258,-171.258,-222.845,-222.845,2.88
1.46907,1.49979,1.0142,1.02035,-0.0343798,-0.0650138,-0.0237346,-0.0177879,183,296,-171.345,-171.345,-223.413,-223.413,2.884
1.46893,1.4995,1.0141,1.02027,-0.0344591,-0.0677284,-0.0237894,-0.0182214,175,293,-171.396,-171.396,-223.97,-223.97,2.888
1.4688,1.4992,1.01401,1.0202,-0.0345384,-0.0702004,-0.0238442,-0.0184816,168,292,-171.414,-171.414,-224.512,-224.512,2.892
1.46866,1.49889,1.01391,1.02012,-0.0346179,-0.0727985,-0.023899,-0.018799,161,290,-171.4,-171.4,-225.046,-225.046,2.896
1.46852,1.49857,1.01381,1.02004,-0.0346973,-0.0751639,-0.0239538,-0.0190394,154,289,-171.355,-171.355,-225.57,-225.57,2.9
1.46838,1.49824,1.01372,1.01996,-0.0347768,-0.0773167,-0.0240087,-0.0192861,148,288,-171.279,-171.279,-226.087,-226.087,2.904
1.46824,1.49791,1.01362,1.01989,-0.0348564,-0.0790686,-0.0240636,-0.0194217,143,288,-171.177,-171.177,-226.597,-226.597,2.908
1.4681,1.49757,1.01353,1.0198,-0.034936,-0.081273,-0.0241186,-0.0196561,136,287,-171.052,-171.052,-227.105,-227.105,2.912
1.46796,1.49722,1.01343,1.01972,-0.0350156,-0.082829,-0.0241736,-0.0198987,131,286,-170.899,-170.899,-227.605,-227.605,2.916
1.46782,1.49687,1.01333,1.01964,-0.0350953,-0.0846148,-0.0242286,-0.0202332,126,284,-170.725,-170.725,-228.098,-228.098,2.92
1.46768,1.49651,1.01324,1.01955,-0.0351751,-0.0860645,-0.0242836,-0.0205426,121,282,-170.528,-170.528,-228.58,-228.58,2.924
1.46754,1.49615,1.01314,1.01947,-0.0352548,-0.0874629,-0.0243387,-0.0205185,117,283,-170.311,-170.311,-229.053,-229.053,2.928
1.4674,1.49579,1.01304,1.01939,-0.0353347,-0.0885103,-0.0243938,-0.0204737,113,285,-170.077,-170.077,-229.53,-229.53,2.932
1.46726,1.49542,1.01294,1.01931,-0.0354145,-0.0896116,-0.024449,-0.0205013,110,286,-169.827,-169.827,-230.012,-230.012,2.936
1.46711,1.49505,1.01285,1.01923,-0.0354945,-0.0906337,-0.0245041,-0.020491,106,287,-169.562,-169.562,-230.495,-230.495,2.94
1.46697,1.49468,1.01275,1.01915,-0.0355744,-0.0914591,-0.0245593,-0.0203978,103,289,-169.283,-169.283,-230.983,-230.983,2.944
1.46683,1.4943,1.01265,1.01907,-0.0356544,-0.0922397,-0.0246146,-0.0203932,100,290,-168.991,-168.991,-231.477,-231.477,2.948
1.46669,1.49392,1.01255,1.01898,-0.0357345,-0.0933647,-0.0246698,-0.0204765,96,291,-168.688,-168.688,-231.974,-231.974,2.952
1.46654,1.49354,1.01245,1.0189,-0.0358146,-0.0939131,-0.0247251,-0.0204744,94,292,-168.369,-168.369,-232.471,-232.471,2.956
1.4664,1.49316,1.01235,1.01882,-0.0358947,-0.0943651,-0.0247805,-0.0203291,92,295,-168.041,-168.041,-232.972,-232.972,2.96
1.46626,1.49278,1.01225,1.01874,-0.0359749,-0.0948968,-0.0248358,-0.0200595,89,298,-167.706,-167.706,-233.482,-233.482,2.964
1.46611,1.49239,1.01215,1.01867,-0.0360551,-0.0953376,-0.0248912,-0.0197934,87,302,-167.361,-167.361,-234.007,-234.007,2.968
1.46597,1.492,1.01205,1.01859,-0.0361354,-0.0960058,-0.0249466,-0.0196735,85,305,-167.009,-167.009,-234.547,-234.547,2.972
1.46582,1.49162,1.01195,1.01851,-0.0362157,-0.0961345,-0.0250021,-0.0194497,83,308,-166.647,-166.647,-235.095,-235.095,2.976
1.46568,1.49123,1.01185,1.01844,-0.0362961,-0.0964219,-0.0250575,-0.0192429,82,312,-166.281,-166.281,-235.656,-235.656,2.98
1.46553,1.49084,1.01175,1.01836,-0.0363765,-0.0966135,-0.025113,-0.019105,80,314,-165.908,-165.908,-236.229,-236.229,2.984
1.46539,1.49044,1.01165,1.01828,-0.0364569,-0.0976913,-0.0251686,-0.0190707,76,316,-165.531,-165.531,-236.811,-236.811,2.988
1.46524,1.49007,1.01155,1.01821,-0.0365374,-0.0965384,-0.0252241,-0.0185871,79,322,-165.139,-165.139,-237.399,-237.399,2.992
1.4651,1.48968,1.01145,1.01814,-0.0366179,-0.0967775,-0.0252797,-0.0184951,77,324,-164.758,-164.758,-238.01,-238.01,2.996
1.46495,1.48929,1.01135,1.01807,-0.0366985,-0.0970809,-0.0253354,-0.0183474,75,327,-164.372,-164.372,-238.63,-238.63,3
1.4648,1.4889,1.01125,1.018,-0.0367791,-0.0971968,-0.025391,-0.0182201,74,330,-163.979,-163.979,-239.259,-239.259,3.004
1.46465,1.48851,1.01115,1.01792,-0.0368598,-0.0973028,-0.0254467,-0.0183944,73,330,-163.583,-163.583,-239.896,-239.896,3.008
1.46451,1.48812,1.01105,1.01785,-0.0369405,-0.0973447,-0.0255024,-0.0186545,72,329,-163.183,-163.183,-240.53,-240.53,3.012
1.46436,1.48773,1.01094,1.01777,-0.0370212,-0.0974302,-0.0255582,-0.0187991,70,329,-162.78,-162.78,-241.157,-241.157,3.016
1.46421,1.48734,1.01084,1.01769,-0.037102,-0.0973433,-0.0256139,-0.0188955,70,329,-162.374,-162.374,-241.781,-241.781,3.02
1.46406,1.48695,1.01074,1.01762,-0.0371828,-0.0972277,-0.0256697,-0.019075,69,329,-161.966,-161.966,-242.405,-242.405,3.024
1.46391,1.48656,1.01064,1.01753,-0.0372637,-0.0970931,-0.0257255,-0.0193962,68,327,-161.557,-161.557,-243.024,-243.024,3.028
1.46376,1.48617,1.01053,1.01745,-0.0373446,-0.0970322,-0.0257814,-0.0197542,68,325,-161.148,-161.148,-243.633,-243.633,3.032
1.46361,1.48578,1.01043,1.01737,-0.0374255,-0.0971067,-0.0258373,-0.0201081,67,323,-160.736,-160.736,-244.231,-244.231,3.036
1.46347,1.4854,1.01033,1.01729,-0.0375065,-0.0966381,-0.0258932,-0.0202576,67,323,-160.322,-160.322,-244.817,-244.817,3.04
1.46331,1.48502,1.01022,1.0172,-0.0375875,-0.0964121,-0.0259491,-0.0204725,67,322,-159.911,-159.911,-245.4,-245.4,3.044
1.46316,1.48463,1.01012,1.01712,-0.0376686,-0.0965494,-0.0260051,-0.0207021,65,321,-159.5,-159.5,-245.978,-245.978,3.048
1.46301,1.48425,1.01001,1.01704,-0.0377497,-0.0961226,-0.0260611,-0.0207688,65,322,-159.085,-159.085,-246.55,-246.55,3.052
1.46286,1.48387,1.00991,1.01695,-0.0378309,-0.0958669,-0.0261171,-0.0208996,65,322,-158.673,-158.673,-247.122,-247.122,3.056
1.46271,1.48349,1.00981,1.01687,-0.0379121,-0.0953798,-0.0261732,-0.0210157,66,322,-158.262,-158.262,-247.691,-247.691,3.06
1.46256,1.48311,1.0097,1.01678,-0.0379933,-0.0951126,-0.0262293,-0.0211794,65,322,-157.855,-157.855,-248.26,-248.26,3.064
1.46241,1.48274,1.0096,1.01669,-0.0380746,-0.0948481,-0.0262854,-0.0213173,65,322,-157.448,-157.448,-248.824,-248.824,3.068
1.46225,1.48236,1.00949,1.01661,-0.0381559,-0.0944702,-0.0263415,-0.021179,65,325,-157.043,-157.043,-249.387,-249.387,3.072
1.4621,1.48199,1.00938,1.01653,-0.0382372,-0.0942471,-0.0263977,-0.0210003,65,328,-156.64,-156.64,-249.959,-249.959,3.076
1.46195,1.48161,1.00928,1.01644,-0.0383186,-0.0938968,-0.0264539,-0.0209388,65,330,-156.237,-156.237,-250.542,-250.542,3.08
1.4618,1.48124,1.00917,1.01636,-0.0384001,-0.0935769,-0.0265101,-0.0208115,65,332,-155.837,-155.837,-251.131,-251.131,3.084
1.46164,1.48087,1.00907,1.01628,-0.0384815,-0.09345,-0.0265663,-0.0206402,65,335,-155.438,-155.438,-251.729,-251.729,3.088
1.46149,1.4805,1.00896,1.0162,-0.038563,-0.0931063,-0.0266226,-0.0204972,65,338,-155.039,-155.039,-252.338,-252.338,3.092
1.46133,1.48013,1.00885,1.01612,-0.0386446,-0.092762,-0.0266789,-0.020517,65,339,-154.641,-154.641,-252.956,-252.956,3.096
1.46118,1.47976,1.00875,1.01604,-0.0387262,-0.0923885,-0.0267352,-0.0205015,65,341,-154.246,-154.246,-253.577,-253.577,3.1
1.46102,1.4794,1.00864,1.01596,-0.0388078,-0.0920531,-0.0267916,-0.0203471,65,344,-153.853,-153.853,-254.202,-254.202,3.104
1.46087,1.47903,1.00853,1.01588,-0.0388895,-0.0919447,-0.0268479,-0.0202155,64,347,-153.463,-153.463,-254.838,-254.838,3.108
1.46071,1.47867,1.00843,1.01579,-0.0389712,-0.091383,-0.0269043,-0.0202141,65,348,-153.071,-153.071,-255.482,-255.482,3.112
1.46056,1.47831,1.00832,1.01571,-0.0390529,-0.0909509,-0.0269608,-0.0203859,66,348,-152.685,-152.685,-256.13,-256.13,3.116
1.4604,1.47795,1.00821,1.01563,-0.0391347,-0.0907781,-0.0270172,-0.0207307,65,346,-152.301,-152.301,-256.774,-256.774,3.12
1.46024,1.47759,1.0081,1.01554,-0.0392165,-0.0904901,-0.0270737,-0.021047,65,344,-151.918,-151.918,-257.407,-257.407,3.124
1.46009,1.47723,1.00799,1.01545,-0.0392984,-0.0901253,-0.0271302,-0.0214018,65,342,-151.537,-151.537,-258.03,-258.03,3.128
1.45993,1.47687,1.00788,1.01536,-0.0393802,-0.0897958,-0.0271868,-0.0216959,65,341,-151.157,-151.157,-258.642,-258.642,3.132
1.45977,1.47652,1.00778,1.01527,-0.0394622,-0.0893458,-0.0272433,-0.0219496,66,340,-150.781,-150.781,-259.244,-259.244,3.136
1.45961,1.47616,1.00767,1.01518,-0.0395441,-0.0892185,-0.0272999,-0.0220611,65,340,-150.407,-150.407,-259.84,-259.84,3.14
