peachynonah/Fire_monitor_KIRO_CDSL/csv_datas/trial13/cdsl_data_t13_1_PD_d.csv
joint1_pos_desired, joint1_pos, joint2_pos_desired, joint2_pos, joint1_vel_desired, joint1_vel_filtered, joint2_vel_desired, joint2_vel_filtered, target_torque_joint1, target_torque_joint2, propo_term_torque_joint1, deriv_term_torque_joint1, propo_term_torque_joint2, deriv_term_torque_joint2, current_time
1.5,1.50088,0.9214,0.920069,-8.9964e-08,0,-5.52619e-08,0,4,-7,4.84762,0.000314874,-7.98571,0.000221048,0.004
1.5,1.50088,0.9214,0.919993,-3.59712e-07,0.000172746,-2.20959e-07,-0.006334,5,-33,4.85903,0.605868,-8.44176,-25.3351,0.008
1.5,1.50088,0.9214,0.919938,-8.09028e-07,0.000143955,-4.96959e-07,-0.00877164,5,-43,4.86094,0.506673,-8.76928,-35.0846,0.012
1.5,1.50088,0.9214,0.919889,-1.4377e-06,6.71788e-05,-8.83129e-07,-0.00993607,5,-48,4.85906,0.240158,-9.06362,-39.7407,0.016
1.5,1.50088,0.9214,0.919848,-2.2455e-06,4.47859e-05,-1.37934e-06,-0.0100502,5,-49,4.8591,0.16461,-9.31027,-40.1951,0.02
1.5,1.50088,0.9214,0.919814,-3.23223e-06,1.06633e-06,-1.98545e-06,-0.00952162,4,-47,4.85726,0.015045,-9.51338,-38.0785,0.024
1.5,1.50088,0.9214,0.91979,-4.39766e-06,7.10887e-07,-2.70134e-06,-0.00842069,4,-43,4.85735,0.0178799,-9.66258,-33.672,0.028
1.5,1.50088,0.9214,0.919772,-5.74158e-06,4.73925e-07,-3.52686e-06,-0.00708213,4,-38,4.85746,0.0217543,-9.76822,-28.3144,0.032
1.5,1.50088,0.9214,0.919762,-7.26378e-06,3.1595e-07,-4.4619e-06,-0.00558515,4,-32,4.8576,0.0265291,-9.83032,-22.3228,0.036
1.5,1.50088,0.9214,0.919758,-8.96404e-06,2.10633e-07,-5.50631e-06,-0.00404013,4,-25,4.85778,0.0321113,-9.853,-16.1385,0.04
1.5,1.50088,0.9214,0.919759,-1.08421e-05,1.40422e-07,-6.65996e-06,-0.00254947,4,-20,4.858,0.038439,-9.84249,-10.1712,0.044
1.5,1.50088,0.9214,0.919763,-1.28979e-05,9.36148e-08,-7.92273e-06,-0.00138294,4,-15,4.85826,0.0454702,-9.81951,-5.50009,0.048
1.5,1.50088,0.9214,0.919767,-1.5131e-05,6.24098e-08,-9.29448e-06,-0.000605263,4,-12,4.85856,0.053177,-9.7965,-2.38387,0.052
1.5,1.50088,0.9214,0.919772,-1.75414e-05,4.16066e-08,-1.07751e-05,-4.35785e-07,4,-9,4.85892,0.0615404,-9.76724,0.0413571,0.056
1.5,1.50088,0.9214,0.919776,-2.01287e-05,2.77377e-08,-1.23644e-05,0.000373991,4,-8,4.85934,0.0705475,-9.74001,1.54542,0.06
1.5,1.50088,0.9214,0.91978,-2.28928e-05,1.84918e-08,-1.40623e-05,0.000566028,4,-7,4.85981,0.0801895,-9.7169,2.32036,0.064
1.5,1.50088,0.9214,0.919783,-2.58334e-05,1.23279e-08,-1.58686e-05,0.000607679,4,-7,4.86035,0.0904602,-9.69995,2.49419,0.068
1.5,1.50088,0.9214,0.919785,-2.89504e-05,8.21858e-09,-1.77833e-05,0.000549074,4,-7,4.86095,0.101355,-9.68918,2.26743,0.072
1.5,1.50088,0.921399,0.919784,-3.22435e-05,5.47905e-09,-1.98061e-05,0.000337259,4,-8,4.86162,0.112872,-9.69081,1.42826,0.076
1.5,1.50088,0.921399,0.919784,-3.57126e-05,3.6527e-09,-2.1937e-05,0.000196048,4,-8,4.86237,0.125007,-9.69238,0.871941,0.08
1.5,1.50088,0.921399,0.919783,-3.93573e-05,2.43513e-09,-2.41759e-05,7.31169e-05,5,-9,4.86319,0.137759,-9.69597,0.389171,0.084
1.5,1.50088,0.921399,0.919783,-4.31775e-05,1.62342e-09,-2.65225e-05,4.87446e-05,5,-9,4.8641,0.151127,-9.69536,0.301068,0.088
1.5,1.50088,0.921399,0.919784,-4.7173e-05,1.08228e-09,-2.89768e-05,6.12873e-05,5,-9,4.86509,0.165109,-9.69262,0.361056,0.092
1.5,1.50088,0.921399,0.919784,-5.13435e-05,7.21521e-10,-3.15386e-05,6.96491e-05,5,-9,4.86618,0.179705,-9.68983,0.404751,0.096
1.5,1.50088,0.921399,0.919784,-5.56889e-05,4.81014e-10,-3.42078e-05,1.76418e-05,5,-9,4.86736,0.194913,-9.69111,0.207399,0.1
1.5,1.50088,0.921399,0.919784,-6.02089e-05,3.20676e-10,-3.69843e-05,1.17612e-05,5,-9,4.86863,0.210732,-9.69026,0.194982,0.104
1.5,1.50088,0.921399,0.919784,-6.49033e-05,2.13784e-10,-3.98679e-05,7.84081e-06,5,-9,4.87001,0.227162,-9.68933,0.190835,0.108
1.5,1.50088,0.921398,0.919784,-6.97719e-05,1.42523e-10,-4.28586e-05,5.22721e-06,5,-9,4.87149,0.244202,-9.68834,0.192343,0.112
1.5,1.50088,0.921398,0.919784,-7.48145e-05,9.50152e-11,-4.59561e-05,3.48481e-06,5,-9,4.87308,0.261851,-9.68728,0.197764,0.116
1.5,1.50088,0.921398,0.919784,-8.00309e-05,6.33434e-11,-4.91603e-05,2.3232e-06,5,-9,4.87478,0.280108,-9.68613,0.205934,0.12
1.5,1.50088,0.921398,0.919784,-8.54208e-05,4.2229e-11,-5.24712e-05,1.5488e-06,5,-9,4.8766,0.298973,-9.68492,0.21608,0.124
1.5,1.50088,0.921398,0.919784,-9.09841e-05,2.81526e-11,-5.58885e-05,1.03254e-06,5,-9,4.87854,0.318445,-9.68362,0.227684,0.128
1.5,1.50088,0.921397,0.919784,-9.67205e-05,1.87684e-11,-5.94122e-05,6.88357e-07,5,-9,4.8806,0.338522,-9.68223,0.240402,0.132
1.5,1.50088,0.921397,0.919784,-0.00010263,1.25123e-11,-6.30421e-05,4.58904e-07,5,-9,4.8828,0.359205,-9.68076,0.254004,0.136
1.49999,1.50088,0.921397,0.919784,-0.000108712,8.34152e-12,-6.67781e-05,3.05936e-07,5,-9,4.88512,0.380492,-9.67921,0.268336,0.14
1.49999,1.50088,0.921397,0.919784,-0.000114966,5.56102e-12,-7.062e-05,2.03958e-07,5,-9,4.88758,0.402383,-9.67756,0.283296,0.144
1.49999,1.50088,0.921396,0.919783,-0.000121393,3.70734e-12,-7.45678e-05,-2.8655e-05,5,-9,4.89018,0.424876,-9.67789,0.183651,0.148
1.49999,1.50088,0.921396,0.919784,-0.000127992,2.47156e-12,-7.86213e-05,9.68762e-06,5,-9,4.89292,0.447972,-9.67398,0.353236,0.152
1.49999,1.50088,0.921396,0.919783,-0.000134763,1.64771e-12,-8.27803e-05,-2.23325e-05,5,-9,4.89581,0.47167,-9.67411,0.241791,0.156
1.49999,1.50088,0.921395,0.919783,-0.000141705,1.09847e-12,-8.70448e-05,-1.48883e-05,5,-9,4.89885,0.495968,-9.67208,0.288626,0.16
1.49999,1.50088,0.921395,0.919783,-0.000148819,7.32315e-13,-9.14146e-05,-9.92556e-06,5,-9,4.90205,0.520867,-9.66993,0.325956,0.164
1.49999,1.50088,0.921395,0.919784,-0.000156104,4.8821e-13,-9.58895e-05,2.21739e-05,5,-9,4.9054,0.546364,-9.66561,0.472254,0.168
1.49999,1.50088,0.921394,0.919783,-0.00016356,3.25473e-13,-0.000100469,-1.40083e-05,5,-9,4.90892,0.57246,-9.66533,0.345845,0.172
1.49999,1.50088,0.921394,0.919783,-0.000171187,2.16982e-13,-0.000105154,-9.33889e-06,5,-9,4.9126,0.599154,-9.66286,0.383262,0.176
1.49999,1.50088,0.921393,0.919784,-0.000178984,1.44655e-13,-0.000109944,2.2565e-05,5,-9,4.91645,0.626445,-9.65821,0.530036,0.18
1.49999,1.50088,0.921393,0.919784,-0.000186952,9.64365e-14,-0.000114838,1.50433e-05,5,-9,4.92048,0.654332,-9.65551,0.519527,0.184
1.49999,1.50088,0.921392,0.919784,-0.00019509,6.4291e-14,-0.000119837,1.00289e-05,5,-9,4.92468,0.682815,-9.6527,0.519465,0.188
1.49999,1.50088,0.921392,0.919783,-0.000203398,4.28607e-14,-0.00012494,-2.2105e-05,5,-9,4.92906,0.711892,-9.65183,0.411342,0.192
1.49999,1.50088,0.921391,0.919784,-0.000211875,2.85738e-14,-0.000130148,1.40543e-05,5,-9,4.93363,0.741564,-9.6467,0.576809,0.196
1.49999,1.50088,0.921391,0.919784,-0.000220523,1.90492e-14,-0.00013546,9.36951e-06,5,-9,4.93839,0.771829,-9.64351,0.579317,0.2
1.49998,1.50088,0.92139,0.919784,-0.000229339,1.26995e-14,-0.000140875,6.24634e-06,5,-9,4.94334,0.802686,-9.6402,0.588486,0.204
1.49998,1.50088,0.92139,0.919784,-0.000238324,8.46631e-15,-0.000146395,4.16422e-06,5,-9,4.94848,0.834136,-9.63675,0.602236,0.208
1.49998,1.50088,0.921389,0.919784,-0.000247479,5.6442e-15,-0.000152018,2.77615e-06,5,-9,4.95382,0.866176,-9.63317,0.619177,0.212
1.49998,1.50088,0.921389,0.919784,-0.000256802,3.7628e-15,-0.000157745,1.85077e-06,5,-8,4.95937,0.898807,-9.62945,0.638382,0.216
1.49998,1.50088,0.921388,0.919784,-0.000266293,2.50853e-15,-0.000163575,1.23384e-06,5,-8,4.96512,0.932027,-9.62559,0.659236,0.22
1.49998,1.50088,0.921387,0.919783,-0.000275953,1.67236e-15,-0.000169509,-2.79684e-05,5,-9,4.97109,0.965836,-9.62367,0.566162,0.224
1.49998,1.50088,0.921387,0.919783,-0.000285781,1.1149e-15,-0.000175546,-1.86456e-05,5,-8,4.97727,1.00023,-9.61953,0.627601,0.228
1.49998,1.50088,0.921386,0.919783,-0.000295777,7.4327e-16,-0.000181686,-4.12213e-05,6,-9,4.98366,1.03522,-9.61732,0.561858,0.232
1.49998,1.50088,0.921385,0.919783,-0.00030594,4.95513e-16,-0.000187929,1.31005e-06,6,-8,4.99028,1.07079,-9.61081,0.756955,0.236
1.49997,1.50088,0.921384,0.919784,-0.000316271,3.30342e-16,-0.000194275,2.96643e-05,6,-8,4.99713,1.10695,-9.60415,0.895755,0.24
1.49997,1.50088,0.921384,0.919784,-0.000326769,2.20228e-16,-0.000200723,1.97762e-05,6,-8,5.0042,1.14369,-9.59941,0.881997,0.244
1.49997,1.50088,0.921383,0.919784,-0.000337433,-2.87909e-05,-0.000207274,1.31841e-05,6,-8,5.0096,1.08025,-9.59451,0.881833,0.248
1.49997,1.50088,0.921382,0.919784,-0.000348265,9.59697e-06,-0.000213928,8.78942e-06,6,-8,5.01905,1.25252,-9.58946,0.890868,0.252
1.49997,1.50088,0.921381,0.919784,-0.000359263,-2.23929e-05,-0.000220683,5.85961e-06,6,-8,5.02493,1.17905,-9.58424,0.906172,0.256
1.49997,1.50088,0.92138,0.919783,-0.000370428,-1.49286e-05,-0.000227541,-2.48845e-05,6,-8,5.03296,1.24425,-9.58094,0.810628,0.26
1.49997,1.50088,0.921379,0.919784,-0.000381758,1.88385e-05,-0.000234501,1.22012e-05,6,-8,5.04313,1.40209,-9.57332,0.986811,0.264
1.49996,1.50088,0.921378,0.919784,-0.000393255,-1.62319e-05,-0.000241563,8.13417e-06,6,-8,5.04975,1.31958,-9.56761,0.998791,0.268
1.49996,1.50088,0.921377,0.919784,-0.000404917,-1.08213e-05,-0.000248727,5.42278e-06,6,-8,5.05853,1.37934,-9.56173,1.0166,0.272
1.49996,1.50088,0.921376,0.919783,-0.000416745,2.15767e-05,-0.000255993,-2.51757e-05,6,-8,5.06947,1.53413,-9.55774,0.923268,0.276
1.49996,1.50088,0.921375,0.919784,-0.000428738,-1.44064e-05,-0.00026336,1.20071e-05,6,-8,5.07687,1.45016,-9.54944,1.10147,0.28
1.49996,1.50088,0.921374,0.919784,-0.000440897,-9.60429e-06,-0.000270828,8.00473e-06,6,-8,5.08644,1.50952,-9.54303,1.11533,0.284
1.49996,1.50088,0.921373,0.919783,-0.00045322,2.23881e-05,-0.000278398,-2.34544e-05,6,-8,5.09817,1.66463,-9.53851,1.01977,0.288
1.49995,1.50088,0.921372,0.919783,-0.000465708,-1.38655e-05,-0.000286069,-1.56363e-05,6,-8,5.10638,1.58145,-9.53174,1.08173,0.292
1.49995,1.50088,0.921371,0.919783,-0.00047836,1.95472e-05,-0.000293841,-1.04242e-05,6,-8,5.11867,1.74267,-9.52478,1.13367,0.296
1.49995,1.50088,0.92137,0.919783,-0.000491176,-1.57594e-05,-0.000301713,-6.94946e-06,6,-8,5.12743,1.66396,-9.51763,1.17906,0.3
1.49995,1.50088,0.921368,0.919784,-0.000504157,-1.05063e-05,-0.000309687,2.41579e-05,6,-8,5.13838,1.72778,-9.50822,1.33538,0.304
1.49995,1.50088,0.921367,0.919784,-0.000517301,-7.0042e-06,-0.000317761,1.61053e-05,6,-8,5.14961,1.78604,-9.50069,1.33547,0.308
1.49994,1.50088,0.921366,0.919784,-0.000530609,-4.66946e-06,-0.000325936,1.07369e-05,7,-8,5.16114,1.84079,-9.49297,1.34669,0.312
1.49994,1.50088,0.921365,0.919783,-0.000544081,-3.11298e-06,-0.000334211,-2.1633e-05,7,-8,5.17296,1.89339,-9.48712,1.25031,0.316
1.49994,1.50088,0.921363,0.919784,-0.000557715,-2.07532e-06,-0.000342586,1.43689e-05,7,-8,5.18508,1.94474,-9.47693,1.42782,0.32
1.49994,1.50088,0.921362,0.919784,-0.000571513,-1.38354e-06,-0.000351061,9.57928e-06,7,-8,5.1975,1.99545,-9.4686,1.44256,0.324
1.49994,1.50088,0.92136,0.919784,-0.000585474,-9.22363e-07,-0.000359637,6.38618e-06,7,-7,5.21023,2.04593,-9.46007,1.46409,0.328
1.49993,1.50088,0.921359,0.919784,-0.000599597,-6.14909e-07,-0.000368312,4.25746e-06,7,-7,5.22326,2.09644,-9.45134,1.49028,0.332
1.49993,1.50088,0.921357,0.919784,-0.000613882,-4.09939e-07,-0.000377087,2.8383e-06,7,-7,5.23661,2.14715,-9.44239,1.5197,0.336
1.49993,1.50088,0.921356,0.919783,-0.000628329,-2.73293e-07,-0.000385962,-2.68987e-05,7,-7,5.25028,2.1982,-9.43531,1.43625,0.34
1.49993,1.50088,0.921354,0.919783,-0.000642939,-1.82195e-07,-0.000394936,-1.79325e-05,7,-7,5.26426,2.24965,-9.42594,1.50801,0.344
1.49992,1.50088,0.921353,0.919784,-0.00065771,-1.21463e-07,-0.000404009,1.68359e-05,7,-7,5.27857,2.30156,-9.41428,1.68338,0.348
1.49992,1.50088,0.921351,0.919784,-0.000672643,-8.09756e-08,-0.000413182,1.1224e-05,7,-7,5.2932,2.35397,-9.40447,1.69762,0.352
1.49992,1.50088,0.921349,0.919783,-0.000687737,-5.39838e-08,-0.000422454,-2.13083e-05,7,-7,5.30816,2.40689,-9.39652,1.60458,0.356
1.49991,1.50088,0.921348,0.919783,-0.000702992,-3.59892e-08,-0.000431825,-1.42055e-05,7,-7,5.32346,2.46035,-9.38627,1.67048,0.36
1.49991,1.50088,0.921346,0.919783,-0.000718408,-2.39928e-08,-0.000441294,-9.47035e-06,7,-7,5.3391,2.51435,-9.37579,1.7273,0.364
1.49991,1.50088,0.921344,0.919783,-0.000733985,-1.59952e-08,-0.000450863,-6.31357e-06,7,-7,5.35507,2.56889,-9.36509,1.7782,0.368
1.49991,1.50088,0.921342,0.919783,-0.000749722,-1.06635e-08,-0.00046053,-4.20904e-06,7,-7,5.37139,2.62399,-9.35415,1.82528,0.372
1.4999,1.50088,0.92134,0.919783,-0.00076562,-7.10897e-09,-0.000470295,-2.80603e-06,8,-7,5.38806,2.67965,-9.34298,1.86996,0.376
1.4999,1.50088,0.921339,0.919783,-0.000781678,-4.73932e-09,-0.000480159,-1.87069e-06,8,-7,5.40508,2.73586,-9.33157,1.91315,0.38
1.4999,1.50088,0.921337,0.919783,-0.000797895,-3.15954e-09,-0.00049012,-1.24712e-06,8,-7,5.42246,2.79262,-9.31993,1.95549,0.384
1.49989,1.50088,0.921335,0.919783,-0.000814272,-2.10636e-09,-0.00050018,-8.31416e-07,8,-7,5.44019,2.84995,-9.30805,1.9974,0.388
1.49989,1.50088,0.921333,0.919784,-0.000830809,-1.40424e-09,-0.000510338,2.82366e-05,8,-7,5.45829,2.90783,-9.29385,2.1543,0.392
1.49989,1.50088,0.921331,0.919783,-0.000847505,-9.36161e-10,-0.000520594,-9.96649e-06,8,-7,5.47675,2.96626,-9.28355,2.04251,0.396
1.49988,1.50088,0.921328,0.919783,-0.00086436,-6.24107e-10,-0.000530948,-6.64433e-06,8,-7,5.49558,3.02526,-9.27093,2.09721,0.4
1.49988,1.50088,0.921326,0.919783,-0.000881374,-4.16072e-10,-0.000541399,-4.42955e-06,8,-7,5.51478,3.08481,-9.25806,2.14788,0.404
1.49988,1.50088,0.921324,0.919784,-0.000898546,-2.77381e-10,-0.000551947,2.58379e-05,8,-6,5.53436,3.14491,-9.24287,2.31114,0.408
1.49987,1.50088,0.921322,0.919783,-0.000915877,-1.84921e-10,-0.000562593,-1.15657e-05,8,-7,5.55432,3.20557,-9.23157,2.20411,0.412
1.49987,1.50088,0.92132,0.919783,-0.000933366,-1.2328e-10,-0.000573336,-7.71044e-06,8,-6,5.57466,3.26678,-9.21794,2.2625,0.416
1.49987,1.50088,0.921317,0.919783,-0.000951013,-8.2187e-11,-0.000584176,-5.1403e-06,8,-6,5.59539,3.32855,-9.20405,2.31614,0.42
1.49986,1.50088,0.921315,0.919783,-0.000968818,-5.47913e-11,-0.000595113,-3.42686e-06,9,-6,5.61651,3.39086,-9.1899,2.36674,0.424
1.49986,1.50088,0.921313,0.919783,-0.00098678,-3.65275e-11,-0.000606146,-2.28458e-06,9,-6,5.63802,3.45373,-9.17548,2.41545,0.428
1.49985,1.50088,0.92131,0.919783,-0.0010049,-2.43517e-11,-0.000617277,-1.52305e-06,9,-6,5.65992,3.51715,-9.1608,2.46301,0.432
1.49985,1.50088,0.921308,0.919783,-0.00102318,-1.62345e-11,-0.000628504,-1.01537e-06,9,-6,5.68223,3.58112,-9.14585,2.50995,0.436
1.49985,1.50088,0.921305,0.919783,-0.00104161,-1.0823e-11,-0.000639827,-6.76911e-07,9,-6,5.70495,3.64564,-9.13063,2.5566,0.44
1.49984,1.50088,0.921303,0.919783,-0.0010602,-7.21532e-12,-0.000651247,-4.51274e-07,9,-6,5.72807,3.71071,-9.11514,2.60318,0.444
1.49984,1.50088,0.9213,0.919783,-0.00107895,-4.81021e-12,-0.000662762,-3.00849e-07,9,-6,5.7516,3.77632,-9.09937,2.64985,0.448
1.49983,1.50088,0.921297,0.919783,-0.00109785,-3.20681e-12,-0.000674374,-2.00566e-07,9,-6,5.77554,3.84248,-9.08333,2.69669,0.452
1.49983,1.50088,0.921294,0.919783,-0.00111691,-2.13787e-12,-0.000686082,-1.33711e-07,9,-6,5.7999,3.90919,-9.067,2.74379,0.456
1.49982,1.50088,0.921292,0.919783,-0.00113613,-1.42525e-12,-0.000697886,-8.91406e-08,9,-6,5.82469,3.97645,-9.05039,2.79119,0.46
1.49982,1.50088,0.921289,0.919783,-0.0011555,-2.87909e-05,-0.000709785,-5.94271e-08,9,-6,5.84799,3.94348,-9.0335,2.8389,0.464
1.49981,1.50088,0.921286,0.919783,-0.00117503,9.59697e-06,-0.00072178,-3.9618e-08,10,-6,5.87553,4.14618,-9.01632,2.88696,0.468
1.49981,1.50088,0.921283,0.919783,-0.00119471,6.39798e-06,-0.00073387,-2.6412e-08,10,-6,5.9016,4.20387,-8.99886,2.93537,0.472
1.4998,1.50088,0.92128,0.919783,-0.00121455,-2.45256e-05,-0.000746055,-1.7608e-08,10,-5,5.9262,4.16507,-8.9811,2.98415,0.476
1.4998,1.50088,0.921277,0.919783,-0.00123454,-1.63504e-05,-0.000758336,-1.17387e-08,10,-5,5.95314,4.26366,-8.96304,3.0333,0.48
1.4998,1.50088,0.921274,0.919783,-0.00125469,-1.09003e-05,-0.000770711,-7.82579e-09,10,-5,5.98052,4.35325,-8.9447,3.08281,0.484
1.49979,1.50088,0.921271,0.919783,-0.00127499,-7.26685e-06,-0.000783182,-5.21719e-09,10,-5,6.00834,4.43702,-8.92605,3.13271,0.488
1.49978,1.50088,0.921268,0.919783,-0.00129544,-4.84456e-06,-0.000795747,-3.47813e-09,10,-5,6.03662,4.51709,-8.9071,3.18298,0.492
1.49978,1.50088,0.921265,0.919783,-0.00131605,-3.22971e-06,-0.000808407,-2.31875e-09,10,-5,6.06534,4.59488,-8.88785,3.23362,0.496
1.49977,1.50088,0.921261,0.919783,-0.00133682,-2.15314e-06,-0.000821162,-1.54583e-09,10,-5,6.09453,4.67132,-8.8683,3.28464,0.5
1.49977,1.50088,0.921258,0.919783,-0.00135773,-1.43543e-06,-0.000834011,-1.03056e-09,10,-5,6.12417,4.74704,-8.84844,3.33604,0.504
1.49976,1.50088,0.921255,0.919783,-0.0013788,-9.56951e-07,-0.000846954,-6.87037e-10,10,-5,6.15427,4.82247,-8.82827,3.38781,0.508
1.49976,1.50088,0.921251,0.919783,-0.00140003,-6.37967e-07,-0.000859991,-4.58025e-10,11,-5,6.18483,4.89787,-8.80778,3.43996,0.512
1.49975,1.50088,0.921248,0.919783,-0.00142141,-4.25311e-07,-0.000873122,-3.0535e-10,11,-5,6.21587,4.97343,-8.78698,3.49249,0.516
1.49975,1.50088,0.921244,0.919783,-0.00144294,-2.83541e-07,-0.000886348,-2.03567e-10,11,-5,6.24738,5.04928,-8.76587,3.54539,0.52
1.49974,1.50088,0.921241,0.919783,-0.00146462,-1.89027e-07,-0.000899667,-1.35711e-10,11,-5,6.27936,5.1255,-8.74444,3.59867,0.524
1.49973,1.50088,0.921237,0.919783,-0.00148645,-1.26018e-07,-0.000913079,-9.04741e-11,11,-5,6.31182,5.20215,-8.72269,3.65232,0.528
1.49973,1.50088,0.921233,0.919783,-0.00150844,-8.40121e-08,-0.000926585,-6.0316e-11,11,-4,6.34476,5.27925,-8.70061,3.70634,0.532
1.49972,1.50088,0.92123,0.919783,-0.00153058,-5.60081e-08,-0.000940185,-4.02107e-11,11,-4,6.37819,5.35684,-8.67821,3.76074,0.536
1.49972,1.50088,0.921226,0.919783,-0.00155287,-3.73387e-08,-0.000953878,-2.68071e-11,11,-4,6.41211,5.43492,-8.65548,3.81551,0.54
1.49971,1.50088,0.921222,0.919783,-0.00157532,-2.48925e-08,-0.000967664,-1.78714e-11,11,-4,6.44652,5.51352,-8.63242,3.87065,0.544
1.4997,1.50088,0.921218,0.919783,-0.00159791,-1.6595e-08,-0.000981543,-1.19143e-11,12,-4,6.48143,5.59263,-8.60903,3.92617,0.548
1.4997,1.50088,0.921214,0.919783,-0.00162066,-1.10633e-08,-0.000995514,-7.94285e-12,12,-4,6.51683,5.67225,-8.58531,3.98206,0.552
1.49969,1.50088,0.92121,0.919783,-0.00164355,-7.37555e-09,-0.00100958,-5.29524e-12,12,-4,6.55274,5.7524,-8.56125,4.03832,0.556
1.49968,1.50088,0.921206,0.919783,-0.0016666,-4.91703e-09,-0.00102374,-3.53016e-12,12,-4,6.58915,5.83308,-8.53685,4.09494,0.56
1.49968,1.50088,0.921202,0.919783,-0.0016898,-3.27802e-09,-0.00103799,-2.35344e-12,12,-4,6.62607,5.91428,-8.51211,4.15194,0.564
1.49967,1.50088,0.921198,0.919783,-0.00171315,-2.87931e-05,-0.00105233,-1.56896e-12,12,-4,6.6616,5.89523,-8.48702,4.20931,0.568
1.49966,1.50088,0.921194,0.919783,-0.00173664,9.59552e-06,-0.00106676,-1.04597e-12,12,-4,6.70145,6.11184,-8.46159,4.26705,0.572
1.49966,1.50088,0.921189,0.919783,-0.00176029,-2.23939e-05,-0.00108129,-6.97315e-13,12,-4,6.73801,6.08265,-8.43582,4.32516,0.576
1.49965,1.50088,0.921185,0.919783,-0.00178409,-1.49293e-05,-0.00109591,-4.64877e-13,12,-4,6.777,6.19207,-8.40969,4.38363,0.58
1.49964,1.50088,0.921181,0.919783,-0.00180804,-9.95285e-06,-0.00111062,-3.09918e-13,13,-3,6.81651,6.2933,-8.38321,4.44247,0.584
1.49964,1.50088,0.921176,0.919783,-0.00183214,2.21557e-05,-0.00112542,-2.06612e-13,13,-3,6.85846,6.49002,-8.35638,4.50168,0.588
1.49963,1.50088,0.921172,0.919783,-0.00185638,-1.40205e-05,-0.00114031,-1.37741e-13,13,-3,6.89713,6.44827,-8.32919,4.56126,0.592
1.49962,1.50088,0.921167,0.919783,-0.00188078,-9.34698e-06,-0.0011553,-9.18275e-14,13,-3,6.93824,6.55001,-8.30165,4.6212,0.596
1.49961,1.50088,0.921162,0.919783,-0.00190532,-6.23132e-06,-0.00117038,-2.87909e-05,13,-3,6.97988,6.64682,-8.27581,4.56634,0.6
1.49961,1.50088,0.921158,0.919783,-0.00193002,-4.15421e-06,-0.00118554,-1.91939e-05,13,-3,7.02207,6.74051,-8.24754,4.6654,0.604
1.4996,1.50088,0.921153,0.919783,-0.00195486,-2.76947e-06,-0.0012008,-1.2796e-05,13,-3,7.06481,6.8323,-8.2189,4.75203,0.608
1.49959,1.50088,0.921148,0.919783,-0.00197985,-1.84632e-06,-0.00121615,2.02603e-05,14,-3,7.10809,6.923,-8.18783,4.94565,0.612
1.49958,1.50088,0.921143,0.919783,-0.00200498,-1.23088e-06,-0.00123159,-1.52841e-05,14,-3,7.15192,7.01313,-8.16053,4.86524,0.616
1.49957,1.50088,0.921138,0.919783,-0.00203027,-8.20585e-07,-0.00124713,-1.01894e-05,14,-3,7.19631,7.10307,-8.13078,4.94775,0.62
1.49957,1.50088,0.921133,0.919783,-0.0020557,-5.47057e-07,-0.00126275,2.1998e-05,14,-2,7.24125,7.19304,-8.09859,5.13899,0.624
1.49956,1.50088,0.921128,0.919783,-0.00208128,-3.64704e-07,-0.00127846,-1.41256e-05,14,-3,7.28676,7.28321,-8.07017,5.05734,0.628
1.49955,1.50088,0.921123,0.919783,-0.00210701,-2.43136e-07,-0.00129426,-9.41706e-06,14,-2,7.33283,7.37368,-8.0393,5.13939,0.632
1.49954,1.50088,0.921118,0.919783,-0.00213288,-1.62091e-07,-0.00131016,-6.27804e-06,14,-2,7.37947,7.46452,-8.00805,5.21552,0.636
1.49953,1.50088,0.921112,0.919783,-0.0021589,-1.08061e-07,-0.00132614,-4.18536e-06,14,-2,7.42668,7.55578,-7.97641,5.28783,0.64
1.49952,1.50088,0.921107,0.919783,-0.00218507,-7.20404e-08,-0.00134222,-2.79024e-06,15,-2,7.47446,7.6475,-7.94439,5.3577,0.644
1.49951,1.50088,0.921102,0.919783,-0.00221138,-4.80269e-08,-0.00135838,-1.86016e-06,15,-2,7.52282,7.73968,-7.91198,5.42608,0.648
1.49951,1.50088,0.921096,0.919783,-0.00223784,-3.20179e-08,-0.00137463,-1.24011e-06,15,-2,7.57176,7.83234,-7.87919,5.49357,0.652
1.4995,1.50088,0.921091,0.919783,-0.00226445,-2.13453e-08,-0.00139098,-8.26738e-07,15,-2,7.62129,7.9255,-7.846,5.5606,0.656
1.49949,1.50088,0.921085,0.919783,-0.0022912,-1.42302e-08,-0.00140741,-5.51158e-07,15,-2,7.6714,8.01916,-7.81242,5.62743,0.66
1.49948,1.50088,0.921079,0.919783,-0.0023181,-9.4868e-09,-0.00142393,-3.67439e-07,15,-2,7.7221,8.11331,-7.77844,5.69425,0.664
1.49947,1.50088,0.921074,0.919783,-0.00234514,-6.32453e-09,-0.00144054,-2.44959e-07,15,-1,7.7734,8.20797,-7.74407,5.76119,0.668
1.49946,1.50088,0.921068,0.919783,-0.00237233,-4.21636e-09,-0.00145724,-1.63306e-07,16,-1,7.82529,8.30314,-7.7093,5.82832,0.672
1.49945,1.50088,0.921062,0.919783,-0.00239966,-2.87937e-05,-0.00147403,-1.08871e-07,16,-1,7.87588,8.29804,-7.67412,5.89569,0.676
1.49944,1.50088,0.921056,0.919783,-0.00242714,-1.91958e-05,-0.00149091,-7.25805e-08,16,-1,7.92898,8.4278,-7.63854,5.96335,0.68
1.49943,1.50088,0.92105,0.919783,-0.00245476,-1.27972e-05,-0.00150788,-4.8387e-08,16,-1,7.98268,8.54687,-7.60256,6.03132,0.684
1.49942,1.50088,0.921044,0.919783,-0.00248253,-8.53148e-06,-0.00152493,-3.2258e-08,16,-1,8.03699,8.65898,-7.56616,6.0996,0.688
1.49941,1.50088,0.921038,0.919783,-0.00251044,-5.68765e-06,-0.00154208,-2.15053e-08,16,-1,8.09191,8.76662,-7.52936,6.16822,0.692
1.4994,1.50088,0.921032,0.919783,-0.00253849,-3.79177e-06,-0.00155931,-1.43369e-08,17,-1,8.14745,8.87145,-7.49214,6.23718,0.696
1.49939,1.50088,0.921025,0.919783,-0.00256669,-2.52785e-06,-0.00157663,-9.55793e-09,17,-1,8.2036,8.97456,-7.45451,6.30649,0.7
1.49938,1.50088,0.921019,0.919783,-0.00259503,-1.68523e-06,-0.00159404,-6.37195e-09,17,-1,8.26038,9.07671,-7.41646,6.37614,0.704
1.49937,1.50088,0.921013,0.919783,-0.00262352,-1.12349e-06,-0.00161154,-4.24797e-09,17,0,8.31779,9.17837,-7.378,6.44613,0.708
1.49936,1.50088,0.921006,0.919783,-0.00265214,-7.48991e-07,-0.00162912,-2.83198e-09,17,0,8.37582,9.27988,-7.33911,6.51648,0.712
1.49935,1.50088,0.921,0.919783,-0.00268091,-4.99327e-07,-0.0016468,-1.88799e-09,17,0,8.43448,9.38145,-7.2998,6.58718,0.716
1.49934,1.50088,0.920993,0.919783,-0.00270983,-3.32885e-07,-0.00166456,-1.25866e-09,17,0,8.49378,9.48323,-7.26006,6.65822,0.72
1.49933,1.50088,0.920986,0.919783,-0.00273888,-2.21923e-07,-0.0016824,-8.39105e-10,18,0,8.55372,9.58531,-7.2199,6.72962,0.724
1.49932,1.50088,0.92098,0.919783,-0.00276808,-1.47949e-07,-0.00170034,-5.59403e-10,18,0,8.61429,9.68777,-7.17931,6.80136,0.728
1.4993,1.50088,0.920973,0.919783,-0.00279742,-9.86326e-08,-0.00171836,-3.72936e-10,18,0,8.67551,9.79063,-7.13828,6.87345,0.732
1.49929,1.50088,0.920966,0.919783,-0.0028269,-6.57551e-08,-0.00173647,-2.48624e-10,18,0,8.73738,9.89393,-7.09682,6.94589,0.736
1.49928,1.50088,0.920959,0.919783,-0.00285653,-4.38367e-08,-0.00175467,-1.65749e-10,18,0,8.7999,9.9977,-7.05493,7.01868,0.74
1.49927,1.50088,0.920952,0.919783,-0.00288629,-2.88201e-05,-0.00177295,-1.10499e-10,18,0,8.86117,10.0012,-7.0126,7.09182,0.744
1.49926,1.50088,0.920945,0.919783,-0.0029162,-1.92134e-05,-0.00179132,-7.36663e-11,19,0,8.92499,10.1395,-6.96983,7.1653,0.748
1.49925,1.50088,0.920937,0.919783,-0.00294625,4.47729e-05,-0.00180978,-4.91109e-11,19,0,8.99328,10.4686,-6.92662,7.23913,0.752
1.49924,1.50088,0.92093,0.919783,-0.00297644,2.98486e-05,-0.00182833,-3.27406e-11,19,0,9.05843,10.522,-6.88296,7.31331,0.756
1.49922,1.50088,0.920923,0.919783,-0.00300677,-3.76828e-05,-0.00184696,-2.1827e-11,19,0,9.12045,10.3918,-6.83885,7.38783,0.76
1.49921,1.50088,0.920915,0.919783,-0.00303724,-2.51219e-05,-0.00186567,-1.45514e-11,19,0,9.18693,10.5424,-6.7943,7.4627,0.764
1.4992,1.50088,0.920908,0.919783,-0.00306785,-1.67479e-05,-0.00188448,-9.70091e-12,19,0,9.25408,10.6789,-6.7493,7.53791,0.768
1.49919,1.50088,0.9209,0.919783,-0.0030986,-1.11653e-05,-0.00190337,-6.46727e-12,20,0,9.32192,10.806,-6.70385,7.61346,0.772
1.49917,1.50088,0.920893,0.919783,-0.00312949,-7.44351e-06,-0.00192234,-4.31152e-12,20,1,9.39042,10.9272,-6.65794,7.68936,0.776
1.49916,1.50088,0.920885,0.919783,-0.00316052,-4.96234e-06,-0.0019414,-2.87434e-12,20,1,9.45961,11.0445,-6.61157,7.76561,0.78
1.49915,1.50088,0.920877,0.919783,-0.00319169,-3.30823e-06,-0.00196055,-1.91623e-12,20,1,9.52949,11.1593,-6.56475,7.84219,0.784
1.49914,1.50088,0.920869,0.919783,-0.003223,-3.09964e-05,-0.00197978,-1.27749e-12,20,1,9.59815,11.172,-6.51747,7.91912,0.788
1.49912,1.50088,0.920861,0.919783,-0.00325445,-2.06643e-05,-0.0019991,-8.51657e-13,20,1,9.6694,11.3182,-6.46972,7.99639,0.792
1.49911,1.50088,0.920853,0.919783,-0.00328603,-1.37762e-05,-0.0020185,-2.87909e-05,21,1,9.74135,11.4529,-6.42358,7.95884,0.796
1.4991,1.50088,0.920845,0.919783,-0.00331776,-9.18412e-06,-0.00203799,-1.9194e-05,21,1,9.81399,11.58,-6.37491,8.07518,0.8
1.49908,1.50088,0.920837,0.919783,-0.00334962,-6.12275e-06,-0.00205756,-1.2796e-05,21,1,9.88733,11.7023,-6.32576,8.17907,0.804
1.49907,1.50088,0.920829,0.919783,-0.00338163,-4.08183e-06,-0.00207722,-8.53064e-06,21,1,9.96137,11.8214,-6.27614,8.27476,0.808
1.49906,1.50088,0.92082,0.919782,-0.00341377,-2.72122e-06,-0.00209696,-3.4478e-05,21,2,10.0361,11.9387,-6.22812,8.24994,0.812
1.49904,1.50088,0.920812,0.919783,-0.00344605,-1.81415e-06,-0.00211679,5.80558e-06,22,2,10.1116,12.0548,-6.17549,8.49039,0.816
1.49903,1.50088,0.920803,0.919782,-0.00347846,-1.20943e-06,-0.0021367,-2.49205e-05,22,2,10.1877,12.1704,-6.12652,8.44713,0.82
1.49901,1.50088,0.920795,0.919783,-0.00351102,-2.95972e-05,-0.0021567,1.21772e-05,22,2,10.2627,12.185,-6.07292,8.67551,0.824
1.499,1.50088,0.920786,0.919782,-0.00354371,-1.97315e-05,-0.00217678,-2.06728e-05,22,2,10.3403,12.3339,-6.023,8.62444,0.828
1.49899,1.50088,0.920777,0.919782,-0.00357654,-1.31543e-05,-0.00219695,-1.37818e-05,22,2,10.4187,12.4718,-5.97051,8.73266,0.832
1.49897,1.50088,0.920769,0.919782,-0.0036095,-8.76954e-06,-0.0022172,-9.1879e-06,23,2,10.4977,12.6026,-5.91754,8.83204,0.836
1.49896,1.50088,0.92076,0.919782,-0.00364261,-5.84636e-06,-0.00223753,-6.12527e-06,23,3,10.5775,12.7287,-5.86409,8.92562,0.84
1.49894,1.50088,0.920751,0.919782,-0.00367584,2.48933e-05,-0.00225795,-4.08351e-06,23,3,10.6599,12.9526,-5.81014,9.01546,0.844
1.49893,1.50088,0.920742,0.919782,-0.00370922,-1.21954e-05,-0.00227845,-2.72234e-06,23,3,10.7392,12.9396,-5.7557,9.10291,0.848
1.49891,1.50088,0.920732,0.919782,-0.00374273,-6.57121e-05,-0.00229903,-1.81489e-06,23,3,10.8174,12.8696,-5.70077,9.18888,0.852
1.4989,1.50088,0.920723,0.919782,-0.00377638,-1.50171e-05,-0.0023197,-1.20993e-06,24,3,10.902,13.1648,-5.64535,9.27397,0.856
1.49888,1.50088,0.920714,0.919782,-0.00381016,-1.00114e-05,-0.00234045,-8.06619e-07,24,3,10.9854,13.3005,-5.58943,9.35859,0.86
1.49887,1.50088,0.920704,0.919782,-0.00384408,-6.67428e-06,-0.00236129,-5.37746e-07,24,3,11.0696,13.4309,-5.53301,9.44301,0.864
1.49885,1.50088,0.920695,0.919782,-0.00387813,-3.32404e-05,-0.00238221,-3.58497e-07,24,4,11.1527,13.4571,-5.47608,9.5274,0.868
1.49884,1.50088,0.920685,0.919782,-0.00391232,-2.21603e-05,-0.00240321,-2.38998e-07,24,4,11.2384,13.6156,-5.41866,9.61188,0.872
1.49882,1.50088,0.920676,0.919782,-0.00394665,-1.47735e-05,-0.00242429,-1.59332e-07,25,4,11.3248,13.7616,-5.36073,9.69654,0.876
1.49881,1.50088,0.920666,0.919782,-0.00398111,-9.84902e-06,-0.00244546,-1.06221e-07,25,4,11.412,13.8994,-5.30229,9.78142,0.88
1.49879,1.50088,0.920656,0.919782,-0.0040157,-6.56601e-06,-0.00246671,-7.08143e-08,25,4,11.5,14.032,-5.24335,9.86656,0.884
1.49877,1.50088,0.920646,0.919782,-0.00405043,-4.37734e-06,-0.00248804,-4.72095e-08,25,4,11.5887,14.1612,-5.18389,9.95198,0.888
1.49876,1.50088,0.920636,0.919782,-0.00408529,-3.17092e-05,-0.00250946,-3.1473e-08,25,4,11.6763,14.1875,-5.12392,10.0377,0.892
1.49874,1.50088,0.920626,0.919782,-0.00412028,-2.11394e-05,-0.00253095,-2.0982e-08,26,5,11.7666,14.347,-5.06344,10.1237,0.896
1.49872,1.50088,0.920616,0.919782,-0.00415541,-1.4093e-05,-0.00255253,-2.88049e-05,26,5,11.8576,14.4946,-5.00451,10.0949,0.9
1.49871,1.50088,0.920606,0.919782,-0.00419068,-9.57681e-05,-0.00257419,9.58765e-06,26,5,11.9437,14.3322,-4.94091,10.3351,0.904
1.49869,1.50088,0.920595,0.919782,-0.00422607,-6.38454e-05,-0.00259594,-2.23992e-05,26,5,12.0363,14.5678,-4.88094,10.2941,0.908
1.49867,1.50088,0.920585,0.919782,-0.0042616,-0.000100145,-0.00261776,-1.49328e-05,26,5,12.1259,14.5651,-4.81838,10.4113,0.912
1.49866,1.50088,0.920574,0.919782,-0.00429727,-0.000181927,-0.00263967,-9.95518e-06,26,5,12.2124,14.4037,-4.75529,10.5188,0.916
1.49864,1.50088,0.920564,0.919782,-0.00433306,-0.000207658,-0.00266166,-6.63679e-06,26,5,12.3016,14.4389,-4.69168,10.6201,0.92
1.49862,1.50087,0.920553,0.919782,-0.00436899,-0.00019602,-0.00268373,-4.42453e-06,26,6,12.3936,14.6054,-4.62753,10.7172,0.924
1.4986,1.50087,0.920542,0.919782,-0.00440505,-0.000245844,-0.00270588,-2.94968e-06,27,6,12.4825,14.5572,-4.56286,10.8117,0.928
1.49859,1.50087,0.920532,0.919782,-0.00444124,-0.000307851,-0.00272811,-1.96646e-06,27,6,12.5703,14.4669,-4.49765,10.9046,0.932
1.49857,1.50087,0.920521,0.919782,-0.00447757,-0.000262816,-0.00275042,-1.31097e-06,27,6,12.6646,14.7516,-4.43191,10.9964,0.936
1.49855,1.50087,0.92051,0.919782,-0.00451403,-0.000290374,-0.00277282,-8.7398e-07,27,6,12.7559,14.7828,-4.36563,11.0878,0.94
1.49853,1.50087,0.920498,0.919782,-0.00455061,-0.000251165,-0.00279529,-2.93736e-05,27,6,12.8518,15.0481,-4.30088,11.0637,0.944
1.49851,1.50087,0.920487,0.919782,-0.00458733,-0.000167443,-0.00281785,-1.95824e-05,28,6,12.9523,15.4696,-4.23353,11.1931,0.948
1.4985,1.50087,0.920476,0.919782,-0.00462418,-0.000169211,-0.00284048,-1.30549e-05,28,7,13.0499,15.5924,-4.16563,11.3097,0.952
1.49848,1.50087,0.920464,0.919782,-0.00466117,-0.000141598,-0.0028632,-8.70328e-06,28,7,13.1501,15.8185,-4.09718,11.418,0.956
1.49846,1.50087,0.920453,0.919782,-0.00469828,-0.00012319,-0.002886,-5.80219e-06,29,7,13.2511,16.0128,-4.02819,11.5208,0.96
1.49844,1.50087,0.920441,0.919781,-0.00473552,-0.000139708,-0.00290887,-3.26591e-05,29,7,13.3511,16.0854,-3.96073,11.5049,0.964
1.49842,1.50087,0.92043,0.919781,-0.0047729,-0.000179512,-0.00293183,-2.17727e-05,29,7,13.45,16.0769,-3.89064,11.6402,0.968
1.4984,1.50087,0.920418,0.919781,-0.0048104,-0.000177256,-0.00295487,-1.45151e-05,29,7,13.5516,16.216,-3.82,11.7614,0.972
1.49838,1.50086,0.920406,0.919781,-0.00484804,-0.000175753,-0.00297799,-9.67676e-06,30,8,13.6541,16.353,-3.7488,11.8732,0.976
1.49836,1.50086,0.920394,0.919781,-0.0048858,-0.000261123,-0.00300118,-6.45117e-06,29,8,13.7516,16.1864,-3.67705,11.9789,0.98
1.49834,1.50086,0.920382,0.919781,-0.00492369,-0.000260455,-0.00302446,-4.30078e-06,30,8,13.8538,16.3213,-3.60475,12.0806,0.984
1.49832,1.50086,0.92037,0.919781,-0.00496172,-0.000346382,-0.00304782,-3.16581e-05,30,8,13.9512,16.1537,-3.53395,12.0646,0.988
1.4983,1.50086,0.920358,0.919781,-0.00499987,-0.000288503,-0.00307125,-2.11054e-05,30,8,14.057,16.4898,-3.46052,12.2006,0.992
1.49828,1.50086,0.920345,0.919781,-0.00503815,-0.000307499,-0.00309477,-1.40703e-05,30,8,14.1598,16.5573,-3.38653,12.3228,0.996
1.49826,1.50086,0.920333,0.919781,-0.00507656,-0.000320163,-0.00311836,-9.38018e-06,30,9,14.2634,16.6474,-3.31197,12.4359,1
1.49824,1.50085,0.92032,0.919781,-0.0051151,-0.000357397,-0.00314204,-6.25345e-06,31,9,14.366,16.652,-3.23685,12.5431,1.004
1.49822,1.50085,0.920308,0.919781,-0.00515377,-0.000382219,-0.00316579,-4.16897e-06,31,9,14.4695,16.7004,-3.16116,12.6465,1.008
1.4982,1.50085,0.920295,0.919781,-0.00519257,-0.000341186,-0.00318962,-2.77931e-06,31,9,14.5776,16.9798,-3.08489,12.7474,1.012
1.49818,1.50085,0.920282,0.919781,-0.00523149,-0.000371412,-0.00321353,-3.06438e-05,31,9,14.6828,17.0103,-3.01013,12.7315,1.016
1.49816,1.50085,0.920269,0.919781,-0.00527054,-0.000449144,-0.00323752,-2.04292e-05,31,9,14.785,16.8749,-2.93271,12.8684,1.02
1.49814,1.50085,0.920256,0.919781,-0.00530972,-0.000500966,-0.00326159,-1.36195e-05,31,10,14.8881,16.8306,-2.85472,12.9919,1.024
1.49812,1.50084,0.920243,0.919781,-0.00534903,-0.000535514,-0.00328573,-9.07964e-06,31,10,14.992,16.8473,-2.77616,13.1066,1.028
1.4981,1.50084,0.92023,0.91978,-0.00538846,-0.000558546,-0.00330995,-3.4844e-05,32,10,15.0968,16.9047,-2.69908,13.1004,1.032
1.49807,1.50084,0.920217,0.91978,-0.00542803,-0.000516318,-0.00333426,-2.32293e-05,32,10,15.2063,17.191,-2.61935,13.2441,1.036
1.49805,1.50084,0.920203,0.91978,-0.00546772,-0.000488167,-0.00335864,-1.54862e-05,32,10,15.3167,17.4284,-2.53904,13.3726,1.04
1.49803,1.50083,0.92019,0.91978,-0.00550753,-0.00049819,-0.00338309,-1.03242e-05,32,11,15.426,17.5327,-2.45814,13.4911,1.044
1.49801,1.50083,0.920176,0.91978,-0.00554747,-0.000591245,-0.00340763,-6.88277e-06,32,11,15.5305,17.3468,-2.37665,13.603,1.048
1.49799,1.50083,0.920163,0.91978,-0.00558754,-0.000538118,-0.00343224,-4.58851e-06,33,11,15.6435,17.673,-2.29457,13.7106,1.052
1.49796,1.50083,0.920149,0.91978,-0.00562774,-0.000617864,-0.00345693,-3.05901e-06,33,11,15.7497,17.5346,-2.2119,13.8155,1.056
1.49794,1.50082,0.920135,0.91978,-0.00566806,-0.000699818,-0.0034817,-2.03934e-06,33,11,15.855,17.3888,-2.12864,13.9186,1.06
1.49792,1.50082,0.920121,0.91978,-0.0057085,-0.000754455,-0.00350654,-3.01505e-05,33,11,15.9611,17.3392,-2.04685,13.9056,1.064
1.49789,1.50082,0.920107,0.91978,-0.00574908,-0.000877252,-0.00353147,-2.01003e-05,33,12,16.0625,17.0514,-1.96239,14.0455,1.068
1.49787,1.50081,0.920093,0.91978,-0.00578977,-0.000987908,-0.00355646,-1.34002e-05,32,12,16.1628,16.8065,-1.87734,14.1723,1.072
1.49785,1.5008,0.920078,0.91978,-0.0058306,-0.00114805,-0.00358154,-8.93348e-06,32,12,16.2583,16.3889,-1.79168,14.2904,1.076
1.49783,1.5008,0.920064,0.91978,-0.00587154,-0.0012836,-0.00360669,-5.95565e-06,32,12,16.3528,16.0578,-1.70543,14.403,1.08
1.4978,1.50079,0.92005,0.91978,-0.00591262,-0.00140276,-0.00363192,-3.27614e-05,32,12,16.4463,15.7845,-1.62064,14.3966,1.084
1.49778,1.50078,0.920035,0.91978,-0.00595381,-0.00159737,-0.00365723,-2.18409e-05,31,13,16.5332,15.2476,-1.53317,14.5416,1.088
1.49775,1.50078,0.92002,0.91978,-0.00599514,-0.00175589,-0.00368261,-1.45606e-05,31,13,16.619,14.8373,-1.44509,14.6722,1.092
1.49773,1.50077,0.920006,0.91978,-0.00603658,-0.00183279,-0.00370807,-9.70707e-06,31,13,16.7077,14.7133,-1.3564,14.7935,1.096
1.49771,1.50076,0.919991,0.919779,-0.00607815,-0.00188405,-0.00373361,-3.52623e-05,31,13,16.7972,14.6794,-1.26917,14.7934,1.1
1.49768,1.50075,0.919976,0.919779,-0.00611985,-0.00183185,-0.00375922,-2.35082e-05,31,13,16.8934,15.008,-1.17926,14.9428,1.104
1.49766,1.50075,0.919961,0.919779,-0.00616166,-0.00179705,-0.0037849,-1.56721e-05,32,13,16.9905,15.2761,-1.08873,15.0769,1.108
1.49763,1.50074,0.919945,0.919779,-0.0062036,-0.00180264,-0.00381067,-1.04481e-05,32,14,17.0866,15.4034,-0.997583,15.2009,1.112
1.49761,1.50073,0.91993,0.919779,-0.00624567,-0.00174879,-0.00383651,-6.96539e-06,32,14,17.1874,15.7391,-0.905817,15.3182,1.116
1.49758,1.50072,0.919915,0.919779,-0.00628786,-0.00177047,-0.00386242,-4.6436e-06,33,14,17.2854,15.8109,-0.81343,15.4311,1.12
1.49756,1.50072,0.919899,0.919779,-0.00633017,-0.00192888,-0.00388841,-3.18867e-05,32,14,17.3748,15.4045,-0.722493,15.4261,1.124
1.49753,1.50071,0.919884,0.919778,-0.0063726,-0.00212085,-0.00391448,-5.00487e-05,32,14,17.4594,14.8811,-0.630931,15.4577,1.128
1.49751,1.5007,0.919868,0.919778,-0.00641515,-0.00227763,-0.00394062,-3.33658e-05,32,15,17.5431,14.4813,-0.53667,15.629,1.132
1.49748,1.50068,0.919852,0.919778,-0.00645783,-0.00249731,-0.00396683,-5.10348e-05,31,15,17.6201,13.8618,-0.443854,15.6632,1.136
1.49745,1.50067,0.919836,0.919778,-0.00650063,-0.00273014,-0.00399312,-3.40232e-05,30,15,17.6923,13.1967,-0.348335,15.8364,1.14
1.49743,1.50066,0.91982,0.919778,-0.00654355,-0.00285657,-0.00401949,-2.26821e-05,30,15,17.7674,12.9045,-0.252184,15.9872,1.144
1.4974,1.50065,0.919804,0.919778,-0.0065866,-0.00299843,-0.00404593,-1.51214e-05,30,15,17.8396,12.5586,-0.155399,16.1232,1.148
1.49738,1.50063,0.919788,0.919778,-0.00662976,-0.00306422,-0.00407244,-1.00809e-05,30,16,17.9147,12.4794,-0.0579786,16.2494,1.152
1.49735,1.50062,0.919771,0.919778,-0.00667305,-0.00299291,-0.00409903,-3.55116e-05,30,16,17.9983,12.8805,0.038006,16.2541,1.156
1.49732,1.50061,0.919755,0.919777,-0.00671646,-0.00294538,-0.0041257,-5.24653e-05,31,16,18.0829,13.1988,0.13463,16.2929,1.16
1.4973,1.5006,0.919738,0.919777,-0.00675999,-0.00288489,-0.00415243,-6.37678e-05,31,16,18.1703,13.5628,0.231894,16.3547,1.164
1.49727,1.50059,0.919722,0.919776,-0.00680364,-0.00290215,-0.00417925,-0.000100094,31,16,18.2549,13.6552,0.327728,16.3166,1.168
1.49724,1.50057,0.919705,0.919776,-0.00684741,-0.00308641,-0.00420613,-6.67291e-05,31,16,18.3291,13.1635,0.428353,16.5576,1.172
1.49721,1.50056,0.919688,0.919776,-0.0068913,-0.00318045,-0.00423309,-4.44861e-05,31,17,18.4061,12.988,0.529623,16.7544,1.176
1.49719,1.50055,0.919671,0.919776,-0.00693531,-0.00327194,-0.00426013,-2.96574e-05,31,17,18.4822,12.8218,0.631542,16.9219,1.18
1.49716,1.50053,0.919654,0.919776,-0.00697944,-0.00324656,-0.00428724,-1.97716e-05,31,17,18.5649,13.0651,0.73411,17.0699,1.184
1.49713,1.50052,0.919637,0.919776,-0.00702369,-0.00325843,-0.00431442,-1.31811e-05,31,18,18.6467,13.1784,0.83733,17.205,1.188
1.4971,1.50051,0.91962,0.919776,-0.00706806,-0.00332392,-0.00434167,-8.78738e-06,31,18,18.7257,13.1045,0.941203,17.3315,1.192
1.49707,1.50049,0.919602,0.919776,-0.00711255,-0.00331,-0.004369,-3.46492e-05,32,18,18.8095,13.3089,1.04366,17.3374,1.196
1.49704,1.50048,0.919585,0.919776,-0.00715716,-0.00344468,-0.0043964,-2.30995e-05,31,18,18.8848,12.9937,1.14884,17.4932,1.2
1.49702,1.50046,0.919567,0.919776,-0.00720189,-0.00359204,-0.00442388,-4.41906e-05,31,18,18.9572,12.6345,1.25261,17.5188,1.204
1.49699,1.50045,0.919549,0.919776,-0.00724674,-0.0036615,-0.00445143,-2.94604e-05,31,19,19.0325,12.5483,1.35912,17.6879,1.208
1.49696,1.50043,0.919531,0.919776,-0.0072917,-0.00376538,-0.00447905,-1.96402e-05,31,19,19.1051,12.3421,1.46628,17.8376,1.212
1.49693,1.50042,0.919513,0.919776,-0.00733679,-0.00371947,-0.00450674,-1.30935e-05,31,19,19.1862,12.6606,1.57411,17.9746,1.216
1.4969,1.5004,0.919495,0.919775,-0.00738199,-0.00360249,-0.00453451,-3.75199e-05,32,19,19.274,13.2282,1.68053,17.988,1.22
1.49687,1.50039,0.919477,0.919775,-0.00742731,-0.00358209,-0.00456235,-5.38042e-05,32,19,19.359,13.4583,1.78762,18.0342,1.224
1.49684,1.50038,0.919459,0.919775,-0.00747275,-0.00351091,-0.00459026,-3.58695e-05,33,20,19.4487,13.8664,1.89745,18.2176,1.228
1.49681,1.50036,0.91944,0.919775,-0.00751831,-0.00352103,-0.00461824,-2.3913e-05,33,20,19.5357,13.9905,2.00796,18.3773,1.232
1.49678,1.50035,0.919422,0.919774,-0.00756398,-0.00349899,-0.0046463,-7.35238e-05,33,20,19.6256,14.2275,2.11498,18.2911,1.236
1.49675,1.50033,0.919403,0.919774,-0.00760977,-0.0034843,-0.00467443,-4.90159e-05,34,20,19.7165,14.4392,2.22683,18.5017,1.24
1.49672,1.50032,0.919384,0.919774,-0.00765568,-0.00344571,-0.00470263,-6.14682e-05,34,20,19.8103,14.7349,2.33728,18.5646,1.244
1.49669,1.50031,0.919366,0.919774,-0.00770171,-0.00333361,-0.0047309,-6.97697e-05,35,21,19.9109,15.2883,2.44841,18.6445,1.248
1.49666,1.5003,0.919347,0.919774,-0.00774785,-0.00323009,-0.00475924,-4.65131e-05,35,21,20.0143,15.8121,2.5623,18.8509,1.252
1.49663,1.50028,0.919328,0.919773,-0.00779411,-0.0031035,-0.00478766,-5.97997e-05,36,21,20.1226,16.4171,2.67478,18.9114,1.256
1.49659,1.50028,0.919308,0.919773,-0.00784048,-0.00281756,-0.00481615,-6.86574e-05,37,21,20.2451,17.5802,2.78796,18.99,1.26
1.49656,1.50027,0.919289,0.919773,-0.00788697,-0.00256936,-0.00484471,-4.57716e-05,38,22,20.3725,18.6117,2.90389,19.1957,1.264
1.49653,1.50026,0.91927,0.919773,-0.00793358,-0.00220235,-0.00487334,-3.05144e-05,40,22,20.5143,20.0593,3.0205,19.3713,1.268
1.4965,1.50026,0.91925,0.919773,-0.00798031,-0.0019001,-0.00490204,-4.91339e-05,41,22,20.6608,21.2807,3.13574,19.4116,1.272
1.49647,1.50025,0.91923,0.919773,-0.00802715,-0.00155464,-0.00493081,-3.27559e-05,43,22,20.8179,22.6538,3.25373,19.5922,1.276
1.49644,1.50025,0.919211,0.919772,-0.0080741,-0.00123796,-0.00495965,-5.06282e-05,44,23,20.9817,23.9265,3.37034,19.6361,1.28
1.4964,1.50025,0.919191,0.919772,-0.00812117,-0.000882891,-0.00498856,-9.1334e-05,46,23,21.156,25.334,3.48557,19.5889,1.284
1.49637,1.50025,0.919171,0.919772,-0.00816836,-0.000617385,-0.00501755,-6.08893e-05,47,23,21.3333,26.4284,3.60565,19.8266,1.288
1.49634,1.50025,0.919151,0.919771,-0.00821566,-0.00041159,-0.0050466,-6.93838e-05,48,23,21.5136,27.3142,3.72434,19.9089,1.292
1.4963,1.50025,0.91913,0.919771,-0.00826307,-0.000274393,-0.00507573,-7.50468e-05,49,23,21.6948,27.9604,3.84374,20.0027,1.296
1.49627,1.50025,0.91911,0.91977,-0.0083106,-0.000182929,-0.00510493,-0.000107613,50,23,21.8771,28.4469,3.96176,19.9892,1.3
1.49624,1.50025,0.919089,0.919771,-0.00835825,-0.000121953,-0.00513419,-4.29511e-05,50,24,22.0605,28.827,4.0867,20.365,1.304
1.4962,1.50025,0.919069,0.919771,-0.008406,-0.000110093,-0.00516353,-2.86341e-05,51,24,22.243,29.0357,4.21028,20.5396,1.308
1.49617,1.50025,0.919048,0.919771,-0.00845388,-0.000102186,-0.00519293,-1.90894e-05,51,25,22.4266,29.2309,4.33455,20.6954,1.312
1.49614,1.50025,0.919027,0.91977,-0.00850186,-0.000125706,-0.00522241,-7.03081e-05,51,25,22.6093,29.3165,4.45539,20.6084,1.316
1.4961,1.50025,0.919006,0.91977,-0.00854996,-0.000170177,-0.00525196,-1.80811e-05,52,25,22.7911,29.3292,4.58316,20.9355,1.32
1.49607,1.50025,0.918985,0.91977,-0.00859817,-0.000199824,-0.00528157,-1.20541e-05,52,25,22.9741,29.3942,4.70956,21.0781,1.324
1.49603,1.50024,0.918964,0.91977,-0.0086465,-0.000277171,-0.00531126,-3.6827e-05,52,25,23.1543,29.2927,4.8346,21.0977,1.328
1.496,1.50024,0.918943,0.91977,-0.00869494,-0.000328735,-0.00534101,-5.33423e-05,52,26,23.3355,29.2817,4.96035,21.1507,1.332
1.49596,1.50024,0.918921,0.919769,-0.00874349,-0.000391902,-0.00537084,-9.31433e-05,52,26,23.5159,29.2306,5.08475,21.1108,1.336
1.49593,1.50024,0.9189,0.919768,-0.00879216,-0.000376432,-0.00540073,-9.08865e-05,53,26,23.7012,29.455,5.21194,21.2394,1.34
1.49589,1.50024,0.918878,0.919768,-0.00884093,-0.000394909,-0.00543069,-8.93819e-05,53,26,23.8857,29.5611,5.33984,21.3652,1.344
1.49586,1.50024,0.918856,0.919767,-0.00888982,-0.000378436,-0.00546072,-0.00011717,53,26,24.0731,29.7899,5.46639,21.3742,1.348
1.49582,1.50023,0.918834,0.919767,-0.00893883,-0.000367455,-0.00549082,-0.000106904,54,27,24.2616,29.9998,5.59574,21.5357,1.352
1.49579,1.50023,0.918812,0.919767,-0.00898794,-0.000216179,-0.00552099,-4.24785e-05,55,27,24.4607,30.7012,5.72995,21.9141,1.356
1.49575,1.50023,0.91879,0.919767,-0.00903716,-0.00017291,-0.00555123,-8.59008e-05,55,27,24.6571,31.0249,5.85867,21.8613,1.36
1.49572,1.50023,0.918768,0.919767,-0.0090865,-0.000144064,-0.00558153,-5.72672e-05,56,28,24.8546,31.2985,5.99226,22.0971,1.364
1.49568,1.50023,0.918746,0.919767,-0.00913595,-0.000124834,-0.00561191,-3.81782e-05,56,28,25.0531,31.5389,6.12659,22.2949,1.368
1.49564,1.50023,0.918723,0.919767,-0.00918551,-0.000140804,-0.00564235,3.33882e-06,56,28,25.2508,31.6565,6.26371,22.5828,1.372
1.49561,1.50023,0.918701,0.919766,-0.00923518,-0.000180242,-0.00567286,-5.5356e-05,57,28,25.4478,31.6923,6.39535,22.47,1.376
1.49557,1.50023,0.918678,0.919766,-0.00928496,-0.000206534,-0.00570344,-3.6904e-05,57,29,25.6458,31.7745,6.53186,22.6662,1.38
1.49553,1.50023,0.918655,0.919766,-0.00933485,-0.000281644,-0.00573409,-5.33936e-05,57,29,25.8411,31.6862,6.66704,22.7228,1.384
1.49549,1.50023,0.918632,0.919766,-0.00938485,-0.000302926,-0.0057648,-6.43866e-05,57,29,26.0394,31.7867,6.80295,22.8017,1.388
1.49546,1.50023,0.918609,0.919765,-0.00943497,-0.000259533,-0.00579559,-7.17154e-05,58,29,26.2426,32.114,6.9396,22.8955,1.392
1.49542,1.50023,0.918586,0.919765,-0.00948519,-0.000288186,-0.00582644,-0.000105392,58,29,26.4432,32.1895,7.07492,22.8842,1.396
1.49538,1.50023,0.918562,0.919764,-0.00953552,-0.000192124,-0.00585735,-9.90523e-05,59,30,26.6524,32.7019,7.21305,23.0332,1.4
1.49534,1.50023,0.918539,0.919764,-0.00958596,-0.000185664,-0.00588834,-9.48258e-05,59,30,26.8589,32.9011,7.35193,23.1741,1.404
1.4953,1.50022,0.918515,0.919764,-0.00963652,-0.000181358,-0.00591939,-6.32172e-05,60,30,27.0666,33.0931,7.49362,23.4247,1.408
1.49526,1.50022,0.918491,0.919764,-0.00968718,-0.000178487,-0.00595051,-4.21448e-05,60,31,27.2753,33.2804,7.63606,23.6335,1.412
1.49523,1.50022,0.918467,0.919764,-0.00973795,-0.000118991,-0.0059817,-5.68875e-05,61,31,27.489,33.6663,7.77717,23.6992,1.416
1.49519,1.50022,0.918443,0.919763,-0.00978883,-0.000108119,-0.00601295,-9.55068e-05,61,31,27.7019,33.8825,7.91696,23.6698,1.42
1.49515,1.50022,0.918419,0.919762,-0.00983981,-0.00010087,-0.00604427,-0.000121253,62,31,27.9159,34.0863,8.0575,23.6921,1.424
1.49511,1.50022,0.918395,0.919762,-0.00989091,-0.000153619,-0.00607566,-0.000109626,62,32,28.1273,34.0805,8.20087,23.8641,1.428
1.49507,1.50022,0.918371,0.91976,-0.00994212,-0.000102413,-0.00610711,-0.000217039,62,31,28.3454,34.439,8.3367,23.5603,1.432
1.49503,1.50022,0.918346,0.919759,-0.00999343,-0.000154648,-0.00613863,-0.000202274,62,32,28.559,34.4357,8.4795,23.7454,1.436
1.49499,1.50022,0.918322,0.919758,-0.0100449,-0.000103099,-0.00617022,-0.000278804,63,32,28.7794,34.7961,8.61684,23.5656,1.44
1.49495,1.50022,0.918297,0.919757,-0.0100964,-9.75234e-05,-0.00620187,-0.000272242,63,32,28.9991,34.996,8.75909,23.7185,1.444
1.49491,1.50022,0.918272,0.919755,-0.010148,-9.38065e-05,-0.00623359,-0.000296659,64,32,29.2199,35.1897,8.90002,23.7477,1.448
1.49487,1.50022,0.918247,0.919754,-0.0101998,-0.00012012,-0.00626537,-0.000312936,64,32,29.4399,35.2787,9.04172,23.8097,1.452
1.49483,1.50022,0.918222,0.919753,-0.0102516,-0.000108871,-0.00629722,-0.000294997,65,33,29.663,35.4996,9.18625,24.0089,1.456
1.49479,1.50022,0.918197,0.919752,-0.0103036,-0.000130162,-0.00632914,-0.000311828,65,33,29.8853,35.6069,9.32947,24.0692,1.46
1.49474,1.50022,0.918171,0.919751,-0.0103556,-0.000115566,-0.00636112,-0.000236676,65,33,30.1106,35.8402,9.47968,24.4978,1.464
1.4947,1.50022,0.918146,0.919751,-0.0104078,-0.000105835,-0.00639317,-0.000215366,66,34,30.3371,36.0569,9.62859,24.7112,1.468
1.49466,1.50022,0.91812,0.91975,-0.0104601,-9.93474e-05,-0.00642528,-0.000201159,66,34,30.5648,36.2626,9.77827,24.8965,1.472
1.49462,1.50022,0.918094,0.919748,-0.0105125,-9.50225e-05,-0.00645746,-0.00024927,67,34,30.7936,36.4611,9.92457,24.8328,1.476
1.49458,1.50022,0.918068,0.919747,-0.010565,-0.00012093,-0.0064897,-0.000252553,67,35,31.0216,36.5541,10.0737,24.9486,1.48
1.49453,1.50022,0.918042,0.919747,-0.0106176,-0.000138202,-0.00652201,-0.000197159,67,35,31.2508,36.6777,10.2278,25.2994,1.484
1.49449,1.50022,0.918016,0.919746,-0.0106703,-0.000120926,-0.00655439,-0.000246603,68,35,31.4831,36.9227,10.3764,25.2311,1.488
1.49445,1.50021,0.91799,0.919745,-0.0107231,-0.000138199,-0.00658682,-0.000250775,68,35,31.7146,37.0471,10.5279,25.3442,1.492
1.49441,1.50021,0.917964,0.919743,-0.010776,-0.000149714,-0.00661933,-0.000282347,69,36,31.9473,37.1919,10.6781,25.3479,1.496
1.49436,1.50021,0.917937,0.919742,-0.010829,-0.000157391,-0.0066519,-0.000303395,69,36,32.1812,37.3506,10.829,25.394,1.5
1.49432,1.50021,0.91791,0.919741,-0.0108821,-0.00016251,-0.00668453,-0.000288636,69,36,32.4162,37.5187,10.9828,25.5836,1.504
1.49428,1.50021,0.917884,0.919739,-0.0109354,-0.000137131,-0.00671723,-0.000336379,70,36,32.6543,37.7938,11.1333,25.5234,1.508
1.49423,1.50021,0.917857,0.919737,-0.0109887,-9.14204e-05,-0.00674999,-0.000368207,71,36,32.8954,38.1404,11.2845,25.5271,1.512
1.49419,1.50021,0.91783,0.919736,-0.0110421,-6.09469e-05,-0.00678281,-0.000389426,71,37,33.1378,38.4341,11.4366,25.5735,1.516
1.49414,1.50021,0.917802,0.919733,-0.0110957,-6.94222e-05,-0.0068157,-0.000489945,71,36,33.3794,38.5919,11.5832,25.303,1.52
1.4941,1.50021,0.917775,0.91973,-0.0111493,-4.62815e-05,-0.00684866,-0.000528166,72,37,33.6241,38.8606,11.7326,25.282,1.524
1.49405,1.50021,0.917748,0.919728,-0.0112031,-5.96452e-05,-0.00688167,-0.000553647,72,37,33.8681,39.002,11.8829,25.3121,1.528
1.49401,1.50021,0.91772,0.919726,-0.0112569,-6.85544e-05,-0.00691475,-0.000541844,73,37,34.1132,39.1593,12.036,25.4916,1.532
1.49396,1.50021,0.917692,0.919723,-0.0113109,-0.000103285,-0.0069479,-0.000620348,73,37,34.3577,39.2266,12.1837,25.3102,1.536
1.49392,1.50021,0.917664,0.91972,-0.0113649,-0.000126438,-0.00698111,-0.000672683,73,37,34.6033,39.3348,12.3322,25.2337,1.54
1.49387,1.50021,0.917636,0.919717,-0.0114191,-0.000141874,-0.00701438,-0.000707574,74,37,34.8501,39.4703,12.4815,25.2272,1.544
1.49383,1.50021,0.917608,0.919713,-0.0114734,-0.000152165,-0.00704771,-0.000788416,74,37,35.0981,39.6243,12.6274,25.0372,1.548
1.49378,1.50021,0.91758,0.919709,-0.0115277,-0.000130234,-0.00708111,-0.000871102,75,37,35.3493,39.8913,12.7721,24.84,1.552
1.49374,1.50021,0.917552,0.919704,-0.0115822,-0.000115614,-0.00711457,-0.000955017,75,37,35.6016,40.1331,12.9155,24.6382,1.556
1.49369,1.50021,0.917523,0.919699,-0.0116368,-0.000105867,-0.0071481,-0.00106854,76,37,35.8551,40.3583,13.0556,24.3182,1.56
1.49364,1.50021,0.917494,0.919694,-0.0116915,-9.93687e-05,-0.00718169,-0.00114422,76,37,36.1098,40.5724,13.1964,24.1498,1.564
1.4936,1.50021,0.917466,0.919689,-0.0117463,-9.50367e-05,-0.00721534,-0.00116589,77,37,36.3657,40.7793,13.3402,24.1978,1.568
1.49355,1.50021,0.917437,0.919683,-0.0118011,-9.21487e-05,-0.00724905,-0.00123791,77,37,36.6228,40.9815,13.4806,24.0445,1.572
1.4935,1.50021,0.917408,0.919678,-0.0118561,-0.000119014,-0.00728282,-0.00125714,77,37,36.8792,41.0799,13.6238,24.1027,1.576
1.49345,1.50021,0.917378,0.919673,-0.0119112,-0.000136925,-0.00731666,-0.00126996,78,37,37.1369,41.21,13.7679,24.1868,1.58
1.49341,1.5002,0.917349,0.919668,-0.0119664,-0.000148865,-0.00735056,-0.0012785,78,38,37.3957,41.3614,13.9129,24.2882,1.584
1.49336,1.5002,0.91732,0.919663,-0.0120217,-0.000185616,-0.00738452,-0.00122662,79,38,37.6539,41.4263,14.0627,24.6316,1.588
1.49331,1.5002,0.91729,0.919659,-0.0120771,-0.000181326,-0.00741855,-0.00122082,79,39,37.9152,41.6351,14.2113,24.7909,1.592
1.49326,1.5002,0.91726,0.919654,-0.0121326,-0.000178466,-0.00745263,-0.00121695,80,39,38.1777,41.8394,14.3608,24.9427,1.596
1.49321,1.5002,0.91723,0.919649,-0.0121882,-0.00020535,-0.00748678,-0.00124316,80,39,38.4395,41.9398,14.509,24.9745,1.6
1.49316,1.5002,0.9172,0.919646,-0.0122439,-0.0001369,-0.00752099,-0.00103031,81,40,38.7083,42.3743,14.6745,25.9627,1.604
1.49311,1.5002,0.91717,0.919642,-0.0122996,-9.12667e-05,-0.00755526,-0.00100358,81,41,38.9783,42.7293,14.8327,26.2067,1.608
1.49306,1.5002,0.91714,0.919639,-0.0123555,-6.08444e-05,-0.00758959,-0.00098575,82,41,39.2495,43.0314,14.9916,26.4154,1.612
1.49302,1.5002,0.91711,0.919635,-0.0124115,-6.93539e-05,-0.00762399,-0.000973867,82,41,39.52,43.1976,15.1514,26.6005,1.616
1.49297,1.5002,0.917079,0.919631,-0.0124676,-4.62359e-05,-0.00765844,-0.000937154,83,42,39.7937,43.4748,15.314,26.8852,1.62
1.49292,1.5002,0.917048,0.919627,-0.0125238,-3.08239e-05,-0.00769296,-0.00097026,83,42,40.0686,43.7255,15.4734,26.8908,1.624
1.49287,1.5002,0.917017,0.919624,-0.0125801,-4.93402e-05,-0.00772754,-0.000905959,84,42,40.3428,43.8577,15.6397,27.2863,1.628
1.49281,1.5002,0.916986,0.91962,-0.0126365,-6.16844e-05,-0.00776218,-0.000920673,84,43,40.6183,44.0118,15.8028,27.366,1.632
1.49276,1.5002,0.916955,0.919616,-0.012693,-6.99139e-05,-0.00779688,-0.000930482,85,43,40.895,44.1807,15.9667,27.4656,1.636
1.49271,1.5002,0.916924,0.919612,-0.0127496,-7.54002e-05,-0.00783164,-0.000965812,85,43,41.173,44.3596,16.1294,27.4633,1.64
1.49266,1.5002,0.916893,0.919607,-0.0128063,-0.000107849,-0.00786646,-0.00110453,85,43,41.4503,44.4444,16.2846,27.0477,1.644
1.49261,1.5002,0.916861,0.919602,-0.012863,-0.000129481,-0.00790134,-0.00116822,86,43,41.7289,44.5675,16.4427,26.9325,1.648
1.49256,1.5002,0.916829,0.919595,-0.0129199,-0.000172693,-0.00793628,-0.00129705,86,43,42.0068,44.6153,16.5955,26.5569,1.652
1.49251,1.5002,0.916798,0.919588,-0.0129769,-0.000201502,-0.00797128,-0.00144052,86,42,42.2859,44.7139,16.7449,26.1231,1.656
1.49246,1.50019,0.916766,0.919581,-0.013034,-0.000220707,-0.00800635,-0.00162254,87,42,42.5664,44.8465,16.8889,25.5352,1.66
1.4924,1.50019,0.916734,0.919572,-0.0130912,-0.00020472,-0.00804147,-0.00180146,87,41,42.8499,45.1026,17.0297,24.96,1.664
1.49235,1.50019,0.916701,0.919563,-0.0131484,-0.000194062,-0.00807665,-0.00197833,88,41,43.1348,45.3403,17.1671,24.3933,1.668
1.4923,1.50019,0.916669,0.919554,-0.0132058,-0.000158165,-0.00811189,-0.00203866,89,41,43.4228,45.6668,17.3096,24.2929,1.672
1.49225,1.50019,0.916636,0.919545,-0.0132633,-0.000134235,-0.00814719,-0.00207888,89,41,43.712,45.9517,17.4529,24.2733,1.676
1.49219,1.50019,0.916604,0.919538,-0.0133209,-0.000147072,-0.00818256,-0.00201932,90,42,44.0007,46.1082,17.6032,24.6529,1.68
1.49214,1.50019,0.916571,0.91953,-0.0133785,-0.000126839,-0.00821798,-0.00195082,90,42,44.2924,46.3809,17.7565,25.0686,1.684
1.49208,1.50019,0.916538,0.919524,-0.0134363,-8.45591e-05,-0.00825346,-0.00184758,91,43,44.5874,46.731,17.9148,25.6235,1.688
1.49203,1.50019,0.916505,0.919518,-0.0134941,-8.51637e-05,-0.008289,-0.00172116,91,44,44.8817,46.9314,18.078,26.2713,1.692
1.49198,1.50019,0.916472,0.919511,-0.0135521,-8.55667e-05,-0.0083246,-0.00169447,92,44,45.1774,47.1328,18.238,26.5205,1.696
1.49192,1.50019,0.916438,0.919506,-0.0136101,-8.58354e-05,-0.00836025,-0.0015903,92,45,45.4742,47.3351,18.4051,27.0798,1.7
1.49187,1.50019,0.916405,0.919499,-0.0136683,-8.60145e-05,-0.00839597,-0.00163602,93,45,45.7724,47.5379,18.5647,27.0398,1.704
1.49181,1.50019,0.916371,0.919492,-0.0137265,-8.61339e-05,-0.00843175,-0.0016665,93,45,46.0718,47.7414,18.7251,27.061,1.708
1.49176,1.50019,0.916337,0.919485,-0.0137849,-0.000115004,-0.00846758,-0.00168682,94,46,46.3707,47.8445,18.8865,27.1231,1.712
1.4917,1.50019,0.916303,0.919478,-0.0138433,-0.000134251,-0.00850348,-0.00175795,94,46,46.6708,47.9817,19.0445,26.9821,1.716
1.49165,1.50019,0.916269,0.91947,-0.0139018,-0.000175874,-0.00853943,-0.00183415,95,46,46.9703,48.0408,19.2014,26.8211,1.72
1.49159,1.50019,0.916235,0.919461,-0.0139604,-0.000232413,-0.00857544,-0.00194254,95,45,47.2692,48.0481,19.3549,26.5316,1.724
1.49154,1.50019,0.916201,0.919452,-0.0140192,-0.000241315,-0.00861151,-0.00207238,95,45,47.5712,48.2225,19.5052,26.1565,1.728
1.49148,1.50018,0.916166,0.919443,-0.014078,-0.000247249,-0.00864763,-0.00210136,96,45,47.8746,48.4076,19.6605,26.1851,1.732
1.49142,1.50018,0.916132,0.919434,-0.0141369,-0.000222415,-0.00868382,-0.00217826,96,45,48.1812,48.7007,19.8125,26.0222,1.736
1.49137,1.50018,0.916097,0.919425,-0.0141959,-0.000234649,-0.00872006,-0.00220074,97,46,48.4871,48.8643,19.9674,26.0773,1.74
1.49131,1.50018,0.916062,0.919416,-0.014255,-0.000214015,-0.00875636,-0.00221572,97,46,48.7963,49.1434,20.1233,26.1626,1.744
1.49125,1.50018,0.916027,0.919407,-0.0143142,-0.000200258,-0.00879272,-0.00222571,98,46,49.1067,49.3987,20.2799,26.268,1.748
1.4912,1.50018,0.915992,0.919397,-0.0143735,-0.000191087,-0.00882914,-0.00226116,99,46,49.4185,49.6383,20.4354,26.2719,1.752
1.49114,1.50018,0.915956,0.919387,-0.0144328,-0.000184973,-0.00886561,-0.00237117,99,46,49.7316,49.8675,20.5856,25.9778,1.756
1.49108,1.50018,0.915921,0.919376,-0.0144923,-0.000152107,-0.00890214,-0.00250209,100,46,50.0478,50.1907,20.7325,25.6002,1.76
1.49102,1.50018,0.915885,0.919364,-0.0145519,-0.000130195,-0.00893873,-0.00270453,100,45,50.3654,50.4759,20.8719,24.9368,1.764
1.49096,1.50018,0.915849,0.919352,-0.0146115,-8.67969e-05,-0.00897538,-0.00272433,101,46,50.6862,50.8366,21.0206,25.0042,1.768
1.4909,1.50018,0.915813,0.919343,-0.0146713,-5.78646e-05,-0.00901208,-0.00259358,102,46,51.0083,51.147,21.1804,25.674,1.772
1.49085,1.50018,0.915777,0.919336,-0.0147311,-6.73673e-05,-0.00904884,-0.00233366,102,48,51.3299,51.3231,21.3536,26.8607,1.776
1.49079,1.50018,0.915741,0.919332,-0.0147911,-4.49115e-05,-0.00908565,-0.00187247,103,50,51.6546,51.6115,21.5485,28.8527,1.78
1.49073,1.50018,0.915704,0.919331,-0.0148511,-5.8732e-05,-0.00912253,-0.00136348,103,52,51.9788,51.7732,21.7587,31.0362,1.784
1.49067,1.50018,0.915668,0.919331,-0.0149112,-6.79456e-05,-0.00915946,-0.000908986,104,54,52.3043,51.9514,21.978,33.0019,1.788
1.49061,1.50018,0.915631,0.919331,-0.0149714,-0.000102879,-0.00919645,-0.000605991,104,56,52.6292,52.0399,22.1983,34.3618,1.792
1.49055,1.50018,0.915594,0.919331,-0.0150317,-0.000126168,-0.00923349,-0.000403994,105,57,52.9554,52.1695,22.4195,35.318,1.796
1.49049,1.50018,0.915557,0.919331,-0.0150921,-0.000170485,-0.00927059,-0.000269329,105,58,53.2811,52.2257,22.6415,36.005,1.8
1.49043,1.50017,0.91552,0.919331,-0.0151526,-0.00022882,-0.00930774,-0.000179553,105,59,53.6062,52.2333,22.8645,36.5128,1.804
1.49037,1.50017,0.915483,0.919331,-0.0152132,-0.000210129,-0.00934496,-0.000119702,106,59,53.9364,52.5107,23.0883,36.901,1.808
1.49031,1.50017,0.915445,0.919331,-0.0152739,-0.000226459,-0.00938222,-7.98013e-05,106,60,54.266,52.6659,23.313,37.2097,1.812
1.49024,1.50017,0.915408,0.919331,-0.0153346,-0.000208554,-0.00941955,-5.32008e-05,107,61,54.5989,52.9412,23.5386,37.4654,1.816
1.49018,1.50017,0.91537,0.919331,-0.0153955,-0.000196618,-0.00945693,-3.54672e-05,108,61,54.9332,53.196,23.7652,37.6858,1.82
1.49012,1.50017,0.915332,0.919331,-0.0154564,-0.00015987,-0.00949436,-2.36448e-05,108,61,55.2706,53.5379,23.9926,37.8829,1.824
1.49006,1.50017,0.915294,0.919331,-0.0155175,-0.00010658,-0.00953185,-1.57632e-05,109,62,55.6113,53.938,24.2209,38.0644,1.828
1.49,1.50017,0.915256,0.919331,-0.0155786,-0.000128635,-0.0095694,-1.05088e-05,110,62,55.9496,54.0748,24.4501,38.2356,1.832
1.48993,1.50017,0.915217,0.919331,-0.0156398,-0.000114548,-0.009607,-7.00587e-06,110,63,56.2911,54.3383,24.6802,38.4,1.836
1.48987,1.50017,0.915179,0.919331,-0.0157011,-0.000105156,-0.00964466,-4.67058e-06,111,63,56.6339,54.5858,24.9112,38.5599,1.84
1.48981,1.50017,0.91514,0.919331,-0.0157625,-9.88949e-05,-0.00968237,-3.11372e-06,111,63,56.9781,54.8226,25.1432,38.717,1.844
1.48975,1.50017,0.915101,0.919331,-0.015824,-9.47209e-05,-0.00972014,-2.07581e-06,112,64,57.3237,55.0524,25.376,38.8722,1.848
1.48968,1.50017,0.915062,0.919331,-0.0158855,-9.19382e-05,-0.00975796,-1.38388e-06,112,64,57.6706,55.2776,25.6097,39.0263,1.852
1.48962,1.50017,0.915023,0.919331,-0.0159472,-9.0083e-05,-0.00979584,-9.22584e-07,113,65,58.0189,55.4999,25.8444,39.1797,1.856
1.48956,1.50017,0.914984,0.919331,-0.016009,-8.88463e-05,-0.00983377,-6.15056e-07,114,65,58.3685,55.7204,26.0799,39.3326,1.86
1.48949,1.50017,0.914945,0.919331,-0.0160708,-0.000116813,-0.00987175,-4.10037e-07,114,65,58.7176,55.8389,26.3164,39.4854,1.864
1.48943,1.50017,0.914905,0.919331,-0.0161327,-0.000164248,-0.00990979,2.85176e-05,114,66,59.0661,55.8897,26.5559,39.7532,1.868
1.48936,1.50017,0.914865,0.919331,-0.0161947,-0.00016708,-0.00994789,1.90117e-05,115,66,59.4179,56.0968,26.7941,39.8676,1.872
1.4893,1.50016,0.914826,0.91933,-0.0162568,-0.00019776,-0.00998604,-4.49074e-05,115,66,59.7692,56.2068,27.0292,39.7645,1.876
1.48923,1.50016,0.914785,0.91933,-0.016319,-0.000218213,-0.0100242,-2.99383e-05,116,67,60.1218,56.3529,27.2693,39.9772,1.88
1.48917,1.50016,0.914745,0.91933,-0.0163813,-0.000203057,-0.0100625,-1.99588e-05,117,67,60.4777,56.6239,27.5104,40.1702,1.884
1.4891,1.50016,0.914705,0.91933,-0.0164437,-0.000135371,-0.0101008,-1.33059e-05,117,68,60.8388,57.0791,27.7523,40.35,1.888
1.48903,1.50016,0.914665,0.91933,-0.0165061,-0.000119038,-0.0101392,-8.87059e-06,118,68,61.1993,57.3549,27.9952,40.5212,1.892
1.48897,1.50016,0.914624,0.91933,-0.0165687,-0.00010815,-0.0101776,-5.91373e-06,119,68,61.5612,57.6119,28.239,40.6867,1.896
1.4889,1.50016,0.914583,0.91933,-0.0166313,-7.20999e-05,-0.0102161,-3.94249e-06,119,69,61.9264,57.9573,28.4837,40.8485,1.9
1.48884,1.50016,0.914542,0.91933,-0.016694,-4.80666e-05,-0.0102546,-2.62832e-06,120,69,62.293,58.2609,28.7294,41.0079,1.904
1.48877,1.50016,0.914501,0.91933,-0.0167569,-6.08353e-05,-0.0102932,-1.75222e-06,121,70,62.6591,58.4361,28.976,41.1657,1.908
1.4887,1.50016,0.91446,0.91933,-0.0168197,-1.1766e-05,-0.0103318,-2.99591e-05,121,70,63.0303,58.8279,29.2214,41.2074,1.912
1.48863,1.50016,0.914418,0.91933,-0.0168827,-6.54258e-05,-0.0103705,-1.99727e-05,122,70,63.3973,58.8605,29.4698,41.4021,1.916
1.48857,1.50016,0.914377,0.91933,-0.0169458,-4.36172e-05,-0.0104092,-4.21061e-05,122,71,63.7694,59.1576,29.7171,41.4685,1.92
1.4885,1.50016,0.914335,0.91933,-0.0170089,-5.78691e-05,-0.010448,-2.80707e-05,123,71,64.141,59.3288,29.9674,41.6798,1.924
1.48843,1.50016,0.914293,0.91933,-0.0170722,-6.73703e-05,-0.0104869,-1.87138e-05,124,72,64.514,59.5168,30.2186,41.8726,1.928
1.48836,1.50016,0.914251,0.919329,-0.0171355,-0.000102495,-0.0105258,-7.00577e-05,124,72,64.8864,59.6155,30.4666,41.8229,1.932
1.48829,1.50016,0.914209,0.919329,-0.0171989,-0.000154703,-0.0105647,-1.79142e-05,124,72,65.2584,59.6547,30.7218,42.1872,1.936
1.48822,1.50016,0.914167,0.919329,-0.0172624,-0.000160717,-0.0106037,-4.07337e-05,125,73,65.6337,59.8559,30.9737,42.252,1.94
1.48816,1.50016,0.914124,0.919329,-0.017326,-0.000164727,-0.0106428,-5.59468e-05,126,73,66.0104,60.0644,31.2266,42.3473,1.944
1.48809,1.50016,0.914082,0.919329,-0.0173897,-0.0001674,-0.0106819,-3.72978e-05,126,74,66.3884,60.2779,31.4825,42.5784,1.948
1.48802,1.50016,0.914039,0.919328,-0.0174534,-0.000169182,-0.010721,-8.24471e-05,127,74,66.7679,60.4948,31.7352,42.5544,1.952
1.48795,1.50016,0.913996,0.919328,-0.0175172,-0.00017037,-0.0107603,-8.37556e-05,127,74,67.1488,60.7141,31.9909,42.706,1.956
1.48788,1.50015,0.913953,0.919327,-0.0175812,-0.000171162,-0.0107995,-8.4628e-05,128,75,67.5311,60.935,32.2475,42.8596,1.96
1.48781,1.50015,0.913909,0.919327,-0.0176452,-0.00017169,-0.0108388,-5.64187e-05,129,75,67.9148,61.1572,32.5072,43.1297,1.964
1.48773,1.50015,0.913866,0.919327,-0.0177093,-0.000172042,-0.0108782,-6.64034e-05,129,76,68.2999,61.3803,32.7657,43.2472,1.968
1.48766,1.50015,0.913822,0.919327,-0.0177734,-0.000172276,-0.0109176,-4.42689e-05,130,76,68.6864,61.6041,33.0273,43.4934,1.972
1.48759,1.50015,0.913779,0.919327,-0.0178377,-0.000172433,-0.0109571,-5.83035e-05,130,76,69.0743,61.8284,33.2877,43.5952,1.976
1.48752,1.50015,0.913735,0.919327,-0.017902,-0.000172537,-0.0109966,-3.8869e-05,131,77,69.4636,62.0533,33.5511,43.831,1.98
1.48745,1.50015,0.913691,0.919326,-0.0179665,-0.000172606,-0.0110362,-5.47036e-05,132,77,69.8544,62.2785,33.8135,43.926,1.984
1.48738,1.50015,0.913646,0.919326,-0.018031,-0.000172653,-0.0110758,-3.64691e-05,132,78,70.2465,62.5041,34.0788,44.1574,1.988
1.48731,1.50015,0.913602,0.919326,-0.0180956,-0.000201475,-0.0111155,-5.31036e-05,133,78,70.6382,62.6293,34.343,44.2496,1.992
1.48723,1.50015,0.913558,0.919326,-0.0181602,-0.000220689,-0.0111552,-3.54024e-05,133,79,71.0314,62.7884,34.6103,44.4793,1.996
1.48716,1.50015,0.913513,0.919326,-0.018225,-0.000233499,-0.011195,-2.36016e-05,134,79,71.4259,62.9703,34.8785,44.6856,2
1.48709,1.50015,0.913468,0.919326,-0.0182898,-0.000242039,-0.0112348,-4.45253e-05,134,79,71.8219,63.1673,35.1456,44.7613,2.004
1.48701,1.50014,0.913423,0.919326,-0.0183548,-0.000334105,-0.0112747,-2.96836e-05,135,80,72.2135,63.0723,35.4157,44.9801,2.008
1.48694,1.50014,0.913378,0.919325,-0.0184198,-0.000395482,-0.0113147,-7.73709e-05,135,80,72.6067,63.085,35.6826,44.9491,2.012
1.48687,1.50014,0.913332,0.919325,-0.0184849,-0.000407609,-0.0113546,-8.03715e-05,136,81,73.0031,63.2704,35.9526,45.097,2.016
1.48679,1.50014,0.913287,0.919324,-0.01855,-0.000502067,-0.0113947,-8.23719e-05,136,81,73.3953,63.1679,36.2235,45.2492,2.02
1.48672,1.50013,0.913241,0.919323,-0.0186153,-0.000565039,-0.0114347,-0.000112496,136,81,73.7889,63.1759,36.4933,45.289,2.024
1.48664,1.50013,0.913195,0.919323,-0.0186806,-0.000635811,-0.0114749,-0.000132579,137,82,74.1821,63.1568,36.7641,45.3692,2.028
1.48657,1.50013,0.913149,0.919322,-0.018746,-0.00062541,-0.0115151,-0.000145968,138,82,74.5805,63.4222,37.0358,45.4764,2.032
1.48649,1.50013,0.913103,0.919321,-0.0188115,-0.000560895,-0.0115553,-0.000154894,138,82,74.9841,63.8772,37.3085,45.6016,2.036
1.48642,1.50013,0.913057,0.919321,-0.0188771,-0.000489094,-0.0115956,-0.000160844,139,83,75.3911,64.3581,37.5822,45.7389,2.04
1.48634,1.50012,0.913011,0.91932,-0.0189428,-0.000383644,-0.0116359,-0.000136021,140,83,75.8033,64.9569,37.8589,45.9996,2.044
1.48627,1.50012,0.912964,0.91932,-0.0190085,-0.000284554,-0.0116763,-9.06804e-05,141,84,76.2188,65.5339,38.1386,46.3425,2.048
1.48619,1.50012,0.912917,0.91932,-0.0190743,-0.000218493,-0.0117167,-8.92445e-05,142,84,76.6359,65.9954,38.4173,46.5099,2.052
1.48611,1.50012,0.91287,0.91932,-0.0191402,-0.000145662,-0.0117572,-8.82873e-05,143,85,77.0562,66.481,38.6969,46.6757,2.056
1.48604,1.50012,0.912823,0.919319,-0.0192062,-9.71082e-05,-0.0117977,-8.76491e-05,144,85,77.478,66.8819,38.9775,46.8404,2.06
1.48596,1.50012,0.912776,0.919319,-0.0192723,-9.35297e-05,-0.0118383,-8.72237e-05,145,86,77.8994,67.1256,39.259,47.0044,2.064
1.48588,1.50012,0.912728,0.919318,-0.0193384,-6.23531e-05,-0.0118789,-0.000115731,145,86,78.3241,67.4662,39.5395,47.0529,2.068
1.48581,1.50012,0.912681,0.919318,-0.0194046,-7.03597e-05,-0.0119196,-0.000134736,146,86,78.7484,67.67,39.8209,47.1396,2.072
1.48573,1.50012,0.912633,0.919317,-0.0194709,-7.56974e-05,-0.0119604,-0.000176197,147,87,79.1741,67.8834,40.1013,47.1366,2.076
1.48565,1.50012,0.912585,0.919316,-0.0195373,-7.92558e-05,-0.0120011,-0.000175046,147,87,79.6013,68.1033,40.3846,47.3043,2.08
1.48557,1.50012,0.912537,0.919314,-0.0196038,-8.16282e-05,-0.012042,-0.000231861,148,87,80.03,68.3276,40.6649,47.2404,2.084
1.48549,1.50012,0.912489,0.919313,-0.0196703,-0.000112001,-0.0120828,-0.000269738,148,88,80.4582,68.4542,40.9461,47.2524,2.088
1.48541,1.50012,0.91244,0.919312,-0.019737,-0.000132249,-0.0121238,-0.000294989,149,88,80.8878,68.6165,41.2283,47.315,2.092
1.48533,1.50012,0.912392,0.919311,-0.0198036,-0.000145748,-0.0121647,-0.000283032,150,89,81.319,68.8027,41.5135,47.5268,2.096
1.48526,1.50012,0.912343,0.91931,-0.0198704,-0.000183538,-0.0122057,-0.000275061,150,89,81.7497,68.9041,41.7997,47.7227,2.1
1.48518,1.50012,0.912294,0.919309,-0.0199373,-0.000208731,-0.0122468,-0.000269747,151,89,82.1819,69.0499,42.0869,47.9082,2.104
1.4851,1.50012,0.912245,0.919307,-0.0200042,-0.000225527,-0.0122879,-0.000294995,151,90,82.6155,69.2254,42.3731,47.9717,2.108
1.48502,1.50012,0.912196,0.919306,-0.0200712,-0.000265515,-0.0123291,-0.000283036,152,90,83.0488,69.32,42.6623,48.1842,2.112
1.48494,1.50011,0.912146,0.919305,-0.0201383,-0.000263383,-0.0123703,-0.000275063,153,91,83.4854,69.5623,42.9524,48.3809,2.116
1.48485,1.50011,0.912097,0.919304,-0.0202055,-0.000290752,-0.0124116,-0.000269748,153,91,83.9216,69.7016,43.2436,48.5672,2.12
1.48477,1.50011,0.912047,0.919303,-0.0202727,-0.000308999,-0.0124529,-0.000294996,154,92,84.3592,69.8731,43.5337,48.6315,2.124
1.48469,1.50011,0.911997,0.919302,-0.0203401,-0.000349954,-0.0124942,-0.000254246,154,92,84.7965,69.9654,43.8289,48.9599,2.128
1.48461,1.50011,0.911947,0.919301,-0.0204075,-0.000348466,-0.0125356,-0.000227079,155,93,85.2371,70.2065,44.1251,49.2342,2.132
1.48453,1.50011,0.911897,0.9193,-0.0204749,-0.000347474,-0.0125771,-0.000237759,156,93,85.6792,70.4461,44.4202,49.3572,2.136
1.48445,1.50011,0.911847,0.9193,-0.0205425,-0.000289231,-0.0126186,-0.000216088,157,94,86.1266,70.8864,44.7184,49.6099,2.14
1.48437,1.50011,0.911796,0.919299,-0.0206101,-0.000279194,-0.0126601,-0.000172849,157,94,86.5736,71.1582,45.0197,49.949,2.144
1.48428,1.50011,0.911745,0.919299,-0.0206778,-0.000243711,-0.0127017,-0.000172815,158,95,87.0239,71.5194,45.3199,50.1155,2.148
1.4842,1.5001,0.911694,0.919298,-0.0207456,-0.000220056,-0.0127433,-0.000172792,159,95,87.4758,71.8394,45.6211,50.2822,2.152
1.48412,1.5001,0.911643,0.919297,-0.0208135,-0.000175495,-0.012785,-0.000172776,160,96,87.931,72.2329,45.9233,50.449,2.156
1.48403,1.5001,0.911592,0.919296,-0.0208814,-0.000116997,-0.0128268,-0.000201557,161,96,88.3897,72.6754,46.2244,50.5008,2.16
1.48395,1.5001,0.911541,0.919295,-0.0209494,-0.000106789,-0.0128685,-0.000249535,161,97,88.8479,72.9492,46.5245,50.476,2.164
1.48387,1.5001,0.911489,0.919294,-0.0210175,-0.000128774,-0.0129104,-0.000252729,162,97,89.3057,73.1106,46.8276,50.6305,2.168
1.48378,1.5001,0.911437,0.919291,-0.0210857,-0.000143431,-0.0129522,-0.000370023,163,97,89.7651,73.2978,47.1234,50.3288,2.172
1.4837,1.5001,0.911386,0.919289,-0.0211539,-0.000124412,-0.0129941,-0.000448218,163,97,90.2278,73.6032,47.4203,50.1837,2.176
1.48361,1.5001,0.911333,0.919286,-0.0212222,-0.000140523,-0.0130361,-0.000557931,164,97,90.6902,73.786,47.714,49.9127,2.18
1.48353,1.5001,0.911281,0.919283,-0.0212906,-0.000151264,-0.0130781,-0.000631072,165,97,91.154,73.9877,48.0087,49.7882,2.184
1.48344,1.5001,0.911229,0.91928,-0.0213591,-0.000158424,-0.0131202,-0.000679833,165,98,91.6193,74.2023,48.3044,49.7614,2.188
1.48336,1.5001,0.911176,0.919276,-0.0214276,-0.00022078,-0.0131623,-0.00071234,166,98,92.0824,74.2239,48.6012,49.7997,2.192
1.48327,1.5001,0.911124,0.919274,-0.0214962,-0.000291141,-0.0132044,-0.000705221,166,98,92.5451,74.2178,48.901,49.9968,2.196
1.48318,1.5001,0.911071,0.919271,-0.0215649,-0.000338049,-0.0132466,-0.000700475,167,99,93.0092,74.2941,49.2018,50.1846,2.2
1.4831,1.50009,0.911018,0.919268,-0.0216337,-0.000398111,-0.0132889,-0.000697311,167,99,93.473,74.3245,49.5036,50.3662,2.204
1.48301,1.50009,0.910964,0.919266,-0.0217025,-0.000438153,-0.0133311,-0.000637619,168,100,93.9383,74.4253,49.8106,50.7741,2.208
1.48292,1.50009,0.910911,0.919264,-0.0217714,-0.000378475,-0.0133735,-0.000597825,169,101,94.4108,74.8754,50.1187,51.1026,2.212
1.48284,1.50009,0.910857,0.919262,-0.0218404,-0.000396271,-0.0134158,-0.000571296,169,101,94.881,75.0545,50.4277,51.3782,2.216
1.48275,1.50009,0.910804,0.919261,-0.0219095,-0.000350554,-0.0134583,-0.000496027,170,102,95.3566,75.4562,50.7419,51.8489,2.22
1.48266,1.50009,0.91075,0.919259,-0.0219786,-0.000320075,-0.0135007,-0.00050343,171,103,95.8337,75.8049,51.053,51.9892,2.224
1.48257,1.50009,0.910696,0.919257,-0.0220478,-0.000299756,-0.0135432,-0.000479575,172,103,96.3123,76.1182,51.3671,52.2546,2.228
1.48249,1.50008,0.910641,0.919255,-0.0221171,-0.000315001,-0.0135858,-0.000463671,173,104,96.7905,76.3073,51.6823,52.4885,2.232
1.4824,1.50008,0.910587,0.919253,-0.0221864,-0.000353955,-0.0136284,-0.00048186,173,104,97.2683,76.4137,51.9964,52.5861,2.236
1.48231,1.50008,0.910532,0.919251,-0.0222559,-0.000351134,-0.013671,-0.000465194,174,105,97.7496,76.6666,52.3137,52.8234,2.24
1.48222,1.50008,0.910478,0.919249,-0.0223254,-0.000320462,-0.0137137,-0.000482875,175,105,98.2343,77.0172,52.6298,52.9234,2.244
1.48213,1.50008,0.910423,0.919247,-0.0223949,-0.000328805,-0.0137565,-0.000523453,175,105,98.7186,77.2314,52.945,52.932,2.248
1.48204,1.50008,0.910368,0.919244,-0.0224646,-0.000276785,-0.0137992,-0.000550505,176,106,99.2082,77.6573,53.2611,52.9949,2.252
1.48195,1.50008,0.910312,0.919242,-0.0225343,-0.000242105,-0.0138421,-0.00056854,177,106,99.6994,78.0226,53.5783,53.0941,2.256
1.48186,1.50008,0.910257,0.919239,-0.0226041,-0.000218985,-0.0138849,-0.000609354,178,106,100.192,78.3478,53.8945,53.1023,2.26
1.48177,1.50008,0.910201,0.919236,-0.0226739,-0.000174781,-0.0139278,-0.000636563,179,107,100.688,78.747,54.2116,53.1651,2.264
1.48168,1.50008,0.910145,0.919234,-0.0227439,-0.000116521,-0.0139708,-0.000654703,180,107,101.188,79.1957,54.5298,53.2644,2.268
1.48159,1.50008,0.910089,0.919231,-0.0228139,-0.000106471,-0.0140138,-0.000666796,181,108,101.687,79.4758,54.8491,53.388,2.272
1.4815,1.50008,0.910033,0.919228,-0.0228839,-7.0981e-05,-0.0140568,-0.000646067,182,108,102.19,79.8453,55.1714,53.6431,2.276
1.4814,1.50008,0.909977,0.919226,-0.0229541,-7.61116e-05,-0.0140999,-0.000632248,182,109,102.692,80.0728,55.4948,53.8707,2.28
1.48131,1.50008,0.90992,0.919224,-0.0230243,-5.0741e-05,-0.014143,-0.000623035,183,109,103.198,80.4074,55.8192,54.0801,2.284
1.48122,1.50007,0.909864,0.919221,-0.0230946,-6.26183e-05,-0.0141862,-0.000616893,184,110,103.703,80.6118,56.1446,54.2773,2.288
1.48113,1.50007,0.909807,0.919218,-0.0231649,-7.05365e-05,-0.0142294,-0.00064159,185,110,104.21,80.8303,56.469,54.3514,2.292
1.48103,1.50007,0.90975,0.919216,-0.0232353,-7.58152e-05,-0.0142727,-0.000629263,185,111,104.719,81.0584,56.7965,54.5737,2.296
1.48094,1.50007,0.909693,0.919213,-0.0233058,-0.000108125,-0.014316,-0.000649836,186,111,105.227,81.192,57.123,54.6647,2.3
1.48085,1.50007,0.909635,0.91921,-0.0233764,-0.000158456,-0.0143593,-0.000692342,186,112,105.735,81.2628,57.4485,54.668,2.304
1.48075,1.50007,0.909578,0.919207,-0.023447,-0.000220801,-0.0144027,-0.00072068,187,112,106.242,81.2918,57.775,54.7282,2.308
1.48066,1.50007,0.90952,0.919204,-0.0235177,-0.000319946,-0.0144462,-0.000739572,187,112,106.747,81.1923,58.1025,54.8264,2.312
1.48057,1.50007,0.909462,0.919201,-0.0235885,-0.000414834,-0.0144896,-0.000752166,188,113,107.252,81.1079,58.4311,54.9499,2.316
1.48047,1.50006,0.909404,0.919198,-0.0236594,-0.000478093,-0.0145332,-0.000731771,188,113,107.759,81.1344,58.7627,55.2055,2.32
1.48038,1.50006,0.909346,0.919195,-0.0237303,-0.000549056,-0.0145767,-0.000746966,189,114,108.265,81.1343,59.0934,55.319,2.324
1.48028,1.50006,0.909288,0.919192,-0.0238013,-0.000625155,-0.0146203,-0.000728305,189,114,108.77,81.1164,59.4272,55.5681,2.328
1.48019,1.50005,0.909229,0.919189,-0.0238723,-0.000675889,-0.014664,-0.000715864,190,115,109.278,81.1875,59.762,55.7924,2.332
1.48009,1.50005,0.90917,0.919187,-0.0239434,-0.000709711,-0.0147076,-0.000678779,191,116,109.787,81.318,60.1,56.1155,2.336
1.47999,1.50005,0.909111,0.919184,-0.0240146,-0.00076105,-0.0147514,-0.000682847,191,116,110.295,81.3875,60.4369,56.2741,2.34
1.4799,1.50005,0.909052,0.919182,-0.0240859,-0.000737694,-0.0147951,-0.000656768,192,117,110.809,81.7186,60.7769,56.5535,2.344
1.4798,1.50004,0.908993,0.919179,-0.0241572,-0.000635751,-0.014839,-0.000696963,193,117,111.33,82.3251,61.1139,56.568,2.348
1.47971,1.50004,0.908934,0.919176,-0.0242286,-0.000567788,-0.0148828,-0.000666179,194,118,111.853,82.8128,61.456,56.8665,2.352
1.47961,1.50004,0.908874,0.919173,-0.0243001,-0.000436107,-0.0149267,-0.000703237,195,118,112.383,83.5238,61.7951,56.8939,2.356
1.47951,1.50004,0.908814,0.91917,-0.0243716,-0.000290738,-0.0149706,-0.000699152,197,119,112.918,84.2829,62.1373,57.086,2.36
1.47941,1.50004,0.908754,0.919167,-0.0244432,-0.000222616,-0.0150146,-0.000754011,198,119,113.453,84.772,62.4764,57.0425,2.364
1.47932,1.50004,0.908694,0.919164,-0.0245148,-0.000148411,-0.0150586,-0.000790583,199,119,113.992,85.2825,62.8165,57.0723,2.368
1.47922,1.50004,0.908634,0.91916,-0.0245866,-9.89406e-05,-0.0151027,-0.000786174,200,120,114.532,85.7067,63.1598,57.2662,2.372
1.47912,1.50004,0.908573,0.919158,-0.0246584,-9.47514e-05,-0.0151468,-0.000754443,201,121,115.072,85.9727,63.5062,57.5695,2.376
1.47902,1.50004,0.908513,0.919155,-0.0247302,-6.31676e-05,-0.015191,-0.00073329,201,121,115.615,86.3347,63.8537,57.8307,2.38
1.47892,1.50004,0.908452,0.919152,-0.0248022,-7.09026e-05,-0.0152351,-0.000719187,202,122,116.158,86.5594,64.2022,58.0638,2.384
1.47882,1.50004,0.908391,0.91915,-0.0248742,-4.72684e-05,-0.0152794,-0.000652204,203,123,116.705,86.8941,64.556,58.5087,2.388
1.47872,1.50004,0.90833,0.919148,-0.0249462,-8.90941e-05,-0.0153236,-0.000578757,204,123,117.249,87,64.9128,58.9795,2.392
1.47862,1.50004,0.908268,0.919147,-0.0250184,-8.8187e-05,-0.0153679,-0.000472211,205,124,117.797,87.2556,65.2749,59.5829,2.396
1.47852,1.50004,0.908207,0.919147,-0.0250906,-0.000116373,-0.0154123,-0.000343598,205,125,118.344,87.4097,65.6422,60.2748,2.4
1.47842,1.50004,0.908145,0.919147,-0.0251628,-0.000135164,-0.0154567,-0.000257856,206,126,118.893,87.5968,66.0105,60.7953,2.404
1.47832,1.50004,0.908083,0.919146,-0.0252352,-0.000147691,-0.0155011,-0.000200695,207,127,119.444,87.8061,66.38,61.2017,2.408
1.47822,1.50004,0.908021,0.919146,-0.0253075,-0.000127252,-0.0155456,-0.000162588,208,128,119.998,88.131,66.7505,61.532,2.412
1.47812,1.50004,0.907959,0.919146,-0.02538,-0.000142416,-0.0155901,-0.000137183,208,128,120.551,88.3316,67.122,61.8116,2.416
1.47802,1.50004,0.907896,0.919145,-0.0254525,-0.000123735,-0.0156346,-0.000120246,209,129,121.109,88.6508,67.4946,62.0576,2.42
1.47791,1.50004,0.907833,0.919145,-0.0255251,-0.000111281,-0.0156792,-0.000137746,210,130,121.667,88.9484,67.8663,62.1659,2.424
1.47781,1.50004,0.907771,0.919144,-0.0255978,-7.41873e-05,-0.0157239,-0.000149412,211,130,122.23,89.3326,68.2389,62.2978,2.428
1.47771,1.50004,0.907708,0.919143,-0.0256705,-7.82492e-05,-0.0157685,-0.000185981,212,130,122.792,89.5729,68.6106,62.3302,2.432
1.47761,1.50003,0.907645,0.919142,-0.0257433,-8.0957e-05,-0.0158132,-0.00021036,213,131,123.356,89.8181,68.9834,62.4115,2.436
1.4775,1.50003,0.907581,0.919141,-0.0258161,-0.000111553,-0.015858,-0.000226613,213,131,123.919,89.966,69.3572,62.5255,2.44
1.4774,1.50003,0.907518,0.919139,-0.025889,-0.000131951,-0.0159028,-0.000266239,214,132,124.484,90.1498,69.7301,62.5462,2.444
1.4773,1.50003,0.907454,0.919138,-0.025962,-0.00017434,-0.0159476,-0.000292656,215,132,125.048,90.2569,70.104,62.6198,2.448
1.47719,1.50003,0.90739,0.919137,-0.0260351,-0.00023139,-0.0159925,-0.000310268,215,133,125.613,90.3129,70.479,62.7288,2.452
1.47709,1.50003,0.907326,0.919135,-0.0261082,-0.000355797,-0.0160374,-0.0003508,216,133,126.173,90.1333,70.853,62.7463,2.456
1.47698,1.50003,0.907262,0.919133,-0.0261813,-0.000467525,-0.0160823,-0.000377821,216,134,126.733,89.9984,71.228,62.818,2.46
1.47688,1.50002,0.907197,0.919131,-0.0262546,-0.000542011,-0.0161273,-0.000424626,217,134,127.295,89.994,71.6021,62.8107,2.464
1.47677,1.50002,0.907133,0.919129,-0.0263279,-0.000735623,-0.0161723,-0.000427039,217,134,127.848,89.5729,71.9793,62.9812,2.468
1.47667,1.50001,0.907068,0.919128,-0.0264012,-0.000922279,-0.0162174,-0.000399856,217,135,128.4,89.1763,72.3597,63.2702,2.472
1.47656,1.50001,0.907003,0.919127,-0.0264747,-0.0011043,-0.0162625,-0.000381735,217,136,128.949,88.7962,72.7412,63.5231,2.476
1.47646,1.5,0.906938,0.919126,-0.0265481,-0.00131202,-0.0163076,-0.000340862,217,136,129.494,88.3264,73.1258,63.8671,2.48
1.47635,1.49999,0.906873,0.919125,-0.0266217,-0.0014505,-0.0163528,-0.000284823,218,137,130.041,88.0992,73.5136,64.272,2.484
1.47624,1.49999,0.906807,0.919124,-0.0266953,-0.00148523,-0.016398,-0.000276255,218,138,130.594,88.2352,73.9004,64.4871,2.488
1.47614,1.49998,0.906741,0.919123,-0.026769,-0.00139323,-0.0164433,-0.000212961,219,139,131.155,88.8151,74.2924,64.9213,2.492
1.47603,1.49998,0.906676,0.919123,-0.0268427,-0.00113036,-0.0164886,-0.000199556,221,139,131.732,89.9932,74.6835,65.1561,2.496
1.47592,1.49998,0.906609,0.919122,-0.0269165,-0.000811153,-0.0165339,-0.00021941,223,140,132.319,91.3687,75.0735,65.258,2.5
1.47581,1.49998,0.906543,0.91912,-0.0269904,-0.000540768,-0.0165793,-0.000261437,225,140,132.912,92.5736,75.4626,65.2714,2.504
1.47571,1.49998,0.906477,0.919119,-0.0270643,-0.000360512,-0.0166247,-0.000318246,226,141,133.507,93.4632,75.8507,65.2258,2.508
1.4756,1.49998,0.90641,0.919117,-0.0271383,-0.000240341,-0.0166701,-0.000327328,228,141,134.103,94.1427,76.2419,65.3712,2.512
1.47549,1.49998,0.906343,0.919115,-0.0272123,-0.000160228,-0.0167156,-0.000390964,229,141,134.701,94.6823,76.6301,65.2986,2.516
1.47538,1.49998,0.906277,0.919113,-0.0272864,-0.000106818,-0.0167611,-0.000462179,230,142,135.3,95.1286,77.0173,65.1958,2.52
1.47527,1.49998,0.906209,0.91911,-0.0273606,-0.000100003,-0.0168067,-0.000567238,231,142,135.899,95.412,77.4015,64.9578,2.524
1.47516,1.49998,0.906142,0.919107,-0.0274348,-6.66688e-05,-0.0168523,-0.000637277,232,142,136.502,95.7885,77.7867,64.86,2.528
1.47505,1.49998,0.906075,0.919102,-0.0275091,-4.44459e-05,-0.0168979,-0.000770342,233,142,137.107,96.1263,78.1668,64.5103,2.532
1.47494,1.49998,0.906007,0.919098,-0.0275834,-5.84215e-05,-0.0169436,-0.000916634,234,142,137.711,96.3376,78.5439,64.1078,2.536
1.47483,1.49998,0.905939,0.919093,-0.0276579,-3.89477e-05,-0.0169893,-0.000956581,234,143,138.318,96.6662,78.9262,64.1309,2.54
1.47472,1.49998,0.905871,0.919088,-0.0277323,-5.4756e-05,-0.017035,-0.00106958,235,143,138.926,96.8715,79.3034,63.8618,2.544
1.47461,1.49998,0.905803,0.919083,-0.0278068,-6.5295e-05,-0.0170808,-0.00114492,236,143,139.535,97.0954,79.6817,63.7436,2.548
1.4745,1.49998,0.905734,0.919079,-0.0278814,-7.23209e-05,-0.0171266,-0.00113756,237,144,140.145,97.3319,80.0653,63.9563,2.552
1.47439,1.49998,0.905666,0.919073,-0.0279561,-1.9423e-05,-0.0171725,-0.00121903,238,144,140.762,97.7783,80.4437,63.8139,2.556
1.47427,1.49998,0.905597,0.919068,-0.0280308,-9.93214e-05,-0.0172184,-0.00124455,239,144,141.372,97.7602,80.8253,63.8953,2.56
1.47416,1.49998,0.905528,0.919062,-0.0281056,-9.50052e-05,-0.0172643,-0.00131915,240,144,141.987,98.037,81.2038,63.7807,2.564
1.47405,1.49998,0.905459,0.919057,-0.0281804,-9.21277e-05,-0.0173103,-0.0012825,240,145,142.605,98.3089,81.5897,64.1111,2.568
1.47394,1.49998,0.905389,0.919053,-0.0282553,-0.000147791,-0.0173563,-0.00120049,241,146,143.22,98.3762,81.9808,64.6231,2.572
1.47382,1.49997,0.90532,0.919049,-0.0283302,-0.000156109,-0.0174023,-0.00114582,242,147,143.838,98.6094,82.3731,65.026,2.576
1.47371,1.49997,0.90525,0.919045,-0.0284052,-0.000104073,-0.0174484,-0.00110937,243,148,144.462,99.054,82.7664,65.356,2.58
1.4736,1.49997,0.90518,0.919041,-0.0284803,-0.000155755,-0.0174945,-0.00108507,244,148,145.082,99.1359,83.1608,65.6377,2.584
1.47348,1.49997,0.90511,0.919037,-0.0285554,-0.000219,-0.0175406,-0.00104008,244,149,145.702,99.1774,83.5585,66.0022,2.588
1.47337,1.49997,0.90504,0.919034,-0.0286306,-0.000261164,-0.0175868,-0.000952506,245,150,146.324,99.293,83.9613,66.5372,2.592
1.47325,1.49997,0.90497,0.919031,-0.0287058,-0.000346855,-0.017633,-0.000894122,246,151,146.943,99.2564,84.3653,66.9556,2.596
1.47314,1.49997,0.904899,0.919028,-0.0287811,-0.000288818,-0.0176793,-0.000797618,247,152,147.572,99.7231,84.7745,67.5267,2.6
1.47302,1.49997,0.904828,0.919026,-0.0288565,-0.0003365,-0.0177256,-0.0006757,248,153,148.196,99.8199,85.189,68.1995,2.604
1.47291,1.49997,0.904757,0.919025,-0.0289319,-0.000310706,-0.0177719,-0.000594421,249,154,148.826,100.174,85.6046,68.7099,2.608
1.47279,1.49997,0.904686,0.919023,-0.0290074,-0.000235928,-0.0178183,-0.000511445,250,155,149.461,100.7,86.0234,69.2272,2.612
1.47267,1.49996,0.904615,0.919022,-0.0290829,-0.000186077,-0.0178646,-0.000484918,251,155,150.099,101.139,86.4413,69.5189,2.616
1.47256,1.49996,0.904543,0.919019,-0.0291585,-0.000152842,-0.0179111,-0.000496024,252,156,150.737,101.52,86.8581,69.6602,2.62
1.47244,1.49996,0.904471,0.919018,-0.0292341,-0.000101895,-0.0179575,-0.000474637,253,157,151.38,101.963,87.2782,69.9316,2.624
1.47232,1.49996,0.904399,0.919016,-0.0293098,-6.79298e-05,-0.018004,-0.000460379,254,157,152.024,102.347,87.6994,70.1746,2.628
1.47221,1.49996,0.904327,0.919014,-0.0293856,-4.52865e-05,-0.0180506,-0.000479665,255,158,152.669,102.691,88.1196,70.2836,2.632
1.47209,1.49996,0.904255,0.919012,-0.0294614,-3.0191e-05,-0.0180971,-0.000463731,256,159,153.317,103.009,88.543,70.5336,2.636
1.47197,1.49996,0.904183,0.91901,-0.0295372,-7.77092e-05,-0.0181437,-0.000453109,257,159,153.962,103.108,88.9675,70.7625,2.64
1.47185,1.49996,0.90411,0.919008,-0.0296132,-2.30152e-05,-0.0181904,-0.000474818,258,160,154.614,103.565,89.3911,70.8622,2.644
1.47173,1.49996,0.904037,0.919006,-0.0296891,-1.53435e-05,-0.018237,-0.000489291,259,160,155.267,103.858,89.8158,70.991,2.648
1.47161,1.49996,0.903964,0.919004,-0.0297652,1.85619e-05,-0.0182838,-0.00049894,260,161,155.923,104.243,90.2416,71.1393,2.652
1.4715,1.49996,0.903891,0.919002,-0.0298413,-4.52072e-05,-0.0183305,-0.000534163,260,161,156.574,104.286,90.6665,71.1853,2.656
1.47138,1.49996,0.903817,0.919,-0.0299174,-3.01381e-05,-0.0183773,-0.000528854,261,162,157.232,104.605,91.0945,71.3937,2.66
1.47126,1.49996,0.903744,0.918997,-0.0299936,-2.00921e-05,-0.0184241,-0.000582897,262,162,157.891,104.907,91.5195,71.3647,2.664
1.47114,1.49996,0.90367,0.918995,-0.0300699,-7.09766e-05,-0.0184709,-0.000590134,263,163,158.548,104.996,91.9478,71.5231,2.668
1.47102,1.49996,0.903596,0.918992,-0.0301462,-1.85268e-05,-0.0185178,-0.00062375,264,163,159.212,105.447,92.375,71.5762,2.672
1.4709,1.49996,0.903522,0.918989,-0.0302225,-4.11421e-05,-0.0185647,-0.000674952,265,164,159.874,105.635,92.8014,71.559,2.676
1.47077,1.49996,0.903447,0.918986,-0.030299,-5.6219e-05,-0.0186116,-0.000680295,266,164,160.538,105.85,93.2309,71.7254,2.68
1.47065,1.49996,0.903373,0.918983,-0.0303754,-0.000123852,-0.0186586,-0.000683858,267,165,161.2,105.881,93.6616,71.8991,2.684
1.47053,1.49996,0.903298,0.91898,-0.030452,-8.25681e-05,-0.0187056,-0.000715023,268,166,161.869,106.293,94.0913,71.9625,2.688
1.47041,1.49996,0.903223,0.918978,-0.0305286,-0.000112627,-0.0187527,-0.000678219,268,166,162.536,106.456,94.5263,72.2978,2.692
1.47029,1.49996,0.903148,0.918975,-0.0306052,-0.000132667,-0.0187998,-0.000711264,269,167,163.204,106.654,94.9583,72.354,2.696
1.47016,1.49996,0.903073,0.918971,-0.0306819,-0.000146026,-0.0188469,-0.000733294,270,167,163.875,106.876,95.3914,72.4543,2.7
1.47004,1.49996,0.902997,0.918968,-0.0307586,-0.000183724,-0.018894,-0.000747981,271,168,164.545,107.012,95.8256,72.5841,2.704
1.46992,1.49996,0.902922,0.918965,-0.0308355,-0.000208855,-0.0189412,-0.000786563,272,168,165.217,107.193,96.2589,72.6185,2.708
1.46979,1.49995,0.902846,0.91896,-0.0309123,-0.000369564,-0.0189884,-0.000898658,272,169,165.881,106.9,96.6871,72.359,2.712
1.46967,1.49995,0.90277,0.918957,-0.0309892,-0.000534285,-0.0190356,-0.000887014,273,169,166.543,106.592,97.1226,72.5945,2.716
1.46955,1.49995,0.902694,0.918953,-0.0310662,-0.000788054,-0.0190829,-0.000936834,273,170,167.197,105.973,97.5552,72.5843,2.72
1.46942,1.49994,0.902617,0.918949,-0.0311432,-0.00112998,-0.0191302,-0.000970047,272,170,167.841,105.046,97.9889,72.6407,2.724
1.4693,1.49993,0.902541,0.918944,-0.0312203,-0.0014443,-0.0191776,-0.00102098,272,171,168.482,104.216,98.4216,72.6263,2.728
1.46917,1.49992,0.902464,0.91894,-0.0312974,-0.00171143,-0.0192249,-0.00102614,272,171,169.12,103.551,98.8576,72.7952,2.732
1.46905,1.49991,0.902387,0.918935,-0.0313746,-0.00188952,-0.0192723,-0.00108717,272,172,169.76,103.198,99.2905,72.7407,2.736
1.46892,1.4999,0.90231,0.918931,-0.0314518,-0.00206582,-0.0193198,-0.00107027,273,172,170.398,102.851,99.7288,72.998,2.74
1.4688,1.49989,0.902232,0.918928,-0.0315291,-0.0020682,-0.0193673,-0.00100142,274,173,171.045,103.113,100.172,73.4633,2.744
1.46867,1.49989,0.902155,0.918924,-0.0316064,-0.00215615,-0.0194148,-0.000984315,274,174,171.688,103.076,100.615,73.7217,2.748
1.46854,1.49988,0.902077,0.91892,-0.0316838,-0.00227237,-0.0194623,-0.0010017,275,174,172.329,102.94,101.056,73.8423,2.752
1.46842,1.49987,0.901999,0.918916,-0.0317612,-0.0022059,-0.0195099,-0.00095571,276,175,172.981,103.444,101.503,74.2166,2.756
1.46829,1.49986,0.901921,0.918913,-0.0318387,-0.002104,-0.0195574,-0.000896258,277,176,173.639,104.071,101.954,74.6448,2.76
1.46816,1.49985,0.901842,0.918911,-0.0319162,-0.00186332,-0.0196051,-0.000799042,279,177,174.31,105.185,102.409,75.2241,2.764
1.46803,1.49985,0.901764,0.918909,-0.0319938,-0.00144375,-0.0196527,-0.00070544,281,178,175,106.925,102.868,75.7892,2.768
1.46791,1.49985,0.901685,0.918907,-0.0320715,-0.000991291,-0.0197004,-0.000585457,284,179,175.703,108.781,103.332,76.4599,2.772
1.46778,1.49985,0.901606,0.918906,-0.0321491,-0.000660861,-0.0197482,-0.000505469,286,180,176.409,110.209,103.797,76.9707,2.776
1.46765,1.49985,0.901527,0.918904,-0.0322269,-0.000440574,-0.0197959,-0.000480934,288,181,177.117,111.252,104.261,77.2599,2.78
1.46752,1.49985,0.901448,0.918903,-0.0323047,-0.000351298,-0.0198437,-0.000435786,289,182,177.823,111.837,104.728,77.6316,2.784
1.46739,1.49985,0.901368,0.918901,-0.0323825,-0.000176617,-0.0198915,-0.000434479,291,183,178.539,112.721,105.195,77.8281,2.788
1.46726,1.49985,0.901289,0.918899,-0.0324604,-0.000117744,-0.0199394,-0.000462398,292,183,179.252,113.199,105.66,77.9078,2.792
1.46713,1.49985,0.901209,0.918897,-0.0325384,-7.84963e-05,-0.0199872,-0.000481011,293,184,179.967,113.61,106.127,78.0249,2.796
1.467,1.49985,0.901129,0.918894,-0.0326164,-2.35399e-05,-0.0200351,-0.00052221,294,184,180.686,114.075,106.593,78.0517,2.8
1.46687,1.49985,0.901049,0.918892,-0.0326944,-0.000102066,-0.0200831,-0.000549677,295,185,181.398,114.073,107.06,78.1336,2.804
1.46674,1.49985,0.900968,0.918889,-0.0327725,-1.04622e-05,-0.0201311,-0.000596779,296,185,182.122,114.667,107.526,78.1371,2.808
1.46661,1.49985,0.900888,0.918886,-0.0328506,-6.97479e-06,-0.0201791,-0.000685762,297,185,182.844,114.953,107.989,77.9732,2.812
1.46648,1.49985,0.900807,0.918882,-0.0329288,-6.22317e-05,-0.0202271,-0.000802666,298,186,183.564,115.033,108.449,77.6977,2.816
1.46634,1.49985,0.900726,0.918878,-0.0330071,-1.26969e-05,-0.0202751,-0.00082302,299,186,184.291,115.48,108.914,77.8085,2.82
1.46621,1.49985,0.900645,0.918874,-0.0330854,-8.46459e-06,-0.0203232,-0.000894171,300,187,185.018,115.769,109.376,77.7163,2.824
1.46608,1.49985,0.900563,0.918869,-0.0331637,-5.64306e-06,-0.0203714,-0.000999187,301,187,185.747,116.053,109.835,77.4887,2.828
1.46595,1.49985,0.900482,0.918863,-0.0332421,-3.76204e-06,-0.0204195,-0.00115557,302,187,186.477,116.334,110.29,77.0558,2.832
1.46581,1.49985,0.9004,0.918858,-0.0333205,-2.50803e-06,-0.0204677,-0.00123103,303,187,187.209,116.613,110.747,76.9466,2.836
1.46568,1.49985,0.900318,0.918853,-0.033399,-1.67202e-06,-0.0205159,-0.00125255,304,188,187.943,116.891,111.208,77.0534,2.84
1.46555,1.49985,0.900236,0.918847,-0.0334776,-1.11468e-06,-0.0205641,-0.00129569,305,188,188.679,117.168,111.668,77.0738,2.844
1.46541,1.49985,0.900153,0.918842,-0.0335561,-5.8325e-05,-0.0206124,-0.00132445,306,189,189.413,117.242,112.129,77.1519,2.848
1.46528,1.49985,0.900071,0.918835,-0.0336348,-1.00924e-05,-0.0206607,-0.0014012,307,189,190.154,117.686,112.587,77.0381,2.852
1.46514,1.49985,0.899988,0.91883,-0.0337135,-6.72826e-06,-0.0207091,-0.00139479,308,190,190.894,117.974,113.05,77.257,2.856
1.46501,1.49985,0.899905,0.918824,-0.0337922,-4.48551e-06,-0.0207574,-0.00139051,309,190,191.637,118.257,113.514,77.4676,2.86
1.46487,1.49985,0.899822,0.918818,-0.033871,-2.99034e-06,-0.0208058,-0.00141646,310,191,192.381,118.538,113.978,77.5574,2.864
1.46474,1.49985,0.899739,0.918812,-0.0339498,-1.99356e-06,-0.0208542,-0.00149133,311,191,193.127,118.817,114.438,77.4515,2.868
1.4646,1.49985,0.899655,0.918805,-0.0340286,-3.012e-05,-0.0209027,-0.00157004,312,192,193.873,118.995,114.898,77.3305,2.872
1.46446,1.49985,0.899572,0.918798,-0.0341076,-2.008e-05,-0.0209511,-0.00162251,313,192,194.623,119.306,115.359,77.3145,2.876
1.46433,1.49985,0.899488,0.91879,-0.0341865,-1.33867e-05,-0.0209996,-0.00171507,314,192,195.374,119.606,115.817,77.1383,2.88
1.46419,1.49985,0.899404,0.918782,-0.0342655,-3.77154e-05,-0.0210482,-0.00180557,315,193,196.125,119.797,116.274,76.9704,2.884
1.46405,1.49985,0.899319,0.918774,-0.0343446,-2.51436e-05,-0.0210967,-0.00186591,316,193,196.88,120.118,116.732,76.9233,2.888
1.46392,1.49985,0.899235,0.918766,-0.0344237,-1.67624e-05,-0.0211453,-0.00193492,318,194,197.636,120.424,117.189,76.8417,2.892
1.46378,1.49985,0.89915,0.918758,-0.0345029,-3.99658e-05,-0.021194,-0.00198093,319,194,198.392,120.62,117.647,76.8521,2.896
1.46364,1.49985,0.899065,0.91875,-0.0345821,-2.66439e-05,-0.0212426,-0.00195402,320,195,199.152,120.944,118.111,77.1543,2.9
1.4635,1.49985,0.89898,0.918742,-0.0346613,-4.65535e-05,-0.0212913,-0.00196487,321,195,199.912,121.152,118.573,77.3056,2.904
1.46336,1.49985,0.898895,0.918735,-0.0347406,-3.10357e-05,-0.02134,-0.00194331,322,196,200.676,121.483,119.039,77.5867,2.908
1.46322,1.49985,0.898809,0.918727,-0.0348199,-0.000107063,-0.0213887,-0.00192894,322,197,201.435,121.495,119.507,77.8391,2.912
1.46308,1.49985,0.898724,0.918719,-0.0348993,-7.13755e-05,-0.0214375,-0.00194815,324,197,202.202,121.898,119.973,77.9573,2.916
1.46294,1.49985,0.898638,0.918712,-0.0349787,-7.63746e-05,-0.0214863,-0.00190338,325,198,202.969,122.158,120.444,78.3315,2.92
1.4628,1.49985,0.898552,0.918704,-0.0350582,-0.000108498,-0.0215351,-0.00190232,326,199,203.735,122.324,120.915,78.531,2.924
1.46266,1.49985,0.898466,0.918696,-0.0351377,-0.000129914,-0.0215839,-0.0019304,327,199,204.504,122.527,121.385,78.6141,2.928
1.46252,1.49984,0.898379,0.918688,-0.0352173,-0.000259355,-0.0216328,-0.00200671,327,200,205.266,122.353,121.851,78.5044,2.932
1.46238,1.49984,0.898293,0.918678,-0.0352969,-0.000345649,-0.0216817,-0.00217274,328,200,206.03,122.329,122.311,78.0358,2.936
1.46224,1.49984,0.898206,0.918667,-0.0353765,-0.000518342,-0.0217306,-0.00231222,328,200,206.789,122.004,122.77,77.6736,2.94
1.4621,1.49984,0.898119,0.918656,-0.0354562,-0.00060468,-0.0217796,-0.00249158,329,200,207.551,121.98,123.224,77.152,2.944
1.46196,1.49983,0.898032,0.918644,-0.035536,-0.000777402,-0.0218286,-0.00269753,329,200,208.307,121.655,123.672,76.5241,2.948
1.46181,1.49983,0.897944,0.918631,-0.0356158,-0.000950132,-0.0218776,-0.00286362,330,200,209.061,121.33,124.12,76.0558,2.952
1.46167,1.49982,0.897856,0.918618,-0.0356956,-0.000978912,-0.0219266,-0.00294555,331,200,209.823,121.508,124.571,75.9242,2.956
1.46153,1.49982,0.897769,0.918606,-0.0357755,-0.00111326,-0.0219757,-0.00302896,331,200,210.579,121.318,125.021,75.7868,2.96
1.46139,1.49981,0.897681,0.918592,-0.0358554,-0.00114525,-0.0220248,-0.00314216,332,200,211.34,121.485,125.468,75.5304,2.964
1.46124,1.49981,0.897592,0.918578,-0.0359353,-0.00116657,-0.0220739,-0.0032752,333,201,212.103,121.691,125.913,75.1947,2.968
1.4611,1.4998,0.897504,0.918562,-0.0360153,-0.00126716,-0.022123,-0.00350785,334,200,212.862,121.619,126.348,74.4607,2.972
1.46095,1.49979,0.897415,0.918546,-0.0360954,-0.00150696,-0.0221722,-0.00363416,334,200,213.612,121.059,126.786,74.1521,2.976
1.46081,1.49979,0.897327,0.91853,-0.0361755,-0.00163804,-0.0222214,-0.00383353,335,200,214.365,120.881,127.217,73.5514,2.98
1.46066,1.49978,0.897238,0.918513,-0.0362556,-0.00192697,-0.0222706,-0.00393765,335,200,215.107,120.15,127.651,73.3318,2.984
1.46052,1.49976,0.897149,0.918497,-0.0363358,-0.00223474,-0.0223199,-0.00397827,335,201,215.842,119.354,128.089,73.3663,2.988
1.46037,1.49975,0.897059,0.918481,-0.036416,-0.0025263,-0.0223691,-0.00394777,335,202,216.574,118.614,128.532,73.6854,2.992
1.46023,1.49974,0.89697,0.918466,-0.0364963,-0.00289342,-0.0224184,-0.00386986,334,203,217.296,117.61,128.98,74.1943,2.996
1.46008,1.49972,0.89688,0.918451,-0.0365766,-0.00305179,-0.0224678,-0.00381792,335,204,218.026,117.337,129.43,74.5994,3
1.45994,1.49971,0.89679,0.918437,-0.0366569,-0.00324375,-0.0225171,-0.0037545,335,204,218.752,116.946,129.883,75.0505,3.004
1.45979,1.49969,0.8967,0.918424,-0.0367373,-0.0034293,-0.0225665,-0.00356826,336,206,219.476,116.578,130.347,75.9929,3.008
1.45964,1.49968,0.896609,0.918415,-0.0368177,-0.00372575,-0.0226159,-0.0031562,336,208,220.19,115.822,130.833,77.8388,3.012
1.45949,1.49965,0.896519,0.918407,-0.0368982,-0.00438403,-0.0226653,-0.00273753,334,211,220.875,113.8,131.331,79.7112,3.016
1.45935,1.49963,0.896428,0.918402,-0.0369787,-0.00516838,-0.0227148,-0.00222809,332,213,221.54,111.336,131.846,81.9468,3.02
1.4592,1.4996,0.896337,0.9184,-0.0370593,-0.00603677,-0.0227643,-0.00168693,330,216,222.183,108.579,132.378,84.3094,3.024
1.45905,1.49956,0.896246,0.9184,-0.0371399,-0.00716272,-0.0228138,-0.00112462,327,219,222.792,104.92,132.925,86.7566,3.028
1.4589,1.49951,0.896155,0.9184,-0.0372205,-0.00854676,-0.0228633,-0.000749748,323,221,223.361,100.358,133.473,88.4543,3.032
1.45875,1.49946,0.896063,0.9184,-0.0373012,-0.010218,-0.0229129,-0.000499832,318,223,223.883,94.7911,134.022,89.6522,3.036
1.4586,1.49939,0.895971,0.9184,-0.0373819,-0.0121671,-0.0229625,-0.000333221,312,225,224.351,88.2517,134.573,90.5169,3.04
1.45845,1.49932,0.895879,0.9184,-0.0374627,-0.0143303,-0.0230121,-0.000250938,305,226,224.763,80.9634,135.122,91.0445,3.044
1.4583,1.49923,0.895787,0.9184,-0.0375435,-0.0168952,-0.0230617,-0.000167292,297,227,225.104,72.269,135.675,91.5776,3.048
1.45815,1.49913,0.895695,0.918399,-0.0376243,-0.0197856,-0.0231114,-0.00016911,287,227,225.368,62.4356,136.225,91.769,3.052
1.458,1.49901,0.895602,0.918399,-0.0377052,-0.0230081,-0.023161,-8.39491e-05,276,229,225.549,51.4399,136.782,92.3084,3.056
1.45785,1.49888,0.895509,0.918399,-0.0377861,-0.0261353,-0.0232107,-5.59661e-05,266,229,225.667,40.7778,137.339,92.6191,3.06
1.4577,1.49874,0.895417,0.918399,-0.0378671,-0.0295445,-0.0232605,-6.61016e-05,254,230,225.699,29.1289,137.894,92.7775,3.064
1.45755,1.49858,0.895323,0.918399,-0.0379481,-0.0330265,-0.0233102,-4.40678e-05,242,231,225.653,17.2253,138.453,93.0647,3.068
1.4574,1.4984,0.89523,0.918399,-0.0380291,-0.0366723,-0.02336,-5.81694e-05,230,232,225.522,4.74893,139.011,93.2074,3.072
1.45724,1.49821,0.895137,0.918399,-0.0381102,-0.0400817,-0.0234098,-3.87796e-05,218,233,225.327,-6.90011,139.572,93.4842,3.076
1.45709,1.49801,0.895043,0.918398,-0.0381913,-0.0436502,-0.0234597,-5.4644e-05,205,233,225.049,-19.106,140.133,93.62,3.08
1.45694,1.4978,0.894949,0.918398,-0.0382725,-0.0469217,-0.0235095,-6.52203e-05,194,234,224.714,-30.2722,140.694,93.7772,3.084
1.45679,1.49757,0.894855,0.918397,-0.0383537,-0.0503695,-0.0235594,-0.000101062,182,235,224.297,-42.0554,141.255,93.8333,3.088
1.45663,1.49733,0.89476,0.918397,-0.0384349,-0.0533302,-0.0236093,-9.61656e-05,171,235,223.839,-52.1337,141.819,94.0525,3.092
1.45648,1.49708,0.894666,0.918396,-0.0385162,-0.0561678,-0.0236592,-0.000121692,161,236,223.324,-61.7806,142.382,94.1501,3.096
1.45632,1.49683,0.894571,0.918396,-0.0385975,-0.0588656,-0.0237092,-0.000109919,151,237,222.759,-70.9385,142.948,94.397,3.1
1.45617,1.49656,0.894476,0.918395,-0.0386789,-0.0612688,-0.0237591,-0.000159652,143,237,222.155,-79.0648,143.512,94.398,3.104
1.45601,1.49629,0.894381,0.918395,-0.0387603,-0.0636195,-0.0238091,-0.000106435,134,238,221.504,-87.0073,144.083,94.8108,3.108
1.45586,1.49601,0.894286,0.918394,-0.0388417,-0.0656185,-0.0238592,-0.000128538,127,239,220.826,-93.7188,144.65,94.9225,3.112
1.4557,1.49572,0.89419,0.918393,-0.0389232,-0.0675558,-0.0239092,-0.000172065,119,240,220.11,-100.214,145.217,94.9485,3.116
1.45555,1.49543,0.894094,0.918393,-0.0390047,-0.0693079,-0.0239593,-0.00011471,113,241,219.365,-106.061,145.792,95.3782,3.12
1.45539,1.49514,0.893998,0.918393,-0.0390862,-0.0707927,-0.0240094,-0.000105264,107,241,218.602,-110.973,146.365,95.6164,3.124
1.45523,1.49484,0.893902,0.918392,-0.0391678,-0.072272,-0.0240595,-0.000127758,101,242,217.807,-115.865,146.938,95.7269,3.128
1.45508,1.49453,0.893806,0.918391,-0.0392494,-0.0735174,-0.0241096,-0.000142754,97,243,216.998,-119.938,147.512,95.8674,3.132
1.45492,1.49422,0.893709,0.918391,-0.0393311,-0.0747219,-0.0241598,-0.00012396,92,244,216.165,-123.868,148.089,96.1432,3.136
1.45476,1.49392,0.893613,0.918391,-0.0394128,-0.0751506,-0.02421,-0.000111431,90,245,215.359,-125.082,148.668,96.3941,3.14
1.45461,1.49361,0.893516,0.91839,-0.0394945,-0.0761562,-0.0242602,-0.000103078,86,245,214.508,-128.316,149.247,96.6283,3.144
1.45445,1.49329,0.893419,0.91839,-0.0395763,-0.076913,-0.0243104,-9.75098e-05,82,246,213.652,-130.678,149.828,96.8515,3.148
1.45429,1.49298,0.893321,0.918389,-0.0396581,-0.0775614,-0.0243606,-0.000151379,80,247,212.789,-132.662,150.406,96.837,3.152
1.45413,1.49266,0.893224,0.918389,-0.0397399,-0.0779937,-0.0244109,-0.00012971,78,248,211.927,-133.888,150.989,97.1248,3.156
1.45397,1.49235,0.893126,0.918389,-0.0398218,-0.0782243,-0.0244612,-8.64736e-05,76,249,211.071,-134.409,151.575,97.4989,3.16
