peachynonah/Fire_monitor_KIRO_CDSL/csv_datas/trial13/cdsl_data_t13_1_FLDOB.csv
joint1_pos_desired, joint1_pos, joint2_pos_desired, joint2_pos, joint1_vel_desired, joint1_vel_filtered, joint2_vel_desired, joint2_vel_filtered, target_torque_joint1, target_torque_joint2, estimated_disturbance_joint1, saturated_DOB_joint1, estimated_disturbance_joint2, saturated_DOB_joint2, current_time
1.25562e-10,-0.000447065,8.3175e-11,0.000467104,9.41623e-08,0,6.2375e-08,0,-4,5,-0,-0,-98.3494,-98.3494,0.004
1.0042e-09,-0.000447065,6.65201e-10,0.000467104,3.76499e-07,0,2.494e-07,0,-4,5,0.0218683,0.0218683,-98.3721,-98.3721,0.008
3.38815e-09,-0.000447065,2.24438e-09,0.000467104,8.46783e-07,0,5.60926e-07,0,-4,5,0.0437492,0.0437492,-98.3947,-98.3947,0.012
8.02876e-09,-0.00044672,5.31841e-09,0.000467104,1.50479e-06,2.87909e-05,9.96803e-07,0,-4,5,0.065563,0.065563,-98.4174,-98.4174,0.016
1.56765e-08,-0.000447065,1.03844e-08,0.000467104,2.35029e-06,-9.59697e-06,1.55688e-06,0,-5,5,0.0863621,0.0863621,-98.44,-98.44,0.02
2.70808e-08,-0.000447065,1.79389e-08,0.000467104,3.38307e-06,-6.39798e-06,2.24101e-06,0,-5,5,0.108731,0.108731,-98.4626,-98.4626,0.024
4.29904e-08,-0.000447065,2.84777e-08,0.000467104,4.60288e-06,-4.26532e-06,3.04904e-06,0,-5,5,0.131011,0.131011,-98.4851,-98.4851,0.028
6.4153e-08,-0.000447065,4.24962e-08,0.000467104,6.00952e-06,-2.84355e-06,3.98083e-06,0,-5,5,0.153256,0.153256,-98.5076,-98.5076,0.032
9.13154e-08,-0.000447065,6.04892e-08,0.000467104,7.60276e-06,-1.8957e-06,5.03622e-06,0,-5,5,0.175504,0.175504,-98.5301,-98.5301,0.036
1.25224e-07,-0.000447065,8.29506e-08,0.000467104,9.38236e-06,-1.2638e-06,6.21506e-06,0,-5,5,0.197781,0.197781,-98.5526,-98.5526,0.04
1.66622e-07,-0.000447065,1.10374e-07,0.000467104,1.13481e-05,-8.42533e-07,7.51721e-06,0,-5,5,0.220111,0.220111,-98.5749,-98.5749,0.044
2.16256e-07,-0.000447065,1.43253e-07,0.000467104,1.34998e-05,-5.61689e-07,8.94252e-06,0,-5,5,0.24251,0.24251,-98.5973,-98.5973,0.048
2.74868e-07,-0.000447065,1.82078e-07,0.000467104,1.58371e-05,-3.74459e-07,1.04908e-05,0,-5,5,0.264992,0.264992,-98.6195,-98.6195,0.052
3.43201e-07,-0.000447065,2.27343e-07,0.000467104,1.836e-05,-2.49639e-07,1.2162e-05,0,-5,5,0.28757,0.28757,-98.6417,-98.6417,0.056
4.21995e-07,-0.000447065,2.79538e-07,0.000467104,2.1068e-05,-1.66426e-07,1.39559e-05,0,-5,5,0.310255,0.310255,-98.6639,-98.6639,0.06
5.11991e-07,-0.000447065,3.39154e-07,0.000467104,2.39611e-05,-1.10951e-07,1.58723e-05,0,-5,5,0.333056,0.333056,-98.6859,-98.6859,0.064
6.1393e-07,-0.000447065,4.0668e-07,0.000467104,2.7039e-05,-7.39672e-08,1.79112e-05,0,-5,5,0.355984,0.355984,-98.7079,-98.7079,0.068
7.28549e-07,-0.000447065,4.82606e-07,0.000467104,3.03014e-05,-4.93115e-08,2.00723e-05,0,-5,5,0.379047,0.379047,-98.7297,-98.7297,0.072
8.56587e-07,-0.000447065,5.67421e-07,0.000467104,3.37482e-05,-3.28743e-08,2.23555e-05,0,-5,5,0.402255,0.402255,-98.7515,-98.7515,0.076
9.98781e-07,-0.000447065,6.61613e-07,0.000467104,3.73792e-05,-2.19162e-08,2.47607e-05,0,-5,5,0.425617,0.425617,-98.7732,-98.7732,0.08
1.15587e-06,-0.000447065,7.65669e-07,0.000467104,4.1194e-05,-1.46108e-08,2.72877e-05,0,-5,5,0.449142,0.449142,-98.7948,-98.7948,0.084
1.32858e-06,-0.000447065,8.80077e-07,0.000467104,4.51925e-05,-9.74054e-09,2.99364e-05,0,-5,5,0.472837,0.472837,-98.8162,-98.8162,0.088
1.51765e-06,-0.000447065,1.00532e-06,0.000467104,4.93744e-05,-6.49369e-09,3.27066e-05,0,-5,5,0.496713,0.496713,-98.8376,-98.8376,0.092
1.72382e-06,-0.000447065,1.14189e-06,0.000467104,5.37396e-05,-4.32913e-09,3.55982e-05,0,-6,5,0.520777,0.520777,-98.8588,-98.8588,0.096
1.94781e-06,-0.000447065,1.29027e-06,0.000467104,5.82877e-05,-2.88609e-09,3.8611e-05,0,-6,5,0.545038,0.545038,-98.8799,-98.8799,0.1
2.19036e-06,-0.000447065,1.45094e-06,0.000467104,6.30187e-05,-1.92406e-09,4.17448e-05,0,-6,5,0.569505,0.569505,-98.9008,-98.9008,0.104
2.4522e-06,-0.000447065,1.62439e-06,0.000467104,6.79321e-05,-1.2827e-09,4.49996e-05,0,-6,5,0.594188,0.594188,-98.9216,-98.9216,0.108
2.73406e-06,-0.000447065,1.8111e-06,0.000467104,7.3028e-05,-8.55136e-10,4.83752e-05,0,-6,5,0.619093,0.619093,-98.9423,-98.9423,0.112
3.03667e-06,-0.000447065,2.01155e-06,0.000467104,7.83059e-05,-5.70091e-10,5.18714e-05,0,-6,5,0.644232,0.644232,-98.9628,-98.9628,0.116
3.36075e-06,-0.000447065,2.22623e-06,0.000467104,8.37657e-05,-3.80061e-10,5.54881e-05,0,-6,5,0.669611,0.669611,-98.9831,-98.9831,0.12
3.70704e-06,-0.000447065,2.45562e-06,0.000467104,8.94072e-05,-2.53374e-10,5.92251e-05,0,-6,5,0.695241,0.695241,-99.0033,-99.0033,0.124
4.07625e-06,-0.000447065,2.70019e-06,0.000467104,9.52301e-05,-1.68916e-10,6.30823e-05,0,-6,5,0.721129,0.721129,-99.0233,-99.0233,0.128
4.46912e-06,-0.000447065,2.96044e-06,0.000467104,0.000101234,-1.12611e-10,6.70596e-05,0,-6,5,0.747285,0.747285,-99.0432,-99.0432,0.132
4.88637e-06,-0.000447065,3.23683e-06,0.000467104,0.000107419,-7.50737e-11,7.11567e-05,0,-6,5,0.773718,0.773718,-99.0628,-99.0628,0.136
5.32871e-06,-0.000447411,3.52985e-06,0.000467104,0.000113785,-2.8791e-05,7.53736e-05,0,-7,5,0.800524,0.800524,-99.0823,-99.0823,0.14
5.79689e-06,-0.000447065,3.83998e-06,0.000467104,0.000120332,9.59694e-06,7.97101e-05,0,-6,5,0.828669,0.828669,-99.1016,-99.1016,0.144
6.29161e-06,-0.000447065,4.16769e-06,0.000467104,0.000127058,6.39796e-06,8.4166e-05,0,-7,5,0.855585,0.855585,-99.1206,-99.1206,0.148
6.81359e-06,-0.000446374,4.51346e-06,0.000467104,0.000133965,6.18472e-05,8.87412e-05,0,-6,5,0.882771,0.882771,-99.1395,-99.1395,0.152
7.36357e-06,-0.00044672,4.87778e-06,0.000467104,0.000141052,1.24405e-05,9.34356e-05,0,-7,4,0.908192,0.908192,-99.1582,-99.1582,0.156
7.94225e-06,-0.00044672,5.26111e-06,0.000467104,0.000148318,8.29368e-06,9.82489e-05,0,-7,4,0.935937,0.935937,-99.1766,-99.1766,0.16
8.55035e-06,-0.00044672,5.66393e-06,0.000467104,0.000155764,5.52912e-06,0.000103181,0,-7,4,0.964195,0.964195,-99.1948,-99.1948,0.164
9.1886e-06,-0.000447411,6.08671e-06,0.000467104,0.000163389,-5.38958e-05,0.000108232,0,-8,4,0.993094,0.993094,-99.2128,-99.2128,0.168
9.8577e-06,-0.00044672,6.52994e-06,0.000467104,0.000171193,2.16513e-05,0.000113402,0,-7,4,1.02451,1.02451,-99.2306,-99.2306,0.172
1.05584e-05,-0.00044672,6.99409e-06,0.000467104,0.000179176,1.44342e-05,0.00011869,0,-7,4,1.05329,1.05329,-99.2481,-99.2481,0.176
1.12913e-05,-0.00044672,7.47962e-06,0.000467104,0.000187337,9.62282e-06,0.000124096,0,-7,4,1.08274,1.08274,-99.2653,-99.2653,0.18
1.20573e-05,-0.00044672,7.98701e-06,0.000467104,0.000195676,6.41521e-06,0.00012962,0,-8,4,1.11278,1.11278,-99.2823,-99.2823,0.184
1.2857e-05,-0.00044672,8.51673e-06,0.000467104,0.000204194,4.27681e-06,0.000135262,0,-8,4,1.14335,1.14335,-99.2991,-99.2991,0.188
1.36911e-05,-0.00044672,9.06927e-06,0.000467104,0.00021289,2.8512e-06,0.000141022,0,-8,4,1.17441,1.17441,-99.3156,-99.3156,0.192
1.45603e-05,-0.00044672,9.64507e-06,0.000467104,0.000221763,1.9008e-06,0.0001469,0,-8,4,1.20594,1.20594,-99.3318,-99.3318,0.196
1.54654e-05,-0.00044672,1.02446e-05,0.000467104,0.000230814,1.2672e-06,0.000152896,0,-8,4,1.23794,1.23794,-99.3477,-99.3477,0.2
1.64071e-05,-0.00044672,1.08684e-05,0.000467104,0.000240041,8.44801e-07,0.000159008,0,-8,4,1.27039,1.27039,-99.3634,-99.3634,0.204
1.7386e-05,-0.00044672,1.15168e-05,0.000467104,0.000249446,5.63201e-07,0.000165238,0,-8,4,1.30331,1.30331,-99.3787,-99.3787,0.208
1.84029e-05,-0.00044672,1.21905e-05,0.000467104,0.000259028,3.75467e-07,0.000171585,0,-8,4,1.33668,1.33668,-99.3938,-99.3938,0.212
1.94585e-05,-0.00044672,1.28897e-05,0.000467104,0.000268786,2.50312e-07,0.000178049,0,-9,4,1.37053,1.37053,-99.4086,-99.4086,0.216
2.05534e-05,-0.00044672,1.3615e-05,0.000467104,0.00027872,1.66874e-07,0.00018463,0,-9,4,1.40485,1.40485,-99.423,-99.423,0.22
2.16885e-05,-0.00044672,1.43669e-05,0.000467104,0.000288831,1.1125e-07,0.000191328,0,-9,4,1.43965,1.43965,-99.4372,-99.4372,0.224
2.28643e-05,-0.00044672,1.51458e-05,0.000467104,0.000299118,7.41664e-08,0.000198142,0,-9,4,1.47494,1.47494,-99.451,-99.451,0.228
2.40816e-05,-0.00044672,1.59522e-05,0.000467104,0.00030958,4.94443e-08,0.000205072,0,-9,4,1.51074,1.51074,-99.4645,-99.4645,0.232
2.53412e-05,-0.000446374,1.67865e-05,0.000467104,0.000320217,2.88239e-05,0.000212118,0,-9,4,1.54695,1.54695,-99.4776,-99.4776,0.236
2.66436e-05,-0.00044672,1.76493e-05,0.000467104,0.00033103,-9.575e-06,0.000219281,0,-10,3,1.58264,1.58264,-99.4905,-99.4905,0.24
2.79896e-05,-0.000447065,1.85409e-05,0.000467104,0.000342018,-3.51743e-05,0.00022656,0,-10,3,1.62048,1.62048,-99.5029,-99.5029,0.244
2.938e-05,-0.000446374,1.94619e-05,0.000467104,0.00035318,3.41323e-05,0.000233954,0,-10,3,1.65967,1.65967,-99.5151,-99.5151,0.248
3.08153e-05,-0.000446374,2.04127e-05,0.000467104,0.000364517,2.27549e-05,0.000241464,0,-10,3,1.69666,1.69666,-99.5268,-99.5268,0.252
3.22964e-05,-0.000446374,2.13938e-05,0.000467104,0.000376029,1.51699e-05,0.000249089,0,-10,3,1.73468,1.73468,-99.5382,-99.5382,0.256
3.38238e-05,-0.000446374,2.24056e-05,0.000467104,0.000387714,1.01133e-05,0.00025683,0,-10,3,1.77358,1.77358,-99.5492,-99.5492,0.26
3.53983e-05,-0.000446374,2.34486e-05,0.000467104,0.000399574,6.74219e-06,0.000264686,0,-10,3,1.81327,1.81327,-99.5599,-99.5599,0.264
3.70206e-05,-0.000446374,2.45232e-05,0.000467104,0.000411607,4.49479e-06,0.000272657,0,-11,3,1.85368,1.85368,-99.5702,-99.5702,0.268
3.86914e-05,-0.000446374,2.563e-05,0.000467104,0.000423814,2.99653e-06,0.000280743,0,-11,3,1.89479,1.89479,-99.58,-99.58,0.272
4.04113e-05,-0.000446374,2.67693e-05,0.000467104,0.000436193,1.99769e-06,0.000288943,0,-11,3,1.93656,1.93656,-99.5895,-99.5895,0.276
4.21812e-05,-0.000446374,2.79417e-05,0.000467104,0.000448746,1.33179e-06,0.000297259,0,-11,3,1.97898,1.97898,-99.5986,-99.5986,0.28
4.40015e-05,-0.000446374,2.91475e-05,0.000467104,0.000461472,8.87861e-07,0.000305688,0,-11,3,2.02206,2.02206,-99.6072,-99.6072,0.284
4.58732e-05,-0.000446374,3.03873e-05,0.000467104,0.00047437,5.91907e-07,0.000314232,0,-12,3,2.06579,2.06579,-99.6155,-99.6155,0.288
4.77967e-05,-0.000446374,3.16615e-05,0.000467104,0.000487441,3.94605e-07,0.000322891,0,-12,2,2.11018,2.11018,-99.6233,-99.6233,0.292
4.97729e-05,-0.000446374,3.29706e-05,0.000467104,0.000500683,2.6307e-07,0.000331663,0,-12,2,2.15523,2.15523,-99.6307,-99.6307,0.296
5.18024e-05,-0.000446374,3.4315e-05,0.000467104,0.000514098,1.7538e-07,0.000340549,0,-12,2,2.20095,2.20095,-99.6376,-99.6376,0.3
5.38859e-05,-0.00044672,3.56951e-05,0.000467104,0.000527684,-2.8674e-05,0.000349549,0,-13,2,2.24743,2.24743,-99.6441,-99.6441,0.304
5.60241e-05,-0.000445684,3.71115e-05,0.000467104,0.000541442,6.72568e-05,0.000358662,0,-12,2,2.29547,2.29547,-99.6502,-99.6502,0.308
5.82177e-05,-0.000446029,3.85646e-05,0.000467104,0.000555371,1.60469e-05,0.000367889,0,-13,2,2.3405,2.3405,-99.6558,-99.6558,0.312
6.04673e-05,-0.000445684,4.00548e-05,0.000467104,0.000569471,3.94889e-05,0.000377229,0,-13,2,2.38821,2.38821,-99.661,-99.661,0.316
6.27737e-05,-0.000446029,4.15826e-05,0.000467104,0.000583742,-2.46501e-06,0.000386683,0,-13,2,2.43581,2.43581,-99.6656,-99.6656,0.32
6.51375e-05,-0.000446029,4.31484e-05,0.000467104,0.000598184,-1.64334e-06,0.000396249,0,-13,2,2.48582,2.48582,-99.6698,-99.6698,0.324
6.75594e-05,-0.000446029,4.47527e-05,0.000467104,0.000612796,-1.09556e-06,0.000405928,0,-14,2,2.53653,2.53653,-99.6736,-99.6736,0.328
7.00401e-05,-0.000446029,4.6396e-05,0.000467104,0.000627578,-7.30373e-07,0.00041572,0,-14,1,2.58796,2.58796,-99.6768,-99.6768,0.332
7.25802e-05,-0.000445338,4.80786e-05,0.000467104,0.00064253,5.70949e-05,0.000425625,0,-14,1,2.63995,2.63995,-99.6795,-99.6795,0.336
7.51806e-05,-0.000446029,4.98011e-05,0.000467104,0.000657651,-1.95186e-05,0.000435642,0,-15,1,2.69061,2.69061,-99.6817,-99.6817,0.34
7.78417e-05,-0.000445684,5.15639e-05,0.000467104,0.000672943,1.57786e-05,0.000445771,0,-14,1,2.74502,2.74502,-99.6835,-99.6835,0.344
8.05643e-05,-0.000445684,5.33674e-05,0.000467104,0.000688403,1.0519e-05,0.000456012,0,-15,1,2.79881,2.79881,-99.6847,-99.6847,0.348
8.33491e-05,-0.000445684,5.52122e-05,0.000467104,0.000704033,7.01269e-06,0.000466366,0,-15,1,2.85361,2.85361,-99.6854,-99.6854,0.352
8.61968e-05,-0.000445684,5.70985e-05,0.000467104,0.000719831,4.67513e-06,0.000476831,0,-15,1,2.90936,2.90936,-99.6855,-99.6855,0.356
8.9108e-05,-0.000445684,5.9027e-05,0.000467104,0.000735798,3.11675e-06,0.000487408,0,-15,1,2.96603,2.96603,-99.6851,-99.6851,0.36
9.20834e-05,-0.000445684,6.09979e-05,0.000467104,0.000751934,2.07783e-06,0.000498096,0,-16,1,3.02359,3.02359,-99.6842,-99.6842,0.364
9.51237e-05,-0.000445684,6.30119e-05,0.000467104,0.000768238,1.38522e-06,0.000508896,0,-16,0,3.08203,3.08203,-99.6827,-99.6827,0.368
9.82296e-05,-0.000445338,6.50693e-05,0.000467104,0.000784709,2.97144e-05,0.000519808,0,-16,0,3.14125,3.14125,-99.6807,-99.6807,0.372
0.000101402,-0.000445338,6.71705e-05,0.000467104,0.000801349,1.98096e-05,0.00053083,0,-16,0,3.20022,3.20022,-99.6781,-99.6781,0.376
0.000104641,-0.000444993,6.9316e-05,0.000467104,0.000818156,4.19973e-05,0.000541963,0,-16,0,3.26039,3.26039,-99.6749,-99.6749,0.38
0.000107947,-0.000444647,7.15063e-05,0.000467104,0.00083513,5.67891e-05,0.000553207,0,-16,0,3.32049,3.32049,-99.6712,-99.6712,0.384
0.000111322,-0.000444647,7.37418e-05,0.000467104,0.000852272,3.78594e-05,0.000564562,0,-17,0,3.38093,3.38093,-99.6669,-99.6669,0.388
0.000114765,-0.000444647,7.6023e-05,0.000467104,0.00086958,2.52396e-05,0.000576028,0,-17,0,3.44306,3.44306,-99.662,-99.662,0.392
0.000118279,-0.000444647,7.83502e-05,0.000467104,0.000887055,1.68264e-05,0.000587604,0,-18,0,3.50663,3.50663,-99.6564,-99.6564,0.396
0.000121862,-0.000444647,8.0724e-05,0.000467104,0.000904697,1.12176e-05,0.00059929,0,-18,0,3.57147,3.57147,-99.6503,-99.6503,0.4
0.000125516,-0.000444647,8.31447e-05,0.000467104,0.000922505,7.47841e-06,0.000611086,0,-18,0,3.63747,3.63747,-99.6436,-99.6436,0.404
0.000129242,-0.000444647,8.56128e-05,0.000467104,0.000940478,4.9856e-06,0.000622992,0,-19,0,3.70457,3.70457,-99.6362,-99.6362,0.408
0.000133041,-0.000444302,8.81288e-05,0.000467104,0.000958618,3.21147e-05,0.000635008,0,-19,0,3.77264,3.77264,-99.6283,-99.6283,0.412
0.000136912,-0.000444302,9.0693e-05,0.000467104,0.000976923,2.14098e-05,0.000647134,0,-19,0,3.84061,3.84061,-99.6197,-99.6197,0.416
0.000140856,-0.000444302,9.3306e-05,0.000467104,0.000995394,1.42732e-05,0.000659369,0,-19,0,3.91,3.91,-99.6104,-99.6104,0.42
0.000144875,-0.000444302,9.59681e-05,0.000467104,0.00101403,9.51545e-06,0.000671714,0,-20,-1,3.98068,3.98068,-99.6005,-99.6005,0.424
0.000148969,-0.000443956,9.86798e-05,0.000467104,0.00103283,3.51346e-05,0.000684168,0,-20,-1,4.05245,4.05245,-99.59,-99.59,0.428
0.000153138,-0.000443956,0.000101442,0.000467104,0.0010518,2.3423e-05,0.000696731,0,-20,-1,4.12424,4.12424,-99.5788,-99.5788,0.432
0.000157383,-0.000443956,0.000104254,0.000467449,0.00107093,1.56154e-05,0.000709403,2.87909e-05,-21,-1,4.19752,4.19752,-99.567,-99.567,0.436
0.000161705,-0.000443956,0.000107117,0.000467104,0.00109022,1.04102e-05,0.000722184,-9.59697e-06,-21,-1,4.27217,4.27217,-99.5556,-99.5556,0.44
0.000166105,-0.000443611,0.000110031,0.000467104,0.00110968,3.57311e-05,0.000735073,-6.39798e-06,-21,-2,4.34797,4.34797,-99.5419,-99.5419,0.444
0.000170583,-0.000443611,0.000112998,0.000467104,0.0011293,2.38207e-05,0.000748071,-4.26532e-06,-21,-2,4.42384,4.42384,-99.5278,-99.5278,0.448
0.00017514,-0.000443611,0.000116016,0.000467104,0.00114909,1.58805e-05,0.000761178,-2.84355e-06,-22,-2,4.50127,4.50127,-99.513,-99.513,0.452
0.000179776,-0.000443265,0.000119087,0.000467104,0.00116904,3.93779e-05,0.000774393,-1.8957e-06,-22,-2,4.58001,4.58001,-99.4975,-99.4975,0.456
0.000184492,-0.000443265,0.000122211,0.000467104,0.00118915,2.62519e-05,0.000787716,-1.2638e-06,-22,-2,4.65892,4.65892,-99.4814,-99.4814,0.46
0.000189289,-0.00044292,0.000125389,0.000467104,0.00120942,4.62922e-05,0.000801146,-8.42533e-07,-22,-2,4.73939,4.73939,-99.4646,-99.4646,0.464
0.000194168,-0.000442574,0.000128621,0.000467104,0.00122986,5.96524e-05,0.000814685,-5.61689e-07,-23,-3,4.8201,4.8201,-99.4471,-99.4471,0.468
0.000199128,-0.000442574,0.000131907,0.000467104,0.00125046,3.97683e-05,0.000828331,-3.74459e-07,-23,-3,4.90144,4.90144,-99.4289,-99.4289,0.472
0.000204172,-0.000441883,0.000135248,0.000467104,0.00127123,8.4094e-05,0.000842085,-2.49639e-07,-23,-3,4.98455,4.98455,-99.41,-99.41,0.476
0.000209298,-0.000441538,0.000138644,0.000467104,0.00129215,8.48536e-05,0.000855947,-1.66426e-07,-23,-3,5.06701,5.06701,-99.3903,-99.3903,0.48
0.000214509,-0.000440847,0.000142095,0.000467104,0.00131324,0.000114151,0.000869915,-1.10951e-07,-24,-3,5.15048,5.15048,-99.3698,-99.3698,0.484
0.000219805,-0.000440156,0.000145603,0.000467104,0.00133449,0.000133682,0.000883991,-7.39672e-08,-24,-3,5.23384,5.23384,-99.3486,-99.3486,0.488
0.000225185,-0.000439119,0.000149167,0.000467104,0.0013559,0.000175494,0.000898174,-4.93115e-08,-24,-4,5.31744,5.31744,-99.3266,-99.3266,0.492
0.000230652,-0.000438428,0.000152789,0.000467104,0.00137747,0.000174578,0.000912463,-3.28743e-08,-24,-4,5.40051,5.40051,-99.3039,-99.3039,0.496
0.000236205,-0.000437392,0.000156467,0.000467104,0.0013992,0.000202758,0.000926859,-2.19162e-08,-24,-4,5.48468,5.48468,-99.2804,-99.2804,0.5
0.000241846,-0.00043601,0.000160204,0.000467104,0.00142109,0.000250336,0.000941362,-1.46108e-08,-24,-4,5.56874,5.56874,-99.256,-99.256,0.504
0.000247574,-0.000434973,0.000163998,0.000467104,0.00144315,0.000253263,0.000955971,-9.74054e-09,-24,-4,5.65205,5.65205,-99.2309,-99.2309,0.508
0.000253391,-0.000433591,0.000167852,0.000467104,0.00146536,0.000284006,0.000970687,-6.49369e-09,-24,-5,5.73632,5.73632,-99.205,-99.205,0.512
0.000259297,-0.000431173,0.000171764,0.000467104,0.00148774,0.000390874,0.000985508,-4.32913e-09,-24,-5,5.82021,5.82021,-99.1783,-99.1783,0.516
0.000265293,-0.000428754,0.000175736,0.000467104,0.00151027,0.000462119,0.00100044,-2.88609e-09,-23,-5,5.90077,5.90077,-99.1507,-99.1507,0.52
0.00027138,-0.000425645,0.000179767,0.000467104,0.00153297,0.000567198,0.00101547,-1.92406e-09,-23,-5,5.97931,5.97931,-99.1224,-99.1224,0.524
0.000277557,-0.000422536,0.00018386,0.000467104,0.00155582,0.00063725,0.00103061,-1.2827e-09,-22,-6,6.05458,6.05458,-99.0932,-99.0932,0.528
0.000283827,-0.000419772,0.000188012,0.000467104,0.00157884,0.000655161,0.00104585,-8.55136e-10,-22,-6,6.12814,6.12814,-99.0631,-99.0631,0.532
0.000290188,-0.000417008,0.000192227,0.000467104,0.00160201,0.000667101,0.0010612,-5.70091e-10,-23,-6,6.20211,6.20211,-99.0322,-99.0322,0.536
0.000296643,-0.000414244,0.000196502,0.000467449,0.00162534,0.000675062,0.00107666,2.87905e-05,-23,-6,6.27675,6.27675,-99.0005,-99.0005,0.54
0.000303191,-0.000411825,0.00020084,0.000467104,0.00164883,0.000651578,0.00109222,-9.59723e-06,-23,-7,6.35232,6.35232,-98.969,-98.969,0.544
0.000309834,-0.000409752,0.00020524,0.000467104,0.00167248,0.000607131,0.00110788,-6.39815e-06,-24,-7,6.43017,6.43017,-98.9352,-98.9352,0.548
0.000316571,-0.000408025,0.000209703,0.000467104,0.00169629,0.000548708,0.00112365,-4.26543e-06,-25,-7,6.5112,6.5112,-98.9005,-98.9005,0.552
0.000323404,-0.000406989,0.00021423,0.000467104,0.00172025,0.000452178,0.00113953,-2.84362e-06,-26,-7,6.59611,6.59611,-98.8651,-98.8651,0.556
0.000330333,-0.000406298,0.00021882,0.000467104,0.00174437,0.000359034,0.00115551,-1.89575e-06,-28,-7,6.68645,6.68645,-98.8288,-98.8288,0.56
0.000337359,-0.000405607,0.000223474,0.000467104,0.00176865,0.000296938,0.00117159,-1.26383e-06,-29,-8,6.78202,6.78202,-98.7917,-98.7917,0.564
0.000344483,-0.000405261,0.000228192,0.000467449,0.00179309,0.00022675,0.00118778,2.79484e-05,-30,-8,6.88162,6.88162,-98.7538,-98.7538,0.568
0.000351704,-0.000404916,0.000232976,0.000467104,0.00181769,0.000179957,0.00120407,-1.01587e-05,-31,-8,6.98553,6.98553,-98.716,-98.716,0.572
0.000359025,-0.00040457,0.000237825,0.000467104,0.00184244,0.000148762,0.00122047,-6.77245e-06,-31,-8,7.09279,7.09279,-98.6758,-98.6758,0.576
0.000366444,-0.000403879,0.00024274,0.000467104,0.00186735,0.000156757,0.00123697,-4.51497e-06,-32,-9,7.20266,7.20266,-98.6348,-98.6348,0.58
0.000373964,-0.000403188,0.000247721,0.000467104,0.00189241,0.000162086,0.00125357,-3.00998e-06,-32,-9,7.31359,7.31359,-98.5929,-98.5929,0.584
0.000381584,-0.000402497,0.000252769,0.000467104,0.00191764,0.000165639,0.00127028,-2.00665e-06,-33,-9,7.42571,7.42571,-98.5502,-98.5502,0.588
0.000389305,-0.000401806,0.000257883,0.000467104,0.00194301,0.000168008,0.00128709,-1.33777e-06,-33,-9,7.53909,7.53909,-98.5065,-98.5065,0.592
0.000397128,-0.000401806,0.000263066,0.000467104,0.00196855,0.000112005,0.00130401,-8.91846e-07,-34,-10,7.65399,7.65399,-98.4619,-98.4619,0.596
0.000405053,-0.000401461,0.000268316,0.000467104,0.00199424,0.000103461,0.00132102,-5.94564e-07,-34,-10,7.77261,7.77261,-98.4164,-98.4164,0.6
0.000413082,-0.000401115,0.000273634,0.000467104,0.00202008,9.77651e-05,0.00133814,-3.96376e-07,-35,-10,7.89305,7.89305,-98.3699,-98.3699,0.604
0.000421214,-0.000400079,0.000279021,0.000467104,0.00204608,0.000151549,0.00135537,-2.64251e-07,-35,-10,8.01505,8.01505,-98.3224,-98.3224,0.608
0.000429451,-0.000398351,0.000284477,0.000467104,0.00207224,0.000244988,0.00137269,-1.76167e-07,-34,-11,8.13608,8.13608,-98.2739,-98.2739,0.612
0.000437792,-0.000395933,0.000290003,0.000467104,0.00209855,0.000364862,0.00139012,-1.17445e-07,-34,-11,8.25446,8.25446,-98.2245,-98.2245,0.616
0.000446239,-0.000393169,0.000295598,0.000467449,0.00212501,0.000473568,0.00140765,2.87126e-05,-33,-11,8.36917,8.36917,-98.1741,-98.1741,0.62
0.000454793,-0.000389714,0.000301264,0.000467449,0.00215163,0.000603622,0.00142529,1.91418e-05,-32,-11,8.48058,8.48058,-98.1238,-98.1238,0.624
0.000463453,-0.000385914,0.000307001,0.000467449,0.00217841,0.000719115,0.00144302,1.27612e-05,-32,-12,8.58785,8.58785,-98.0721,-98.0721,0.628
0.00047222,-0.000382459,0.000312808,0.000467104,0.00220534,0.000767319,0.00146086,-2.02835e-05,-32,-12,8.69177,8.69177,-98.0191,-98.0191,0.632
0.000481096,-0.000378658,0.000318688,0.000467449,0.00223242,0.000828246,0.0014788,1.52686e-05,-31,-12,8.795,8.795,-97.9637,-97.9637,0.636
0.00049008,-0.000375203,0.000324639,0.000467449,0.00225965,0.000840073,0.00149684,1.01791e-05,-32,-13,8.89718,8.89718,-97.9088,-97.9088,0.64
0.000499173,-0.000371748,0.000330662,0.000467449,0.00228704,0.000847958,0.00151498,6.78605e-06,-32,-13,9.0003,9.0003,-97.8525,-97.8525,0.644
0.000508376,-0.000368294,0.000336759,0.000467449,0.00231458,0.000853215,0.00153323,4.52403e-06,-32,-13,9.10454,9.10454,-97.7951,-97.7951,0.648
0.00051769,-0.000364839,0.000342928,0.000467449,0.00234228,0.000856719,0.00155157,3.01602e-06,-33,-14,9.21002,9.21002,-97.7365,-97.7365,0.652
0.000527115,-0.000361729,0.000349172,0.000467449,0.00237012,0.000830264,0.00157002,2.01068e-06,-34,-14,9.31691,9.31691,-97.6767,-97.6767,0.656
0.000536651,-0.000357583,0.000355489,0.000467795,0.00239812,0.000899001,0.00158857,3.01314e-05,-33,-14,9.42615,9.42615,-97.6159,-97.6159,0.66
0.0005463,-0.000353437,0.00036188,0.000467795,0.00242628,0.000944825,0.00160722,2.00876e-05,-33,-14,9.53398,9.53398,-97.5552,-97.5552,0.664
0.000556062,-0.000348946,0.000368346,0.000467795,0.00245458,0.00100417,0.00162596,1.33917e-05,-33,-15,9.64128,9.64128,-97.4929,-97.4929,0.668
0.000565937,-0.000344109,0.000374888,0.00046814,0.00248304,0.00107252,0.00164481,3.77187e-05,-33,-15,9.74748,9.74748,-97.4293,-97.4293,0.672
0.000575926,-0.000338236,0.000381505,0.000468486,0.00251165,0.00120446,0.00166377,5.39368e-05,-32,-15,9.85203,9.85203,-97.3656,-97.3656,0.676
0.00058603,-0.000332017,0.000388198,0.000469177,0.00254041,0.00132121,0.00168282,9.35397e-05,-31,-15,9.95241,9.95241,-97.3015,-97.3015,0.68
0.000596249,-0.000325453,0.000394968,0.000469868,0.00256932,0.00142783,0.00170197,0.000119942,-31,-15,10.0492,10.0492,-97.238,-97.238,0.684
0.000606585,-0.000318543,0.000401814,0.000470213,0.00259838,0.00152771,0.00172122,0.000108752,-30,-15,10.1429,10.1429,-97.1744,-97.1744,0.688
0.000617037,-0.000310251,0.000408738,0.000470904,0.00262759,0.00170945,0.00174057,0.000130083,-29,-16,10.2335,10.2335,-97.1093,-97.1093,0.692
0.000627606,-0.000301959,0.000415739,0.000471941,0.00265695,0.00183062,0.00176002,0.000173095,-28,-15,10.3179,10.3179,-97.044,-97.044,0.696
0.000638293,-0.000294013,0.000422818,0.000472977,0.00268647,0.0018826,0.00177957,0.000201769,-28,-15,10.3986,10.3986,-96.9794,-96.9794,0.7
0.000649098,-0.000286758,0.000429976,0.000474014,0.00271613,0.00185968,0.00179922,0.000220886,-29,-16,10.4788,10.4788,-96.9149,-96.9149,0.704
0.000660022,-0.000280193,0.000437212,0.000474359,0.00274595,0.00178681,0.00181897,0.000176048,-30,-16,10.5615,10.5615,-96.8498,-96.8498,0.708
0.000671065,-0.000273629,0.000444527,0.000474359,0.00277591,0.00173824,0.00183882,0.000117365,-31,-17,10.6488,10.6488,-96.7817,-96.7817,0.712
0.000682229,-0.000267756,0.000451923,0.000474705,0.00280602,0.00164827,0.00185877,0.000107035,-32,-18,10.7398,10.7398,-96.71,-96.71,0.716
0.000693514,-0.000261882,0.000459398,0.000475396,0.00283629,0.00158829,0.00187881,0.000128938,-33,-18,10.836,10.836,-96.6367,-96.6367,0.72
0.00070492,-0.000256009,0.000466953,0.000476432,0.0028667,0.00154831,0.00189896,0.000172332,-34,-18,10.9364,10.9364,-96.5633,-96.5633,0.724
0.000716448,-0.000250136,0.00047459,0.000477469,0.00289726,0.00152165,0.0019192,0.00020126,-35,-18,11.04,11.04,-96.4905,-96.4905,0.728
0.000728098,-0.000243226,0.000482307,0.000479196,0.00292797,0.00159025,0.00193955,0.000278128,-34,-17,11.146,11.146,-96.4179,-96.4179,0.732
0.000739872,-0.000234934,0.000490106,0.000480924,0.00295883,0.00175115,0.00195999,0.000329373,-33,-17,11.2503,11.2503,-96.3473,-96.3473,0.736
0.000751769,-0.000225606,0.000497987,0.000482651,0.00298983,0.00194479,0.00198053,0.000363537,-32,-17,11.3492,11.3492,-96.2777,-96.2777,0.74
0.00076379,-0.000214895,0.00050595,0.000484724,0.00302099,0.00218904,0.00200116,0.000415104,-30,-17,11.4411,11.4411,-96.2084,-96.2084,0.744
0.000775937,-0.000202803,0.000513996,0.000486797,0.00305229,0.00246705,0.0020219,0.000449481,-28,-17,11.5238,11.5238,-96.1401,-96.1401,0.748
0.000788209,-0.000191057,0.000522126,0.000488524,0.00308374,0.00262359,0.00204273,0.000443609,-26,-17,11.5963,11.5963,-96.072,-96.072,0.752
0.000800607,-0.000178619,0.000530338,0.000490943,0.00311534,0.00278553,0.00206366,0.000497276,-25,-17,11.6635,11.6635,-96.0026,-96.0026,0.756
0.000813132,-0.000165836,0.000538635,0.000493016,0.00314708,0.00292229,0.00208469,0.000504263,-24,-18,11.7251,11.7251,-95.9341,-95.9341,0.76
0.000825784,-0.000155816,0.000547016,0.000495089,0.00317898,0.00278313,0.00210582,0.000508921,-26,-18,11.7832,11.7832,-95.8648,-95.8648,0.764
0.000838564,-0.000147179,0.000555482,0.000497507,0.00321101,0.00257519,0.00212704,0.000540817,-28,-18,11.8488,11.8488,-95.7945,-95.7945,0.768
0.000851472,-0.000139578,0.000564033,0.00049958,0.0032432,0.00235019,0.00214836,0.00053329,-31,-18,11.925,11.925,-95.7243,-95.7243,0.772
0.00086451,-0.000133014,0.000572669,0.000501999,0.00327553,0.00211382,0.00216978,0.000557063,-34,-18,12.0125,12.0125,-95.6526,-95.6526,0.776
0.000877677,-0.000126795,0.000581391,0.000503726,0.00330801,0.00192745,0.00219129,0.00051533,-36,-19,12.1117,12.1117,-95.5806,-95.5806,0.78
0.000890974,-0.000120231,0.000590199,0.000505453,0.00334064,0.001832,0.0022129,0.000487508,-38,-20,12.2203,12.2203,-95.5055,-95.5055,0.784
0.000904402,-0.000112976,0.000599094,0.000506835,0.00337341,0.00182594,0.00223461,0.000440169,-38,-21,12.3344,12.3344,-95.428,-95.428,0.788
0.000917961,-0.000103302,0.000608076,0.000508217,0.00340632,0.00202344,0.00225642,0.00040861,-37,-21,12.4499,12.4499,-95.3472,-95.3472,0.792
0.000931653,-9.25916e-05,0.000617146,0.000509599,0.00343938,0.00224148,0.00227832,0.00038757,-35,-22,12.5585,12.5585,-95.2638,-95.2638,0.796
0.000945477,-8.15359e-05,0.000626303,0.000511327,0.00347259,0.00241563,0.00230031,0.000402335,-34,-22,12.6594,12.6594,-95.1783,-95.1783,0.8
0.000959434,-6.94437e-05,0.000635548,0.000514091,0.00350594,0.0026181,0.00232241,0.000498551,-32,-22,12.7543,12.7543,-95.0924,-95.0924,0.804
0.000973524,-5.73515e-05,0.000644882,0.000516855,0.00353944,0.00275308,0.00234459,0.000562694,-31,-21,12.8423,12.8423,-95.0092,-95.0092,0.808
0.000987749,-4.45684e-05,0.000654305,0.000519964,0.00357308,0.00290065,0.00236688,0.000634248,-30,-21,12.926,12.926,-94.9275,-94.9275,0.812
0.00100211,-3.24762e-05,0.000663818,0.000522728,0.00360686,0.00294145,0.00238926,0.000653159,-30,-21,13.0053,13.0053,-94.8474,-94.8474,0.816
0.0010166,-2.0384e-05,0.000673419,0.000525837,0.00364079,0.00296865,0.00241173,0.000694558,-31,-21,13.0844,13.0844,-94.767,-94.767,0.82
0.00103124,-8.63728e-06,0.000683112,0.000528947,0.00367487,0.00295799,0.00243431,0.000722157,-31,-21,13.164,13.164,-94.6869,-94.6869,0.824
0.001046,3.8004e-06,0.000692894,0.000531365,0.00370908,0.00300847,0.00245697,0.000682974,-31,-22,13.2455,13.2455,-94.6066,-94.6066,0.828
0.00106091,1.69291e-05,0.000702767,0.000533784,0.00374344,0.0030997,0.00247973,0.000656853,-31,-23,13.3262,13.3262,-94.5233,-94.5233,0.832
0.00107595,3.04032e-05,0.000712732,0.000535511,0.00377795,0.00318931,0.00250259,0.000581856,-30,-24,13.4047,13.4047,-94.4375,-94.4375,0.836
0.00109113,4.38774e-05,0.000722788,0.000536893,0.00381259,0.00324905,0.00252554,0.000503068,-30,-25,13.4809,13.4809,-94.347,-94.347,0.84
0.00110645,5.6315e-05,0.000732936,0.000538275,0.00384738,0.00320251,0.00254859,0.000450542,-31,-26,13.5565,13.5565,-94.2519,-94.2519,0.844
0.00112191,6.77163e-05,0.000743177,0.000538621,0.00388232,0.00308511,0.00257173,0.000329153,-33,-27,13.6359,13.6359,-94.153,-94.153,0.848
0.00113751,7.8081e-05,0.00075351,0.000538621,0.00391739,0.00292047,0.00259496,0.000219435,-35,-29,13.7222,13.7222,-94.0475,-94.0475,0.852
0.00115325,8.81002e-05,0.000763937,0.000538621,0.00395261,0.00278191,0.00261829,0.00014629,-36,-30,13.8172,13.8172,-93.936,-93.936,0.856
0.00116913,9.88105e-05,0.000774457,0.000538966,0.00398797,0.00274713,0.00264171,0.000126318,-37,-31,13.9196,13.9196,-93.82,-93.82,0.86
0.00118515,0.000109866,0.000785071,0.000539312,0.00402347,0.00275273,0.00266523,0.000113003,-38,-31,14.0251,14.0251,-93.7017,-93.7017,0.864
0.00120132,0.000121958,0.000795779,0.000539657,0.00405911,0.00284283,0.00268884,0.000104126,-37,-32,14.1319,14.1319,-93.5813,-93.5813,0.868
0.00121763,0.000134742,0.000806582,0.000540003,0.0040949,0.00296049,0.00271254,9.82083e-05,-37,-32,14.2365,14.2365,-93.4591,-93.4591,0.872
0.00123408,0.000148216,0.000817479,0.000541385,0.00413082,0.0030965,0.00273634,0.000180636,-36,-32,14.3377,14.3377,-93.3354,-93.3354,0.876
0.00125067,0.000162726,0.000828472,0.000542767,0.00416689,0.00327355,0.00276023,0.000235588,-35,-32,14.4346,14.4346,-93.2136,-93.2136,0.88
0.00126741,0.000178273,0.000839561,0.000544839,0.0042031,0.00347796,0.00278422,0.000329804,-33,-32,14.5255,14.5255,-93.0928,-93.0928,0.884
0.0012843,0.000193821,0.000850746,0.000547258,0.00423945,0.00361423,0.0028083,0.000421406,-32,-31,14.6095,14.6095,-92.9746,-92.9746,0.888
0.00130133,0.000209368,0.000862028,0.000549676,0.00427594,0.00370508,0.00283247,0.000482474,-32,-31,14.6894,14.6894,-92.8586,-92.8586,0.892
0.00131851,0.00022526,0.000873406,0.00055244,0.00431256,0.00379444,0.00285673,0.000551977,-31,-31,14.7671,14.7671,-92.7439,-92.7439,0.896
0.00133583,0.000241153,0.000884882,0.000554859,0.00434933,0.00385401,0.00288109,0.000569521,-31,-31,14.8427,14.8427,-92.6305,-92.6305,0.9
0.0013533,0.000257045,0.000896455,0.000556932,0.00438624,0.00389372,0.00290554,0.000552426,-31,-32,14.9174,14.9174,-92.5162,-92.5162,0.904
0.00137092,0.000272247,0.000908126,0.000559005,0.00442329,0.00386261,0.00293008,0.00054103,-32,-32,14.9923,14.9923,-92.3998,-92.3998,0.908
0.00138869,0.000287449,0.000919896,0.000561423,0.00446048,0.00384188,0.00295471,0.000562223,-33,-32,15.0702,15.0702,-92.2814,-92.2814,0.912
0.00140661,0.000302996,0.000931764,0.00056315,0.00449781,0.00385684,0.00297944,0.00051877,-33,-33,15.1506,15.1506,-92.1623,-92.1623,0.916
0.00142467,0.000318543,0.000943731,0.000564878,0.00453527,0.00386682,0.00300426,0.000489801,-33,-34,15.2321,15.2321,-92.0398,-92.0398,0.92
0.00144289,0.00033409,0.000955798,0.000566605,0.00457288,0.00387347,0.00302917,0.000470489,-34,-35,15.3149,15.3149,-91.9146,-91.9146,0.924
0.00146125,0.000349291,0.000967965,0.000568333,0.00461062,0.00384912,0.00305417,0.000457614,-35,-35,15.3992,15.3992,-91.787,-91.787,0.928
0.00147977,0.00036553,0.000980232,0.000570406,0.0046485,0.00391925,0.00307926,0.000477821,-34,-36,15.4861,15.4861,-91.6574,-91.6574,0.932
0.00149844,0.00038315,0.000992599,0.000572479,0.00468652,0.00408117,0.00310445,0.000491293,-33,-36,15.5714,15.5714,-91.527,-91.527,0.936
0.00151727,0.000401115,0.00100507,0.000574552,0.00472468,0.00421791,0.00312972,0.000500274,-32,-36,15.6515,15.6515,-91.3957,-91.3957,0.94
0.00153624,0.000420117,0.00101764,0.000576279,0.00476298,0.00439544,0.00315509,0.000477471,-31,-37,15.7274,15.7274,-91.2631,-91.2631,0.944
0.00155537,0.000438774,0.00103031,0.000578007,0.00480141,0.004485,0.00318055,0.000462269,-31,-38,15.7975,15.7975,-91.1279,-91.1279,0.948
0.00157465,0.000457085,0.00104308,0.000579734,0.00483998,0.00451592,0.0032061,0.000452134,-31,-38,15.8657,15.8657,-90.9905,-90.9905,0.952
0.00159409,0.00047505,0.00105596,0.000582152,0.00487869,0.00450774,0.00323174,0.000502959,-31,-38,15.9344,15.9344,-90.8512,-90.8512,0.956
0.00161368,0.000493361,0.00106894,0.000585262,0.00491753,0.00453108,0.00325747,0.000594424,-32,-38,16.005,16.005,-90.7126,-90.7126,0.96
0.00163343,0.000512363,0.00108202,0.000588371,0.00495651,0.00460422,0.0032833,0.000655401,-31,-38,16.0763,16.0763,-90.5762,-90.5762,0.964
0.00165333,0.000532056,0.0010952,0.000591826,0.00499563,0.00471056,0.00330921,0.000724843,-31,-38,16.1459,16.1459,-90.4408,-90.4408,0.968
0.00167339,0.000551058,0.00110849,0.000595972,0.00503489,0.00472388,0.00333521,0.00082872,-31,-37,16.2131,16.2131,-90.307,-90.307,0.972
0.00169361,0.000570406,0.00112188,0.000601155,0.00507428,0.00476154,0.00336131,0.000984344,-31,-36,16.2813,16.2813,-90.1761,-90.1761,0.976
0.00171399,0.000589062,0.00113538,0.000605991,0.0051138,0.00472907,0.00338749,0.0010593,-32,-36,16.3498,16.3498,-90.0501,-90.0501,0.98
0.00173452,0.000609446,0.00114898,0.000611865,0.00515347,0.00485138,0.00341376,0.00119565,-31,-35,16.421,16.421,-89.926,-89.926,0.984
0.00175522,0.00062983,0.00116269,0.00061912,0.00519326,0.00493292,0.00344012,0.00140171,-31,-34,16.4888,16.4888,-89.8063,-89.8063,0.988
0.00177607,0.00065056,0.0011765,0.000626721,0.0052332,0.00501607,0.00346658,0.00156787,-31,-32,16.5549,16.5549,-89.6938,-89.6938,0.992
0.00179708,0.000669562,0.00119042,0.000635013,0.00527327,0.00492755,0.00349312,0.00173623,-32,-31,16.6196,16.6196,-89.587,-89.587,0.996
0.00181826,0.000688218,0.00120445,0.000645032,0.00531347,0.00483974,0.00351975,0.00199242,-33,-29,16.6899,16.6899,-89.4862,-89.4862,1
0.00183959,0.000707566,0.00121858,0.000655051,0.00535381,0.00483879,0.00354647,0.00216322,-34,-28,16.7656,16.7656,-89.3947,-89.3947,1.004
0.00186109,0.000726568,0.00123282,0.000665761,0.00539428,0.00480936,0.00357328,0.00233466,-35,-27,16.8432,16.8432,-89.3091,-89.3091,1.008
0.00188275,0.000747297,0.00124717,0.000677163,0.00543489,0.00493369,0.00360018,0.00250654,-34,-25,16.9235,16.9235,-89.2294,-89.2294,1.012
0.00190457,0.000768027,0.00126162,0.000688909,0.00547563,0.00501658,0.00362717,0.00264992,-34,-24,17.0003,17.0003,-89.1557,-89.1557,1.016
0.00192655,0.000789102,0.00127619,0.000701001,0.0055165,0.00510064,0.00365424,0.0027743,-33,-24,17.0754,17.0754,-89.0868,-89.0868,1.02
0.0019487,0.000809831,0.00129086,0.000713785,0.00555751,0.00512788,0.00368141,0.00291479,-33,-23,17.1489,17.1489,-89.0218,-89.0218,1.024
0.00197101,0.000831252,0.00130564,0.000725186,0.00559865,0.00520362,0.00370866,0.0028933,-33,-23,17.2228,17.2228,-88.9612,-88.9612,1.028
0.00199349,0.000851636,0.00132053,0.000735896,0.00563993,0.00516775,0.003736,0.00282138,-34,-24,17.2957,17.2957,-88.8981,-88.8981,1.032
0.00201613,0.000869947,0.00133553,0.000745224,0.00568133,0.00497108,0.00376343,0.00265828,-36,-26,17.3725,17.3725,-88.8303,-88.8303,1.036
0.00203894,0.000887567,0.00135063,0.000753516,0.00572288,0.00478239,0.00379095,0.00246317,-39,-28,17.4597,17.4597,-88.7541,-88.7541,1.04
0.00206191,0.000902768,0.00136585,0.000760771,0.00576455,0.00445506,0.00381855,0.00224672,-43,-31,17.5573,17.5573,-88.6681,-88.6681,1.044
0.00208506,0.000917279,0.00138118,0.000767336,0.00580636,0.00417926,0.00384625,0.00204484,-46,-33,17.671,17.671,-88.5713,-88.5713,1.048
0.00210836,0.000930753,0.00139662,0.0007739,0.00584829,0.00390902,0.00387403,0.00191026,-49,-35,17.7987,17.7987,-88.4646,-88.4646,1.052
0.00213184,0.000944227,0.00141218,0.000780119,0.00589036,0.00372886,0.0039019,0.00179174,-51,-37,17.94,17.94,-88.3506,-88.3506,1.056
0.00215549,0.000957356,0.00142784,0.000785647,0.00593257,0.00357996,0.00392985,0.00165515,-54,-38,18.0911,18.0911,-88.2299,-88.2299,1.06
0.0021793,0.000970139,0.00144361,0.000791175,0.0059749,0.00345191,0.0039579,0.00156409,-56,-40,18.2509,18.2509,-88.1018,-88.1018,1.064
0.00220329,0.000982922,0.0014595,0.000796357,0.00601737,0.00336653,0.00398603,0.00147459,-57,-41,18.4184,18.4184,-87.9682,-87.9682,1.068
0.00222744,0.000995705,0.0014755,0.00080223,0.00605996,0.00330962,0.00401424,0.0014725,-58,-42,18.5918,18.5918,-87.8293,-87.8293,1.072
0.00225177,0.00100745,0.00149162,0.00080914,0.00610269,0.00318531,0.00404255,0.00155749,-60,-41,18.7703,18.7703,-87.689,-87.689,1.076
0.00227626,0.00101747,0.00150784,0.000816395,0.00614555,0.00295847,0.00407094,0.00164293,-63,-41,18.9568,18.9568,-87.5506,-87.5506,1.08
0.00230093,0.00102542,0.00152418,0.000824342,0.00618854,0.00263451,0.00409941,0.00175748,-67,-41,19.1558,19.1558,-87.4142,-87.4142,1.084
0.00232577,0.00103198,0.00154064,0.000832634,0.00623166,0.00230337,0.00412798,0.00186264,-71,-40,19.3714,19.3714,-87.2811,-87.2811,1.088
0.00235078,0.00103647,0.00155721,0.000842307,0.00627491,0.00190986,0.00415663,0.0020479,-76,-39,19.6042,19.6042,-87.1511,-87.1511,1.092
0.00237597,0.00104027,0.00157389,0.000851981,0.00631829,0.00158994,0.00418536,0.00217141,-80,-38,19.8563,19.8563,-87.0272,-87.0272,1.096
0.00240133,0.00104269,0.00159069,0.000862346,0.0063618,0.0012615,0.00421418,0.00231134,-84,-37,20.1251,20.1251,-86.907,-86.907,1.1
0.00242687,0.00104407,0.00160761,0.000873056,0.00640544,0.000956161,0.00424309,0.00243341,-88,-36,20.4109,20.4109,-86.7912,-86.7912,1.104
0.00245257,0.00104546,0.00162464,0.000884457,0.00644921,0.000752604,0.00427209,0.00257237,-91,-36,20.7124,20.7124,-86.6791,-86.6791,1.108
0.00247846,0.00104684,0.00164178,0.000896895,0.00649311,0.0006169,0.00430117,0.00275139,-93,-34,21.0256,21.0256,-86.5715,-86.5715,1.112
0.00250452,0.00104926,0.00165905,0.000910715,0.00653713,0.000612803,0.00433033,0.0029859,-94,-32,21.3472,21.3472,-86.4702,-86.4702,1.116
0.00253076,0.00105271,0.00167642,0.000924534,0.00658129,0.000696445,0.00435958,0.00314223,-94,-31,21.6718,21.6718,-86.3773,-86.3773,1.12
0.00255717,0.00105686,0.00169392,0.000937663,0.00662557,0.000809788,0.00438892,0.00318888,-94,-31,21.9956,21.9956,-86.2892,-86.2892,1.124
0.00258376,0.00106135,0.00171154,0.000949064,0.00666999,0.00091414,0.00441834,0.00307602,-94,-33,22.3177,22.3177,-86.2011,-86.2011,1.128
0.00261053,0.00106584,0.00172927,0.000959083,0.00671453,0.000983709,0.00444784,0.00288562,-95,-35,22.6384,22.6384,-86.1065,-86.1065,1.132
0.00263748,0.00107068,0.00174712,0.000968066,0.0067592,0.00105888,0.00447743,0.00267231,-95,-38,22.9591,22.9591,-86.0021,-86.0021,1.136
0.0026646,0.00107586,0.00176509,0.000976012,0.006804,0.00113778,0.00450711,0.00244373,-95,-40,23.2795,23.2795,-85.8869,-85.8869,1.14
0.00269191,0.00108035,0.00178318,0.000983268,0.00684892,0.0011328,0.00453686,0.00223376,-96,-43,23.5998,23.5998,-85.7603,-85.7603,1.144
0.0027194,0.0010845,0.00180138,0.000990177,0.00689397,0.00110069,0.00456671,0.00206499,-98,-45,23.9235,23.9235,-85.6232,-85.6232,1.148
0.00274706,0.00108726,0.00181971,0.000997433,0.00693915,0.000964123,0.00459664,0.00198127,-100,-46,24.2519,24.2519,-85.4773,-85.4773,1.152
0.00277491,0.00109072,0.00183816,0.00100572,0.00698446,0.000930658,0.00462665,0.00201183,-101,-47,24.589,24.589,-85.3264,-85.3264,1.156
0.00280294,0.00109382,0.00185672,0.00101505,0.00702989,0.000879557,0.00465674,0.00211858,-103,-46,24.9307,24.9307,-85.1753,-85.1753,1.16
0.00283115,0.00109624,0.00187541,0.00102576,0.00707545,0.000787908,0.00468692,0.0023049,-105,-45,25.2779,25.2779,-85.0272,-85.0272,1.164
0.00285954,0.00109901,0.00189422,0.00103786,0.00712114,0.000755599,0.00471719,0.00254428,-106,-43,25.632,25.632,-84.8855,-84.8855,1.168
0.00288812,0.00110143,0.00191315,0.00105133,0.00716695,0.000705269,0.00474754,0.00281904,-108,-41,25.9908,25.9908,-84.7525,-84.7525,1.172
0.00291688,0.00110419,0.0019322,0.00106515,0.00721289,0.000700507,0.00477797,0.00303099,-109,-40,26.3548,26.3548,-84.6294,-84.6294,1.176
0.00294582,0.00110592,0.00195137,0.00107897,0.00725896,0.000610959,0.00480848,0.0031723,-111,-39,26.7226,26.7226,-84.5135,-84.5135,1.18
0.00297495,0.00110764,0.00197067,0.00109452,0.00730515,0.000551261,0.00483908,0.00341046,-113,-37,27.0974,27.0974,-84.4024,-84.4024,1.184
0.00300426,0.00110937,0.00199008,0.00111041,0.00735146,0.000511462,0.00486976,0.00359802,-114,-35,27.478,27.478,-84.2997,-84.2997,1.188
0.00303376,0.00111075,0.00200963,0.00112699,0.0073979,0.000456138,0.00490052,0.00378065,-116,-34,27.8636,27.8636,-84.2035,-84.2035,1.192
0.00306345,0.00111283,0.00202929,0.00114323,0.00744447,0.000476838,0.00493137,0.0038736,-117,-34,28.2548,28.2548,-84.1134,-84.1134,1.196
0.00309332,0.00111525,0.00204908,0.00115809,0.00749116,0.000519428,0.0049623,0.00382041,-117,-35,28.6484,28.6484,-84.0252,-84.0252,1.2
0.00312338,0.00111801,0.00206899,0.00117294,0.00753798,0.000576613,0.00499331,0.00378495,-118,-35,29.0434,29.0434,-83.9333,-83.9333,1.204
0.00315362,0.00112077,0.00208902,0.00118538,0.00758492,0.000614736,0.0050244,0.00355977,-119,-38,29.4394,29.4394,-83.8378,-83.8378,1.208
0.00318405,0.00112319,0.00210918,0.00119678,0.00763198,0.00061136,0.00505558,0.00332328,-120,-41,29.8372,29.8372,-83.731,-83.731,1.212
0.00321468,0.00112596,0.00212947,0.00120784,0.00767917,0.000637901,0.00508684,0.00313683,-121,-43,30.2385,30.2385,-83.6126,-83.6126,1.216
0.00324549,0.00112768,0.00214988,0.00121786,0.00772648,0.000569222,0.00511818,0.00292616,-123,-46,30.6423,30.6423,-83.4843,-83.4843,1.22
0.00327649,0.0011301,0.00217041,0.00122857,0.00777392,0.000581018,0.0051496,0.00284329,-124,-47,31.0523,31.0523,-83.3458,-83.3458,1.224
0.00330768,0.00113252,0.00219107,0.00123997,0.00782148,0.000588882,0.00518111,0.00284563,-125,-47,31.4651,31.4651,-83.2021,-83.2021,1.228
0.00333906,0.00113459,0.00221186,0.0012531,0.00786916,0.000565333,0.00521269,0.00299114,-126,-47,31.8812,31.8812,-83.0572,-83.0572,1.232
0.00337063,0.00113701,0.00223278,0.00126657,0.00791696,0.000578425,0.00524436,0.00311694,-127,-46,32.3017,32.3017,-82.9167,-82.9167,1.236
0.0034024,0.00113943,0.00225382,0.00128004,0.00796489,0.000587153,0.00527611,0.00320081,-129,-46,32.7251,32.7251,-82.7797,-82.7797,1.24
0.00343435,0.00114116,0.00227499,0.00129386,0.00801294,0.00053539,0.00530794,0.00328551,-130,-45,33.1518,33.1518,-82.6445,-82.6445,1.244
0.0034665,0.00114358,0.00229628,0.00130872,0.00806112,0.000558463,0.00533985,0.00342835,-131,-45,33.584,33.584,-82.5114,-82.5114,1.248
0.00349884,0.00114565,0.0023177,0.00132427,0.00810941,0.000545054,0.00537184,0.00358116,-133,-44,34.0188,34.0188,-82.3827,-82.3827,1.252
0.00353138,0.00114807,0.00233926,0.00133947,0.00815783,0.000564906,0.00540391,0.00365424,-134,-43,34.4577,34.4577,-82.2587,-82.2587,1.256
0.0035641,0.00115049,0.00236094,0.00135502,0.00820637,0.000578141,0.00543607,0.00373175,-135,-43,34.8992,34.8992,-82.136,-82.136,1.26
0.00359703,0.00115256,0.00238274,0.00136987,0.00825503,0.000558173,0.0054683,0.00372584,-136,-44,35.3439,35.3439,-82.0148,-82.0148,1.264
0.00363014,0.00115498,0.00240468,0.00138473,0.00830382,0.000573652,0.00550062,0.00372191,-137,-44,35.7929,35.7929,-81.8916,-81.8916,1.268
0.00366346,0.0011574,0.00242675,0.00139924,0.00835272,0.000583971,0.00553301,0.00369049,-139,-45,36.2449,36.2449,-81.7664,-81.7664,1.272
0.00369697,0.00116016,0.00244895,0.0014134,0.00840175,0.000619641,0.00556549,0.00364075,-140,-46,36.6999,36.6999,-81.6381,-81.6381,1.276
0.00373067,0.00116258,0.00247127,0.00142722,0.00845089,0.000614631,0.00559804,0.00357881,-141,-47,37.1571,37.1571,-81.5059,-81.5059,1.28
0.00376457,0.00116569,0.00249373,0.00144139,0.00850016,0.000668872,0.00563068,0.0035663,-142,-48,37.618,37.618,-81.3694,-81.3694,1.284
0.00379867,0.0011688,0.00251632,0.00145624,0.00854955,0.000705033,0.00566339,0.00361554,-143,-48,38.0803,38.0803,-81.2308,-81.2308,1.288
0.00383297,0.00117294,0.00253904,0.00147179,0.00859905,0.000815513,0.00569619,0.00370595,-143,-48,38.5444,38.5444,-81.0926,-81.0926,1.292
0.00386747,0.00117743,0.00256189,0.00148838,0.00864868,0.000917957,0.00572906,0.0038526,-143,-47,39.0074,39.0074,-80.9567,-80.9567,1.296
0.00390216,0.00118193,0.00258487,0.00150634,0.00869843,0.000986254,0.00576202,0.00406553,-144,-45,39.4697,39.4697,-80.8256,-80.8256,1.3
0.00393705,0.0011878,0.00260798,0.00152569,0.0087483,0.00114695,0.00579505,0.00432264,-143,-43,39.9324,39.9324,-80.7019,-80.7019,1.304
0.00397215,0.00119505,0.00263123,0.00154365,0.00879828,0.00136924,0.00582816,0.00437889,-142,-43,40.3916,40.3916,-80.587,-80.587,1.308
0.00400744,0.001203,0.00265461,0.00156024,0.00884839,0.00157502,0.00586135,0.00430122,-142,-44,40.8448,40.8448,-80.4724,-80.4724,1.312
0.00404293,0.00121095,0.00267812,0.0015744,0.00889862,0.0017122,0.00589462,0.00404791,-142,-47,41.293,41.293,-80.3522,-80.3522,1.316
0.00407863,0.00121889,0.00270177,0.0015858,0.00894896,0.00180366,0.00592797,0.00364871,-142,-52,41.7389,41.7389,-80.219,-80.219,1.32
0.00411453,0.00122615,0.00272555,0.00159513,0.00899942,0.00180705,0.0059614,0.00320983,-143,-57,42.1846,42.1846,-80.0667,-80.0667,1.324
0.00415062,0.00123202,0.00274946,0.00160273,0.00905,0.00169415,0.00599491,0.00277328,-146,-61,42.6341,42.6341,-79.8936,-79.8936,1.328
0.00418693,0.00123651,0.00277351,0.00160895,0.0091007,0.00150371,0.00602849,0.00236709,-149,-66,43.0924,43.0924,-79.6999,-79.6999,1.332
0.00422343,0.00123928,0.00279769,0.00161379,0.00915152,0.0012328,0.00606215,0.00198114,-153,-71,43.5627,43.5627,-79.4868,-79.4868,1.336
0.00426014,0.00124066,0.002822,0.00161724,0.00920246,0.000937032,0.0060959,0.00160867,-157,-75,44.0486,44.0486,-79.2549,-79.2549,1.34
0.00429705,0.00124135,0.00284645,0.00162035,0.00925351,0.00068227,0.00612971,0.00133156,-161,-78,44.5509,44.5509,-79.0051,-79.0051,1.344
0.00433417,0.00124204,0.00287104,0.00162381,0.00930468,0.000512428,0.00616361,0.00117562,-164,-81,45.0678,45.0678,-78.7414,-78.7414,1.348
0.00437149,0.00124273,0.00289576,0.00162692,0.00935597,0.000399201,0.00619759,0.00104286,-166,-83,45.5957,45.5957,-78.4686,-78.4686,1.352
0.00440901,0.00124377,0.00292062,0.00163003,0.00940738,0.000352507,0.00623164,0.000954361,-168,-84,46.1323,46.1323,-78.1879,-78.1879,1.356
0.00444675,0.0012455,0.00294562,0.00163314,0.0094589,0.000378959,0.00626577,0.000895359,-169,-86,46.6747,46.6747,-77.9011,-77.9011,1.36
0.00448469,0.00124757,0.00297075,0.00163625,0.00951054,0.000425385,0.00629997,0.000856024,-170,-87,47.2198,47.2198,-77.6092,-77.6092,1.364
0.00452283,0.00124999,0.00299602,0.0016397,0.00956229,0.000485126,0.00633426,0.000858592,-171,-88,47.7668,47.7668,-77.3134,-77.3134,1.368
0.00456118,0.00125275,0.00302142,0.00164316,0.00961417,0.000553745,0.00636862,0.000860304,-172,-89,48.3153,48.3153,-77.0151,-77.0151,1.372
0.00459974,0.00125586,0.00304696,0.00164765,0.00966615,0.000628282,0.00640306,0.000947818,-173,-89,48.8647,48.8647,-76.7146,-76.7146,1.376
0.00463851,0.00125828,0.00307265,0.00165076,0.00971826,0.000620391,0.00643757,0.000890997,-174,-90,49.4152,49.4152,-76.4149,-76.4149,1.38
0.00467749,0.0012607,0.00309847,0.00165387,0.00977048,0.00061513,0.00647216,0.000853116,-176,-91,49.97,49.97,-76.1103,-76.1103,1.384
0.00471668,0.00126312,0.00312442,0.00165732,0.00982281,0.000611623,0.00650683,0.000856653,-177,-92,50.529,50.529,-75.8016,-75.8016,1.388
0.00475607,0.00126588,0.00315052,0.00166078,0.00987527,0.000638076,0.00654158,0.000859012,-179,-93,51.0921,51.0921,-75.4905,-75.4905,1.392
0.00479568,0.00126864,0.00317676,0.00166458,0.00992783,0.000655712,0.0065764,0.000889375,-180,-94,51.6582,51.6582,-75.1771,-75.1771,1.396
0.0048355,0.0012721,0.00320313,0.00166803,0.00998051,0.00072505,0.0066113,0.000880826,-181,-95,52.2274,52.2274,-74.8622,-74.8622,1.4
0.00487552,0.00127452,0.00322965,0.00167183,0.0100333,0.000684903,0.00664627,0.000903917,-183,-95,52.798,52.798,-74.5445,-74.5445,1.404
0.00491576,0.00127832,0.0032563,0.00167598,0.0100862,0.000773302,0.00668132,0.000948103,-183,-96,53.3741,53.3741,-74.2252,-74.2252,1.408
0.00495621,0.00128246,0.0032831,0.00168047,0.0101392,0.000861026,0.00671644,0.00100635,-184,-96,53.9504,53.9504,-73.9053,-73.9053,1.412
0.00499688,0.00128695,0.00331003,0.00168496,0.0101924,0.000948299,0.00675164,0.00104518,-184,-97,54.5269,54.5269,-73.5852,-73.5852,1.416
0.00503775,0.00129214,0.00333711,0.00168911,0.0102456,0.00106406,0.00678692,0.00104228,-185,-98,55.1038,55.1038,-73.2641,-73.2641,1.42
0.00507884,0.00129766,0.00336433,0.00169325,0.010299,0.00117003,0.00682227,0.00104034,-185,-99,55.6797,55.6797,-72.9402,-72.9402,1.424
0.00512015,0.00130388,0.00339169,0.00169774,0.0103525,0.00129826,0.0068577,0.00106784,-186,-99,56.255,56.255,-72.6137,-72.6137,1.428
0.00516166,0.00131045,0.00341919,0.00170258,0.0104061,0.00141253,0.0068932,0.00111497,-186,-100,56.8289,56.8289,-72.2858,-72.2858,1.432
0.00520339,0.00131736,0.00344683,0.00170811,0.0104598,0.00151751,0.00692878,0.00120397,-186,-100,57.4019,57.4019,-71.9575,-71.9575,1.436
0.00524534,0.00132496,0.00347462,0.00171294,0.0105136,0.00164507,0.00696443,0.00120572,-187,-101,57.9744,57.9744,-71.63,-71.63,1.44
0.0052875,0.00133221,0.00350255,0.00171744,0.0105675,0.00170132,0.00700016,0.00117809,-188,-102,58.5456,58.5456,-71.3,-71.3,1.444
0.00532988,0.00133878,0.00353062,0.00172124,0.0106216,0.00168124,0.00703596,0.0011021,-189,-104,59.1187,59.1187,-70.9659,-70.9659,1.448
0.00537248,0.001345,0.00355884,0.00172331,0.0106757,0.00163907,0.00707183,0.000907476,-191,-107,59.6967,59.6967,-70.6256,-70.6256,1.452
0.00541529,0.00135018,0.0035872,0.00172504,0.01073,0.00152457,0.00710778,0.000748939,-194,-109,60.2809,60.2809,-70.2743,-70.2743,1.456
0.00545832,0.00135398,0.0036157,0.00172711,0.0107844,0.00133308,0.00714381,0.000672038,-197,-111,60.8744,60.8744,-69.9138,-69.9138,1.46
0.00550156,0.0013564,0.00364435,0.00172918,0.0108389,0.00109026,0.00717991,0.000620771,-201,-112,61.4804,61.4804,-69.5472,-69.5472,1.464
0.00554503,0.00135813,0.00367314,0.00173022,0.0108935,0.000870794,0.00721608,0.00050022,-205,-114,62.1011,62.1011,-69.1754,-69.1754,1.468
0.00558871,0.00135916,0.00370208,0.0017316,0.0109482,0.000666902,0.00725233,0.000448644,-208,-116,62.7356,62.7356,-68.7959,-68.7959,1.472
0.00563261,0.00135951,0.00373116,0.00173298,0.0110031,0.000473392,0.00728865,0.00041426,-212,-117,63.3831,63.3831,-68.4113,-68.4113,1.476
0.00567674,0.0013602,0.00376039,0.00173471,0.011058,0.000373177,0.00732504,0.000420128,-215,-118,64.0432,64.0432,-68.0225,-68.0225,1.48
0.00572108,0.00136158,0.00378976,0.00173575,0.011113,0.000363948,0.00736151,0.000366458,-216,-120,64.7117,64.7117,-67.6309,-67.6309,1.484
0.00576564,0.00136365,0.00381928,0.00173782,0.0111682,0.000415378,0.00739805,0.000417051,-218,-120,65.3849,65.3849,-67.2344,-67.2344,1.488
0.00581042,0.00136504,0.00384894,0.00173886,0.0112235,0.000392082,0.00743466,0.000364407,-219,-122,66.0605,66.0605,-66.8369,-66.8369,1.492
0.00585543,0.0013678,0.00387876,0.00174058,0.0112789,0.000491715,0.00747135,0.000386892,-220,-123,66.7413,66.7413,-66.4344,-66.4344,1.496
0.00590065,0.00137056,0.00390871,0.00174231,0.0113344,0.000558138,0.00750811,0.000401883,-221,-124,67.4223,67.4223,-66.0299,-66.0299,1.5
0.0059461,0.00137333,0.00393882,0.00174404,0.01139,0.000602419,0.00754494,0.000411877,-223,-125,68.105,68.105,-65.6232,-65.6232,1.504
0.00599177,0.00137644,0.00396907,0.00174646,0.0114457,0.000660731,0.00758185,0.000476121,-224,-125,68.7902,68.7902,-65.214,-65.214,1.508
0.00603767,0.00137955,0.00399948,0.00174784,0.0115015,0.000699606,0.00761883,0.000432578,-225,-127,69.4775,69.4775,-64.8044,-64.8044,1.512
0.00608379,0.001383,0.00403002,0.00174888,0.0115574,0.000754313,0.00765588,0.000374758,-226,-128,70.1676,70.1676,-64.3899,-64.3899,1.516
0.00613013,0.00138749,0.00406072,0.00175026,0.0116135,0.000877157,0.007693,0.000365002,-227,-130,70.8595,70.8595,-63.97,-63.97,1.52
0.00617669,0.00139233,0.00409157,0.00175199,0.0116696,0.000987845,0.0077302,0.000387289,-227,-130,71.5507,71.5507,-63.5469,-63.5469,1.524
0.00622349,0.00139751,0.00412256,0.0017544,0.0117259,0.00109043,0.00776746,0.000459729,-228,-131,72.2416,72.2416,-63.1218,-63.1218,1.528
0.0062705,0.00140408,0.00415371,0.00175579,0.0117822,0.00127398,0.0078048,0.00042165,-228,-132,72.9324,72.9324,-62.6966,-62.6966,1.532
0.00631774,0.00141168,0.004185,0.0017582,0.0118387,0.00148272,0.00784221,0.000482636,-228,-133,73.6196,73.6196,-62.267,-62.267,1.536
0.00636521,0.00141962,0.00421645,0.00176097,0.0118953,0.00165067,0.0078797,0.000552085,-228,-133,74.3023,74.3023,-61.837,-61.837,1.54
0.00641291,0.00142791,0.00424804,0.00176304,0.011952,0.00179143,0.00791725,0.000540802,-228,-134,74.9823,74.9823,-61.4067,-61.4067,1.544
0.00646083,0.0014369,0.00427978,0.00176477,0.0120088,0.00194285,0.00795488,0.000504489,-228,-136,75.6606,75.6606,-60.9729,-60.9729,1.548
0.00650898,0.00144623,0.00431168,0.00176684,0.0120657,0.00207259,0.00799257,0.000509072,-228,-137,76.3368,76.3368,-60.5345,-60.5345,1.552
0.00655735,0.00145452,0.00434372,0.00176822,0.0121227,0.00207271,0.00803034,0.000454545,-230,-139,77.0122,77.0122,-60.0932,-60.0932,1.556
0.00660596,0.00146108,0.00437592,0.00177064,0.0121799,0.00192883,0.00806818,0.000504566,-233,-139,77.6924,77.6924,-59.6468,-59.6468,1.56
0.00665479,0.00146696,0.00440827,0.00177306,0.0122371,0.00177533,0.00810609,0.000537914,-236,-140,78.3833,78.3833,-59.1993,-59.1993,1.564
0.00670386,0.00147145,0.00444077,0.00177582,0.0122944,0.00155784,0.00814407,0.000588937,-240,-141,79.0855,79.0855,-58.7503,-58.7503,1.568
0.00675315,0.00147421,0.00447342,0.00177859,0.0123519,0.00126889,0.00818212,0.000622952,-245,-142,79.8019,79.8019,-58.3004,-58.3004,1.572
0.00680267,0.00147628,0.00450623,0.0017817,0.0124094,0.00101867,0.00822025,0.00067442,-249,-142,80.5353,80.5353,-57.8489,-57.8489,1.576
0.00685242,0.00147767,0.00453919,0.00178515,0.0124671,0.000794277,0.00825844,0.000737522,-253,-143,81.2841,81.2841,-57.3965,-57.3965,1.58
0.00690241,0.00147801,0.0045723,0.00178792,0.0125248,0.000558309,0.0082967,0.000722009,-257,-144,82.0473,82.0473,-56.9435,-56.9435,1.584
0.00695262,0.00147905,0.00460556,0.00179172,0.0125827,0.000458579,0.00833504,0.000798039,-260,-145,82.8251,82.8251,-56.4871,-56.4871,1.588
0.00700307,0.00148112,0.00463898,0.00179517,0.0126407,0.000478465,0.00837344,0.000819936,-262,-145,83.6117,83.6117,-56.0307,-56.0307,1.592
0.00705375,0.00148319,0.00467255,0.00179863,0.0126988,0.000491722,0.00841191,0.000834533,-264,-146,84.4024,84.4024,-55.572,-55.572,1.596
0.00710466,0.00148596,0.00470627,0.00180208,0.0127569,0.000558142,0.00845046,0.000844265,-265,-148,85.1971,85.1971,-55.1109,-55.1109,1.6
0.0071558,0.00148907,0.00474015,0.00180554,0.0128152,0.000631213,0.00848907,0.000850752,-266,-149,85.9939,85.9939,-54.6471,-54.6471,1.604
0.00720718,0.00149287,0.00477418,0.00180899,0.0128736,0.000737509,0.00852775,0.000855077,-267,-150,86.7922,86.7922,-54.1805,-54.1805,1.608
0.00725879,0.0014977,0.00480837,0.00181314,0.0129321,0.000894746,0.00856651,0.000915543,-267,-150,87.5907,87.5907,-53.7111,-53.7111,1.612
0.00731064,0.00150289,0.00484272,0.00181728,0.0129907,0.00102836,0.00860533,0.000955853,-268,-151,88.3873,88.3873,-53.241,-53.241,1.616
0.00736272,0.00150945,0.00487722,0.00182177,0.0130494,0.0012326,0.00864422,0.00101152,-268,-152,89.1828,89.1828,-52.7697,-52.7697,1.62
0.00741503,0.00151671,0.00491187,0.00182627,0.0131083,0.00142634,0.00868318,0.00104863,-268,-153,89.9743,89.9743,-52.2975,-52.2975,1.624
0.00746759,0.00152603,0.00494668,0.00183041,0.0131672,0.00172825,0.00872221,0.00104458,-267,-154,90.7619,90.7619,-51.8236,-51.8236,1.628
0.00752037,0.00153709,0.00498165,0.00183456,0.0132262,0.00207348,0.0087613,0.00104187,-265,-155,91.5411,91.5411,-51.3465,-51.3465,1.632
0.00757339,0.00154987,0.00501677,0.00183801,0.0132853,0.00244758,0.00880047,0.000982493,-263,-157,92.31,92.31,-50.8659,-50.8659,1.636
0.00762665,0.00156438,0.00505205,0.00184147,0.0133446,0.00284094,0.0088397,0.000942904,-261,-158,93.0673,93.0673,-50.3796,-50.3796,1.64
0.00768015,0.00158062,0.00508749,0.00184458,0.0134039,0.00324713,0.00887901,0.000887721,-259,-160,93.8122,93.8122,-49.8884,-49.8884,1.644
0.00773389,0.00159893,0.00512308,0.00184803,0.0134633,0.00369067,0.00891838,0.000879723,-256,-161,94.5439,94.5439,-49.3918,-49.3918,1.648
0.00778786,0.00161759,0.00515884,0.00185183,0.0135229,0.00401516,0.00895782,0.000903182,-255,-163,95.2613,95.2613,-48.8917,-48.8917,1.652
0.00784207,0.00163901,0.00519475,0.00185529,0.0135825,0.00446181,0.00899732,0.000890031,-252,-164,95.9687,95.9687,-48.3893,-48.3893,1.656
0.00789652,0.00166181,0.00523081,0.00185874,0.0136422,0.00487474,0.0090369,0.000881263,-250,-165,96.6613,96.6613,-47.883,-47.883,1.66
0.00795121,0.00168841,0.00526704,0.00186254,0.0137021,0.00546673,0.00907654,0.000904209,-246,-166,97.3397,97.3397,-47.3733,-47.3733,1.664
0.00800614,0.00171951,0.00530343,0.001866,0.013762,0.00623567,0.00911625,0.000890715,-240,-168,97.9963,97.9963,-46.8611,-46.8611,1.668
0.0080613,0.00175509,0.00533997,0.00186876,0.0138221,0.00712258,0.00915603,0.000824138,-233,-170,98.6232,98.6232,-46.3449,-46.3449,1.672
0.00811671,0.00179552,0.00537668,0.00187256,0.0138822,0.00811692,0.00919588,0.000866125,-224,-170,99.2155,99.2155,-45.8229,-45.8229,1.676
0.00817236,0.00184285,0.00541354,0.00187602,0.0139425,0.00935564,0.00923579,0.000865326,-214,-172,99.7677,99.7677,-45.2993,-45.2993,1.68
0.00822825,0.00189675,0.00545056,0.00187982,0.0140028,0.0107285,0.00927577,0.000893584,-201,-173,100.27,100.27,-44.7723,-44.7723,1.684
0.00828438,0.00195755,0.00548774,0.00188362,0.0140633,0.0122195,0.00931582,0.000912423,-188,-174,100.715,100.715,-44.2433,-44.2433,1.688
0.00834076,0.00202458,0.00552509,0.00188742,0.0141239,0.0137318,0.00935593,0.000924982,-174,-175,101.099,101.099,-43.7117,-43.7117,1.692
0.00839738,0.00209748,0.00556259,0.00189156,0.0141845,0.0152294,0.00939612,0.000962146,-160,-176,101.42,101.42,-43.1774,-43.1774,1.696
0.00845423,0.00217556,0.00560026,0.00189571,0.0142453,0.0166597,0.00943636,0.000986922,-147,-177,101.679,101.679,-42.6413,-42.6413,1.7
0.00851134,0.00225986,0.00563808,0.0019002,0.0143061,0.0181314,0.00947668,0.00103223,-134,-178,101.879,101.879,-42.103,-42.103,1.704
0.00856868,0.00235072,0.00567607,0.00190469,0.0143671,0.0196596,0.00951706,0.00106244,-119,-179,102.016,102.016,-41.5633,-41.5633,1.708
0.00862627,0.002444,0.00571422,0.00190953,0.0144282,0.02088,0.00955751,0.00111136,-108,-180,102.09,102.09,-41.0215,-41.0215,1.712
0.00868411,0.00254143,0.00575253,0.00191437,0.0144893,0.022039,0.00959802,0.00114398,-97,-181,102.113,102.113,-40.4784,-40.4784,1.716
0.00874219,0.00264232,0.005791,0.00191886,0.0145506,0.0230996,0.0096386,0.00113694,-86,-182,102.087,102.087,-39.9333,-39.9333,1.72
0.00880051,0.00274838,0.00582964,0.001923,0.0146119,0.0242386,0.00967924,0.00110345,-75,-184,102.017,102.017,-39.3844,-39.3844,1.724
0.00885908,0.00285307,0.00586844,0.00192646,0.0146734,0.0248827,0.00971996,0.00102354,-69,-186,101.899,101.899,-38.8306,-38.8306,1.728
0.0089179,0.00295913,0.0059074,0.00192922,0.014735,0.0254273,0.00976073,0.000912689,-64,-188,101.754,101.754,-38.2698,-38.2698,1.732
0.00897696,0.00306727,0.00594652,0.00193164,0.0147966,0.0259631,0.00980157,0.000809996,-58,-190,101.587,101.587,-37.7008,-37.7008,1.736
0.00903627,0.00317437,0.00598581,0.00193302,0.0148584,0.0262339,0.00984248,0.000655161,-56,-193,101.397,101.397,-37.1238,-37.1238,1.74
0.00909583,0.00328251,0.00602526,0.0019351,0.0149202,0.0265008,0.00988346,0.000609519,-53,-195,101.197,101.197,-36.5371,-36.5371,1.744
0.00915564,0.0033903,0.00606488,0.00193682,0.0149822,0.02665,0.00992449,0.000550301,-51,-197,100.985,100.985,-35.9447,-35.9447,1.748
0.00921569,0.00349775,0.00610466,0.00193959,0.0150442,0.0267206,0.0099656,0.000597195,-51,-198,100.768,100.768,-35.3466,-35.3466,1.752
0.00927599,0.00360382,0.0061446,0.00194235,0.0151064,0.0266526,0.0100068,0.000628457,-51,-199,100.548,100.548,-34.7469,-34.7469,1.756
0.00933654,0.00371196,0.00618471,0.00194581,0.0151686,0.0267799,0.010048,0.000706881,-50,-200,100.331,100.331,-34.1452,-34.1452,1.76
0.00939734,0.00381975,0.00622499,0.00194892,0.015231,0.0268361,0.0100893,0.000730372,-49,-201,100.109,100.109,-33.543,-33.543,1.764
0.00945839,0.00392651,0.00626543,0.00195237,0.0152934,0.0267871,0.0101307,0.000774824,-49,-202,99.8859,99.8859,-32.9384,-32.9384,1.768
0.00951969,0.00403361,0.00630603,0.00195583,0.0153559,0.0267833,0.0101721,0.000804459,-49,-203,99.6648,99.6648,-32.332,-32.332,1.772
0.00958124,0.00414278,0.00634681,0.00195859,0.0154186,0.0269534,0.0102136,0.000766633,-48,-205,99.4438,99.4438,-31.7232,-31.7232,1.776
0.00964304,0.00425023,0.00638774,0.00195997,0.0154813,0.0269229,0.0102551,0.000626252,-48,-208,99.2164,99.2164,-31.1088,-31.1088,1.78
0.00970509,0.00435733,0.00642885,0.00196204,0.0155441,0.0268738,0.0102968,0.000590247,-48,-209,98.9909,98.9909,-30.4851,-30.4851,1.784
0.00976739,0.00446582,0.00647012,0.00196273,0.0156071,0.0269562,0.0103384,0.00045108,-47,-212,98.7675,98.7675,-29.8559,-29.8559,1.788
0.00982994,0.00457327,0.00651155,0.00196377,0.0156701,0.0269248,0.0103802,0.000387093,-47,-214,98.5415,98.5415,-29.2173,-29.2173,1.792
0.00989275,0.00468071,0.00655316,0.0019655,0.0157332,0.0269038,0.010422,0.000402016,-47,-216,98.3172,98.3172,-28.5725,-28.5725,1.796
0.00995581,0.00479023,0.00659493,0.00196688,0.0157964,0.0270626,0.0104639,0.000383175,-46,-217,98.0938,98.0938,-27.9245,-27.9245,1.8
0.0100191,0.00489941,0.00663687,0.00196895,0.0158597,0.0271397,0.0105058,0.000428195,-45,-218,97.8643,97.8643,-27.2721,-27.2721,1.804
0.0100827,0.00500617,0.00667898,0.00197137,0.0159231,0.0269895,0.0105478,0.000487,-46,-219,97.6326,97.6326,-26.618,-26.618,1.808
0.0101465,0.005115,0.00672125,0.00197448,0.0159866,0.0270622,0.0105899,0.000583785,-45,-220,97.4073,97.4073,-25.9628,-25.9628,1.812
0.0102106,0.00522383,0.0067637,0.00197759,0.0160502,0.0271106,0.010632,0.000648308,-45,-221,97.1795,97.1795,-25.3079,-25.3079,1.816
0.0102749,0.00533162,0.00680631,0.00198105,0.0161139,0.0270565,0.0106742,0.000720115,-45,-222,96.9504,96.9504,-24.6521,-24.6521,1.82
0.0103395,0.00543941,0.00684909,0.00198485,0.0161777,0.0270204,0.0107164,0.000796777,-46,-222,96.7242,96.7242,-23.9957,-23.9957,1.824
0.0104043,0.00554997,0.00689204,0.00198865,0.0162416,0.0272267,0.0107588,0.000847885,-43,-223,96.4994,96.4994,-23.3387,-23.3387,1.828
0.0104694,0.0056588,0.00693516,0.00199314,0.0163056,0.0272203,0.0108011,0.000939538,-43,-224,96.267,96.267,-22.6804,-22.6804,1.832
0.0105348,0.00576694,0.00697845,0.00199694,0.0163696,0.0271584,0.0108436,0.000943059,-44,-225,96.0356,96.0356,-22.022,-22.022,1.836
0.0106004,0.00587611,0.00702191,0.00200212,0.0164338,0.0272035,0.0108861,0.00106057,-43,-226,95.8071,95.8071,-21.3603,-21.3603,1.84
0.0106662,0.00598494,0.00706554,0.00200627,0.0164981,0.0272048,0.0109287,0.00105254,-43,-227,95.5775,95.5775,-20.6997,-20.6997,1.844
0.0107324,0.00609274,0.00710934,0.0020111,0.0165624,0.0271193,0.0109713,0.00110476,-44,-228,95.3487,95.3487,-20.0351,-20.0351,1.848
0.0107987,0.00620295,0.00715331,0.00201594,0.0166269,0.0272639,0.011014,0.00113958,-43,-230,95.1237,95.1237,-19.369,-19.369,1.852
0.0108654,0.00631247,0.00719745,0.00202147,0.0166914,0.0273026,0.0110567,0.00122038,-42,-230,94.8933,94.8933,-18.7008,-18.7008,1.856
0.0109323,0.00642026,0.00724176,0.00202596,0.016756,0.0271845,0.0110995,0.00118787,-43,-232,94.6625,94.6625,-18.032,-18.032,1.86
0.0109994,0.00652978,0.00728625,0.0020308,0.0168208,0.0272497,0.0111424,0.00119498,-43,-234,94.4369,94.4369,-17.3582,-17.3582,1.864
0.0110668,0.0066393,0.0073309,0.00203494,0.0168856,0.0272932,0.0111854,0.00114215,-42,-236,94.2092,94.2092,-16.6808,-16.6808,1.868
0.0111345,0.00674675,0.00737573,0.00203874,0.0169505,0.0271495,0.0112284,0.00107813,-43,-238,93.9811,93.9811,-15.9973,-15.9973,1.872
0.0112024,0.00685489,0.00742073,0.0020422,0.0170155,0.0271112,0.0112714,0.00100666,-44,-240,93.7595,93.7595,-15.3073,-15.3073,1.876
0.0112706,0.00696476,0.0074659,0.00204531,0.0170806,0.0272296,0.0113145,0.000930227,-43,-242,93.54,93.54,-14.6103,-14.6103,1.88
0.0113391,0.00707393,0.00751125,0.00204807,0.0171458,0.027251,0.0113577,0.000850479,-42,-245,93.3164,93.3164,-13.9063,-13.9063,1.884
0.0114078,0.00718207,0.00755676,0.00205084,0.0172111,0.0271789,0.011401,0.000797313,-43,-247,93.093,93.093,-13.195,-13.195,1.888
0.0114768,0.00729124,0.00760245,0.00205394,0.0172764,0.0272172,0.0114443,0.000790661,-43,-248,92.8732,92.8732,-12.4777,-12.4777,1.892
0.011546,0.00740007,0.00764832,0.0020574,0.0173419,0.0272139,0.0114876,0.000815016,-43,-250,92.6527,92.6527,-11.7563,-11.7563,1.896
0.0116155,0.0075089,0.00769435,0.00206189,0.0174075,0.0272118,0.0115311,0.000917626,-43,-250,92.4332,92.4332,-11.0323,-11.0323,1.9
0.0116853,0.00761981,0.00774057,0.00206707,0.0174731,0.0273831,0.0115745,0.00104361,-41,-251,92.2142,92.2142,-10.3089,-10.3089,1.904
0.0117553,0.00772967,0.00778695,0.00207087,0.0175388,0.0274109,0.0116181,0.00101244,-41,-253,91.9891,91.9891,-9.58651,-9.58651,1.908
0.0118256,0.00783712,0.00783351,0.00207467,0.0176047,0.0272279,0.0116617,0.000991662,-42,-255,91.7642,91.7642,-8.8589,-8.8589,1.912
0.0118961,0.00794699,0.00788024,0.00207778,0.0176706,0.0273075,0.0117054,0.000920227,-42,-257,91.5475,91.5475,-8.12633,-8.12633,1.916
0.011967,0.00805651,0.00792715,0.0020802,0.0177366,0.0273317,0.0117491,0.000815021,-41,-259,91.3284,91.3284,-7.38666,-7.38666,1.92
0.012038,0.00816465,0.00797424,0.00208158,0.0178027,0.0272327,0.0117929,0.000658511,-42,-263,91.1095,91.1095,-6.63835,-6.63835,1.924
0.0121094,0.00827348,0.0080215,0.00208366,0.0178689,0.0272243,0.0118367,0.000611753,-42,-265,90.8956,90.8956,-5.87966,-5.87966,1.928
0.012181,0.00838403,0.00806893,0.00208642,0.0179352,0.0273626,0.0118806,0.000638163,-41,-266,90.6827,90.6827,-5.11515,-5.11515,1.932
0.0122529,0.00849252,0.00811654,0.00208953,0.0180015,0.0272821,0.0119246,0.00068456,-42,-267,90.4654,90.4654,-4.34779,-4.34779,1.936
0.012325,0.00860066,0.00816433,0.00209333,0.018068,0.0271996,0.0119686,0.000773074,-43,-268,90.2526,90.2526,-3.5785,-3.5785,1.94
0.0123974,0.00871087,0.00821229,0.00209782,0.0181345,0.0273174,0.0120127,0.000889664,-42,-269,90.0438,90.0438,-2.80906,-2.80906,1.944
0.0124701,0.00881831,0.00826043,0.00210162,0.0182012,0.0271656,0.0120568,0.00090981,-43,-270,89.8319,89.8319,-2.04029,-2.04029,1.948
0.012543,0.00892714,0.00830874,0.0021068,0.0182679,0.0271795,0.012101,0.0010384,-43,-271,89.627,89.627,-1.26868,-1.26868,1.952
0.0126162,0.00903701,0.00835724,0.00211233,0.0183347,0.0272752,0.0121453,0.00115292,-42,-271,89.4224,89.4224,-0.498512,-0.498512,1.956
0.0126897,0.00914653,0.00840591,0.00211682,0.0184016,0.0273102,0.0121896,0.0011429,-42,-273,89.215,89.215,0.271131,0.271131,1.96
0.0127634,0.00925329,0.00845475,0.00212166,0.0184686,0.0271032,0.012234,0.001165,-44,-275,89.0079,89.0079,1.04513,1.04513,1.964
0.0128374,0.00936177,0.00850378,0.00212615,0.0185357,0.0271091,0.0122784,0.00115095,-44,-276,88.8102,88.8102,1.82231,1.82231,1.968
0.0129117,0.0094706,0.00855298,0.00213064,0.0186029,0.0271419,0.0123229,0.00114158,-44,-278,88.6134,88.6134,2.60413,2.60413,1.972
0.0129863,0.00957805,0.00860236,0.0021341,0.0186701,0.0270486,0.0123675,0.00104896,-45,-281,88.4168,88.4168,3.39065,3.39065,1.976
0.0130611,0.00968515,0.00865192,0.0021379,0.0187375,0.0269576,0.0124121,0.00101601,-46,-283,88.2255,88.2255,4.18504,4.18504,1.98
0.0131362,0.00979536,0.00870166,0.00214135,0.0188049,0.027156,0.0124567,0.000965249,-44,-285,88.0384,88.0384,4.985,4.985,1.984
0.0132115,0.00990385,0.00875158,0.00214515,0.0188724,0.0271444,0.0125015,0.0009602,-44,-287,87.8447,87.8447,5.79111,5.79111,1.988
0.0132871,0.0100116,0.00880167,0.00214895,0.01894,0.027079,0.0125463,0.000956833,-45,-289,87.6529,87.6529,6.60157,6.60157,1.992
0.013363,0.0101198,0.00885195,0.00215172,0.0190077,0.0270642,0.0125911,0.000868216,-45,-291,87.465,87.465,7.41658,7.41658,1.996
0.0134392,0.0102279,0.0089024,0.00215517,0.0190755,0.0270544,0.012636,0.00086672,-45,-293,87.2791,87.2791,8.23929,8.23929,2
0.0135156,0.0103357,0.00895303,0.00215621,0.0191434,0.027019,0.012681,0.000664186,-46,-297,87.0951,87.0951,9.06686,9.06686,2.004
0.0135923,0.0104456,0.00900385,0.00215725,0.0192113,0.0271682,0.012726,0.000529164,-44,-300,86.9133,86.9133,9.90713,9.90713,2.008
0.0136693,0.0105551,0.00905484,0.00215897,0.0192794,0.0272389,0.012771,0.00049673,-44,-302,86.7267,86.7267,10.7572,10.7572,2.012
0.0137466,0.0106622,0.00910602,0.00216036,0.0193475,0.0270844,0.0128162,0.000446317,-45,-304,86.5391,86.5391,11.6129,11.6129,2.016
0.0138241,0.0107717,0.00915737,0.00216243,0.0194157,0.027183,0.0128614,0.00047029,-45,-306,86.3588,86.3588,12.4749,12.4749,2.02
0.0139019,0.0108806,0.00920891,0.00216554,0.019484,0.0271911,0.0129066,0.000572645,-45,-307,86.1758,86.1758,13.34,13.34,2.024
0.01398,0.010988,0.00926062,0.00216934,0.0195524,0.0270814,0.0129519,0.000698464,-46,-307,85.9943,85.9943,14.2049,14.2049,2.028
0.0140583,0.0110958,0.00931252,0.00217348,0.0196208,0.027037,0.0129973,0.000811134,-46,-308,85.8188,85.8188,15.0687,15.0687,2.032
0.0141369,0.011206,0.0093646,0.00217798,0.0196894,0.027209,0.0130427,0.000915038,-45,-309,85.646,85.646,15.9321,15.9321,2.036
0.0142158,0.0113159,0.00941686,0.00218281,0.019758,0.0272948,0.0130881,0.0010131,-44,-310,85.4676,85.4676,16.7952,16.7952,2.04
0.014295,0.0114237,0.00946931,0.00218869,0.0198268,0.0271793,0.0131337,0.00116484,-45,-310,85.2874,85.2874,17.6583,17.6583,2.044
0.0143745,0.0115335,0.00952193,0.00219456,0.0198956,0.0272751,0.0131792,0.00126601,-45,-311,85.1131,85.1131,18.5193,18.5193,2.048
0.0144542,0.0116424,0.00957474,0.00220043,0.0199645,0.0272525,0.0132249,0.00133345,-45,-312,84.9366,84.9366,19.3803,19.3803,2.052
0.0145342,0.0117505,0.00962773,0.00220665,0.0200334,0.0271799,0.0132706,0.0014072,-46,-313,84.7627,84.7627,20.2427,20.2427,2.056
0.0146144,0.0118611,0.00968091,0.00221391,0.0201025,0.027333,0.0133163,0.00154275,-45,-314,84.5927,84.5927,21.1059,21.1059,2.06
0.014695,0.0119713,0.00973426,0.00222254,0.0201717,0.0274063,0.0133621,0.00174827,-44,-314,84.418,84.418,21.9673,21.9673,2.064
0.0147758,0.0120801,0.0097878,0.00223049,0.0202409,0.02734,0.013408,0.0018277,-45,-315,84.242,84.242,22.8245,22.8245,2.068
0.0148569,0.01219,0.00984153,0.00223844,0.0203102,0.0273822,0.0134539,0.00188066,-45,-316,84.0701,84.0701,23.6826,23.6826,2.072
0.0149383,0.0123016,0.00989543,0.00224673,0.0203796,0.0275543,0.0134999,0.00194476,-43,-317,83.8976,83.8976,24.5426,24.5426,2.076
0.01502,0.0124111,0.00994953,0.00225502,0.0204491,0.0274962,0.0135459,0.00198749,-44,-319,83.7199,83.7199,25.404,25.404,2.08
0.0151019,0.0125213,0.0100038,0.00226297,0.0205186,0.0275151,0.013592,0.00198718,-44,-320,83.5461,83.5461,26.268,26.268,2.084
0.0151841,0.0126343,0.0100583,0.00227057,0.0205883,0.0277581,0.0136381,0.00195819,-42,-322,83.3724,83.3724,27.1363,27.1363,2.088
0.0152666,0.0127445,0.0101129,0.00227713,0.020658,0.0276897,0.0136843,0.00185249,-43,-325,83.1907,83.1907,28.0102,28.0102,2.092
0.0153494,0.012855,0.0101677,0.0022837,0.0207278,0.0276729,0.0137305,0.00178202,-43,-328,83.0134,83.0134,28.8929,28.8929,2.096
0.0154324,0.0129666,0.0102228,0.00228957,0.0207977,0.0277481,0.0137768,0.00167746,-42,-331,82.8382,82.8382,29.7829,29.7829,2.1
0.0155158,0.0130772,0.010278,0.0022951,0.0208677,0.0277118,0.0138232,0.00157896,-43,-334,82.6617,82.6617,30.6817,30.6817,2.104
0.0155994,0.0131877,0.0103333,0.00230166,0.0209377,0.0276876,0.0138696,0.00159967,-43,-335,82.4884,82.4884,31.5887,31.5887,2.108
0.0156833,0.0133004,0.0103889,0.00230926,0.0210079,0.0278443,0.0139161,0.00169985,-42,-336,82.3172,82.3172,32.4989,32.4989,2.112
0.0157674,0.0134109,0.0104447,0.00231652,0.0210781,0.0277759,0.0139626,0.00173784,-43,-338,82.1416,82.1416,33.4093,33.4093,2.116
0.0158519,0.0135208,0.0105006,0.00232239,0.0211484,0.0276728,0.0140091,0.00164801,-44,-340,81.9708,81.9708,34.3229,34.3229,2.12
0.0159366,0.013632,0.0105567,0.00232654,0.0212188,0.0277192,0.0140558,0.00144416,-44,-344,81.8057,81.8057,35.245,35.245,2.124
0.0160216,0.0137426,0.0106131,0.00233034,0.0212893,0.0276926,0.0141024,0.00127947,-44,-348,81.6405,81.6405,36.1801,36.1801,2.128
0.0161069,0.0138521,0.0106696,0.0023331,0.0213598,0.0275884,0.0141492,0.00108331,-46,-352,81.4785,81.4785,37.1269,37.1269,2.132
0.0161925,0.0139623,0.0107262,0.00233621,0.0214304,0.0275766,0.014196,0.000981325,-46,-355,81.3225,81.3225,38.0863,38.0863,2.136
0.0162784,0.014075,0.0107831,0.00233863,0.0215011,0.0277702,0.0142428,0.000855753,-44,-358,81.1682,81.1682,39.0547,39.0547,2.14
0.0163645,0.0141848,0.0108402,0.00234139,0.0215719,0.027669,0.0142897,0.00080083,-46,-360,81.0082,81.0082,40.0328,40.0328,2.144
0.0164509,0.014295,0.0108974,0.0023445,0.0216428,0.0276303,0.0143366,0.000793005,-46,-363,80.8542,80.8542,41.0177,41.0177,2.148
0.0165377,0.0144063,0.0109549,0.00234796,0.0217137,0.0276909,0.0143836,0.000816579,-46,-364,80.7035,80.7035,42.0075,42.0075,2.152
0.0166247,0.0145168,0.0110125,0.00235176,0.0217848,0.0276737,0.0144307,0.000861086,-46,-366,80.5522,80.5522,43.0009,43.0009,2.156
0.0167119,0.0146281,0.0110703,0.00235556,0.0218559,0.0277198,0.0144778,0.000890758,-46,-368,80.4034,80.4034,43.997,43.997,2.16
0.0167995,0.0147407,0.0111283,0.0023604,0.0219271,0.0278657,0.0145249,0.000996911,-45,-369,80.2541,80.2541,44.9962,44.9962,2.164
0.0168874,0.0148516,0.0111865,0.00236558,0.0219983,0.027819,0.0145721,0.00109647,-46,-370,80.1011,80.1011,45.9955,45.9955,2.168
0.0169755,0.0149622,0.0112449,0.00237145,0.0220697,0.0277591,0.0146194,0.00122043,-47,-371,79.9519,79.9519,46.9951,46.9951,2.172
0.0170639,0.0150745,0.0113035,0.00237732,0.0221411,0.0278631,0.0146667,0.00130306,-46,-372,79.8068,79.8068,47.9941,47.9941,2.176
0.0171526,0.0151857,0.0113622,0.0023832,0.0222126,0.0278461,0.0147141,0.00135815,-46,-373,79.6595,79.6595,48.9943,48.9943,2.18
0.0172416,0.0152959,0.0114212,0.00238873,0.0222842,0.0277484,0.0147615,0.00136609,-48,-375,79.5152,79.5152,49.9968,49.9968,2.184
0.0173309,0.0154089,0.0114803,0.00239356,0.0223558,0.0279135,0.014809,0.0013138,-46,-378,79.3762,79.3762,51.0038,51.0038,2.188
0.0174205,0.0155222,0.0115397,0.0023984,0.0224276,0.0280525,0.0148565,0.00127894,-45,-380,79.2322,79.2322,52.0176,52.0176,2.192
0.0175103,0.0156335,0.0115992,0.00240255,0.0224994,0.0279723,0.0149041,0.00119812,-46,-383,79.0848,79.0848,53.0377,53.0377,2.196
0.0176005,0.0157461,0.0116589,0.00240704,0.0225713,0.0280341,0.0149517,0.00117303,-46,-386,78.9424,78.9424,54.0658,54.0658,2.2
0.0176909,0.0158587,0.0117188,0.00241187,0.0226433,0.0280752,0.0149994,0.00118509,-46,-388,78.7994,78.7994,55.0995,55.0995,2.204
0.0177816,0.0159703,0.0117789,0.0024174,0.0227153,0.0280163,0.0150471,0.00125072,-47,-389,78.657,78.657,56.1372,56.1372,2.208
0.0178726,0.016083,0.0118392,0.00242327,0.0227874,0.0280634,0.0150949,0.00132326,-47,-390,78.5188,78.5188,57.1768,57.1768,2.212
0.0179639,0.0161966,0.0118997,0.00242984,0.0228596,0.0281811,0.0151427,0.0014292,-46,-391,78.3804,78.3804,58.2179,58.2179,2.216
0.0180555,0.0163082,0.0119603,0.00243709,0.0229319,0.0280869,0.0151906,0.00155741,-47,-392,78.2397,78.2397,59.259,59.259,2.22
0.0181474,0.0164219,0.0120212,0.00244366,0.0230043,0.0281968,0.0152385,0.0015853,-47,-394,78.1044,78.1044,60.2997,60.2997,2.224
0.0182395,0.0165366,0.0120822,0.00245057,0.0230767,0.0283565,0.0152865,0.00163268,-45,-396,77.9663,77.9663,61.3438,61.3438,2.228
0.018332,0.0166492,0.0121435,0.00245782,0.0231492,0.0282901,0.0153345,0.00169307,-46,-397,77.8241,77.8241,62.3905,62.3905,2.232
0.0184247,0.0167636,0.0122049,0.00246473,0.0232218,0.0283899,0.0153826,0.00170453,-46,-399,77.6863,77.6863,63.4394,63.4394,2.236
0.0185177,0.01688,0.0122665,0.00247199,0.0232945,0.0286291,0.0154307,0.00174096,-44,-401,77.5459,77.5459,64.4924,64.4924,2.24
0.0186111,0.0169944,0.0123284,0.00247994,0.0233672,0.0286159,0.0154789,0.00182283,-44,-402,77.398,77.398,65.5485,65.5485,2.244
0.0187047,0.0171094,0.0123904,0.00248926,0.02344,0.0286646,0.0155272,0.00199258,-44,-403,77.2525,77.2525,66.6054,66.6054,2.248
0.0187986,0.0172248,0.0124526,0.00249997,0.0235129,0.0287259,0.0155754,0.0022209,-44,-403,77.107,77.107,67.6596,67.6596,2.252
0.0188928,0.0173392,0.012515,0.00251207,0.0235859,0.0286804,0.0156238,0.00248828,-44,-402,76.9613,76.9613,68.7086,68.7086,2.256
0.0189873,0.0174546,0.0125776,0.00252416,0.0236589,0.0287364,0.0156722,0.00266654,-44,-403,76.8193,76.8193,69.7509,69.7509,2.26
0.0190821,0.017571,0.0126403,0.00253556,0.023732,0.0288602,0.0157206,0.00272779,-43,-404,76.6768,76.6768,70.7905,70.7905,2.264
0.0191771,0.017686,0.0127033,0.00254627,0.0238052,0.0288275,0.0157691,0.00271105,-44,-406,76.5316,76.5316,71.8323,71.8323,2.268
0.0192725,0.0178011,0.0127665,0.00255594,0.0238785,0.0288057,0.0158176,0.00261351,-45,-409,76.3899,76.3899,72.8797,72.8797,2.272
0.0193682,0.0179172,0.0128299,0.00256423,0.0239518,0.0288776,0.0158662,0.00243332,-44,-413,76.251,76.251,73.9361,73.9361,2.276
0.0194641,0.0180322,0.0128934,0.00257114,0.0240253,0.0288391,0.0159148,0.00219803,-45,-418,76.1115,76.1115,75.0051,75.0051,2.28
0.0195604,0.0181462,0.0129572,0.00257633,0.0240987,0.0287271,0.0159635,0.00189722,-46,-423,75.9761,75.9761,76.089,76.089,2.284
0.0196569,0.0182627,0.0130211,0.00258116,0.0241723,0.0288539,0.0160122,0.00166789,-46,-427,75.8471,75.8471,77.1904,77.1904,2.288
0.0197537,0.0183787,0.0130853,0.00258566,0.0242459,0.0289097,0.016061,0.00148621,-45,-431,75.715,75.715,78.3064,78.3064,2.292
0.0198509,0.0184941,0.0131496,0.00259015,0.0243197,0.0288893,0.0161098,0.00136509,-46,-435,75.583,75.583,79.4348,79.4348,2.296
0.0199483,0.0186109,0.0132142,0.00259533,0.0243934,0.0289909,0.0161587,0.00134192,-45,-437,75.4537,75.4537,80.5731,80.5731,2.3
0.020046,0.0187246,0.0132789,0.00260189,0.0244673,0.0287995,0.0162076,0.00144164,-48,-438,75.3232,75.3232,81.7169,81.7169,2.304
0.020144,0.0188396,0.0133438,0.00260984,0.0245412,0.028787,0.0162566,0.00162329,-48,-439,75.2027,75.2027,82.8611,82.8611,2.308
0.0202423,0.0189564,0.0134089,0.00261917,0.0246152,0.0289227,0.0163056,0.00185955,-47,-439,75.0846,75.0846,84.0023,84.0023,2.312
0.020341,0.0190721,0.0134743,0.00262884,0.0246893,0.0289267,0.0163547,0.00204584,-48,-439,74.9634,74.9634,85.1384,85.1384,2.316
0.0204399,0.0191868,0.0135398,0.00263921,0.0247635,0.0288431,0.0164038,0.00222762,-49,-440,74.8446,74.8446,86.2714,86.2714,2.32
0.0205391,0.0193029,0.0136055,0.00264923,0.0248377,0.0289025,0.016453,0.00232002,-49,-441,74.7313,74.7313,87.4017,87.4017,2.324
0.0206386,0.019419,0.0136714,0.00265821,0.024912,0.0289421,0.0165022,0.00229524,-49,-443,74.618,74.618,88.5333,88.5333,2.328
0.0207384,0.0195327,0.0137375,0.00266615,0.0249863,0.0287669,0.0165515,0.00219235,-51,-447,74.5059,74.5059,89.6709,89.6709,2.332
0.0208385,0.0196488,0.0138038,0.00267341,0.0250608,0.0288517,0.0166008,0.00206618,-50,-450,74.4031,74.4031,90.818,90.818,2.336
0.0209388,0.0197652,0.0138703,0.00268067,0.0251353,0.028937,0.0166501,0.00198206,-50,-453,74.299,74.299,91.9752,91.9752,2.34
0.0210395,0.0198799,0.013937,0.00268896,0.0252099,0.0288499,0.0166995,0.00201236,-51,-455,74.1942,74.1942,93.1406,93.1406,2.344
0.0211405,0.0199953,0.0140039,0.00269759,0.0252845,0.0288495,0.016749,0.00206134,-52,-457,74.0954,74.0954,94.3096,94.3096,2.348
0.0212418,0.0201103,0.014071,0.00270692,0.0253593,0.0288203,0.0167985,0.00215158,-53,-458,73.9992,73.9992,95.4813,95.4813,2.352
0.0213434,0.020225,0.0141383,0.00271832,0.0254341,0.0287722,0.016848,0.00238449,-54,-458,73.9068,73.9068,96.6536,96.6536,2.356
0.0214453,0.0203408,0.0142058,0.00273111,0.0255089,0.0288264,0.0168976,0.00265492,-53,-458,73.8187,73.8187,97.8208,97.8208,2.36
0.0215475,0.0204569,0.0142735,0.00274596,0.0255839,0.0288913,0.0169473,0.00300796,-53,-457,73.7308,73.7308,98.981,98.981,2.364
0.02165,0.0205709,0.0143414,0.00276116,0.0256589,0.0287619,0.016997,0.00327211,-55,-457,73.6432,73.6432,100.131,100.131,2.368
0.0217527,0.0206859,0.0144095,0.00277533,0.0257339,0.028762,0.0170467,0.00336183,-56,-458,73.5634,73.5634,101.275,101.275,2.372
0.0218558,0.020801,0.0144777,0.00278915,0.0258091,0.028762,0.0170965,0.00339286,-56,-460,73.4862,73.4862,102.421,102.421,2.376
0.0219592,0.0209146,0.0145462,0.00280159,0.0258843,0.0286469,0.0171463,0.00329838,-58,-463,73.412,73.412,103.57,103.57,2.38
0.0220629,0.0210294,0.0146149,0.00281368,0.0259596,0.0286565,0.0171962,0.0032066,-58,-466,73.3451,73.3451,104.727,104.727,2.384
0.0221669,0.0211465,0.0146838,0.00282646,0.026035,0.0288645,0.0172461,0.003203,-57,-468,73.2798,73.2798,105.894,105.894,2.388
0.0222712,0.0212619,0.0147529,0.00284063,0.0261104,0.0288591,0.0172961,0.00331576,-57,-470,73.2089,73.2089,107.065,107.065,2.392
0.0223758,0.0213769,0.0148222,0.00285548,0.0261859,0.0288268,0.0173461,0.00344852,-58,-471,73.141,73.141,108.236,108.236,2.396
0.0224807,0.0214933,0.0148917,0.00287172,0.0262615,0.0289204,0.0173961,0.00365218,-58,-471,73.0768,73.0768,109.406,109.406,2.4
0.0225859,0.0216091,0.0149613,0.00288865,0.0263371,0.0289252,0.0174462,0.00384555,-58,-471,73.0115,73.0115,110.572,110.572,2.404
0.0226914,0.0217266,0.0150312,0.00290627,0.0264128,0.0290724,0.0174964,0.00403203,-57,-472,72.9483,72.9483,111.734,111.734,2.408
0.0227972,0.0218451,0.0151013,0.00292527,0.0264886,0.0292569,0.0175466,0.00427152,-56,-472,72.8813,72.8813,112.893,112.893,2.412
0.0229033,0.0219615,0.0151716,0.00294428,0.0265644,0.0292071,0.0175968,0.00443118,-57,-472,72.8098,72.8098,114.047,114.047,2.416
0.0230097,0.022079,0.0152421,0.002965,0.0266403,0.0292603,0.0176471,0.00468158,-57,-472,72.7429,72.7429,115.198,115.198,2.42
0.0231164,0.0221978,0.0153128,0.00298712,0.0267163,0.029411,0.0176974,0.00496367,-56,-471,72.676,72.676,116.343,116.343,2.424
0.0232234,0.0223142,0.0153837,0.00300923,0.0267923,0.0293099,0.0177478,0.00515173,-58,-472,72.6062,72.6062,117.481,117.481,2.428
0.0233307,0.022432,0.0154548,0.00303203,0.0268685,0.0293576,0.0177982,0.00533469,-58,-472,72.543,72.543,118.616,118.616,2.432
0.0234384,0.022553,0.0155261,0.00305656,0.0269446,0.0296486,0.0178487,0.00560062,-56,-472,72.4798,72.4798,119.747,119.747,2.436
0.0235463,0.0226718,0.0155975,0.00308144,0.0270209,0.0296698,0.0178992,0.00580669,-56,-472,72.4076,72.4076,120.871,120.871,2.44
0.0236545,0.0227907,0.0156692,0.00310838,0.0270972,0.0296839,0.0179497,0.00611682,-56,-471,72.3372,72.3372,121.991,121.991,2.444
0.0237631,0.0229109,0.0157411,0.00313637,0.0271736,0.0298085,0.0180003,0.00640994,-56,-470,72.2686,72.2686,123.101,123.101,2.448
0.0238719,0.0230301,0.0158132,0.00316504,0.02725,0.0298052,0.018051,0.00666294,-56,-470,72.1977,72.1977,124.204,124.204,2.452
0.0239811,0.0231503,0.0158856,0.0031913,0.0273266,0.0298894,0.0181017,0.00663007,-56,-472,72.1295,72.1295,125.301,125.301,2.456
0.0240905,0.0232716,0.0159581,0.0032141,0.0274031,0.0300319,0.0181524,0.00632025,-55,-477,72.0603,72.0603,126.405,126.405,2.46
0.0242003,0.0233901,0.0160308,0.00323483,0.0274798,0.0298965,0.0182032,0.00594095,-57,-483,71.9885,71.9885,127.527,127.527,2.464
0.0243104,0.02351,0.0161037,0.00325314,0.0275565,0.0299215,0.018254,0.00548656,-57,-490,71.9249,71.9249,128.669,128.669,2.468
0.0244208,0.0236302,0.0161768,0.003268,0.0276333,0.0299669,0.0183049,0.00489571,-58,-498,71.8629,71.8629,129.837,129.837,2.472
0.0245314,0.0237494,0.0162501,0.00327906,0.0277101,0.0299108,0.0183558,0.00418512,-59,-507,71.8021,71.8021,131.034,131.034,2.476
0.0246424,0.0238703,0.0163236,0.00328804,0.0277871,0.0300174,0.0184067,0.00353864,-58,-516,71.7461,71.7461,132.267,132.267,2.48
0.0247537,0.0239933,0.0163974,0.00329495,0.027864,0.0302611,0.0184577,0.00293491,-56,-524,71.6879,71.6879,133.532,133.532,2.484
0.0248653,0.0241139,0.0164713,0.00330082,0.0279411,0.0302221,0.0185087,0.00244605,-57,-531,71.6229,71.6229,134.828,134.828,2.488
0.0249773,0.0242359,0.0165454,0.00330704,0.0280182,0.0303113,0.0185598,0.00214894,-57,-537,71.562,71.562,136.15,136.15,2.492
0.0250895,0.0243582,0.0166198,0.00331533,0.0280954,0.0303995,0.0186109,0.00212361,-57,-539,71.5001,71.5001,137.489,137.489,2.496
0.025202,0.0244805,0.0166943,0.00332673,0.0281726,0.0304583,0.0186621,0.00236584,-57,-540,71.4373,71.4373,138.833,138.833,2.5
0.0253149,0.0246038,0.0167691,0.0033409,0.0282499,0.0305839,0.0187133,0.00275765,-56,-538,71.3746,71.3746,140.173,140.173,2.504
0.025428,0.0247275,0.016844,0.00335783,0.0283273,0.0306964,0.0187646,0.00324919,-56,-536,71.3094,71.3094,141.5,141.5,2.508
0.0255415,0.0248494,0.0169192,0.00337648,0.0284047,0.0306275,0.0188159,0.00372084,-57,-534,71.2428,71.2428,142.811,142.811,2.512
0.0256553,0.0249731,0.0169946,0.00339445,0.0284822,0.0307255,0.0188672,0.00397769,-57,-534,71.1814,71.1814,144.108,144.108,2.516
0.0257693,0.0250968,0.0170701,0.00340965,0.0285598,0.0307908,0.0189186,0.00391859,-57,-537,71.1188,71.1188,145.4,145.4,2.52
0.0258837,0.0252188,0.0171459,0.00342278,0.0286374,0.0306904,0.01897,0.00370645,-58,-541,71.0568,71.0568,146.7,146.7,2.524
0.0259984,0.0253435,0.0172219,0.0034366,0.0287151,0.0308538,0.0190215,0.0036226,-57,-545,71.0012,71.0012,148.014,148.014,2.528
0.0261135,0.0254679,0.0172981,0.00345042,0.0287929,0.0309339,0.019073,0.00356671,-57,-548,70.9417,70.9417,149.337,149.337,2.532
0.0262288,0.0255912,0.0173745,0.00346458,0.0288707,0.030901,0.0191245,0.00355823,-58,-550,70.882,70.882,150.667,150.667,2.536
0.0263444,0.0257152,0.0174511,0.00347806,0.0289486,0.0309366,0.0191761,0.003495,-58,-553,70.8264,70.8264,152.003,152.003,2.54
0.0264604,0.0258382,0.0175279,0.00348946,0.0290265,0.030874,0.0192277,0.0032801,-59,-558,70.7726,70.7726,153.347,153.347,2.544
0.0265766,0.0259626,0.0176049,0.00349982,0.0291045,0.0309474,0.0192794,0.00305046,-59,-563,70.724,70.724,154.706,154.706,2.548
0.0266932,0.0260887,0.0176821,0.00350915,0.0291826,0.0311403,0.0193311,0.002811,-58,-568,70.6748,70.6748,156.079,156.079,2.552
0.0268101,0.0262124,0.0177596,0.00351883,0.0292607,0.0310673,0.0193829,0.00268014,-59,-572,70.621,70.621,157.469,157.469,2.556
0.0269273,0.0263375,0.0178372,0.00352919,0.0293389,0.0311339,0.0194347,0.00265049,-59,-575,70.573,70.573,158.869,158.869,2.56
0.0270448,0.0264636,0.017915,0.00354059,0.0294172,0.0312646,0.0194865,0.00271709,-59,-577,70.5249,70.5249,160.275,160.275,2.564
0.0271626,0.026588,0.0179931,0.00355338,0.0294955,0.0312078,0.0195384,0.00287666,-60,-578,70.4746,70.4746,161.684,161.684,2.568
0.0272808,0.0267144,0.0180713,0.00356858,0.0295739,0.0313427,0.0195903,0.00318457,-59,-577,70.4293,70.4293,163.091,163.091,2.572
0.0273992,0.0268422,0.0181498,0.00358551,0.0296523,0.0315478,0.0196423,0.0035338,-58,-577,70.3809,70.3809,164.489,164.489,2.576
0.027518,0.0269683,0.0182285,0.00360244,0.0297308,0.0315405,0.0196943,0.00376663,-58,-577,70.3273,70.3273,165.879,165.879,2.58
0.0276371,0.0270958,0.0183074,0.00361833,0.0298094,0.0316509,0.0197463,0.00383547,-58,-579,70.2767,70.2767,167.264,167.264,2.584
0.0277565,0.0272237,0.0183865,0.00363388,0.029888,0.0317532,0.0197984,0.00385257,-58,-581,70.2243,70.2243,168.652,168.652,2.588
0.0278762,0.0273511,0.0184657,0.00364942,0.0299667,0.0317927,0.0198505,0.00386397,-58,-584,70.1706,70.1706,170.045,170.045,2.592
0.0279962,0.0274811,0.0185453,0.00366462,0.0300454,0.0320205,0.0199027,0.00384278,-56,-587,70.1177,70.1177,171.442,171.442,2.596
0.0281165,0.0276085,0.018625,0.00367844,0.0301242,0.0319709,0.0199549,0.00371349,-57,-590,70.0588,70.0588,172.846,172.846,2.6
0.0282372,0.0277374,0.0187049,0.00369226,0.0302031,0.0320529,0.0200072,0.0036273,-57,-594,70.0046,70.0046,174.261,174.261,2.604
0.0283582,0.0278663,0.018785,0.00370608,0.030282,0.0321076,0.0200594,0.00356984,-57,-597,69.9499,69.9499,175.685,175.685,2.608
0.0284795,0.0279934,0.0188654,0.00371956,0.030361,0.0320001,0.0201118,0.00350274,-59,-600,69.8964,69.8964,177.117,177.117,2.612
0.0286011,0.0281226,0.0189459,0.00373234,0.0304401,0.0321012,0.0201641,0.00340042,-59,-604,69.85,69.85,178.557,178.557,2.616
0.028723,0.0282522,0.0190267,0.00374409,0.0305192,0.0321974,0.0202165,0.00324584,-58,-608,69.8023,69.8023,180.007,180.007,2.62
0.0288452,0.0283797,0.0191077,0.00375445,0.0305984,0.0320888,0.020269,0.00302762,-60,-613,69.7541,69.7541,181.469,181.469,2.624
0.0289678,0.0285085,0.0191888,0.00376447,0.0306776,0.0321315,0.0203215,0.00285335,-60,-617,69.7132,69.7132,182.947,182.947,2.628
0.0290906,0.028636,0.0192702,0.00377345,0.0307569,0.0320449,0.020374,0.0026508,-62,-622,69.6739,69.6739,184.437,184.437,2.632
0.0292138,0.0287635,0.0193518,0.00378105,0.0308362,0.0319871,0.0204265,0.0024006,-63,-627,69.6414,69.6414,185.942,185.942,2.636
0.0293373,0.0288934,0.0194336,0.00378935,0.0309156,0.0321501,0.0204791,0.00229138,-62,-631,69.614,69.614,187.463,187.463,2.64
0.0294611,0.0290192,0.0195157,0.00379764,0.0309951,0.0319133,0.0205318,0.00221857,-65,-635,69.5838,69.5838,188.994,188.994,2.644
0.0295853,0.0291456,0.0195979,0.00380697,0.0310746,0.031813,0.0205845,0.0022564,-67,-637,69.5667,69.5667,190.534,190.534,2.648
0.0297097,0.0292724,0.0196803,0.00381664,0.0311542,0.0317749,0.0206372,0.00231041,-68,-640,69.5569,69.5569,192.077,192.077,2.652
0.0298345,0.0293968,0.019763,0.003827,0.0312339,0.031548,0.0206899,0.002404,-71,-642,69.5527,69.5527,193.625,193.625,2.656
0.0299596,0.0295215,0.0198459,0.00383806,0.0313136,0.0314255,0.0207427,0.00252398,-73,-643,69.5613,69.5613,195.174,195.174,2.66
0.030085,0.0296469,0.0199289,0.00384877,0.0313933,0.0314015,0.0207956,0.00257517,-74,-646,69.5782,69.5782,196.723,196.723,2.664
0.0302108,0.0297696,0.0200122,0.00385948,0.0314731,0.0311551,0.0208484,0.0026093,-77,-648,69.6003,69.6003,198.277,198.277,2.668
0.0303368,0.0298922,0.0200957,0.00386881,0.031553,0.0309908,0.0209014,0.00251689,-80,-652,69.6362,69.6362,199.835,199.835,2.672
0.0304632,0.0300142,0.0201794,0.00387814,0.0316329,0.0308238,0.0209543,0.00245528,-82,-655,69.6828,69.6828,201.403,201.403,2.676
0.0305899,0.0301358,0.0202634,0.00388712,0.0317129,0.0306836,0.0210073,0.00238542,-84,-659,69.74,69.74,202.979,202.979,2.68
0.0307169,0.0302591,0.0203475,0.00389852,0.031793,0.0307341,0.0210603,0.00254038,-85,-660,69.8064,69.8064,204.563,204.563,2.684
0.0308442,0.0303825,0.0204318,0.00391165,0.0318731,0.0307677,0.0211134,0.00278764,-85,-661,69.8742,69.8742,206.147,206.147,2.688
0.0309719,0.0305041,0.0205164,0.00392754,0.0319532,0.0306462,0.0211665,0.00318281,-87,-660,69.9447,69.9447,207.725,207.725,2.692
0.0310998,0.0306267,0.0206012,0.00394654,0.0320335,0.0306516,0.0212196,0.00370537,-88,-658,70.0238,70.0238,209.291,209.291,2.696
0.0312281,0.0307484,0.0206862,0.00396727,0.0321137,0.0305688,0.0212728,0.0041977,-90,-656,70.1065,70.1065,210.841,210.841,2.7
0.0313568,0.0308686,0.0207714,0.003988,0.0321941,0.0303984,0.021326,0.00452593,-93,-655,70.1969,70.1969,212.376,212.376,2.704
0.0314857,0.0309892,0.0208568,0.00400597,0.0322744,0.0303137,0.0213792,0.00451441,-94,-658,70.2981,70.2981,213.904,213.904,2.708
0.0316149,0.0311097,0.0209424,0.0040229,0.0323549,0.0302571,0.0214325,0.00442036,-96,-662,70.4067,70.4067,215.437,215.437,2.712
0.0317445,0.0312276,0.0210282,0.00404086,0.0324354,0.0299891,0.0214859,0.00444404,-99,-665,70.5222,70.5222,216.98,216.98,2.716
0.0318744,0.031345,0.0211143,0.00405952,0.0325159,0.0297817,0.0215392,0.0045174,-103,-667,70.6531,70.6531,218.527,218.527,2.72
0.0320047,0.0314601,0.0212005,0.00407852,0.0325965,0.0294418,0.0215926,0.0045951,-107,-669,70.7972,70.7972,220.077,220.077,2.724
0.0321352,0.0315734,0.021287,0.00409649,0.0326772,0.0290713,0.021646,0.00456053,-112,-672,70.9602,70.9602,221.629,221.629,2.728
0.0322661,0.0316867,0.0213737,0.00411376,0.0327579,0.0288243,0.0216995,0.0044799,-115,-675,71.143,71.143,223.189,223.189,2.732
0.0323973,0.0317976,0.0214606,0.00413311,0.0328387,0.0284581,0.021753,0.00459889,-120,-677,71.341,71.341,224.757,224.757,2.736
0.0325288,0.0319047,0.0215477,0.00415384,0.0329195,0.0278972,0.0218066,0.00479338,-127,-678,71.5598,71.5598,226.325,226.325,2.74
0.0326606,0.0320122,0.0216351,0.00417733,0.0330004,0.0275521,0.0218601,0.00515337,-131,-677,71.8065,71.8065,227.89,227.89,2.744
0.0327928,0.0321182,0.0217226,0.00420221,0.0330814,0.0272069,0.0219138,0.00550853,-136,-677,72.0727,72.0727,229.445,229.445,2.748
0.0329253,0.0322212,0.0218104,0.00422708,0.0331623,0.0267176,0.0219674,0.0057453,-142,-677,72.3588,72.3588,230.99,230.99,2.752
0.0330581,0.0323238,0.0218983,0.00425334,0.0332434,0.0263627,0.0220211,0.00601831,-147,-677,72.6703,72.6703,232.531,232.531,2.756
0.0331912,0.0324288,0.0219865,0.00428236,0.0333245,0.0263275,0.0220748,0.00643064,-149,-676,73.001,73.001,234.065,234.065,2.76
0.0333247,0.0325328,0.0220749,0.00431173,0.0334057,0.0262178,0.0221286,0.00673432,-151,-676,73.3383,73.3383,235.587,235.587,2.764
0.0334585,0.0326368,0.0221636,0.00434075,0.0334869,0.0261446,0.0221824,0.00690799,-153,-677,73.685,73.685,237.102,237.102,2.768
0.0335926,0.0327429,0.0222524,0.00436873,0.0335681,0.0262685,0.0222362,0.00693739,-154,-679,74.0393,74.0393,238.615,238.615,2.772
0.033727,0.0328496,0.0223415,0.00439499,0.0336494,0.0264088,0.0222901,0.00681304,-154,-683,74.393,74.393,240.132,240.132,2.776
0.0338618,0.0329567,0.0224307,0.0044209,0.0337308,0.026531,0.022344,0.00670134,-154,-687,74.7456,74.7456,241.66,241.66,2.78
0.0339969,0.0330649,0.0225202,0.00444612,0.0338122,0.0266989,0.0223979,0.0065693,-154,-691,75.0977,75.0977,243.198,243.198,2.784
0.0341323,0.0331737,0.0226099,0.00447238,0.0338937,0.0268684,0.0224519,0.00656764,-154,-694,75.4474,75.4474,244.747,244.747,2.788
0.034268,0.0332791,0.0226998,0.0044976,0.0339752,0.0266935,0.0225059,0.00648017,-157,-697,75.7957,75.7957,246.301,246.301,2.792
0.0344041,0.0333848,0.02279,0.00452628,0.0340568,0.0266057,0.0225599,0.00670976,-159,-698,76.1562,76.1562,247.864,247.864,2.796
0.0345405,0.0334909,0.0228803,0.00455668,0.0341385,0.0265759,0.022614,0.00700677,-161,-698,76.5252,76.5252,249.422,249.422,2.8
0.0346772,0.0335942,0.0229709,0.00458778,0.0342201,0.0263258,0.0226681,0.00726237,-165,-698,76.9011,76.9011,250.973,250.973,2.804
0.0348142,0.0336951,0.0230617,0.00461887,0.0343019,0.0259575,0.0227223,0.00743276,-170,-699,77.2933,77.2933,252.518,252.518,2.808
0.0349516,0.0337973,0.0231526,0.004651,0.0343837,0.0258271,0.0227764,0.00763273,-173,-700,77.7057,77.7057,254.061,254.061,2.812
0.0350893,0.0338968,0.0232439,0.00468693,0.0344655,0.0255098,0.0228307,0.00808274,-177,-698,78.1295,78.1295,255.6,255.6,2.816
0.0352273,0.0339918,0.0233353,0.00472217,0.0345474,0.0249241,0.0228849,0.00832517,-185,-699,78.5731,78.5731,257.126,257.126,2.82
0.0353657,0.0340834,0.0234269,0.00476018,0.0346294,0.0242456,0.0229392,0.00871711,-193,-698,79.0476,79.0476,258.645,258.645,2.824
0.0355044,0.0341718,0.0235188,0.00480025,0.0347113,0.0235342,0.0229935,0.00915116,-202,-696,79.5571,79.5571,260.153,260.153,2.828
0.0356434,0.0342561,0.0236109,0.00483895,0.0347934,0.0227145,0.0230479,0.00932535,-212,-697,80.1033,80.1033,261.649,261.649,2.832
0.0357827,0.0343359,0.0237032,0.00487764,0.0348755,0.0217937,0.0231022,0.00944149,-223,-698,80.6911,80.6911,263.141,263.141,2.836
0.0359224,0.0344123,0.0237957,0.00491634,0.0349576,0.0208919,0.0231567,0.00951891,-234,-700,81.3246,81.3246,264.634,264.634,2.84
0.0360624,0.0344859,0.0238884,0.00495261,0.0350398,0.0200604,0.0232111,0.00936899,-244,-704,82.0031,82.0031,266.13,266.13,2.844
0.0362027,0.034555,0.0239814,0.00498855,0.0351221,0.0191318,0.0232656,0.00924025,-255,-708,82.7243,82.7243,267.636,267.636,2.848
0.0363433,0.0346234,0.0240746,0.00502517,0.0352044,0.0184551,0.0233201,0.009212,-264,-711,83.4914,83.4914,269.153,269.153,2.852
0.0364843,0.0346959,0.024168,0.00506041,0.0352867,0.0183495,0.0233747,0.00907801,-267,-715,84.2928,84.2928,270.676,270.676,2.856
0.0366256,0.0347744,0.0242616,0.00509634,0.0353692,0.0187686,0.0234292,0.00904626,-266,-718,85.104,85.104,272.21,272.21,2.86
0.0367673,0.0348611,0.0243554,0.00513331,0.0354516,0.0197389,0.0234839,0.00911147,-258,-720,85.9022,85.9022,273.75,273.75,2.864
0.0369092,0.0349564,0.0244494,0.00517131,0.0355341,0.0211056,0.0235385,0.00924132,-247,-722,86.6638,86.6638,275.293,275.293,2.868
0.0370515,0.0350587,0.0245437,0.00520897,0.0356167,0.0225925,0.0235932,0.00929909,-235,-724,87.3724,87.3724,276.835,276.835,2.872
0.0371942,0.035171,0.0246382,0.00524697,0.0356993,0.0244187,0.0236479,0.00936639,-219,-726,88.0219,88.0219,278.379,278.379,2.876
0.0373371,0.035295,0.0247329,0.0052867,0.0357819,0.0266151,0.0237027,0.00955522,-199,-727,88.5971,88.5971,279.926,279.926,2.88
0.0374804,0.0354253,0.0248278,0.00532713,0.0358646,0.0285976,0.0237574,0.00973868,-182,-728,89.0834,89.0834,281.469,281.469,2.884
0.0376241,0.0355635,0.0249229,0.00536928,0.0359473,0.0305814,0.0238123,0.0100049,-164,-728,89.489,89.489,283.009,283.009,2.888
0.037768,0.0357069,0.0250183,0.00541281,0.0360301,0.0323358,0.0238671,0.0102976,-148,-728,89.8143,89.8143,284.543,284.543,2.892
0.0379123,0.0358551,0.0251139,0.00545358,0.036113,0.0339085,0.023922,0.0102624,-134,-731,90.0686,90.0686,286.07,286.07,2.896
0.0380569,0.0360092,0.0252097,0.00549573,0.0361959,0.0354464,0.0239769,0.0103541,-120,-732,90.2591,90.2591,287.604,287.604,2.9
0.0382019,0.0361622,0.0253057,0.00553511,0.0362788,0.0363853,0.0240318,0.0101849,-111,-737,90.3887,90.3887,289.139,289.139,2.904
0.0383471,0.0363191,0.0254019,0.00557312,0.0363618,0.037328,0.0240868,0.00995693,-103,-741,90.4813,90.4813,290.686,290.686,2.908
0.0384928,0.0364745,0.0254984,0.00561319,0.0364448,0.0378412,0.0241418,0.0099777,-99,-744,90.5378,90.5378,292.248,292.248,2.912
0.0386387,0.0366307,0.0255951,0.0056512,0.0365279,0.038241,0.0241968,0.0098188,-96,-748,90.5758,90.5758,293.814,293.814,2.916
0.038785,0.0367879,0.025692,0.00568989,0.0366111,0.0385939,0.0242519,0.00977045,-93,-751,90.5998,90.5998,295.393,295.393,2.92
0.0389316,0.0369437,0.0257891,0.00572893,0.0366942,0.0387139,0.024307,0.00976701,-93,-754,90.6126,90.6126,296.978,296.978,2.924
0.0390785,0.0371002,0.0258864,0.00576797,0.0367775,0.0388516,0.0243621,0.00976471,-92,-757,90.6232,90.6232,298.568,298.568,2.928
0.0392258,0.037256,0.025984,0.00580632,0.0368607,0.0388858,0.0244173,0.0097056,-92,-760,90.6313,90.6313,300.164,300.164,2.932
0.0393734,0.0374146,0.0260818,0.00584433,0.0369441,0.0391389,0.0244725,0.0096374,-91,-764,90.6405,90.6405,301.767,301.767,2.936
0.0395214,0.0375715,0.0261798,0.00588302,0.0370274,0.0391637,0.0245277,0.00964952,-91,-766,90.6425,90.6425,303.379,303.379,2.94
0.0396696,0.0377294,0.026278,0.00591999,0.0371109,0.0392666,0.024583,0.00951364,-91,-771,90.6464,90.6464,304.995,304.995,2.944
0.0398183,0.0378869,0.0263764,0.00595903,0.0371943,0.0393064,0.0246383,0.0095958,-91,-773,90.6492,90.6492,306.623,306.623,2.948
0.0399672,0.0380469,0.0264751,0.00600014,0.0372778,0.0395344,0.0246936,0.00982332,-90,-773,90.6528,90.6528,308.251,308.251,2.952
0.0401165,0.0382082,0.026574,0.00603884,0.0373614,0.0398017,0.0247489,0.00977346,-88,-777,90.6496,90.6496,309.876,309.876,2.956
0.0402661,0.0383702,0.0266731,0.00607684,0.037445,0.0400374,0.0248043,0.00968264,-86,-780,90.6381,90.6381,311.508,311.508,2.96
0.040416,0.038535,0.0267724,0.00611519,0.0375286,0.0404249,0.0248597,0.00965089,-83,-783,90.6189,90.6189,313.149,313.149,2.964
0.0405663,0.0386998,0.026872,0.0061494,0.0376123,0.0406832,0.0249152,0.00928423,-81,-790,90.5864,90.5864,314.798,314.798,2.968
0.0407169,0.0388671,0.0269717,0.00618325,0.037696,0.0410569,0.0249706,0.009011,-78,-795,90.5454,90.5454,316.467,316.467,2.972
0.0408679,0.0390336,0.0270717,0.00621884,0.0377798,0.0412485,0.0250261,0.0089728,-77,-799,90.4917,90.4917,318.153,318.153,2.976
0.0410192,0.0392025,0.0271719,0.00625408,0.0378637,0.0415778,0.0250817,0.00891854,-74,-802,90.4323,90.4323,319.847,319.847,2.98
0.0411708,0.0393697,0.0272724,0.00628932,0.0379475,0.0416533,0.0251372,0.00888237,-74,-805,90.3622,90.3622,321.548,321.548,2.984
0.0413228,0.0395415,0.027373,0.00632594,0.0380314,0.042078,0.0251928,0.00897342,-70,-807,90.2907,90.2907,323.255,323.255,2.988
0.041475,0.0397114,0.0274739,0.00636153,0.0381154,0.0422171,0.0252484,0.00894774,-70,-811,90.2045,90.2045,324.965,324.965,2.992
