peachynonah/Fire_monitor_KIRO_CDSL/csv_datas/trial13/cdsl_data_t13_1_PD_u.csv
joint1_pos_desired, joint1_pos, joint2_pos_desired, joint2_pos, joint1_vel_desired, joint1_vel_filtered, joint2_vel_desired, joint2_vel_filtered, target_torque_joint1, target_torque_joint2, propo_term_torque_joint1, deriv_term_torque_joint1, propo_term_torque_joint2, deriv_term_torque_joint2, current_time
0.04,0.0985842,0.022,0.0244746,9.41623e-08,0,6.2375e-08,0,322,14,322.213,-0.000329568,14.8475,-0.0002495,0.004
0.04,0.0985835,0.022,0.0244311,3.76499e-07,-5.75818e-05,2.494e-07,-0.00362766,322,0,322.209,-0.202854,14.5863,-14.5116,0.008
0.04,0.0985824,0.022,0.0244027,8.46783e-07,-0.000124761,5.60926e-07,-0.00477929,321,-4,322.203,-0.439626,14.4163,-19.1194,0.012
0.04,0.09856,0.022,0.0243772,1.50479e-06,-0.00195458,9.96803e-07,-0.00531672,315,-7,322.08,-6.84631,14.2629,-21.2709,0.016
0.04,0.0985085,0.022,0.0243561,2.35029e-06,-0.0055929,1.55688e-06,-0.00530073,302,-7,321.797,-19.5834,14.1365,-21.2091,0.02
0.04,0.0984314,0.022,0.0243402,3.38307e-06,-0.010149,2.24101e-06,-0.0048582,285,-5,321.373,-35.5333,14.0411,-19.4418,0.024
0.04,0.0983302,0.022,0.0243281,4.60288e-06,-0.0152017,3.04904e-06,-0.00424648,267,-3,320.816,-53.2222,13.9684,-16.9981,0.028
0.0400001,0.0982076,0.022,0.0243198,6.00952e-06,-0.0203553,3.98083e-06,-0.00352197,248,0,320.141,-71.2645,13.9186,-14.1038,0.032
0.0400001,0.0980618,0.0220001,0.024316,7.60276e-06,-0.0257199,5.03622e-06,-0.00266468,229,3,319.339,-90.0464,13.8957,-10.6789,0.036
0.0400001,0.0979001,0.0220001,0.0243153,9.38236e-06,-0.0306208,6.21506e-06,-0.00183404,211,6,318.45,-107.206,13.8914,-7.361,0.04
0.0400002,0.0977222,0.0220001,0.024317,1.13481e-05,-0.0352412,7.51721e-06,-0.00107874,194,9,317.471,-123.384,13.9016,-4.34501,0.044
0.0400002,0.0975294,0.0220001,0.0243181,1.34998e-05,-0.0395595,8.94252e-06,-0.000632785,177,11,316.41,-138.505,13.9076,-2.56691,0.048
0.0400003,0.0973224,0.0220002,0.0243181,1.58371e-05,-0.0436187,1.04908e-05,-0.000421856,162,12,315.272,-152.721,13.9074,-1.72939,0.052
0.0400003,0.0971072,0.0220002,0.0243184,1.836e-05,-0.0470159,1.2162e-05,-0.000252447,149,12,314.088,-164.62,13.9092,-1.05843,0.056
0.0400004,0.096883,0.0220003,0.0243184,2.1068e-05,-0.0500292,1.39559e-05,-0.000168298,137,13,312.854,-175.176,13.9089,-0.729015,0.06
0.0400005,0.0966515,0.0220003,0.0243177,2.39611e-05,-0.0526427,1.58723e-05,-0.00016978,127,13,311.58,-184.333,13.9044,-0.742611,0.064
0.0400006,0.0964172,0.0220004,0.0243174,2.7039e-05,-0.0546154,1.79112e-05,-0.000141978,119,13,310.291,-191.249,13.9019,-0.639556,0.068
0.0400007,0.0961764,0.0220005,0.0243174,3.03014e-05,-0.0564776,2.00723e-05,-9.46519e-05,111,13,308.966,-197.777,13.9014,-0.458897,0.072
0.0400009,0.0959311,0.0220006,0.024317,3.37482e-05,-0.0580933,2.23555e-05,-9.18922e-05,104,13,307.617,-203.445,13.8989,-0.456991,0.076
0.040001,0.0956841,0.0220007,0.0243181,3.73792e-05,-0.0593143,2.47607e-05,2.51113e-05,98,13,306.257,-207.731,13.9045,0.0014024,0.08
0.0400012,0.0954333,0.0220008,0.0243177,4.1194e-05,-0.0604451,2.72877e-05,-1.205e-05,93,13,304.877,-211.702,13.9018,-0.157351,0.084
0.0400013,0.0951766,0.0220009,0.024317,4.51925e-05,-0.0616884,2.99364e-05,-6.56152e-05,87,13,303.464,-216.068,13.897,-0.382206,0.088
0.0400015,0.0949171,0.022001,0.0243177,4.93744e-05,-0.0627476,3.27066e-05,1.38384e-05,82,13,302.036,-219.789,13.9004,-0.0754729,0.092
0.0400017,0.0946566,0.0220011,0.0243174,5.37396e-05,-0.0635401,3.55982e-05,-1.95653e-05,78,13,300.602,-222.578,13.8975,-0.220654,0.096
0.0400019,0.0943961,0.0220013,0.0243177,5.82877e-05,-0.0640684,3.8611e-05,1.57474e-05,74,13,299.168,-224.443,13.8987,-0.0914544,0.1
0.0400022,0.0941284,0.0220015,0.0243177,6.30187e-05,-0.0650252,4.17448e-05,1.04982e-05,69,13,297.694,-227.809,13.8977,-0.124986,0.104
0.0400025,0.0938654,0.0220016,0.0243177,6.79321e-05,-0.0652601,4.49996e-05,6.99883e-06,67,13,296.246,-228.648,13.8967,-0.152003,0.108
0.0400027,0.0935977,0.0220018,0.0243177,7.3028e-05,-0.0658197,4.83752e-05,4.66589e-06,64,13,294.772,-230.624,13.8956,-0.174837,0.112
0.040003,0.093332,0.022002,0.0243177,7.83059e-05,-0.06602,5.18714e-05,3.11059e-06,61,13,293.309,-231.344,13.8943,-0.195043,0.116
0.0400034,0.0930611,0.0220022,0.0243177,8.37657e-05,-0.0665854,5.54881e-05,2.07373e-06,58,13,291.818,-233.342,13.8931,-0.213657,0.12
0.0400037,0.0927941,0.0220025,0.0243181,8.94072e-05,-0.0666457,5.92251e-05,3.01734e-05,56,13,290.347,-233.573,13.8938,-0.116207,0.124
0.0400041,0.092527,0.0220027,0.0243177,9.52301e-05,-0.0666858,6.30823e-05,-8.67532e-06,55,13,288.876,-233.734,13.8902,-0.287031,0.128
0.0400045,0.0922565,0.022003,0.0243177,0.000101234,-0.0670005,6.70596e-05,-5.78355e-06,52,13,287.386,-234.856,13.8887,-0.291372,0.132
0.0400049,0.0919891,0.0220032,0.0243177,0.000107419,-0.0669512,7.11567e-05,-3.8557e-06,51,13,285.913,-234.705,13.887,-0.30005,0.136
0.0400053,0.0917196,0.0220035,0.0243177,0.000113785,-0.067091,7.53736e-05,-2.57046e-06,49,13,284.428,-235.217,13.8852,-0.311776,0.14
0.0400058,0.0914539,0.0220038,0.0243177,0.000120332,-0.0668676,7.97101e-05,-1.71364e-06,48,13,282.965,-234.458,13.8834,-0.325695,0.144
0.0400063,0.0911886,0.0220042,0.0243177,0.000127058,-0.0666898,8.4166e-05,-1.14243e-06,47,13,281.503,-233.859,13.8814,-0.341234,0.148
0.0400068,0.0909212,0.0220045,0.0243177,0.000133965,-0.0667441,8.87412e-05,-7.61619e-07,45,13,280.029,-234.073,13.8793,-0.358011,0.152
0.0400074,0.0906558,0.0220049,0.0243177,0.000141052,-0.0666075,9.34356e-05,-5.07746e-07,44,13,278.567,-233.62,13.8772,-0.375773,0.156
0.0400079,0.0903957,0.0220053,0.0243177,0.000148318,-0.0660845,9.82489e-05,-3.38497e-07,45,13,277.133,-231.815,13.8749,-0.39435,0.16
0.0400086,0.0901338,0.0220057,0.0243181,0.000155764,-0.0658799,0.000103181,2.85653e-05,44,13,275.689,-231.125,13.8745,-0.298464,0.164
0.0400092,0.0898747,0.0220061,0.0243177,0.000163389,-0.0655131,0.000108232,-9.74742e-06,44,13,274.26,-229.868,13.8699,-0.471918,0.168
0.0400099,0.0896152,0.0220065,0.0243177,0.000171193,-0.0652974,0.000113402,-6.49828e-06,43,13,272.829,-229.14,13.8672,-0.4796,0.172
0.0400106,0.0893592,0.022007,0.0243177,0.000179176,-0.0648657,0.00011869,-4.33219e-06,43,13,271.418,-227.657,13.8645,-0.492087,0.176
0.0400113,0.0891025,0.0220075,0.0243177,0.000187337,-0.0646354,0.000124096,-2.88812e-06,43,13,270.002,-226.88,13.8615,-0.507936,0.18
0.0400121,0.0888475,0.022008,0.0243177,0.000195676,-0.064338,0.00012962,-1.92542e-06,42,13,268.595,-225.868,13.8585,-0.526182,0.184
0.0400129,0.0885974,0.0220085,0.024317,0.000204194,-0.0637366,0.000135262,-5.88655e-05,43,13,267.215,-223.793,13.8512,-0.776511,0.188
0.0400137,0.0883507,0.0220091,0.0243181,0.00021289,-0.0630478,0.000141022,4.71291e-05,44,13,265.854,-221.412,13.8541,-0.375573,0.192
0.0400146,0.0880999,0.0220096,0.0243177,0.000221763,-0.0629341,0.0001469,2.6285e-06,43,13,264.469,-221.045,13.8485,-0.577087,0.196
0.0400155,0.0878515,0.0220102,0.0243174,0.000230814,-0.0626567,0.000152896,-2.70386e-05,42,13,263.098,-220.106,13.8429,-0.719737,0.2
0.0400164,0.0876079,0.0220109,0.024317,0.000240041,-0.0620688,0.000159008,-4.68167e-05,43,13,261.753,-218.081,13.8371,-0.8233,0.204
0.0400174,0.0873623,0.0220115,0.0243177,0.000249446,-0.0618495,0.000165238,2.63707e-05,43,13,260.397,-217.346,13.8373,-0.55547,0.208
0.0400184,0.087119,0.0220122,0.0243177,0.000259028,-0.0615018,0.000171585,1.75805e-05,42,13,259.053,-216.163,13.8333,-0.616019,0.212
0.0400195,0.0868803,0.0220129,0.0243177,0.000268786,-0.0608957,0.000178049,1.17203e-05,43,13,257.735,-214.076,13.8291,-0.665316,0.216
0.0400206,0.0866388,0.0220136,0.0243181,0.00027872,-0.060722,0.00018463,3.66045e-05,42,13,256.4,-213.503,13.8268,-0.592103,0.22
0.0400217,0.0864018,0.0220144,0.0243177,0.000288831,-0.0602319,0.000191328,-4.38794e-06,43,13,255.091,-211.823,13.8202,-0.782862,0.224
0.0400229,0.0861662,0.0220151,0.0243177,0.000299118,-0.05979,0.000198142,-2.92529e-06,43,13,253.788,-210.312,13.8155,-0.804267,0.228
0.0400241,0.0859299,0.022016,0.0243177,0.00030958,-0.059553,0.000205072,-1.95019e-06,42,12,252.482,-209.519,13.8107,-0.828088,0.232
0.0400253,0.0856956,0.0220168,0.0243177,0.000320217,-0.0592223,0.000212118,-1.30013e-06,42,12,251.186,-208.399,13.8057,-0.853674,0.236
0.0400266,0.0854648,0.0220176,0.0243177,0.00033103,-0.0587138,0.000219281,-8.66753e-07,43,12,249.91,-206.657,13.8005,-0.880591,0.24
0.040028,0.085233,0.0220185,0.0243177,0.000342018,-0.0584613,0.00022656,-5.77836e-07,42,12,248.628,-205.812,13.7952,-0.908549,0.244
0.0400294,0.0850053,0.0220195,0.024317,0.00035318,-0.0579474,0.000233954,-5.79671e-05,43,12,247.368,-204.052,13.7855,-1.16768,0.248
0.0400308,0.0847783,0.0220204,0.0243177,0.000364517,-0.0575472,0.000241464,1.89371e-05,43,12,246.111,-202.691,13.7839,-0.890106,0.252
0.0400323,0.08455,0.0220214,0.0243177,0.000376029,-0.0573956,0.000249089,1.26248e-05,42,12,244.847,-202.201,13.7781,-0.945858,0.256
0.0400338,0.084325,0.0220224,0.0243177,0.000387714,-0.0570066,0.00025683,8.4165e-06,42,12,243.602,-200.88,13.772,-0.993654,0.26
0.0400354,0.0841036,0.0220234,0.0243174,0.000399574,-0.0564594,0.000264686,-2.31799e-05,43,12,242.375,-199.006,13.7637,-1.15146,0.264
0.040037,0.0838783,0.0220245,0.0243174,0.000411607,-0.0564113,0.000272657,-1.54533e-05,42,12,241.127,-198.88,13.7572,-1.15244,0.268
0.0400387,0.0836572,0.0220256,0.024317,0.000423814,-0.0560337,0.000280743,-3.90931e-05,42,12,239.902,-197.601,13.7485,-1.27934,0.272
0.0400404,0.0834382,0.0220268,0.0243177,0.000436193,-0.0556093,0.000288943,3.15198e-05,42,12,238.688,-196.159,13.7458,-1.02969,0.276
0.0400422,0.0832174,0.0220279,0.024317,0.000448746,-0.0554702,0.000297259,-3.65687e-05,41,12,237.464,-195.716,13.7346,-1.33531,0.28
0.040044,0.0830018,0.0220291,0.0243174,0.000461472,-0.0549457,0.000305688,4.41181e-06,42,12,236.268,-193.925,13.7295,-1.20511,0.284
0.0400459,0.0827852,0.0220304,0.0243181,0.00047437,-0.0546824,0.000314232,6.05231e-05,42,12,235.066,-193.049,13.7262,-1.01484,0.288
0.0400478,0.0825706,0.0220317,0.024317,0.000487441,-0.0543341,0.000322891,-4.60241e-05,42,12,233.876,-191.875,13.7123,-1.47566,0.292
0.0400498,0.0823523,0.022033,0.0243174,0.000500683,-0.0544186,0.000331663,-1.89179e-06,40,12,232.664,-192.217,13.7065,-1.33422,0.296
0.0400518,0.0821412,0.0220343,0.0243174,0.000514098,-0.0538703,0.000340549,-1.26119e-06,41,12,231.492,-190.345,13.6985,-1.36724,0.3
0.0400539,0.081937,0.0220357,0.0243174,0.000527684,-0.052929,0.000349549,-8.40794e-07,43,12,230.357,-187.098,13.6902,-1.40156,0.304
0.040056,0.0817218,0.0220371,0.0243174,0.000541442,-0.0532227,0.000358662,-5.6053e-07,40,12,229.162,-188.175,13.6817,-1.43689,0.308
0.0400582,0.0815183,0.0220386,0.0243174,0.000555371,-0.0524397,0.000367889,-3.73686e-07,42,12,228.03,-185.483,13.673,-1.47305,0.312
0.0400605,0.0813137,0.0220401,0.0243174,0.000569471,-0.052004,0.000377229,-2.49124e-07,42,12,226.893,-184.007,13.664,-1.50991,0.316
0.0400628,0.0811068,0.0220416,0.0243174,0.000583742,-0.0519151,0.000386683,-1.66083e-07,41,12,225.742,-183.746,13.6548,-1.5474,0.32
0.0400651,0.080903,0.0220431,0.0243174,0.000598184,-0.0515967,0.000396249,-1.10722e-07,41,12,224.608,-182.682,13.6455,-1.58544,0.324
0.0400676,0.0806998,0.0220448,0.0243174,0.000612796,-0.0513269,0.000405928,-7.38146e-08,41,12,223.477,-181.789,13.6358,-1.62401,0.328
0.04007,0.0804956,0.0220464,0.0243174,0.000627578,-0.0512334,0.00041572,-4.92097e-08,40,11,222.341,-181.513,13.626,-1.66308,0.332
0.0400726,0.0802949,0.0220481,0.0243174,0.00064253,-0.0508831,0.000425625,-3.28065e-08,40,11,221.223,-180.34,13.6159,-1.70263,0.336
0.0400752,0.0800966,0.0220498,0.0243174,0.000657651,-0.0504481,0.000435642,-2.1871e-08,41,11,220.118,-178.87,13.6055,-1.74265,0.34
0.0400778,0.0798917,0.0220516,0.0243174,0.000672943,-0.0507051,0.000445771,-1.45807e-08,39,11,218.976,-179.823,13.595,-1.78314,0.344
0.0400806,0.0796993,0.0220534,0.0243174,0.000688403,-0.0498399,0.000456012,-9.72044e-09,41,11,217.903,-176.849,13.5841,-1.82409,0.348
0.0400833,0.0795027,0.0220552,0.0243181,0.000704033,-0.0496086,0.000466366,5.75754e-05,40,11,216.806,-176.094,13.5772,-1.63516,0.352
0.0400862,0.0793078,0.0220571,0.0243174,0.000719831,-0.0493105,0.000476831,-1.91983e-05,40,11,215.719,-175.106,13.5618,-1.98412,0.356
0.0400891,0.0791144,0.022059,0.0243174,0.000735798,-0.0489966,0.000487408,-1.27988e-05,40,11,214.639,-174.063,13.5502,-2.00083,0.36
0.0400921,0.0789191,0.022061,0.0243174,0.000751934,-0.0489313,0.000498096,-8.53256e-06,39,11,213.549,-173.891,13.5384,-2.02652,0.364
0.0400951,0.0787295,0.022063,0.0243174,0.000768238,-0.0484271,0.000508896,-5.68838e-06,40,11,212.489,-172.184,13.5263,-2.05834,0.368
0.0400982,0.0785374,0.0220651,0.024317,0.000784709,-0.0482925,0.000519808,-3.25832e-05,39,11,211.415,-171.77,13.5119,-2.20956,0.372
0.0401014,0.0783494,0.0220672,0.0243177,0.000801349,-0.0478572,0.00053083,3.58597e-05,40,11,210.364,-170.305,13.5034,-1.97988,0.376
0.0401046,0.0781625,0.0220693,0.0243174,0.000818156,-0.0474807,0.000541963,-4.88444e-06,40,11,209.318,-169.046,13.4884,-2.18739,0.38
0.0401079,0.0779766,0.0220715,0.0243174,0.00083513,-0.0471433,0.000553207,-3.25629e-06,40,11,208.278,-167.925,13.4753,-2.22585,0.384
0.0401113,0.0777925,0.0220737,0.0243181,0.000852272,-0.0467744,0.000564562,5.5411e-05,40,11,207.246,-166.694,13.466,-2.03661,0.388
0.0401148,0.0776084,0.022076,0.024317,0.00086958,-0.0465285,0.000576028,-4.94321e-05,40,10,206.215,-165.893,13.4461,-2.50184,0.392
0.0401183,0.077429,0.0220784,0.0243181,0.000887055,-0.0459615,0.000587604,5.3418e-05,41,11,205.209,-163.97,13.4384,-2.13674,0.396
0.0401219,0.077248,0.0220807,0.024317,0.000904697,-0.0457275,0.00059929,-5.07608e-05,40,10,204.194,-163.213,13.4179,-2.6002,0.4
0.0401255,0.0770704,0.0220831,0.0243174,0.000922505,-0.0452835,0.000611086,-5.04958e-06,41,10,203.197,-161.721,13.4055,-2.46454,0.404
0.0401292,0.0768904,0.0220856,0.0243177,0.000940478,-0.0451891,0.000622992,2.54245e-05,40,11,202.187,-161.453,13.3927,-2.39027,0.408
0.040133,0.0767146,0.0220881,0.0243177,0.000958618,-0.0447806,0.000635008,1.69497e-05,41,10,201.198,-160.087,13.3776,-2.47223,0.412
0.0401369,0.0765391,0.0220907,0.0243177,0.000976923,-0.0444795,0.000647134,1.12998e-05,41,10,200.212,-159.098,13.3623,-2.54334,0.416
0.0401409,0.076366,0.0220933,0.0243177,0.000995394,-0.0440773,0.000659369,7.5332e-06,41,10,199.238,-157.754,13.3466,-2.60734,0.42
0.0401449,0.0761915,0.022096,0.0243177,0.00101403,-0.0439243,0.000671714,5.02213e-06,40,10,198.256,-157.284,13.3306,-2.66677,0.424
0.040149,0.0760194,0.0220987,0.0243177,0.00103283,-0.0436207,0.000684168,3.34809e-06,41,10,197.288,-156.287,13.3143,-2.72328,0.428
0.0401531,0.0758481,0.0221014,0.0243177,0.0010518,-0.0433608,0.000696731,2.23206e-06,40,10,196.322,-155.444,13.2978,-2.77799,0.432
0.0401574,0.0756809,0.0221043,0.0243177,0.00107093,-0.042842,0.000709403,1.48804e-06,41,10,195.379,-153.695,13.2809,-2.83166,0.436
0.0401617,0.0755105,0.0221071,0.0243177,0.00109022,-0.0427553,0.000722184,9.92026e-07,40,10,194.419,-153.459,13.2637,-2.88477,0.44
0.0401661,0.0753433,0.02211,0.0243177,0.00110968,-0.0424383,0.000735073,6.61351e-07,41,10,193.475,-152.418,13.2462,-2.93765,0.444
0.0401706,0.0751778,0.022113,0.0243174,0.0011293,-0.0420831,0.000748071,-2.835e-05,41,10,192.54,-151.243,13.2264,-3.10569,0.448
0.0401751,0.0750137,0.022116,0.0243177,0.00114909,-0.0417311,0.000761178,9.89091e-06,41,10,191.612,-150.081,13.2103,-3.00515,0.452
0.0401798,0.0748513,0.0221191,0.0243177,0.00116904,-0.0413524,0.000774393,6.59394e-06,41,10,190.694,-148.825,13.1919,-3.07119,0.456
0.0401845,0.0746883,0.0221222,0.0243174,0.00118915,-0.0411576,0.000787716,-2.4395e-05,41,9,189.771,-148.214,13.1711,-3.24844,0.46
0.0401893,0.0745283,0.0221254,0.0243174,0.00120942,-0.0407686,0.000801146,-1.62633e-05,41,9,188.865,-146.923,13.152,-3.26964,0.464
0.0401942,0.0743676,0.0221286,0.0243177,0.00122986,-0.0405669,0.000814685,1.79487e-05,41,9,187.954,-146.288,13.1347,-3.18695,0.468
0.0401991,0.0742101,0.0221319,0.0243177,0.00125046,-0.0401732,0.000828331,1.19658e-05,42,9,187.06,-144.983,13.115,-3.26546,0.472
0.0402042,0.0740508,0.0221352,0.0243177,0.00127123,-0.0400548,0.000842085,7.97721e-06,41,9,186.157,-144.641,13.0949,-3.33643,0.476
0.0402093,0.0738926,0.0221386,0.0243177,0.00129215,-0.0398894,0.000855947,5.31814e-06,41,9,185.258,-144.136,13.0746,-3.40251,0.48
0.0402145,0.0737371,0.0221421,0.0243177,0.00131324,-0.0395489,0.000869915,3.54543e-06,41,9,184.374,-143.017,13.0538,-3.46548,0.484
0.0402198,0.073582,0.0221456,0.0243177,0.00133449,-0.039293,0.000883991,2.36362e-06,41,9,183.492,-142.196,13.0328,-3.52651,0.488
0.0402252,0.0734258,0.0221492,0.0243177,0.0013559,-0.0392089,0.000898174,1.57574e-06,40,9,182.604,-141.977,13.0114,-3.58639,0.492
0.0402307,0.0732718,0.0221528,0.0243177,0.00137747,-0.03898,0.000912463,1.0505e-06,40,9,181.726,-141.251,12.9897,-3.64565,0.496
0.0402362,0.0731194,0.0221565,0.0243177,0.0013992,-0.0386835,0.000926859,7.00331e-07,40,9,180.858,-140.289,12.9676,-3.70464,0.5
0.0402418,0.0729667,0.0221602,0.0243177,0.00142109,-0.0385146,0.000941362,4.66887e-07,40,9,179.987,-139.775,12.9452,-3.76358,0.504
0.0402476,0.0728171,0.022164,0.0243177,0.00144315,-0.0381428,0.000955971,3.11258e-07,40,9,179.132,-138.551,12.9224,-3.82264,0.508
0.0402534,0.0726647,0.0221679,0.0243177,0.00146536,-0.0381254,0.000970687,2.07505e-07,39,9,178.262,-138.568,12.8993,-3.88192,0.512
0.0402593,0.0725162,0.0221718,0.0243177,0.00148774,-0.037797,0.000985508,1.38337e-07,39,8,177.413,-137.497,12.8758,-3.94148,0.516
0.0402653,0.0723662,0.0221757,0.0243177,0.00151027,-0.0376933,0.00100044,9.22247e-08,39,8,176.555,-137.212,12.852,-4.00137,0.52
0.0402714,0.072219,0.0221798,0.0243177,0.00153297,-0.0373938,0.00101547,6.14831e-08,39,8,175.712,-136.244,12.8278,-4.06163,0.524
0.0402776,0.0720719,0.0221839,0.0243177,0.00155582,-0.0371941,0.00103061,4.09887e-08,39,8,174.869,-135.625,12.8033,-4.12227,0.528
0.0402838,0.0719236,0.022188,0.0243177,0.00157884,-0.0371474,0.00104585,2.73258e-08,38,8,174.019,-135.542,12.7783,-4.1833,0.532
0.0402902,0.0717803,0.0221922,0.0243177,0.00160201,-0.0367132,0.0010612,1.82172e-08,39,8,173.195,-134.103,12.7531,-4.24474,0.536
0.0402966,0.0716348,0.0221965,0.0243177,0.00162534,-0.0365964,0.00107666,1.21448e-08,38,8,172.36,-133.776,12.7274,-4.30658,0.54
0.0403032,0.0714911,0.0222008,0.0243177,0.00164883,-0.0363746,0.00109222,8.09654e-09,38,8,171.533,-133.082,12.7014,-4.36884,0.544
0.0403098,0.0713501,0.0222052,0.0243177,0.00167248,-0.0359965,0.00110788,5.39769e-09,38,8,170.722,-131.841,12.675,-4.43151,0.548
0.0403166,0.0712068,0.0222097,0.0243177,0.00169629,-0.0359459,0.00112365,3.59846e-09,38,8,169.896,-131.748,12.6482,-4.4946,0.552
0.0403234,0.0710672,0.0222142,0.0243177,0.00172025,-0.0355954,0.00113953,2.39898e-09,38,8,169.091,-130.605,12.621,-4.55811,0.556
0.0403303,0.0709279,0.0222188,0.0243177,0.00174437,-0.035333,0.00115551,1.59932e-09,38,7,168.287,-129.771,12.5935,-4.62203,0.56
0.0403374,0.0707894,0.0222235,0.0243177,0.00176865,-0.0351005,0.00117159,1.06621e-09,38,7,167.486,-129.042,12.5656,-4.68637,0.564
0.0403445,0.0706526,0.0222282,0.0243177,0.00179309,-0.0348016,0.00118778,7.10807e-10,38,7,166.695,-128.081,12.5373,-4.75112,0.568
0.0403517,0.0705151,0.022233,0.0243177,0.00181769,-0.0346598,0.00120407,4.73872e-10,38,7,165.899,-127.671,12.5086,-4.81629,0.572
0.040359,0.0703803,0.0222378,0.0243177,0.00184244,-0.034335,0.00122047,3.15914e-10,38,7,165.117,-126.621,12.4795,-4.88188,0.576
0.0403664,0.0702473,0.0222427,0.0243177,0.00186735,-0.0339745,0.00123697,2.1061e-10,38,7,164.345,-125.447,12.45,-4.94788,0.58
0.040374,0.0701115,0.0222477,0.0243177,0.00189241,-0.0339645,0.00125357,1.40406e-10,38,7,163.557,-125.499,12.4201,-5.01429,0.584
0.0403816,0.0699837,0.0222528,0.0243177,0.00191764,-0.0332956,0.00127028,9.36043e-11,39,7,162.812,-123.246,12.3898,-5.08112,0.588
0.0403893,0.0698531,0.0222579,0.0243177,0.00194301,-0.0330801,0.00128709,6.24028e-11,39,7,162.051,-122.581,12.3591,-5.14837,0.592
0.0403971,0.0697232,0.0222631,0.0243177,0.00196855,-0.0328788,0.00130401,4.16019e-11,39,7,161.293,-121.966,12.328,-5.21602,0.596
0.0404051,0.0695943,0.0222683,0.0243177,0.00199424,-0.0326582,0.00132102,2.77346e-11,39,7,160.541,-121.284,12.2965,-5.28409,0.6
0.0404131,0.0694682,0.0222736,0.0243177,0.00202008,-0.0322808,0.00133814,1.84897e-11,39,6,159.803,-120.053,12.2646,-5.35258,0.604
0.0404212,0.0693446,0.022279,0.0243177,0.00204608,-0.0318277,0.00135537,1.23265e-11,40,6,159.078,-118.558,12.2323,-5.42147,0.608
0.0404295,0.0692236,0.0222845,0.0243177,0.00207224,-0.0312953,0.00137269,8.21766e-12,41,6,158.368,-116.786,12.1996,-5.49077,0.612
0.0404378,0.069101,0.02229,0.0243177,0.00209855,-0.0310843,0.00139012,5.47844e-12,41,6,157.648,-116.14,12.1664,-5.56049,0.616
0.0404462,0.0689825,0.0222956,0.0243177,0.00212501,-0.0305982,0.00140765,3.65229e-12,42,6,156.949,-114.531,12.1328,-5.63061,0.62
0.0404548,0.0688657,0.0223013,0.0243177,0.00215163,-0.0301301,0.00142529,2.43486e-12,43,6,156.26,-112.986,12.0988,-5.70114,0.624
0.0404635,0.0687517,0.022307,0.0243181,0.00217841,-0.0295877,0.00144302,2.87909e-05,44,6,155.585,-111.182,12.0665,-5.65692,0.628
0.0404722,0.0686377,0.0223128,0.0243177,0.00220534,-0.0292262,0.00146086,-9.59697e-06,44,6,154.91,-110.01,12.0296,-5.88182,0.632
0.0404811,0.0685257,0.0223187,0.0243177,0.00223242,-0.0288124,0.0014788,-6.39798e-06,45,6,154.246,-108.657,11.9943,-5.94079,0.636
0.0404901,0.0684138,0.0223246,0.0243177,0.00225965,-0.0285365,0.00149684,-4.26532e-06,45,5,153.58,-107.787,11.9586,-6.00442,0.64
0.0404992,0.0683036,0.0223307,0.0243177,0.00228704,-0.0282086,0.00151498,-2.84355e-06,46,5,152.924,-106.735,11.9224,-6.0713,0.644
0.0405084,0.0681955,0.0223368,0.0243177,0.00231458,-0.0278173,0.00153323,-1.8957e-06,46,5,152.279,-105.462,11.8859,-6.14049,0.648
0.0405177,0.0680894,0.0223429,0.0243177,0.00234228,-0.0273837,0.00155157,-1.2638e-06,47,5,151.644,-104.041,11.8488,-6.21134,0.652
0.0405271,0.0679857,0.0223492,0.0243177,0.00237012,-0.0268931,0.00157002,-8.42533e-07,48,5,151.022,-102.421,11.8114,-6.28345,0.656
0.0405367,0.0678849,0.0223555,0.0243177,0.00239812,-0.0263357,0.00158857,-5.61688e-07,49,5,150.415,-100.568,11.7735,-6.35651,0.66
0.0405463,0.0677843,0.0223619,0.0243177,0.00242628,-0.0259353,0.00160722,-3.74459e-07,50,5,149.809,-99.2654,11.7351,-6.43036,0.664
0.0405561,0.0676862,0.0223683,0.0243177,0.00245458,-0.0254668,0.00162596,-2.49639e-07,51,5,149.216,-97.7248,11.6963,-6.50486,0.668
0.0405659,0.0675926,0.0223749,0.0243177,0.00248304,-0.0247802,0.00164481,-1.66426e-07,53,5,148.646,-95.4214,11.6571,-6.57992,0.672
0.0405759,0.0674996,0.0223815,0.0243177,0.00251165,-0.0242649,0.00166377,-1.10951e-07,54,4,148.08,-93.7179,11.6174,-6.65551,0.676
0.040586,0.0674115,0.0223882,0.0243177,0.00254041,-0.0235183,0.00168282,-7.39672e-08,56,4,147.54,-91.2054,11.5772,-6.73156,0.68
0.0405962,0.0673262,0.022395,0.0243177,0.00256932,-0.0227902,0.00170197,-4.93115e-08,58,4,147.015,-88.7584,11.5366,-6.80807,0.684
0.0406066,0.0672464,0.0224018,0.0243177,0.00259838,-0.0218442,0.00172122,-3.28743e-08,60,4,146.519,-85.549,11.4955,-6.88501,0.688
0.040617,0.0671711,0.0224087,0.0243177,0.00262759,-0.0208392,0.00174057,-2.19162e-08,63,4,146.047,-82.1338,11.454,-6.96237,0.692
0.0406276,0.0670982,0.0224157,0.0243177,0.00265695,-0.0199677,0.00176002,-1.46108e-08,66,4,145.588,-79.1863,11.412,-7.04014,0.696
0.0406383,0.0670263,0.0224228,0.0243177,0.00268647,-0.0193003,0.00177957,-9.74054e-09,68,4,145.134,-76.9537,11.3695,-7.11832,0.7
0.0406491,0.0669631,0.02243,0.0243177,0.00271613,-0.0181356,0.00179922,-6.49369e-09,71,4,144.727,-72.9811,11.3266,-7.19691,0.704
0.04066,0.0669023,0.0224372,0.0243181,0.00274595,-0.0171576,0.00181897,2.87866e-05,74,4,144.332,-69.6624,11.2852,-7.16074,0.708
0.0406711,0.0668463,0.0224445,0.0243181,0.00277591,-0.0161025,0.00183882,1.91911e-05,77,3,143.964,-66.0746,11.2413,-7.27851,0.712
0.0406822,0.0667955,0.0224519,0.0243181,0.00280602,-0.0149673,0.00185877,1.2794e-05,81,3,143.623,-62.2066,11.197,-7.38389,0.716
0.0406935,0.0667489,0.0224594,0.0243181,0.00283629,-0.013865,0.00187881,8.52936e-06,84,3,143.305,-58.4544,11.1521,-7.48114,0.72
0.0407049,0.0667074,0.022467,0.0243177,0.0028667,-0.0126982,0.00189896,-2.31047e-05,88,3,143.014,-54.4772,11.1047,-7.68825,0.724
0.0407164,0.0666705,0.0224746,0.0243181,0.00289726,-0.0115461,0.0019192,1.33878e-05,92,3,142.747,-50.5518,11.061,-7.62326,0.728
0.0407281,0.066639,0.0224823,0.0243181,0.00292797,-0.0103174,0.00193955,8.9252e-06,96,3,142.51,-46.3587,11.0146,-7.72248,0.732
0.0407399,0.0666134,0.0224901,0.0243181,0.00295883,-0.00900878,0.00195999,5.95013e-06,100,3,142.305,-41.8866,10.9679,-7.81615,0.736
0.0407518,0.0665927,0.022498,0.0243181,0.00298983,-0.00773331,0.00198053,3.96676e-06,104,3,142.125,-37.531,10.9206,-7.90624,0.74
0.0407638,0.0665754,0.022506,0.0243181,0.00302099,-0.00659509,0.00200116,2.6445e-06,108,2,141.964,-33.6563,10.8728,-7.99408,0.744
0.0407759,0.0665627,0.022514,0.0243181,0.00305229,-0.00546199,0.0020219,1.763e-06,112,2,141.827,-29.8,10.8245,-8.08055,0.748
0.0407882,0.0665526,0.0225221,0.0243181,0.00308374,-0.00447626,0.00204273,1.17534e-06,115,2,141.704,-26.46,10.7757,-8.16623,0.752
0.0408006,0.0665461,0.0225303,0.0243181,0.00311534,-0.0035312,0.00206366,7.83557e-07,118,2,141.6,-23.2629,10.7265,-8.25152,0.756
0.0408131,0.0665416,0.0225386,0.0243181,0.00314708,-0.00272842,0.00208469,5.22371e-07,120,2,141.506,-20.5643,10.6767,-8.33668,0.76
0.0408258,0.0665402,0.022547,0.0243181,0.00317898,-0.00193411,0.00210582,3.48247e-07,123,2,141.429,-17.8958,10.6264,-8.42188,0.764
0.0408386,0.0665402,0.0225555,0.0243181,0.00321101,-0.00128941,0.00212704,2.32165e-07,125,2,141.359,-15.7515,10.5756,-8.50724,0.768
0.0408515,0.0665395,0.022564,0.0243181,0.0032432,-0.000917186,0.00214836,1.54777e-07,126,1,141.284,-14.5614,10.5243,-8.59283,0.772
0.0408645,0.0665402,0.0225727,0.0243181,0.00327553,-0.000553875,0.00216978,1.03184e-07,127,1,141.216,-13.4029,10.4725,-8.6787,0.776
0.0408777,0.0665402,0.0225814,0.0243181,0.00330801,-0.00036925,0.00219129,6.87896e-08,128,1,141.144,-12.8704,10.4201,-8.7649,0.78
0.040891,0.0665395,0.0225902,0.0243181,0.00334064,-0.000303749,0.0022129,4.58597e-08,128,1,141.067,-12.7553,10.3673,-8.85144,0.784
0.0409044,0.0665402,0.0225991,0.0243181,0.00337341,-0.000144917,0.00223461,3.05732e-08,128,1,140.997,-12.3141,10.3139,-8.93833,0.788
0.040918,0.0665402,0.0226081,0.0243181,0.00340632,-9.66115e-05,0.00225642,2.03821e-08,128,1,140.922,-12.2603,10.26,-9.02558,0.792
0.0409317,0.0665399,0.0226171,0.0243181,0.00343938,-9.31986e-05,0.00227832,1.35881e-08,128,1,140.845,-12.364,10.2056,-9.11321,0.796
0.0409455,0.0665395,0.0226263,0.0243181,0.00347259,-9.09233e-05,0.00230031,9.05872e-09,128,0,140.767,-12.4723,10.1507,-9.20122,0.8
0.0409594,0.0665399,0.0226355,0.0243181,0.00350594,-3.18246e-05,0.00232241,6.03914e-09,128,0,140.692,-12.3822,10.0952,-9.2896,0.804
0.0409735,0.0665399,0.0226449,0.0243181,0.00353944,-2.12164e-05,0.00234459,4.0261e-09,128,0,140.615,-12.4623,10.0392,-9.37836,0.808
0.0409877,0.0665399,0.0226543,0.0243181,0.00357308,-1.41443e-05,0.00236688,2.68406e-09,127,0,140.537,-12.5553,9.98266,-9.46751,0.812
0.0410021,0.0665399,0.0226638,0.0243181,0.00360686,-9.42952e-06,0.00238926,1.78938e-09,127,0,140.458,-12.657,9.92559,-9.55703,0.816
0.0410166,0.0665399,0.0226734,0.0243181,0.00364079,-6.28634e-06,0.00241173,1.19292e-09,127,0,140.378,-12.7648,9.86797,-9.64693,0.82
0.0410312,0.0665399,0.0226831,0.0243181,0.00367487,-4.1909e-06,0.00243431,7.95278e-10,127,0,140.297,-12.8767,9.80982,-9.73722,0.824
0.041046,0.0665399,0.0226929,0.0243181,0.00370908,-2.79393e-06,0.00245697,5.30185e-10,127,0,140.216,-12.9916,9.75113,-9.82788,0.828
0.0410609,0.0665399,0.0227028,0.0243181,0.00374344,-1.86262e-06,0.00247973,3.53457e-10,127,0,140.134,-13.1086,9.69189,-9.91893,0.832
0.041076,0.0665399,0.0227127,0.0243181,0.00377795,-1.24175e-06,0.00250259,2.35638e-10,126,0,140.051,-13.2272,9.6321,-10.0104,0.836
0.0410911,0.0665395,0.0227228,0.0243181,0.00381259,-2.96188e-05,0.00252554,1.57092e-10,126,0,139.966,-13.4477,9.57176,-10.1022,0.84
0.0411065,0.0665399,0.0227329,0.0243181,0.00384738,9.04509e-06,0.00254859,1.04728e-10,126,0,139.884,-13.4342,9.51087,-10.1943,0.844
0.0411219,0.0665399,0.0227432,0.0243181,0.00388232,6.03006e-06,0.00257173,6.98187e-11,126,0,139.799,-13.567,9.44943,-10.2869,0.848
0.0411375,0.0665399,0.0227535,0.0243181,0.00391739,4.02004e-06,0.00259496,4.65458e-11,126,0,139.713,-13.6968,9.38743,-10.3798,0.852
0.0411533,0.0665399,0.0227639,0.0243181,0.00395261,2.68003e-06,0.00261829,3.10305e-11,125,-1,139.626,-13.8248,9.32487,-10.4732,0.856
0.0411691,0.0665399,0.0227745,0.0243181,0.00398797,1.78668e-06,0.00264171,2.0687e-11,125,-1,139.539,-13.9516,9.26175,-10.5668,0.86
0.0411852,0.0665399,0.0227851,0.0243181,0.00402347,1.19112e-06,0.00266523,1.37913e-11,125,-1,139.451,-14.078,9.19807,-10.6609,0.864
0.0412013,0.0665399,0.0227958,0.0243181,0.00405911,7.94082e-07,0.00268884,9.19423e-12,125,-1,139.362,-14.2041,9.13382,-10.7554,0.868
0.0412176,0.0665399,0.0228066,0.0243181,0.0040949,5.29388e-07,0.00271254,6.12948e-12,124,-1,139.272,-14.3303,9.069,-10.8502,0.872
0.0412341,0.0665399,0.0228175,0.0243181,0.00413082,3.52925e-07,0.00273634,4.08632e-12,124,-1,139.182,-14.4566,9.00362,-10.9454,0.876
0.0412507,0.0665399,0.0228285,0.0243181,0.00416689,2.35283e-07,0.00276023,2.72422e-12,124,-2,139.091,-14.5833,8.93766,-11.0409,0.88
0.0412674,0.0665395,0.0228396,0.0243181,0.0042031,-2.86341e-05,0.00278422,1.81614e-12,124,-2,138.997,-14.8111,8.87112,-11.1369,0.884
0.0412843,0.0665399,0.0228507,0.0243181,0.00423945,9.70155e-06,0.0028083,1.21076e-12,124,-2,138.906,-14.8041,8.80401,-11.2332,0.888
0.0413013,0.0665399,0.022862,0.0243181,0.00427594,6.4677e-06,0.00283247,8.07175e-13,123,-2,138.812,-14.9431,8.73632,-11.3299,0.892
0.0413185,0.0665395,0.0228734,0.0243181,0.00431256,-2.44791e-05,0.00285673,5.38117e-13,123,-2,138.716,-15.1797,8.66805,-11.4269,0.896
0.0413358,0.0665399,0.0228849,0.0243181,0.00434933,1.24715e-05,0.00288109,3.58744e-13,123,-2,138.622,-15.179,8.5992,-11.5243,0.9
0.0413533,0.0665395,0.0228965,0.0243181,0.00438624,-2.04766e-05,0.00290554,2.39163e-13,123,-3,138.524,-15.4235,8.52976,-11.6221,0.904
0.0413709,0.0665395,0.0229081,0.0243181,0.00442329,-1.36511e-05,0.00293008,1.59442e-13,122,-3,138.427,-15.5293,8.45973,-11.7203,0.908
0.0413887,0.0665395,0.0229199,0.0243184,0.00446048,-9.10071e-06,0.00295471,2.87909e-05,122,-3,138.33,-15.6435,8.39119,-11.7037,0.912
0.0414066,0.0665395,0.0229318,0.0243188,0.00449781,-6.06714e-06,0.00297944,4.79849e-05,122,-3,138.231,-15.7636,8.32205,-11.7258,0.916
0.0414247,0.0665395,0.0229437,0.0243188,0.00453527,-4.04476e-06,0.00300426,3.19899e-05,122,-3,138.132,-15.8876,8.25025,-11.8891,0.92
0.0414429,0.0665399,0.0229558,0.0243188,0.00457288,2.60944e-05,0.00302917,2.13266e-05,122,-3,138.033,-15.9137,8.17785,-12.0314,0.924
0.0414613,0.0665395,0.022968,0.0243188,0.00461062,-1.13946e-05,0.00305417,1.42177e-05,121,-4,137.93,-16.1771,8.10485,-12.1598,0.928
0.0414798,0.0665395,0.0229802,0.0243191,0.0046485,-7.59643e-06,0.00307926,3.82694e-05,121,-4,137.829,-16.2963,8.03332,-12.164,0.932
0.0414984,0.0665395,0.0229926,0.0243191,0.00468652,-5.06429e-06,0.00310445,2.55129e-05,121,-4,137.726,-16.4206,7.95912,-12.3157,0.936
0.0415173,0.0665395,0.0230051,0.0243191,0.00472468,-3.37619e-06,0.00312972,1.70086e-05,121,-4,137.622,-16.5482,7.88431,-12.4509,0.94
0.0415362,0.0665395,0.0230176,0.0243191,0.00476298,-2.25079e-06,0.00315509,1.13391e-05,120,-4,137.518,-16.6783,7.80889,-12.575,0.944
0.0415554,0.0665395,0.0230303,0.0243191,0.00480141,-1.50053e-06,0.00318055,7.55939e-06,120,-4,137.413,-16.8102,7.73286,-12.692,0.948
0.0415747,0.0665395,0.0230431,0.0243191,0.00483998,-1.00035e-06,0.0032061,5.03959e-06,120,-5,137.307,-16.9434,7.65622,-12.8042,0.952
0.0415941,0.0665395,0.023056,0.0243191,0.00487869,-6.66902e-07,0.00323174,3.35973e-06,120,-5,137.2,-17.0777,7.57897,-12.9135,0.956
0.0416137,0.0665395,0.0230689,0.0243191,0.00491753,-4.44601e-07,0.00325747,2.23982e-06,119,-5,137.092,-17.2129,7.5011,-13.0209,0.96
0.0416334,0.0665395,0.023082,0.0243191,0.00495651,-2.96401e-07,0.0032833,1.49321e-06,119,-5,136.983,-17.3488,7.42261,-13.1272,0.964
0.0416533,0.0665395,0.0230952,0.0243195,0.00499563,-1.97601e-07,0.00330921,2.97864e-05,119,-5,136.874,-17.4854,7.34557,-13.1177,0.968
0.0416734,0.0665395,0.0231085,0.0243195,0.00503489,-1.31734e-07,0.00333521,1.98576e-05,119,-5,136.764,-17.6226,7.26584,-13.2614,0.972
0.0416936,0.0665395,0.0231219,0.0243195,0.00507428,-8.78225e-08,0.00336131,1.32384e-05,118,-6,136.652,-17.7603,7.18548,-13.3923,0.976
0.041714,0.0665395,0.0231354,0.0243195,0.0051138,-5.85483e-08,0.00338749,8.8256e-06,118,-6,136.54,-17.8985,7.10449,-13.5147,0.98
0.0417345,0.0665395,0.023149,0.0243198,0.00515347,-3.90322e-08,0.00341376,3.46747e-05,118,-6,136.427,-18.0373,7.02495,-13.5163,0.984
0.0417552,0.0665395,0.0231627,0.0243198,0.00519326,-2.60215e-08,0.00344012,2.31164e-05,118,-6,136.314,-18.1765,6.94271,-13.668,0.988
0.0417761,0.0665395,0.0231765,0.0243198,0.0052332,-1.73477e-08,0.00346658,1.5411e-05,117,-6,136.199,-18.3163,6.85983,-13.8047,0.992
0.0417971,0.0665395,0.0231904,0.0243198,0.00527327,-1.15651e-08,0.00349312,1.0274e-05,117,-7,136.083,-18.4565,6.77631,-13.9314,0.996
0.0418183,0.0665395,0.0232044,0.0243198,0.00531347,-7.71007e-09,0.00351975,6.84932e-06,117,-7,135.967,-18.5972,6.69216,-14.0516,1
0.0418396,0.0665395,0.0232186,0.0243198,0.00535381,-5.14004e-09,0.00354647,4.56621e-06,117,-7,135.85,-18.7383,6.60736,-14.1676,1.004
0.0418611,0.0665395,0.0232328,0.0243198,0.00539428,-3.4267e-09,0.00357328,3.04414e-06,116,-7,135.731,-18.88,6.52192,-14.2809,1.008
0.0418827,0.0665395,0.0232472,0.0243198,0.00543489,-2.28446e-09,0.00360018,2.02943e-06,116,-7,135.612,-19.0221,6.43584,-14.3926,1.012
0.0419046,0.0665395,0.0232616,0.0243198,0.00547563,-1.52298e-09,0.00362717,1.35295e-06,116,-8,135.492,-19.1647,6.34912,-14.5033,1.016
0.0419266,0.0665395,0.0232762,0.0243202,0.0055165,-1.01532e-09,0.00365424,2.96929e-05,116,-8,135.371,-19.3078,6.26381,-14.4982,1.02
0.0419487,0.0665395,0.0232909,0.0243202,0.00555751,-6.76878e-10,0.00368141,1.97953e-05,115,-8,135.249,-19.4513,6.17578,-14.6464,1.024
0.041971,0.0665395,0.0233056,0.0243202,0.00559865,-4.51252e-10,0.00370866,1.31968e-05,115,-8,135.127,-19.5953,6.0871,-14.7819,1.028
0.0419935,0.0665395,0.0233205,0.0243205,0.00563993,-3.00835e-10,0.003736,3.75888e-05,115,-8,135.003,-19.7397,5.99984,-14.7937,1.032
0.0420161,0.0665395,0.0233355,0.0243205,0.00568133,-2.00557e-10,0.00376343,2.50592e-05,114,-9,134.879,-19.8847,5.90985,-14.9535,1.036
0.0420389,0.0665395,0.0233506,0.0243205,0.00572288,-1.33704e-10,0.00379095,1.67061e-05,114,-9,134.753,-20.0301,5.81919,-15.097,1.04
0.0420619,0.0665395,0.0233659,0.0243205,0.00576455,-8.91362e-11,0.00381855,1.11374e-05,114,-9,134.627,-20.1759,5.72788,-15.2297,1.044
0.0420851,0.0665395,0.0233812,0.0243208,0.00580636,-5.94242e-11,0.00384625,3.62159e-05,114,-9,134.5,-20.3222,5.63798,-15.2401,1.048
0.0421084,0.0665395,0.0233966,0.0243212,0.00584829,-3.96161e-11,0.00387403,5.29348e-05,113,-9,134.371,-20.469,5.54741,-15.2844,1.052
0.0421318,0.0665395,0.0234122,0.0243215,0.00589036,-2.64107e-11,0.0039019,6.40808e-05,113,-9,134.242,-20.6163,5.45617,-15.3513,1.056
0.0421555,0.0665395,0.0234278,0.0243215,0.00593257,-1.76072e-11,0.00392985,4.27205e-05,113,-10,134.112,-20.764,5.36219,-15.5485,1.06
0.0421793,0.0665395,0.0234436,0.0243215,0.0059749,-1.17381e-11,0.0039579,2.84804e-05,113,-10,133.981,-20.9122,5.26753,-15.7177,1.064
0.0422033,0.0665399,0.0234595,0.0243215,0.00601737,2.87909e-05,0.00398603,1.89869e-05,112,-10,133.851,-20.96,5.17221,-15.8682,1.068
0.0422274,0.0665395,0.0234755,0.0243215,0.00605996,-9.59698e-06,0.00401424,1.26579e-05,112,-10,133.716,-21.2435,5.0762,-16.0063,1.072
0.0422518,0.0665395,0.0234916,0.0243215,0.00610269,-6.39799e-06,0.00404255,8.43863e-06,112,-11,133.583,-21.3818,4.97952,-16.1364,1.076
0.0422763,0.0665399,0.0235078,0.0243215,0.00614555,2.45256e-05,0.00407094,5.62575e-06,112,-11,133.45,-21.4236,4.88216,-16.2612,1.08
0.0423009,0.0665395,0.0235242,0.0243215,0.00618854,-1.24405e-05,0.00409941,3.7505e-06,111,-11,133.312,-21.7034,4.78412,-16.3827,1.084
0.0423258,0.0665395,0.0235406,0.0243219,0.00623166,-8.29368e-06,0.00412798,3.12913e-05,111,-11,133.176,-21.8398,4.68746,-16.3867,1.088
0.0423508,0.0665395,0.0235572,0.0243219,0.00627491,-5.52912e-06,0.00415663,2.08608e-05,111,-11,133.038,-21.9815,4.58805,-16.5431,1.092
0.042376,0.0665395,0.0235739,0.0243219,0.00631829,-3.68608e-06,0.00418536,1.39072e-05,110,-12,132.899,-22.1269,4.48794,-16.6858,1.096
0.0424013,0.0665395,0.0235907,0.0243222,0.0063618,-2.45739e-06,0.00421418,3.80624e-05,110,-12,132.76,-22.2749,4.38922,-16.7045,1.1
0.0424269,0.0665395,0.0236076,0.0243226,0.00640544,-1.63826e-06,0.00424309,5.41659e-05,110,-12,132.62,-22.4248,4.28981,-16.7557,1.104
0.0424526,0.0665395,0.0236246,0.0243229,0.00644921,-1.09217e-06,0.00427209,6.49015e-05,109,-12,132.478,-22.576,4.1897,-16.8287,1.108
0.0424785,0.0665395,0.0236418,0.0243229,0.00649311,-7.28115e-07,0.00430117,4.32677e-05,109,-12,132.336,-22.7284,4.08682,-17.0316,1.112
0.0425045,0.0665395,0.023659,0.0243233,0.00653713,-4.8541e-07,0.00433033,5.7636e-05,109,-13,132.192,-22.8817,3.98531,-17.0908,1.116
0.0425308,0.0665395,0.0236764,0.0243233,0.00658129,-3.23607e-07,0.00435958,3.8424e-05,109,-13,132.048,-23.0356,3.88104,-17.2846,1.12
0.0425572,0.0665395,0.0236939,0.0243236,0.00662557,-2.15738e-07,0.00438892,5.44069e-05,108,-13,131.903,-23.1903,3.77813,-17.338,1.124
0.0425838,0.0665395,0.0237115,0.0243243,0.00666999,-1.43825e-07,0.00441834,9.38531e-05,108,-13,131.757,-23.3455,3.67659,-17.2979,1.128
0.0426105,0.0665395,0.0237293,0.024325,0.00671453,-9.58834e-08,0.00444784,0.000120151,108,-13,131.609,-23.5012,3.57434,-17.3108,1.132
0.0426375,0.0665395,0.0237471,0.0243257,0.0067592,-6.39223e-08,0.00447743,0.000137682,107,-13,131.461,-23.6574,3.47138,-17.359,1.136
0.0426646,0.0665395,0.0237651,0.024326,0.006804,-4.26149e-08,0.00450711,0.000120579,107,-14,131.312,-23.8141,3.36564,-17.5461,1.14
0.0426919,0.0665395,0.0237832,0.024326,0.00684892,-2.84099e-08,0.00453686,8.03861e-05,107,-14,131.162,-23.9713,3.25711,-17.8259,1.144
0.0427194,0.0665395,0.0238014,0.024326,0.00689397,-1.89399e-08,0.00456671,5.35907e-05,106,-14,131.011,-24.129,3.14787,-18.0525,1.148
0.0427471,0.0665395,0.0238197,0.024326,0.00693915,-1.26266e-08,0.00459664,3.57271e-05,106,-15,130.858,-24.2871,3.03791,-18.2436,1.152
0.0427749,0.0665395,0.0238382,0.0243264,0.00698446,-8.41775e-09,0.00462665,5.2609e-05,106,-15,130.705,-24.4456,2.9293,-18.2962,1.156
0.0428029,0.0665395,0.0238567,0.0243267,0.00702989,-5.61183e-09,0.00465674,6.38636e-05,105,-15,130.551,-24.6046,2.81998,-18.3715,1.16
0.0428311,0.0665395,0.0238754,0.0243271,0.00707545,-3.74122e-09,0.00468692,7.13667e-05,105,-15,130.396,-24.7641,2.70992,-18.4622,1.164
0.0428595,0.0665395,0.0238942,0.0243281,0.00712114,-2.49415e-09,0.00471719,0.000133951,105,-15,130.24,-24.924,2.60329,-18.333,1.168
0.0428881,0.0665395,0.0239131,0.0243288,0.00716695,-1.66277e-09,0.00474754,0.000146882,104,-15,130.083,-25.0843,2.49386,-18.4026,1.172
0.0429169,0.0665395,0.0239322,0.0243302,0.00721289,-1.10851e-09,0.00477797,0.000213085,104,-15,129.924,-25.2451,2.38785,-18.2595,1.176
0.0429458,0.0665395,0.0239514,0.0243316,0.00725896,-7.39007e-10,0.00480848,0.00025722,104,-15,129.765,-25.4063,2.2811,-18.205,1.18
0.0429749,0.0665395,0.0239707,0.0243329,0.00730515,-4.92671e-10,0.00483908,0.000286644,104,-16,129.605,-25.568,2.17363,-18.2097,1.184
0.0430043,0.0665395,0.0239901,0.0243343,0.00735146,-3.28447e-10,0.00486976,0.00030626,103,-16,129.444,-25.7301,2.06541,-18.254,1.188
0.0430338,0.0665395,0.0240096,0.024336,0.0073979,-2.18965e-10,0.00490052,0.000348128,103,-16,129.282,-25.8927,1.95853,-18.2096,1.192
0.0430634,0.0665395,0.0240293,0.0243381,0.00744447,-1.45977e-10,0.00493137,0.000404831,103,-16,129.118,-26.0556,1.85299,-18.1062,1.196
0.0430933,0.0665395,0.0240491,0.0243402,0.00749116,-9.73178e-11,0.0049623,0.000442633,102,-16,128.954,-26.2191,1.7467,-18.0787,1.2
0.0431234,0.0665395,0.024069,0.0243426,0.00753798,-6.48785e-11,0.00499331,0.000496625,102,-16,128.789,-26.3829,1.64175,-17.9867,1.204
0.0431536,0.0665395,0.024089,0.0243454,0.00758492,-4.32523e-11,0.0050244,0.000561411,102,-16,128.622,-26.5472,1.53812,-17.852,1.208
0.0431841,0.0665395,0.0241092,0.0243492,0.00763198,-2.88349e-11,0.00505558,0.000690974,101,-16,128.455,-26.7119,1.43996,-17.4584,1.212
0.0432147,0.0665395,0.0241295,0.024353,0.00767917,-1.92233e-11,0.00508684,0.000777349,101,-15,128.287,-26.8771,1.34105,-17.238,1.216
0.0432455,0.0665395,0.0241499,0.0243568,0.00772648,-1.28155e-11,0.00511818,0.000834933,101,-15,128.117,-27.0427,1.2414,-17.133,1.22
0.0432765,0.0665395,0.0241704,0.0243616,0.00777392,-8.54367e-12,0.0051496,0.000959695,100,-15,127.947,-27.2087,1.1472,-16.7596,1.224
0.0433077,0.0665395,0.0241911,0.0243658,0.00782148,-5.69578e-12,0.00518111,0.000985288,100,-15,127.775,-27.3752,1.04811,-16.7833,1.228
0.0433391,0.0665395,0.0242119,0.0243696,0.00786916,-3.79719e-12,0.00521269,0.000973559,100,-16,127.602,-27.5421,0.946188,-16.9565,1.232
0.0433706,0.0665395,0.0242328,0.0243716,0.00791696,-2.53146e-12,0.00524436,0.000821785,99,-16,127.429,-27.7094,0.833141,-17.6903,1.236
0.0434024,0.0665395,0.0242538,0.0243727,0.00796489,-1.68764e-12,0.00527611,0.000634229,99,-17,127.254,-27.8771,0.713114,-18.5675,1.24
0.0434344,0.0665395,0.024275,0.0243727,0.00801294,-1.12509e-12,0.00530794,0.000422819,99,-18,127.078,-28.0453,0.586106,-19.5405,1.244
0.0434665,0.0665395,0.0242963,0.0243727,0.00806112,-7.50062e-13,0.00533985,0.00028188,98,-19,126.902,-28.2139,0.458333,-20.2319,1.248
0.0434988,0.0665395,0.0243177,0.0243727,0.00810941,-5.00041e-13,0.00537184,0.00018792,98,-20,126.724,-28.3829,0.329792,-20.7357,1.252
0.0435314,0.0665395,0.0243393,0.0243727,0.00815783,-3.33361e-13,0.00540391,0.00012528,97,-20,126.545,-28.5524,0.200484,-21.1145,1.256
0.0435641,0.0665395,0.0243609,0.0243727,0.00820637,-2.22241e-13,0.00543607,8.35199e-05,97,-21,126.365,-28.7223,0.070404,-21.4102,1.26
0.043597,0.0665395,0.0243827,0.0243727,0.00825503,-1.4816e-13,0.0054683,5.56799e-05,97,-21,126.184,-28.8926,-0.0604483,-21.6505,1.264
0.0436301,0.0665395,0.0244047,0.024373,0.00830382,-9.87736e-14,0.00550062,6.59109e-05,96,-21,126.002,-29.0634,-0.190002,-21.7388,1.268
0.0436635,0.0665395,0.0244267,0.0243734,0.00835272,-6.58491e-14,0.00553301,7.27315e-05,96,-22,125.818,-29.2345,-0.320333,-21.8411,1.272
0.043697,0.0665395,0.0244489,0.0243737,0.00840175,-4.38994e-14,0.00556549,7.72786e-05,96,-22,125.634,-29.4061,-0.451442,-21.9528,1.276
0.0437307,0.0665395,0.0244713,0.0243741,0.00845089,-2.92662e-14,0.00559804,8.031e-05,95,-22,125.449,-29.5781,-0.583331,-22.0709,1.28
0.0437646,0.0665395,0.0244937,0.0243744,0.00850016,-1.95108e-14,0.00563068,8.23309e-05,95,-22,125.262,-29.7506,-0.716002,-22.1934,1.284
0.0437987,0.0665395,0.0245163,0.0243747,0.00854955,-1.30072e-14,0.00566339,8.36782e-05,95,-23,125.075,-29.9234,-0.849458,-22.3189,1.288
0.043833,0.0665395,0.024539,0.0243751,0.00859905,-8.67148e-15,0.00569619,8.45764e-05,94,-23,124.886,-30.0967,-0.9837,-22.4464,1.292
0.0438675,0.0665395,0.0245619,0.0243754,0.00864868,-5.78099e-15,0.00572906,8.51752e-05,94,-23,124.696,-30.2704,-1.11873,-22.5756,1.296
0.0439022,0.0665395,0.0245849,0.0243754,0.00869843,-3.85399e-15,0.00576202,5.67835e-05,94,-24,124.505,-30.4445,-1.25662,-22.8209,1.3
0.0439371,0.0665395,0.024608,0.0243758,0.0087483,-2.56933e-15,0.00579505,6.66466e-05,93,-24,124.314,-30.619,-1.39323,-22.9136,1.304
0.0439721,0.0665395,0.0246312,0.0243761,0.00879828,-1.71288e-15,0.00582816,7.3222e-05,93,-24,124.121,-30.794,-1.53064,-23.0198,1.308
0.0440074,0.0665395,0.0246546,0.0243765,0.00884839,-1.14192e-15,0.00586135,7.76056e-05,92,-24,123.926,-30.9694,-1.66884,-23.135,1.312
0.0440429,0.0665395,0.0246781,0.0243775,0.00889862,-7.61282e-16,0.00589462,0.00013811,92,-24,123.731,-31.1452,-1.80369,-23.0261,1.316
0.0440786,0.0665395,0.0247018,0.0243775,0.00894896,-5.07521e-16,0.00592797,9.20732e-05,92,-25,123.535,-31.3214,-1.94556,-23.3436,1.32
0.0441145,0.0665395,0.0247255,0.0243779,0.00899942,-3.38348e-16,0.0059614,9.01731e-05,91,-25,123.337,-31.498,-2.08616,-23.4849,1.324
0.0441506,0.0665395,0.0247495,0.0243782,0.00905,-2.25565e-16,0.00599491,8.89063e-05,91,-25,123.139,-31.675,-2.22757,-23.624,1.328
0.0441869,0.0665395,0.0247735,0.0243785,0.0091007,-1.50377e-16,0.00602849,8.80618e-05,91,-26,122.939,-31.8525,-2.36977,-23.7617,1.332
0.0442234,0.0665395,0.0247977,0.0243789,0.00915152,-1.00251e-16,0.00606215,8.74988e-05,90,-26,122.738,-32.0303,-2.51279,-23.8986,1.336
0.0442601,0.0665395,0.024822,0.0243796,0.00920246,-6.68341e-17,0.0060959,0.000115914,90,-26,122.537,-32.2086,-2.65454,-23.9199,1.34
0.0442971,0.0665395,0.0248465,0.0243803,0.00925351,-4.45561e-17,0.00612971,0.000134858,89,-26,122.334,-32.3873,-2.7971,-23.9794,1.344
0.0443342,0.0665395,0.024871,0.0243806,0.00930468,-2.9704e-17,0.00616361,0.000118696,89,-27,122.129,-32.5664,-2.94255,-24.1797,1.348
0.0443715,0.0665395,0.0248958,0.024381,0.00935597,-1.98027e-17,0.00619759,0.000107922,89,-27,121.924,-32.7459,-3.08881,-24.3587,1.352
0.044409,0.0665395,0.0249206,0.0243817,0.00940738,-1.32018e-17,0.00623164,0.00012953,88,-27,121.718,-32.9258,-3.23381,-24.4084,1.356
0.0444467,0.0665395,0.0249456,0.024382,0.0094589,-8.8012e-18,0.00626577,0.000115144,88,-27,121.51,-33.1061,-3.38171,-24.6025,1.36
0.0444847,0.0665395,0.0249707,0.0243827,0.00951054,-5.86747e-18,0.00629997,0.000134345,88,-28,121.302,-33.2869,-3.52835,-24.6625,1.364
0.0445228,0.0665395,0.024996,0.024383,0.00956229,-3.91164e-18,0.00633426,0.000118354,87,-28,121.092,-33.468,-3.67789,-24.8636,1.368
0.0445612,0.0665395,0.0250214,0.0243834,0.00961417,-2.60776e-18,0.00636862,0.000107694,87,-28,120.881,-33.6496,-3.82825,-25.0437,1.372
0.0445997,0.0665395,0.025047,0.0243834,0.00966615,-1.73851e-18,0.00640306,7.17957e-05,86,-29,120.669,-33.8315,-3.98151,-25.325,1.376
0.0446385,0.0665395,0.0250726,0.0243837,0.00971826,-1.15901e-18,0.00643757,7.66547e-05,86,-29,120.455,-34.0139,-4.13353,-25.4437,1.38
0.0446775,0.0665395,0.0250985,0.0243837,0.00977048,-7.7267e-19,0.00647216,5.11032e-05,86,-29,120.241,-34.1967,-4.28844,-25.6842,1.384
0.0447167,0.0665395,0.0251244,0.0243841,0.00982281,-5.15114e-19,0.00650683,6.28597e-05,85,-30,120.026,-34.3799,-4.44212,-25.7759,1.388
0.0447561,0.0665395,0.0251505,0.0243844,0.00987527,-3.43409e-19,0.00654158,7.06974e-05,85,-30,119.809,-34.5634,-4.59663,-25.8835,1.392
0.0447957,0.0665399,0.0251768,0.0243858,0.00992783,2.87909e-05,0.0065764,0.000162295,84,-30,119.593,-34.6466,-4.74575,-25.6564,1.396
0.0448355,0.0665395,0.0252031,0.0243861,0.00998051,-9.59697e-06,0.0066113,0.000136988,84,-30,119.372,-34.9654,-4.90193,-25.8972,1.4
0.0448755,0.0665395,0.0252296,0.0243875,0.0100333,-6.39798e-06,0.00664627,0.000206489,84,-30,119.152,-35.139,-5.05273,-25.7591,1.404
0.0449158,0.0665395,0.0252563,0.0243889,0.0100862,-4.26532e-06,0.00668132,0.000252823,83,-30,118.931,-35.3167,-5.20437,-25.714,1.408
0.0449562,0.0665395,0.0252831,0.0243899,0.0101392,-2.84355e-06,0.00671644,0.000254921,83,-31,118.708,-35.4973,-5.35892,-25.8461,1.412
0.0449969,0.0665395,0.02531,0.0243913,0.0101924,-1.8957e-06,0.00675164,0.000285111,82,-31,118.484,-35.68,-5.51225,-25.8661,1.416
0.0450378,0.0665399,0.0253371,0.0243924,0.0102456,2.75271e-05,0.00678692,0.000276447,82,-31,118.262,-35.7634,-5.66849,-26.0419,1.42
0.0450788,0.0665395,0.0253643,0.0243934,0.010299,-1.04395e-05,0.00682227,0.000270671,81,-32,118.034,-36.0831,-5.82558,-26.2064,1.424
0.0451201,0.0665395,0.0253917,0.0243944,0.0103525,-6.95967e-06,0.0068577,0.00026682,81,-32,117.807,-36.2581,-5.98352,-26.3635,1.428
0.0451617,0.0665395,0.0254192,0.0243951,0.0104061,-4.63978e-06,0.0068932,0.000235462,81,-32,117.578,-36.4375,-6.14439,-26.631,1.432
0.0452034,0.0665395,0.0254468,0.0243958,0.0104598,-3.09319e-06,0.00692878,0.000214556,80,-33,117.349,-36.6201,-6.3061,-26.8569,1.436
0.0452453,0.0665395,0.0254746,0.0243969,0.0105136,-2.06212e-06,0.00696443,0.00022941,80,-33,117.118,-36.8049,-6.4666,-26.9401,1.44
0.0452875,0.0665395,0.0255026,0.0243975,0.0105675,-1.37475e-06,0.00700016,0.000210522,79,-33,116.886,-36.9912,-6.63003,-27.1585,1.444
0.0453299,0.0665395,0.0255306,0.0243982,0.0106216,-9.165e-07,0.00703596,0.00019793,79,-34,116.653,-37.1788,-6.79432,-27.3521,1.448
0.0453725,0.0665399,0.0255588,0.0243986,0.0106757,2.81799e-05,0.00707183,0.000160744,79,-34,116.421,-37.2665,-6.96154,-27.6444,1.452
0.0454153,0.0665395,0.0255872,0.0243993,0.01073,-1.00043e-05,0.00710778,0.000164745,78,-34,116.183,-37.5901,-7.12755,-27.7722,1.456
0.0454583,0.0665395,0.0256157,0.0244,0.0107844,-6.66954e-06,0.00714381,0.000167412,78,-35,115.947,-37.7688,-7.29442,-27.9056,1.46
0.0455016,0.0665399,0.0256443,0.0244007,0.0108389,2.43446e-05,0.00717991,0.00016919,77,-35,115.711,-37.8509,-7.46216,-28.0429,1.464
0.045545,0.0665395,0.0256731,0.0244013,0.0108935,-1.25612e-05,0.00721608,0.000170375,77,-35,115.47,-38.1712,-7.63077,-28.1828,1.468
0.0455887,0.0665399,0.0257021,0.0244027,0.0109482,2.04168e-05,0.00725233,0.000228747,76,-35,115.231,-38.2473,-7.7961,-28.0943,1.472
0.0456326,0.0665399,0.0257312,0.0244031,0.0110031,1.36112e-05,0.00728865,0.000181289,76,-36,114.99,-38.463,-7.96851,-28.4294,1.476
0.0456767,0.0665399,0.0257604,0.0244038,0.011058,9.07413e-06,0.00732504,0.000178441,76,-36,114.747,-38.6712,-8.13973,-28.5864,1.48
0.0457211,0.0665399,0.0257898,0.0244045,0.011113,6.04942e-06,0.00736151,0.000176543,75,-37,114.503,-38.8745,-8.31182,-28.7399,1.484
0.0457656,0.0665399,0.0258193,0.0244055,0.0111682,4.03294e-06,0.00739805,0.000204068,75,-37,114.258,-39.0746,-8.48272,-28.7759,1.488
0.0458104,0.0665399,0.0258489,0.0244065,0.0112235,2.68863e-06,0.00743466,0.000222418,74,-37,114.012,-39.2728,-8.65449,-28.849,1.492
0.0458554,0.0665399,0.0258788,0.0244079,0.0112789,1.79242e-06,0.00747135,0.000263442,74,-37,113.764,-39.4698,-8.82507,-28.8316,1.496
0.0459007,0.0665399,0.0259087,0.02441,0.0113344,1.19495e-06,0.00750811,0.000348374,73,-37,113.516,-39.6661,-8.99239,-28.6389,1.5
0.0459461,0.0665399,0.0259388,0.0244114,0.01139,7.96631e-07,0.00754494,0.000347413,73,-37,113.266,-39.8621,-9.16473,-28.7901,1.504
0.0459918,0.0665399,0.0259691,0.0244134,0.0114457,5.31087e-07,0.00758185,0.000404354,72,-38,113.014,-40.058,-9.33382,-28.71,1.508
0.0460377,0.0665399,0.0259995,0.0244165,0.0115015,3.54058e-07,0.00761883,0.000528688,72,-37,112.762,-40.254,-9.49757,-28.3606,1.512
0.0460838,0.0665399,0.02603,0.024419,0.0115574,2.36039e-07,0.00765588,0.000553995,72,-38,112.508,-40.4502,-9.66636,-28.4075,1.516
0.0461301,0.0665399,0.0260607,0.0244224,0.0116135,1.57359e-07,0.007693,0.000657239,71,-37,112.254,-40.6466,-9.82981,-28.143,1.52
0.0461767,0.0665399,0.0260916,0.0244255,0.0116696,1.04906e-07,0.0077302,0.000697278,71,-38,111.997,-40.8433,-9.99623,-28.1317,1.524
0.0462235,0.0665399,0.0261226,0.0244297,0.0117259,6.99374e-08,0.00776746,0.000810343,70,-37,111.74,-41.0403,-10.1573,-27.8285,1.528
0.0462705,0.0665399,0.0261537,0.0244338,0.0117822,4.6625e-08,0.0078048,0.00088572,70,-37,111.481,-41.2377,-10.3193,-27.6763,1.532
0.0463177,0.0665399,0.026185,0.024438,0.0118387,3.10833e-08,0.00784221,0.000935971,69,-38,111.222,-41.4354,-10.4822,-27.625,1.536
0.0463652,0.0665399,0.0262164,0.0244425,0.0118953,2.07222e-08,0.0078797,0.000998263,69,-38,110.961,-41.6335,-10.6439,-27.5257,1.54
0.0464129,0.0665399,0.026248,0.024448,0.011952,1.38148e-08,0.00791725,0.00112616,68,-37,110.698,-41.832,-10.8003,-27.1643,1.544
0.0464608,0.0665399,0.0262798,0.0244546,0.0120088,9.20987e-09,0.00795488,0.0012978,68,-37,110.435,-42.0308,-10.9514,-26.6283,1.548
0.046509,0.0665399,0.0263117,0.0244618,0.0120657,6.13991e-09,0.00799257,0.00146981,67,-37,110.17,-42.23,-11.0992,-26.091,1.552
0.0465574,0.0665399,0.0263437,0.0244698,0.0121227,4.09327e-09,0.00803034,0.00164207,67,-36,109.904,-42.4295,-11.2438,-25.5531,1.556
0.046606,0.0665399,0.0263759,0.0244798,0.0121799,2.72885e-09,0.00806818,0.00192965,67,-35,109.636,-42.6295,-11.3769,-24.5541,1.56
0.0466548,0.0665399,0.0264083,0.0244908,0.0122371,1.81923e-09,0.00810609,0.00220774,66,-35,109.368,-42.8298,-11.5047,-23.5934,1.564
0.0467039,0.0665399,0.0264408,0.0245029,0.0122944,1.21282e-09,0.00814407,0.00247951,66,-34,109.098,-43.0305,-11.6271,-22.6583,1.568
0.0467531,0.0665399,0.0264734,0.0245143,0.0123519,8.08548e-10,0.00818212,0.00260311,65,-34,108.827,-43.2315,-11.7546,-22.3161,1.572
0.0468027,0.0665399,0.0265062,0.0245254,0.0124094,5.39032e-10,0.00822025,0.00265671,65,-34,108.555,-43.4329,-11.8851,-22.2541,1.576
0.0468524,0.0665399,0.0265392,0.0245368,0.0124671,3.59355e-10,0.00825844,0.00272124,64,-34,108.281,-43.6347,-12.0144,-22.1488,1.58
0.0469024,0.0665402,0.0265723,0.0245492,0.0125248,2.87912e-05,0.0082967,0.00285064,64,-33,108.008,-43.7361,-12.1385,-21.7843,1.584
0.0469526,0.0665399,0.0266056,0.0245634,0.0125827,-9.59682e-06,0.00833504,0.00308085,63,-33,107.73,-44.073,-12.2531,-21.0167,1.588
0.0470031,0.0665402,0.026639,0.0245772,0.0126407,2.2393e-05,0.00837344,0.00320554,63,-33,107.454,-44.164,-12.3707,-20.6716,1.592
0.0470537,0.0665402,0.0266725,0.024591,0.0126988,1.49287e-05,0.00841191,0.00328866,62,-32,107.176,-44.3934,-12.4892,-20.493,1.596
0.0471047,0.0665402,0.0267063,0.0246048,0.0127569,9.95247e-06,0.00845046,0.00334408,62,-33,106.895,-44.6145,-12.6086,-20.4255,1.6
0.0471558,0.0665402,0.0267402,0.024618,0.0128152,6.63498e-06,0.00848907,0.00332344,61,-33,106.614,-44.8301,-12.7331,-20.6625,1.604
0.0472072,0.0665402,0.0267742,0.0246304,0.0128736,4.42332e-06,0.00852775,0.0032521,61,-33,106.332,-45.0422,-12.8627,-21.1026,1.608
0.0472588,0.0665402,0.0268084,0.0246422,0.0129321,2.94888e-06,0.00856651,0.00314696,60,-34,106.048,-45.2521,-12.9973,-21.6782,1.612
0.0473106,0.0665402,0.0268427,0.0246525,0.0129907,1.96592e-06,0.00860533,0.0029617,60,-35,105.763,-45.4607,-13.1412,-22.5745,1.616
0.0473627,0.0665402,0.0268772,0.0246629,0.0130494,1.31061e-06,0.00864422,0.00283819,59,-36,105.476,-45.6685,-13.286,-23.2241,1.62
0.047415,0.0665402,0.0269119,0.0246732,0.0131083,8.73742e-07,0.00868318,0.00275586,59,-37,105.188,-45.8758,-13.4317,-23.7093,1.624
0.0474676,0.0665402,0.0269467,0.024684,0.0131672,5.82495e-07,0.00872221,0.00272976,58,-37,104.899,-46.0831,-13.5763,-23.9698,1.628
0.0475204,0.0665402,0.0269816,0.0246957,0.0132262,3.8833e-07,0.0087613,0.00279873,58,-37,104.609,-46.2903,-13.7157,-23.8503,1.632
0.0475734,0.0665402,0.0270168,0.0247081,0.0132853,2.58886e-07,0.00880047,0.00290229,57,-37,104.317,-46.4977,-13.8518,-23.5927,1.636
0.0476267,0.0665402,0.0270521,0.0247192,0.0133446,1.72591e-07,0.0088397,0.00285617,57,-37,104.025,-46.7053,-13.9971,-23.9341,1.64
0.0476802,0.0665405,0.0270875,0.0247289,0.0134039,2.8906e-05,0.00887901,0.00271026,56,-38,103.732,-46.8124,-14.1517,-24.675,1.644
0.0477339,0.0665405,0.0271231,0.0247368,0.0134633,1.92707e-05,0.00891838,0.00246903,56,-40,103.437,-47.0542,-14.3176,-25.7974,1.648
0.0477879,0.0665405,0.0271588,0.0247434,0.0135229,1.28471e-05,0.00895782,0.00219305,55,-41,103.14,-47.285,-14.4927,-27.0591,1.652
0.0478421,0.0665402,0.0271947,0.0247486,0.0135825,-2.02262e-05,0.00899732,0.0018939,55,-43,102.84,-47.6095,-14.6771,-28.4137,1.656
0.0478965,0.0665405,0.0272308,0.0247517,0.0136422,1.53068e-05,0.0090369,0.00152172,54,-44,102.542,-47.6943,-14.8748,-30.0607,1.66
0.0479512,0.0665405,0.027267,0.0247531,0.0137021,1.02045e-05,0.00907654,0.00112964,54,-46,102.241,-47.9216,-15.0839,-31.7876,1.664
0.0480061,0.0665405,0.0273034,0.0247534,0.013762,6.80302e-06,0.00911625,0.000781885,53,-48,101.939,-48.1433,-15.3002,-33.3375,1.668
0.0480613,0.0665405,0.02734,0.0247534,0.0138221,4.53535e-06,0.00915603,0.000521257,53,-50,101.636,-48.3614,-15.5194,-34.5391,1.672
0.0481167,0.0665405,0.0273767,0.0247534,0.0138822,3.02357e-06,0.00919588,0.000347504,52,-51,101.331,-48.5773,-15.7396,-35.3935,1.676
0.0481724,0.0665405,0.0274135,0.0247534,0.0139425,2.01571e-06,0.00923579,0.00023167,52,-51,101.025,-48.7917,-15.9608,-36.0165,1.68
0.0482283,0.0665405,0.0274506,0.0247534,0.0140028,1.34381e-06,0.00927577,0.000154446,51,-52,100.718,-49.0053,-16.183,-36.4853,1.684
0.0482844,0.0665405,0.0274877,0.0247531,0.0140633,8.95871e-07,0.00931582,7.41733e-05,51,-53,100.409,-49.2184,-16.4081,-36.9666,1.688
0.0483408,0.0665402,0.0275251,0.0247537,0.0141239,-2.81937e-05,0.00935593,0.000107031,50,-53,100.097,-49.5322,-16.6281,-36.9956,1.692
0.0483974,0.0665409,0.0275626,0.0247541,0.0141845,3.87861e-05,0.00939612,0.000100145,50,-54,99.7894,-49.5101,-16.851,-37.1839,1.696
0.0484542,0.0665409,0.0276003,0.0247537,0.0142453,2.58574e-05,0.00943636,3.79722e-05,49,-54,99.4766,-49.768,-17.0791,-37.5936,1.7
0.0485113,0.0665409,0.0276381,0.0247534,0.0143061,1.72383e-05,0.00947668,-3.4761e-06,49,-55,99.1626,-50.0111,-17.3081,-37.9206,1.704
0.0485687,0.0665409,0.0276761,0.0247537,0.0143671,1.14922e-05,0.00951706,2.64735e-05,48,-55,98.8472,-50.2446,-17.5339,-37.9623,1.708
0.0486263,0.0665409,0.0277142,0.0247544,0.0144282,7.66144e-06,0.00955751,7.52309e-05,48,-55,98.5304,-50.4717,-17.7587,-37.9291,1.712
0.0486841,0.0665409,0.0277525,0.0247548,0.0144893,5.10763e-06,0.00959802,7.89448e-05,47,-56,98.2123,-50.6947,-17.9865,-38.0763,1.716
0.0487422,0.0665405,0.027791,0.0247551,0.0145506,-2.53858e-05,0.0096386,8.14208e-05,46,-56,97.891,-51.0159,-18.2153,-38.2287,1.72
0.0488005,0.0665405,0.0278296,0.0247555,0.0146119,-1.69239e-05,0.00967924,8.30715e-05,46,-56,97.5702,-51.201,-18.445,-38.3847,1.724
0.0488591,0.0665416,0.0278684,0.0247555,0.0146734,7.50902e-05,0.00971996,5.5381e-05,46,-57,97.2538,-51.0941,-18.6778,-38.6583,1.728
0.0489179,0.0665416,0.0279074,0.0247558,0.014735,5.00601e-05,0.00976073,6.57116e-05,45,-57,96.9303,-51.3971,-18.9095,-38.7801,1.732
0.048977,0.0665412,0.0279465,0.0247558,0.0147966,4.58249e-06,0.00980157,4.38077e-05,44,-58,96.6035,-51.7721,-19.1442,-39.0311,1.736
0.0490363,0.0665412,0.0279858,0.0247562,0.0148584,3.05499e-06,0.00984248,5.79961e-05,44,-58,96.2773,-51.9936,-19.3779,-39.1379,1.74
0.0490958,0.0665412,0.0280253,0.0247562,0.0149202,2.03666e-06,0.00988346,3.8664e-05,43,-58,95.9497,-52.2136,-19.6146,-39.3792,1.744
0.0491556,0.0665412,0.0280649,0.0247565,0.0149822,1.35777e-06,0.00992449,5.4567e-05,43,-59,95.6208,-52.4328,-19.8502,-39.4797,1.748
0.0492157,0.0665412,0.0281047,0.0247569,0.0150442,9.05183e-07,0.0099656,6.51689e-05,42,-59,95.2905,-52.6516,-20.0868,-39.6017,1.752
0.049276,0.0665412,0.0281446,0.0247569,0.0151064,6.03455e-07,0.0100068,4.34459e-05,42,-60,94.9589,-52.8702,-20.3265,-39.8533,1.756
0.0493365,0.0665416,0.0281847,0.0247575,0.0151686,2.91932e-05,0.010048,8.65458e-05,41,-60,94.6277,-52.988,-20.563,-39.8458,1.76
0.0493973,0.0665416,0.028225,0.0247572,0.015231,1.94622e-05,0.0100893,2.89063e-05,41,-61,94.2934,-53.2402,-20.8067,-40.2416,1.764
0.0494584,0.0665419,0.0282654,0.0247575,0.0152934,4.17657e-05,0.0101307,4.80618e-05,40,-61,93.9595,-53.3807,-21.0473,-40.3304,1.768
0.0495197,0.0665419,0.028306,0.0247575,0.0153559,2.78438e-05,0.0101721,3.20412e-05,39,-61,93.6223,-53.6483,-21.2909,-40.5602,1.772
0.0495812,0.0665419,0.0283468,0.0247579,0.0154186,1.85625e-05,0.0102136,5.01517e-05,39,-62,93.2838,-53.9,-21.5335,-40.6537,1.776
0.049643,0.0665419,0.0283877,0.0247586,0.0154813,1.2375e-05,0.0102551,9.10163e-05,38,-62,92.9439,-54.1413,-21.775,-40.6565,1.78
0.0497051,0.0665423,0.0284288,0.0247582,0.0155441,3.70409e-05,0.0102968,3.18866e-05,38,-63,92.6045,-54.2748,-22.0237,-41.0595,1.784
0.0497674,0.0665423,0.0284701,0.0247582,0.0156071,2.4694e-05,0.0103384,2.12578e-05,37,-63,92.2619,-54.5383,-22.2713,-41.2687,1.788
0.0498299,0.0665426,0.0285116,0.0247586,0.0156701,4.52536e-05,0.0103802,4.29628e-05,37,-63,91.9197,-54.6869,-22.5178,-41.3489,1.792
0.0498927,0.0665426,0.0285532,0.0247586,0.0157332,3.0169e-05,0.010422,2.86418e-05,36,-64,91.5743,-54.9606,-22.7675,-41.5734,1.796
0.0499558,0.0665419,0.0285949,0.0247586,0.0157964,-3.74692e-05,0.0104639,1.90946e-05,35,-64,91.2237,-55.4186,-23.0181,-41.7791,1.8
0.0500191,0.0665426,0.0286369,0.0247589,0.0158597,3.26024e-05,0.0105058,4.15206e-05,35,-65,90.8793,-55.395,-23.2676,-41.8572,1.804
0.0500827,0.0665426,0.028679,0.0247589,0.0159231,2.17349e-05,0.0105478,2.76804e-05,34,-65,90.5296,-55.6549,-23.5203,-42.0805,1.808
0.0501465,0.066543,0.0287213,0.0247593,0.0159866,4.32809e-05,0.0105899,4.72445e-05,34,-65,90.1805,-55.8018,-23.7719,-42.1705,1.812
0.0502106,0.066543,0.0287637,0.0247593,0.0160502,2.88539e-05,0.010632,3.14964e-05,33,-66,89.8281,-56.0748,-24.0265,-42.402,1.816
0.0502749,0.0665433,0.0288063,0.0247596,0.0161139,4.80269e-05,0.0106742,4.97885e-05,33,-66,89.4762,-56.2307,-24.2801,-42.4976,1.82
0.0503395,0.066544,0.0288491,0.0247603,0.0161777,8.95998e-05,0.0107164,9.07742e-05,32,-67,89.1248,-56.3084,-24.5327,-42.5027,1.824
0.0504043,0.0665437,0.028892,0.02476,0.0162416,3.09423e-05,0.0107588,3.17252e-05,32,-67,88.7663,-56.7373,-24.7925,-42.9082,1.828
0.0504694,0.0665437,0.0289352,0.0247603,0.0163056,2.06282e-05,0.0108011,4.99411e-05,31,-68,88.4083,-56.9973,-25.0491,-43.0048,1.832
0.0505348,0.0665437,0.0289784,0.0247607,0.0163696,1.37521e-05,0.0108436,6.2085e-05,30,-68,88.0489,-57.2456,-25.3068,-43.126,1.836
0.0506004,0.0665437,0.0290219,0.0247607,0.0164338,9.16807e-06,0.0108861,4.139e-05,30,-68,87.688,-57.4862,-25.5675,-43.3788,1.84
0.0506662,0.066544,0.0290655,0.0247613,0.0164981,3.4903e-05,0.0109287,8.51752e-05,29,-69,87.3277,-57.6211,-25.8251,-43.3739,1.844
0.0507324,0.066544,0.0291093,0.0247607,0.0165624,2.32686e-05,0.0109713,-7.98406e-07,29,-69,86.964,-57.887,-26.0921,-43.8883,1.848
0.0507987,0.0665443,0.0291533,0.0247617,0.0166269,4.43034e-05,0.011014,8.58405e-05,28,-70,86.6008,-58.039,-26.3497,-43.7125,1.852
0.0508654,0.0665443,0.0291975,0.024762,0.0166914,2.95356e-05,0.0110567,8.60179e-05,27,-70,86.2343,-58.3165,-26.6125,-43.8828,1.856
0.0509323,0.0665447,0.0292418,0.0247624,0.016756,4.84813e-05,0.0110995,8.61362e-05,27,-70,85.8683,-58.4765,-26.8763,-44.0536,1.86
0.0509994,0.066545,0.0292862,0.0247627,0.0168208,6.11118e-05,0.0111424,8.62151e-05,26,-71,85.5009,-58.6588,-27.1411,-44.2248,1.864
0.0510668,0.0665454,0.0293309,0.0247631,0.0168856,6.95321e-05,0.0111854,8.62676e-05,26,-71,85.132,-58.8562,-27.407,-44.3964,1.868
0.0511345,0.0665457,0.0293757,0.0247631,0.0169505,7.51457e-05,0.0112284,5.75118e-05,25,-72,84.7617,-59.0637,-27.6759,-44.6834,1.872
0.0512024,0.0665464,0.0294207,0.0247634,0.0170155,0.000107679,0.0112714,6.71321e-05,25,-72,84.3919,-59.1774,-27.9439,-44.8171,1.876
0.0512706,0.0665461,0.0294659,0.0247634,0.0170806,4.29951e-05,0.0113145,4.47547e-05,24,-73,84.0149,-59.6316,-28.2149,-45.0791,1.88
0.0513391,0.0665464,0.0295112,0.0247638,0.0171458,5.74543e-05,0.0113577,5.86274e-05,23,-73,83.6403,-59.8092,-28.4849,-45.1964,1.884
0.0514078,0.0665468,0.0295568,0.0247641,0.0172111,6.70938e-05,0.011401,6.78759e-05,23,-74,83.2643,-60.0039,-28.7559,-45.3323,1.888
0.0514768,0.0665468,0.0296025,0.0247651,0.0172764,4.47292e-05,0.0114443,0.000131623,22,-74,82.8849,-60.311,-29.0238,-45.2506,1.892
0.051546,0.0665471,0.0296483,0.0247651,0.0173419,5.86104e-05,0.0114876,8.77489e-05,22,-74,82.506,-60.4915,-29.299,-45.5995,1.896
0.0516155,0.0665471,0.0296944,0.0247658,0.0174075,3.90736e-05,0.0115311,0.000116081,21,-75,82.1238,-60.7893,-29.5711,-45.6599,1.9
0.0516853,0.0665475,0.0297406,0.0247669,0.0174731,5.484e-05,0.0115745,0.00016376,20,-75,81.742,-60.9639,-29.8421,-45.6431,1.904
0.0517553,0.0665481,0.029787,0.0247669,0.0175388,9.41418e-05,0.0116181,0.000109173,20,-76,81.3607,-61.0564,-30.1205,-46.0356,1.908
0.0518256,0.0665478,0.0298335,0.0247672,0.0176047,3.39703e-05,0.0116617,0.000101573,19,-76,80.9722,-61.4974,-30.3977,-46.2405,1.912
0.0518961,0.0665481,0.0298802,0.0247676,0.0176706,5.14378e-05,0.0117054,9.65064e-05,18,-77,80.5861,-61.667,-30.6761,-46.4354,1.916
0.051967,0.0665485,0.0299272,0.0247683,0.0177366,6.30828e-05,0.0117491,0.000121919,18,-77,80.1985,-61.8573,-30.9534,-46.5086,1.92
0.052038,0.0665488,0.0299742,0.0247693,0.0178027,7.08461e-05,0.0117929,0.000167652,17,-77,79.8095,-62.0615,-31.2297,-46.5009,1.924
0.0521094,0.0665495,0.0300215,0.0247703,0.0178689,0.000104813,0.0118367,0.000198141,17,-78,79.4209,-62.1742,-31.507,-46.5543,1.928
0.052181,0.0665495,0.0300689,0.024771,0.0179352,6.98751e-05,0.0118806,0.000189676,16,-78,79.027,-62.5285,-31.7875,-46.7638,1.932
0.0522529,0.0665499,0.0301165,0.0247721,0.0180015,7.53743e-05,0.0119246,0.000212823,15,-78,78.6336,-62.7416,-32.0669,-46.847,1.936
0.052325,0.0665502,0.0301643,0.0247727,0.018068,7.90405e-05,0.0119686,0.000199464,15,-79,78.2388,-62.9613,-32.3495,-47.0766,1.94
0.0523974,0.0665506,0.0302123,0.0247734,0.0181345,8.14846e-05,0.0120127,0.000190558,14,-79,77.8424,-63.1857,-32.6331,-47.2885,1.944
0.0524701,0.0665513,0.0302604,0.0247738,0.0182012,0.000111905,0.0120568,0.00015583,14,-80,77.4465,-63.3125,-32.9199,-47.604,1.948
0.052543,0.0665516,0.0303087,0.0247741,0.0182679,0.000103394,0.012101,0.000132677,13,-81,77.0473,-63.5758,-33.2077,-47.8734,1.952
0.0526162,0.0665519,0.0303572,0.0247748,0.0183347,9.77204e-05,0.0121453,0.000146033,12,-81,76.6465,-63.8295,-33.4945,-47.997,1.956
0.0526897,0.0665523,0.0304059,0.0247745,0.0184016,9.39378e-05,0.0121896,6.85647e-05,12,-82,76.2443,-64.0769,-33.7886,-48.4842,1.96
0.0527634,0.066553,0.0304548,0.0247745,0.0184686,0.000120207,0.012234,4.57098e-05,11,-82,75.8426,-64.2194,-34.0817,-48.7531,1.964
0.0528374,0.0665526,0.0305038,0.0247748,0.0185357,5.13471e-05,0.0122784,5.92641e-05,10,-83,75.4336,-64.6952,-34.3737,-48.8766,1.968
0.0529117,0.066553,0.030553,0.0247748,0.0186029,6.30223e-05,0.0123229,3.95094e-05,10,-83,75.027,-64.8895,-34.669,-49.1336,1.972
0.0529863,0.0665533,0.0306024,0.0247748,0.0186701,7.08058e-05,0.0123675,2.63396e-05,9,-84,74.6189,-65.0976,-34.9652,-49.3645,1.976
0.0530611,0.0665537,0.0306519,0.0247752,0.0187375,7.59948e-05,0.0124121,4.63507e-05,8,-84,74.2093,-65.3152,-35.2605,-49.4629,1.98
0.0531362,0.066554,0.0307017,0.0247752,0.0188049,7.94541e-05,0.0124567,3.09004e-05,8,-85,73.7983,-65.5391,-35.559,-49.7034,1.984
0.0532115,0.0665547,0.0307516,0.0247755,0.0188724,0.000110551,0.0125015,4.93912e-05,7,-85,73.3876,-65.6665,-35.8564,-49.8083,1.988
0.0532871,0.0665551,0.0308017,0.0247762,0.01894,0.000102492,0.0125463,9.05093e-05,7,-85,72.9736,-65.9314,-36.1528,-49.823,1.992
0.053363,0.0665561,0.0308519,0.0247765,0.0190077,0.000154701,0.0125911,8.91305e-05,6,-86,72.5618,-65.9856,-36.4524,-50.0079,1.996
0.0534392,0.0665561,0.0309024,0.0247762,0.0190755,0.000103134,0.012636,3.06294e-05,5,-87,72.1429,-66.4033,-36.7572,-50.4215,2
0.0535156,0.0665564,0.030953,0.0247765,0.0191434,9.75468e-05,0.012681,4.92105e-05,5,-87,71.7244,-66.6604,-37.0589,-50.527,2.004
0.0535923,0.0665575,0.0310038,0.0247772,0.0192113,0.000151404,0.012726,9.03889e-05,4,-87,71.3082,-66.7097,-37.3596,-50.5423,2.008
0.0536693,0.0665571,0.0310548,0.0247779,0.0192794,7.2145e-05,0.012771,0.000117841,3,-88,70.8829,-67.2253,-37.6615,-50.6128,2.012
0.0537466,0.0665582,0.031106,0.0247793,0.0193475,0.000134469,0.0128162,0.000193724,3,-88,70.4637,-67.2456,-37.9602,-50.4898,2.016
0.0538241,0.0665582,0.0311574,0.02478,0.0194157,8.96463e-05,0.0128614,0.000186731,2,-88,70.0373,-67.6412,-38.2642,-50.6985,2.02
0.0539019,0.0665585,0.0312089,0.0247817,0.019484,8.85551e-05,0.0129066,0.000268442,1,-89,69.6113,-67.884,-38.5631,-50.5526,2.024
0.05398,0.0665589,0.0312606,0.0247821,0.0195524,8.78277e-05,0.0129519,0.000207752,1,-89,69.1838,-68.1259,-38.8713,-50.9766,2.028
0.0540583,0.0665596,0.0313125,0.0247831,0.0196208,0.000116134,0.0129973,0.000224874,0,-90,68.7567,-68.2665,-39.1765,-51.0895,2.032
0.0541369,0.0665599,0.0313646,0.0247838,0.0196894,0.000106213,0.0130427,0.000207498,0,-90,68.3262,-68.5412,-39.4848,-51.3407,2.036
0.0542158,0.0665606,0.0314169,0.0247841,0.019758,0.000128391,0.0130881,0.000167123,0,-91,67.8961,-68.7038,-39.7963,-51.684,2.04
0.054295,0.0665609,0.0314693,0.0247848,0.0198268,0.000114385,0.0131337,0.000168997,-1,-91,67.4626,-68.9933,-40.1068,-51.8586,2.044
0.0543745,0.0665613,0.0315219,0.0247859,0.0198956,0.000105047,0.0131792,0.000199038,-2,-92,67.0275,-69.2668,-40.4163,-51.9208,2.048
0.0544542,0.066562,0.0315747,0.0247862,0.0199645,0.000127613,0.0132249,0.000161483,-2,-92,66.5929,-69.429,-40.7311,-52.2536,2.052
0.0545342,0.0665623,0.0316277,0.0247859,0.0200334,0.000113867,0.0132706,7.88642e-05,-3,-93,66.1548,-69.7185,-41.0511,-52.7668,2.056
0.0546144,0.0665623,0.0316809,0.0247862,0.0201025,7.5911e-05,0.0133163,8.1367e-05,-4,-94,65.7133,-70.0931,-41.3681,-52.9398,2.06
0.054695,0.0665627,0.0317343,0.0247866,0.0201717,7.93983e-05,0.0133621,8.30356e-05,-5,-94,65.2722,-70.3229,-41.6862,-53.1163,2.064
0.0547758,0.066563,0.0317878,0.0247869,0.0202409,8.17231e-05,0.013408,8.4148e-05,-5,-95,64.8295,-70.5571,-42.0053,-53.2953,2.068
0.0548569,0.0665634,0.0318415,0.0247873,0.0203102,8.3273e-05,0.0134539,8.48896e-05,-6,-95,64.3854,-70.7942,-42.3256,-53.476,2.072
0.0549383,0.0665634,0.0318954,0.0247879,0.0203796,5.55153e-05,0.0134999,0.000114175,-7,-96,63.9378,-71.1343,-42.6449,-53.5427,2.076
0.05502,0.0665637,0.0319495,0.0247886,0.0204491,6.58011e-05,0.0135459,0.000133698,-7,-96,63.4906,-71.3414,-42.9653,-53.6487,2.08
0.0551019,0.0665637,0.0320038,0.0247897,0.0205186,4.38674e-05,0.013592,0.000175505,-8,-96,63.0399,-71.6617,-43.2847,-53.6658,2.084
0.0551841,0.066564,0.0320583,0.02479,0.0205883,5.80359e-05,0.0136381,0.000145794,-9,-97,62.5896,-71.8559,-43.6094,-53.9692,2.088
0.0552666,0.066564,0.0321129,0.0247911,0.020658,3.86906e-05,0.0136843,0.000183569,-10,-97,62.1359,-72.1676,-43.9311,-54.0029,2.092
0.0553494,0.0665647,0.0321677,0.0247918,0.0207278,8.33756e-05,0.0137305,0.000179961,-10,-98,61.6845,-72.2556,-44.2559,-54.2023,2.096
0.0554324,0.0665644,0.0322228,0.0247924,0.0207977,2.67928e-05,0.0137768,0.000177556,-11,-98,61.2258,-72.6982,-44.5819,-54.3971,2.1
0.0555158,0.0665658,0.032278,0.0247928,0.0208677,0.000133026,0.0138232,0.000147162,-11,-99,60.7751,-72.5713,-44.911,-54.7041,2.104
0.0555994,0.0665668,0.0323333,0.0247931,0.0209377,0.000175056,0.0138696,0.000126899,-12,-100,60.3209,-72.6694,-45.2412,-54.9708,2.108
0.0556833,0.0665692,0.0323889,0.0247935,0.0210079,0.000318241,0.0139161,0.00011339,-12,-100,59.8728,-72.4138,-45.5726,-55.2106,2.112
0.0557674,0.0665716,0.0324447,0.0247938,0.0210781,0.000413697,0.0139626,0.000104384,-12,-101,59.4232,-72.3254,-45.905,-55.4327,2.116
0.0558519,0.0665741,0.0325006,0.0247942,0.0211484,0.000477334,0.0140091,9.83804e-05,-13,-101,58.972,-72.3488,-46.2386,-55.643,2.12
0.0559366,0.0665768,0.0325567,0.0247949,0.0212188,0.00054855,0.0140558,0.000123169,-13,-102,58.5212,-72.3458,-46.5713,-55.7304,2.124
0.0560216,0.0665796,0.0326131,0.0247956,0.0212893,0.000596028,0.0141024,0.000139694,-14,-102,58.0688,-72.4263,-46.905,-55.851,2.128
0.0561069,0.066582,0.0326696,0.0247962,0.0213598,0.000598888,0.0141492,0.000150711,-15,-103,57.6129,-72.6632,-47.2399,-55.9938,2.132
0.0561925,0.0665844,0.0327262,0.0247969,0.0214304,0.000600795,0.014196,0.000158056,-15,-103,57.1556,-72.9037,-47.5759,-56.1516,2.136
0.0562784,0.0665862,0.0327831,0.0247976,0.0215011,0.000544485,0.0142428,0.000162953,-16,-104,56.6928,-73.3483,-47.913,-56.3193,2.14
0.0563645,0.0665886,0.0328402,0.0247983,0.0215719,0.000564526,0.0142897,0.000166217,-17,-104,56.2323,-73.5259,-48.2513,-56.4939,2.144
0.0564509,0.0665913,0.0328974,0.0247994,0.0216428,0.000606678,0.0143366,0.000197184,-17,-105,55.7721,-73.6264,-48.5885,-56.5578,2.148
0.0565377,0.0665944,0.0329549,0.0248,0.0217137,0.000663571,0.0143836,0.000189038,-18,-105,55.3123,-73.6756,-48.929,-56.7783,2.152
0.0566247,0.0665979,0.0330125,0.0248007,0.0217848,0.00073029,0.0144307,0.000183607,-18,-106,54.8528,-73.6907,-49.2707,-56.9883,2.156
0.0567119,0.0666024,0.0330703,0.0248018,0.0218559,0.000861142,0.0144778,0.000208778,-19,-106,54.3975,-73.4816,-49.6114,-57.076,2.16
0.0567995,0.0666062,0.0331283,0.0248028,0.0219271,0.000890795,0.0145249,0.000225558,-19,-107,53.9368,-73.6269,-49.9532,-57.1975,2.164
0.0568874,0.0666117,0.0331865,0.0248035,0.0219983,0.00105452,0.0145721,0.000207954,-19,-107,53.484,-73.3033,-50.2982,-57.4567,2.168
0.0569755,0.0666169,0.0332449,0.0248038,0.0220697,0.00113488,0.0146194,0.000167427,-20,-108,53.0278,-73.2718,-50.6464,-57.8079,2.172
0.0570639,0.0666224,0.0333035,0.0248045,0.0221411,0.00121724,0.0146667,0.0001692,-20,-108,52.5719,-73.2335,-50.9937,-57.99,2.176
0.0571526,0.0666286,0.0333622,0.0248049,0.0222126,0.00132973,0.0147141,0.000141591,-20,-109,52.1182,-73.09,-51.3442,-58.2899,2.18
0.0572416,0.0666349,0.0334212,0.0248052,0.0222842,0.00140472,0.0147615,0.000123185,-21,-110,51.6629,-73.0781,-51.6958,-58.5532,2.184
0.0573309,0.0666428,0.0334803,0.0248052,0.0223558,0.00159867,0.014809,8.21232e-05,-21,-110,51.2156,-72.6501,-52.0507,-58.9074,2.188
0.0574205,0.0666504,0.0335397,0.0248056,0.0224276,0.00169918,0.0148565,8.35397e-05,-21,-111,50.7648,-72.5494,-52.4046,-59.0918,2.192
0.0575103,0.0666587,0.0335992,0.0248059,0.0224994,0.00182377,0.0149041,8.44841e-05,-22,-112,50.3162,-72.3647,-52.7596,-59.2783,2.196
0.0576005,0.0666673,0.0336589,0.0248066,0.0225713,0.00193562,0.0149517,0.000113905,-22,-112,49.8679,-72.2248,-53.1138,-59.3511,2.2
0.0576909,0.066676,0.0337188,0.0248073,0.0226433,0.00201019,0.0149994,0.000133518,-22,-112,49.418,-72.2157,-53.469,-59.4633,2.204
0.0577816,0.0666853,0.0337789,0.024808,0.0227153,0.00211748,0.0150471,0.000146594,-23,-113,48.9704,-72.0924,-53.8254,-59.602,2.208
0.0578726,0.0666933,0.0338392,0.0248087,0.0227874,0.00207384,0.0150949,0.000155311,-23,-113,48.5136,-72.4976,-54.183,-59.7582,2.212
0.0579639,0.0667019,0.0338997,0.0248094,0.0228596,0.00210234,0.0151427,0.000161123,-24,-114,48.059,-72.6506,-54.5417,-59.9263,2.216
0.0580555,0.0667098,0.0339603,0.0248101,0.0229319,0.00206375,0.0151906,0.000164997,-25,-115,47.599,-73.0386,-54.9016,-60.1023,2.22
0.0581474,0.0667174,0.0340212,0.0248108,0.0230043,0.00200923,0.0152385,0.00016758,-26,-115,47.1355,-73.4827,-55.2626,-60.2837,2.224
0.0582395,0.0667247,0.0340822,0.0248118,0.0230767,0.0019441,0.0152865,0.000198093,-27,-115,46.6685,-73.9641,-55.6226,-60.3536,2.228
0.058332,0.066732,0.0341435,0.0248128,0.0231492,0.00190067,0.0153345,0.000218435,-28,-116,46.1999,-74.3699,-55.9839,-60.4643,2.232
0.0584247,0.0667396,0.0342049,0.0248142,0.0232218,0.00190052,0.0153826,0.000260787,-28,-116,45.7316,-74.6245,-56.3442,-60.4873,2.236
0.0585177,0.0667465,0.0342665,0.0248156,0.0232945,0.00184283,0.0154307,0.000289022,-29,-117,45.2579,-75.0808,-56.7057,-60.5668,2.24
0.0586111,0.0667534,0.0343284,0.024817,0.0233672,0.00180437,0.0154789,0.000307845,-30,-117,44.7827,-75.4699,-57.0683,-60.6843,2.244
0.0587047,0.0667606,0.0343904,0.0248187,0.02344,0.00180752,0.0155272,0.000349184,-31,-118,44.3077,-75.7138,-57.43,-60.7119,2.248
0.0587986,0.0667668,0.0344526,0.0248204,0.0235129,0.00172325,0.0155754,0.000376744,-32,-118,43.8254,-76.2638,-57.7929,-60.7948,2.252
0.0588928,0.0667734,0.034515,0.0248218,0.0235859,0.00169586,0.0156238,0.000366327,-33,-119,43.3434,-76.6151,-58.1589,-61.0298,2.256
0.0589873,0.06678,0.0345776,0.0248235,0.0236589,0.0016776,0.0156722,0.000388172,-34,-119,42.8598,-76.9346,-58.5241,-61.1359,2.26
0.0590821,0.0667872,0.0346403,0.0248249,0.023732,0.00172301,0.0157206,0.000373945,-34,-120,42.3784,-77.0316,-58.8926,-61.3866,2.264
0.0591771,0.0667948,0.0347033,0.024826,0.0238052,0.00178207,0.0157691,0.00033567,-35,-120,41.8973,-77.0811,-59.2642,-61.7336,2.268
0.0592725,0.0668035,0.0347665,0.0248266,0.0238785,0.00190782,0.0158176,0.000281362,-35,-121,41.4203,-76.8974,-59.6391,-62.145,2.272
0.0593682,0.0668131,0.0348299,0.024827,0.0239518,0.00207803,0.0158662,0.000216365,-35,-122,40.9474,-76.5584,-60.0172,-62.5993,2.276
0.0594641,0.0668235,0.0348934,0.024827,0.0240253,0.00224908,0.0159148,0.000144244,-35,-123,40.4767,-76.2166,-60.3986,-63.0823,2.28
0.0595604,0.0668342,0.0349572,0.024827,0.0240987,0.00239191,0.0159635,9.61624e-05,-35,-124,40.0062,-75.9739,-60.7812,-63.4694,2.284
0.0596569,0.0668453,0.0350211,0.0248273,0.0241723,0.00251591,0.0160122,9.28992e-05,-36,-124,39.536,-75.7974,-61.1628,-63.6773,2.288
0.0597537,0.0668574,0.0350853,0.0248277,0.0242459,0.00268496,0.016061,9.07237e-05,-36,-125,39.0699,-75.4635,-61.5456,-63.8811,2.292
0.0598509,0.0668719,0.0351496,0.024828,0.0243197,0.00299919,0.0161098,8.92734e-05,-36,-126,38.6155,-74.6216,-61.9296,-64.0823,2.296
0.0599483,0.0668874,0.0352142,0.0248287,0.0243934,0.00329505,0.0161587,0.000117097,-35,-126,38.1652,-73.8444,-62.3126,-64.1665,2.3
0.060046,0.0669037,0.0352789,0.0248294,0.0244673,0.00354987,0.0162076,0.000135647,-35,-126,37.717,-73.211,-62.6969,-64.288,2.304
0.060144,0.0669216,0.0353438,0.0248298,0.0245412,0.00386371,0.0162566,0.000119222,-35,-127,37.2767,-72.3713,-63.0844,-64.5496,2.308
0.0602423,0.0669399,0.0354089,0.0248304,0.0246152,0.00410173,0.0163056,0.000137063,-34,-128,36.8367,-71.7973,-63.471,-64.6743,2.312
0.060341,0.0669586,0.0354743,0.0248311,0.0246893,0.00428919,0.0163547,0.000148957,-35,-128,36.397,-71.4004,-63.8588,-64.823,2.316
0.0604399,0.0669772,0.0355398,0.0248318,0.0247635,0.00441417,0.0164038,0.000156887,-35,-129,35.9556,-71.2225,-64.2477,-64.9877,2.32
0.0605391,0.0669966,0.0356055,0.0248325,0.0248377,0.00455507,0.016453,0.000162173,-35,-129,35.5164,-70.9891,-64.6379,-65.1633,2.324
0.0606386,0.067017,0.0356714,0.0248336,0.024912,0.00473538,0.0165022,0.000194488,-35,-130,35.0813,-70.6181,-65.0271,-65.2309,2.328
0.0607384,0.0670384,0.0357375,0.0248342,0.0249863,0.00494196,0.0165515,0.000187241,-35,-130,34.6502,-70.1554,-65.4196,-65.4569,2.332
0.0608385,0.0670598,0.0358038,0.0248356,0.0250608,0.00507968,0.0166008,0.000239991,-35,-131,34.2175,-69.9339,-65.8091,-65.4431,2.336
0.0609388,0.0670826,0.0358703,0.024837,0.0251353,0.00528665,0.0166501,0.000275158,-35,-131,33.7908,-69.4703,-66.1999,-65.4999,2.34
0.0610395,0.0671058,0.035937,0.024838,0.0252099,0.00545343,0.0166995,0.000269811,-35,-132,33.3643,-69.1476,-66.5938,-65.7189,2.344
0.0611405,0.0671303,0.0360039,0.0248394,0.0252845,0.00567977,0.016749,0.000295038,-35,-132,32.9438,-68.6167,-66.9869,-65.8158,2.348
0.0612418,0.0671541,0.036071,0.0248412,0.0253593,0.00577309,0.0167985,0.000340646,-36,-133,32.5178,-68.5516,-67.3791,-65.8314,2.352
0.0613434,0.067178,0.0361383,0.0248429,0.0254341,0.0058353,0.016848,0.000371052,-36,-133,32.0902,-68.5956,-67.7725,-65.9079,2.356
0.0614453,0.0672015,0.0362058,0.0248446,0.0255089,0.00584798,0.0168976,0.000391323,-37,-134,31.659,-68.8133,-68.1671,-66.0252,2.36
0.0615475,0.0672263,0.0362735,0.0248463,0.0255839,0.0059716,0.0169473,0.000404836,-37,-134,31.2338,-68.6429,-68.5629,-66.1697,2.364
0.06165,0.0672509,0.0363414,0.0248477,0.0256589,0.00602522,0.016997,0.000385055,-37,-135,30.8051,-68.7178,-68.9619,-66.4476,2.368
0.0617527,0.0672771,0.0364095,0.0248491,0.0257339,0.00620493,0.0170467,0.000371867,-37,-136,30.3842,-68.3516,-69.3622,-66.6993,2.372
0.0618558,0.0673044,0.0364777,0.0248505,0.0258091,0.0064111,0.0170965,0.000363075,-37,-136,29.9673,-67.893,-69.7636,-66.9336,2.376
0.0619592,0.0673317,0.0365462,0.0248515,0.0258843,0.00654855,0.0171463,0.000328423,-38,-137,29.5488,-67.6752,-70.1683,-67.2715,2.38
0.0620629,0.0673611,0.0366149,0.0248529,0.0259596,0.00681293,0.0171962,0.000334112,-37,-138,29.14,-67.0134,-70.5721,-67.4482,2.384
0.0621669,0.0673898,0.0366838,0.0248539,0.026035,0.0069316,0.0172461,0.000309114,-38,-138,28.7258,-66.8618,-70.9792,-67.7479,2.388
0.0622712,0.0674198,0.0367529,0.024855,0.0261104,0.00712588,0.0172961,0.000292449,-38,-139,28.3175,-66.4458,-71.3875,-68.0144,2.392
0.0623758,0.0674499,0.0368222,0.024856,0.0261859,0.00725539,0.0173461,0.000281339,-38,-140,27.9076,-66.2567,-71.797,-68.2589,2.396
0.0624807,0.067482,0.0368917,0.024857,0.0262615,0.00751449,0.0173961,0.000273932,-38,-140,27.5074,-65.6144,-72.2076,-68.4888,2.4
0.0625859,0.0675141,0.0369613,0.0248581,0.0263371,0.00768721,0.0174462,0.000268994,-38,-141,27.1055,-65.2746,-72.6195,-68.7089,2.404
0.0626914,0.067547,0.0370312,0.0248595,0.0264128,0.00785995,0.0174964,0.000294493,-38,-141,26.7058,-64.935,-73.0306,-68.8075,2.408
0.0627972,0.0675801,0.0371013,0.0248605,0.0264886,0.00800389,0.0175466,0.000282701,-38,-142,26.3063,-64.6964,-73.4448,-69.0555,2.412
0.0629033,0.067614,0.0371716,0.0248612,0.0265644,0.00815744,0.0175968,0.00024605,-38,-143,25.9089,-64.4244,-73.8624,-69.403,2.416
0.0630097,0.0676489,0.0372421,0.0248622,0.0266403,0.00834618,0.0176471,0.000250406,-38,-143,25.5156,-64.0295,-74.2791,-69.5867,2.42
0.0631164,0.0676855,0.0373128,0.0248636,0.0267163,0.00861596,0.0176974,0.000282101,-38,-144,25.1301,-63.3512,-74.695,-69.6613,2.424
0.0632234,0.0677221,0.0373837,0.0248646,0.0267923,0.00879581,0.0177478,0.00027444,-38,-145,24.7429,-62.9879,-75.1141,-69.8934,2.428
0.0633307,0.0677608,0.0374548,0.024866,0.0268685,0.00908846,0.0177982,0.000298124,-37,-145,24.3655,-62.23,-75.5324,-70.0004,2.432
0.0634384,0.0677988,0.0375261,0.0248674,0.0269446,0.00922597,0.0178487,0.000313913,-38,-146,23.9825,-62.0153,-75.9518,-70.1391,2.436
0.0635463,0.0678361,0.0375975,0.0248688,0.0270209,0.00926007,0.0178992,0.000324439,-38,-146,23.5941,-62.1629,-76.3725,-70.299,2.44
0.0636545,0.0678738,0.0376692,0.0248705,0.0270972,0.00931159,0.0179497,0.000360247,-39,-147,23.206,-62.2496,-76.7923,-70.358,2.444
0.0637631,0.0679108,0.0377411,0.0248726,0.0271736,0.00928836,0.0180003,0.00041291,-39,-147,22.8123,-62.5983,-77.2113,-70.3497,2.448
0.0638719,0.0679477,0.0378132,0.0248743,0.02725,0.00927287,0.018051,0.000419228,-40,-148,22.417,-62.9201,-77.6335,-70.527,2.452
0.0639811,0.067985,0.0378856,0.024876,0.0273266,0.00929133,0.0181017,0.00042344,-41,-148,22.0219,-63.1233,-78.057,-70.7129,2.456
0.0640905,0.068021,0.0379581,0.0248778,0.0274031,0.00918848,0.0181524,0.000426248,-42,-149,21.6174,-63.7513,-78.4817,-70.9046,2.46
0.0642003,0.0680569,0.0380308,0.0248792,0.0274798,0.00911991,0.0182032,0.000399329,-43,-150,21.2114,-64.2596,-78.9097,-71.2154,2.464
0.0643104,0.0680932,0.0381037,0.0248809,0.0275565,0.00910299,0.018254,0.000410174,-43,-150,20.8055,-64.5873,-79.3368,-71.3753,2.468
0.0644208,0.0681288,0.0381768,0.0248826,0.0276333,0.00903412,0.0183049,0.000417404,-44,-151,20.3941,-65.0971,-79.7651,-71.5498,2.472
0.0645314,0.0681637,0.0382501,0.024884,0.0277101,0.00893063,0.0183558,0.000393433,-45,-152,19.9773,-65.7283,-80.1968,-71.8493,2.476
0.0646424,0.0681979,0.0383236,0.0248854,0.0277871,0.00880406,0.0184067,0.000377452,-46,-152,19.5549,-66.4405,-80.6296,-72.117,2.48
0.0647537,0.0682317,0.0383974,0.0248864,0.027864,0.00869088,0.0184577,0.000338008,-47,-153,19.129,-67.106,-81.0658,-72.4788,2.484
0.0648653,0.0682649,0.0384713,0.0248875,0.0279411,0.00855785,0.0185087,0.000311711,-49,-154,18.6975,-67.8413,-81.5032,-72.7881,2.488
0.0649773,0.0682981,0.0385454,0.0248885,0.0280182,0.00846916,0.0185598,0.00029418,-50,-155,18.2644,-68.4216,-81.9418,-73.0626,2.492
0.0650895,0.0683323,0.0386198,0.0248895,0.0280954,0.00849641,0.0186109,0.000282493,-50,-155,17.8353,-68.5963,-82.3816,-73.3138,2.496
0.065202,0.0683672,0.0386943,0.0248906,0.0281726,0.00857216,0.0186621,0.000274701,-51,-156,17.4082,-68.6016,-82.8227,-73.5496,2.5
0.0653149,0.068401,0.0387691,0.0248919,0.0282499,0.00853628,0.0187133,0.000298298,-52,-156,16.9738,-68.9977,-83.2629,-73.6601,2.504
0.065428,0.0684356,0.038844,0.0248933,0.0283273,0.00856995,0.0187646,0.000314029,-52,-157,16.5415,-69.1507,-83.7043,-73.8022,2.508
0.0655415,0.0684708,0.0389192,0.0248947,0.0284047,0.00864997,0.0188159,0.000324516,-53,-158,16.1112,-69.1416,-84.147,-73.9654,2.512
0.0656553,0.0685071,0.0389946,0.0248964,0.0284822,0.0087897,0.0188672,0.000360299,-53,-158,15.685,-68.9238,-84.5888,-74.0276,2.516
0.0657693,0.0685437,0.0390701,0.0248978,0.0285598,0.00891163,0.0189186,0.000355363,-53,-159,15.259,-68.7685,-85.034,-74.2529,2.52
0.0658837,0.0685814,0.0391459,0.0248992,0.0286374,0.0090793,0.01897,0.000352072,-53,-159,14.8369,-68.4534,-85.4803,-74.4717,2.524
0.0659984,0.0686187,0.0392219,0.0249009,0.0287151,0.00916229,0.0190215,0.00037867,-54,-160,14.4113,-68.4348,-85.9259,-74.5712,2.528
0.0661135,0.068657,0.0392981,0.024903,0.0287929,0.00930398,0.019073,0.000425192,-54,-160,13.9896,-68.211,-86.3706,-74.5911,2.532
0.0662288,0.0686981,0.0393745,0.0249047,0.0288707,0.00962878,0.0191245,0.000427416,-53,-161,13.5814,-67.3466,-86.8186,-74.7884,2.536
0.0663444,0.0687393,0.0394511,0.0249071,0.0289486,0.0098453,0.0191761,0.00048648,-53,-162,13.1715,-66.8614,-87.2637,-74.7585,2.54
0.0664604,0.0687838,0.0395279,0.0249092,0.0290265,0.0102776,0.0192277,0.000497066,-52,-162,12.7789,-65.6213,-87.7121,-74.9227,2.544
0.0665766,0.068828,0.0396049,0.0249106,0.0291045,0.0105369,0.0192794,0.000446541,-52,-163,12.3827,-64.9864,-88.1659,-75.3315,2.548
0.0666932,0.0688737,0.0396821,0.0249123,0.0291826,0.010825,0.0193311,0.000441649,-52,-164,11.9924,-64.2514,-88.6188,-75.5579,2.552
0.0668101,0.068921,0.0397596,0.0249134,0.0292607,0.011161,0.0193829,0.000380805,-51,-165,11.6098,-63.3488,-89.0772,-76.0083,2.556
0.0669273,0.0689697,0.0398372,0.0249147,0.0293389,0.0115002,0.0194347,0.000369034,-51,-165,11.2332,-62.4354,-89.5347,-76.2626,2.56
0.0670448,0.0690194,0.039915,0.0249158,0.0294172,0.0118127,0.0194865,0.000332395,-50,-166,10.8605,-61.6156,-89.9955,-76.6165,2.564
0.0671626,0.0690702,0.0399931,0.0249172,0.0294955,0.0121074,0.0195384,0.000336761,-50,-167,10.4918,-60.8583,-90.4555,-76.8066,2.568
0.0672808,0.0691231,0.0400713,0.0249182,0.0295739,0.0124766,0.0195903,0.00031088,-49,-168,10.1328,-59.8404,-90.9189,-77.1178,2.572
0.0673992,0.0691773,0.0401498,0.0249196,0.0296523,0.0128379,0.0196423,0.000322417,-49,-168,9.7796,-58.8503,-91.3814,-77.2795,2.576
0.067518,0.0692337,0.0402285,0.0249206,0.0297308,0.0132515,0.0196943,0.000301317,-48,-169,9.43611,-57.6774,-91.8472,-77.5719,2.58
0.0676371,0.06929,0.0403074,0.024922,0.0298094,0.0135273,0.0197463,0.000316042,-47,-170,9.09091,-56.9873,-92.3122,-77.7212,2.584
0.0677565,0.069347,0.0403865,0.0249237,0.029888,0.0137687,0.0197984,0.000354649,-47,-170,8.74777,-56.4176,-92.7763,-77.7751,2.588
0.0678762,0.069405,0.0404657,0.0249251,0.0299667,0.014016,0.0198505,0.000351597,-47,-171,8.4086,-55.8274,-93.2438,-77.9958,2.592
0.0679962,0.0694644,0.0405453,0.0249261,0.0300454,0.014296,0.0199027,0.00032077,-47,-172,8.0753,-55.1229,-93.7147,-78.3277,2.596
0.0681165,0.0695249,0.040625,0.0249275,0.0301242,0.0145691,0.0199549,0.000329011,-46,-172,7.74597,-54.443,-94.1847,-78.5036,2.6
0.0682372,0.0695864,0.0407049,0.0249293,0.0302031,0.0148375,0.0200072,0.000363295,-46,-173,7.42061,-53.7796,-94.6538,-78.5754,2.604
0.0683582,0.0696486,0.040785,0.0249306,0.030282,0.015074,0.0200594,0.00035736,-46,-173,7.09731,-53.228,-95.1263,-78.8083,2.608
0.0684795,0.0697111,0.0408654,0.0249324,0.030361,0.0152605,0.0201118,0.000382195,-46,-174,6.77417,-52.8518,-95.598,-78.9183,2.612
0.0686011,0.0697757,0.0409459,0.0249344,0.0304401,0.0155576,0.0201641,0.000427542,-45,-175,6.46069,-52.0887,-96.0689,-78.9464,2.616
0.068723,0.0698407,0.0410267,0.0249369,0.0305192,0.0157844,0.0202165,0.000486565,-45,-175,6.14738,-51.5717,-96.539,-78.9199,2.62
0.0688452,0.0699077,0.0411077,0.0249393,0.0305984,0.0161084,0.020269,0.000525913,-44,-175,5.84373,-50.7149,-97.0103,-78.9723,2.624
0.0689678,0.0699747,0.0411888,0.024942,0.0306776,0.0163244,0.0203215,0.000580936,-44,-176,5.53833,-50.2363,-97.4808,-78.9621,2.628
0.0690906,0.0700411,0.0412702,0.0249448,0.0307569,0.0164108,0.020374,0.000617618,-44,-176,5.22739,-50.2114,-97.9525,-79.0255,2.632
0.0692138,0.0701084,0.0413518,0.0249479,0.0308362,0.0165547,0.0204265,0.000670864,-45,-177,4.9204,-49.9852,-98.4235,-79.0227,2.636
0.0693373,0.0701772,0.0414336,0.024951,0.0309156,0.0167659,0.0204791,0.000706361,-44,-177,4.61927,-49.5241,-98.8957,-79.0912,2.64
0.0694611,0.0702466,0.0415157,0.0249541,0.0309951,0.0169642,0.0205318,0.000730026,-44,-178,4.3202,-49.108,-99.3692,-79.2071,2.644
0.0695853,0.0703171,0.0415979,0.0249569,0.0310746,0.0171828,0.0205845,0.000717011,-44,-179,4.02507,-48.6213,-99.846,-79.4698,2.648
0.0697097,0.0703872,0.0416803,0.024959,0.0311542,0.0172998,0.0206372,0.000650753,-44,-180,3.72629,-48.4905,-100.328,-79.9457,2.652
0.0698345,0.0704581,0.041763,0.0249603,0.0312339,0.0174353,0.0206899,0.000548999,-44,-181,3.42957,-48.2948,-100.816,-80.5638,2.656
0.0699596,0.0705303,0.0418459,0.0249607,0.0313136,0.0176409,0.0207427,0.00039479,-44,-182,3.13869,-47.8545,-101.311,-81.3918,2.66
0.070085,0.0706035,0.0419289,0.0249607,0.0313933,0.0178642,0.0207956,0.000263193,-44,-183,2.85175,-47.3517,-101.809,-82.1295,2.664
0.0702108,0.0706775,0.0420122,0.0249607,0.0314731,0.0180708,0.0208484,0.000175462,-44,-185,2.56687,-46.9083,-102.309,-82.6919,2.668
0.0703368,0.0707507,0.0420957,0.024961,0.031553,0.0181508,0.0209014,0.000145766,-44,-185,2.27642,-46.9076,-102.808,-83.0223,2.672
0.0704632,0.0708243,0.0421794,0.024961,0.0316329,0.018233,0.0209543,9.71772e-05,-44,-186,1.98612,-46.8997,-103.31,-83.4285,2.676
0.0705899,0.0708986,0.0422634,0.024961,0.0317129,0.0183454,0.0210073,6.47848e-05,-45,-187,1.69786,-46.7863,-103.814,-83.77,2.68
0.0707169,0.0709735,0.0423475,0.0249614,0.031793,0.0184779,0.0210603,7.19808e-05,-45,-188,1.41164,-46.6027,-104.317,-83.9533,2.684
0.0708442,0.0710485,0.0424318,0.0249614,0.0318731,0.0185662,0.0211134,4.79872e-05,-45,-189,1.12365,-46.574,-104.823,-84.2615,2.688
0.0709719,0.0711235,0.0425164,0.0249614,0.0319532,0.0186251,0.0211665,3.19915e-05,-45,-189,0.833908,-46.6484,-105.33,-84.5379,2.692
0.0710998,0.0712005,0.0426012,0.0249614,0.0320335,0.0188371,0.0212196,2.13276e-05,-45,-190,0.553799,-46.1872,-105.839,-84.7931,2.696
0.0712281,0.0712807,0.0426862,0.0249617,0.0321137,0.0192376,0.0212728,4.30094e-05,-44,-191,0.289027,-45.0665,-106.347,-84.9191,2.7
0.0713568,0.0713577,0.0427714,0.0249617,0.0321941,0.0192454,0.021326,2.86729e-05,-45,-192,0.00538625,-45.3202,-106.858,-85.1893,2.704
0.0714857,0.0714362,0.0428568,0.0249621,0.0322744,0.0193658,0.0213792,4.79062e-05,-45,-192,-0.272421,-45.1802,-107.368,-85.3254,2.708
0.0716149,0.0715146,0.0429424,0.0249624,0.0323549,0.0194461,0.0214325,6.07284e-05,-45,-193,-0.551998,-45.1808,-107.88,-85.4872,2.712
0.0717445,0.0715947,0.0430282,0.0249628,0.0324354,0.0196436,0.0214859,6.92765e-05,-45,-194,-0.823844,-44.7714,-108.393,-85.6663,2.716
0.0718744,0.0716763,0.0431143,0.0249628,0.0325159,0.0198904,0.0215392,4.61843e-05,-45,-194,-1.08986,-44.1895,-108.909,-85.9721,2.72
0.0720047,0.0717575,0.0432005,0.0249635,0.0325965,0.0200261,0.0215926,8.83714e-05,-45,-195,-1.35955,-43.9965,-109.422,-86.017,2.724
0.0721352,0.0718383,0.043287,0.0249642,0.0326772,0.0200878,0.021646,0.000116496,-45,-196,-1.63292,-44.0629,-109.937,-86.1182,2.728
0.0722661,0.0719198,0.0433737,0.0249652,0.0327579,0.0201865,0.0216995,0.000164037,-45,-196,-1.90425,-43.9999,-110.451,-86.1419,2.732
0.0723973,0.0720035,0.0434606,0.0249666,0.0328387,0.0204251,0.021753,0.000224522,-45,-197,-2.16597,-43.4476,-110.964,-86.114,2.736
0.0725288,0.0720881,0.0435477,0.024969,0.0329195,0.0206705,0.0218066,0.000351218,-45,-197,-2.42376,-42.8716,-111.472,-85.8214,2.74
0.0726606,0.072171,0.0436351,0.0249718,0.0330004,0.0206902,0.0218601,0.000464472,-45,-197,-2.69283,-43.0859,-111.98,-85.5827,2.744
0.0727928,0.072256,0.0437226,0.0249756,0.0330814,0.020876,0.0219138,0.000626348,-45,-197,-2.95228,-42.7187,-112.482,-85.1497,2.748
0.0729253,0.0723403,0.0438104,0.0249797,0.0331623,0.0209423,0.0219674,0.000763057,-45,-197,-3.21731,-42.7701,-112.984,-84.8174,2.752
0.0730581,0.072427,0.0438983,0.0249838,0.0332434,0.0211881,0.0220211,0.000854196,-45,-198,-3.47082,-42.1936,-113.487,-84.6676,2.756
0.0731912,0.0725124,0.0439865,0.0249873,0.0333245,0.0212367,0.0220748,0.000857373,-46,-198,-3.73372,-42.3072,-113.995,-84.8698,2.76
0.0733247,0.0725991,0.0440749,0.0249908,0.0334057,0.0213843,0.0221286,0.000859491,-46,-199,-3.9908,-42.0746,-114.505,-85.0764,2.764
0.0734585,0.0726865,0.0441636,0.0249932,0.0334869,0.0215403,0.0221824,0.000774531,-46,-200,-4.24587,-41.8128,-115.022,-85.6314,2.768
0.0735926,0.0727753,0.0442524,0.0249956,0.0335681,0.0217595,0.0222362,0.00071789,-45,-201,-4.49512,-41.3302,-115.541,-86.0733,2.772
0.073727,0.0728634,0.0443415,0.0249973,0.0336494,0.021848,0.0222901,0.000622548,-46,-202,-4.74996,-41.305,-116.065,-86.6701,2.776
0.0738618,0.0729508,0.0444307,0.0249987,0.0337308,0.0218494,0.022344,0.000530196,-46,-203,-5.0104,-41.5848,-116.592,-87.2551,2.78
0.0739969,0.0730406,0.0445202,0.0250004,0.0338122,0.0220519,0.0223979,0.000497418,-46,-204,-5.25932,-41.161,-117.119,-87.602,2.784
0.0741323,0.0731311,0.0446099,0.0250018,0.0338937,0.0222445,0.0224519,0.000446776,-46,-205,-5.50623,-40.7722,-117.649,-88.0204,2.788
0.074268,0.073221,0.0446998,0.0250032,0.0339752,0.0223153,0.0225059,0.000413014,-46,-206,-5.75874,-40.8097,-118.18,-88.3715,2.792
0.0744041,0.0733101,0.04479,0.0250046,0.0340568,0.0223049,0.0225599,0.000390507,-47,-207,-6.01684,-41.1316,-118.712,-88.6777,2.796
0.0745405,0.073402,0.0448803,0.025006,0.0341385,0.0225283,0.022614,0.000375501,-46,-208,-6.26153,-40.6354,-119.246,-88.954,2.8
0.0746772,0.0734939,0.0449709,0.0250073,0.0342201,0.0226773,0.0226681,0.000365498,-46,-208,-6.50802,-40.4,-119.781,-89.2105,2.804
0.0748142,0.0735858,0.0450617,0.0250087,0.0343019,0.0227766,0.0227223,0.000358829,-47,-209,-6.75631,-40.3386,-120.318,-89.4537,2.808
0.0749516,0.0736777,0.0451526,0.0250101,0.0343837,0.0228428,0.0227764,0.000354383,-47,-210,-7.0064,-40.3932,-120.855,-89.6882,2.812
0.0750893,0.073771,0.0452439,0.0250111,0.0344655,0.0230021,0.0228307,0.000322628,-47,-211,-7.25069,-40.1221,-121.396,-90.0321,2.816
0.0752273,0.0738653,0.0453353,0.0250125,0.0345474,0.0231946,0.0228849,0.000330249,-47,-212,-7.49107,-39.7347,-121.937,-90.2186,2.82
0.0753657,0.0739586,0.0454269,0.0250139,0.0346294,0.0232366,0.0229392,0.00033533,-47,-212,-7.73896,-39.8745,-122.478,-90.4154,2.824
0.0755044,0.0740539,0.0455188,0.0250153,0.0347113,0.0234374,0.0229935,0.000338717,-47,-213,-7.97725,-39.4589,-123.021,-90.6192,2.828
0.0756434,0.0741507,0.0456109,0.025017,0.0347934,0.0236864,0.0230479,0.000369766,-47,-214,-8.20975,-38.8745,-123.563,-90.7124,2.832
0.0757827,0.0742481,0.0457032,0.0250184,0.0348755,0.02391,0.0231022,0.000361674,-46,-215,-8.44025,-38.3794,-124.109,-90.9623,2.836
0.0759224,0.0743469,0.0457957,0.0250198,0.0349576,0.0241742,0.0231567,0.00035628,-46,-215,-8.66496,-37.7421,-124.656,-91.2015,2.84
0.0760624,0.074445,0.0458884,0.0250218,0.0350398,0.0242927,0.0232111,0.000410265,-46,-216,-8.89527,-37.6149,-125.2,-91.2034,2.844
0.0762027,0.0745411,0.0459814,0.0250229,0.0351221,0.024199,0.0232656,0.000359883,-47,-217,-9.1388,-38.2307,-125.751,-91.6228,2.848
0.0763433,0.0746416,0.0460746,0.0250246,0.0352044,0.0245109,0.0233201,0.000383877,-46,-218,-9.35943,-37.4274,-126.3,-91.7449,2.852
0.0764843,0.074738,0.046168,0.0250253,0.0352867,0.0243732,0.0233747,0.0003135,-47,-219,-9.60468,-38.1973,-126.856,-92.2446,2.856
0.0766256,0.074842,0.0462616,0.025027,0.0353692,0.0249149,0.0234292,0.000352954,-46,-219,-9.80993,-36.5899,-127.407,-92.3052,2.86
0.0767673,0.0749436,0.0463554,0.0250281,0.0354516,0.0250745,0.0234839,0.000321676,-46,-220,-10.0303,-36.32,-127.964,-92.6488,2.864
0.0769092,0.0750448,0.0464494,0.0250301,0.0355341,0.025152,0.0235385,0.000387196,-46,-221,-10.2544,-36.3372,-128.516,-92.6053,2.868
0.0770515,0.0751467,0.0465437,0.0250319,0.0356167,0.0252614,0.0235932,0.000402085,-46,-221,-10.4765,-36.2435,-129.071,-92.7644,2.872
0.0771942,0.0752459,0.0466382,0.0250336,0.0356993,0.0251039,0.0236479,0.000412011,-47,-222,-10.7156,-37.0837,-129.628,-92.9436,2.876
0.0773371,0.075352,0.0467329,0.025036,0.0357819,0.0255747,0.0237027,0.000476211,-46,-223,-10.9185,-35.725,-130.181,-92.9058,2.88
0.0774804,0.0754532,0.0468278,0.0250384,0.0358646,0.0254856,0.0237574,0.00051901,-47,-223,-11.1499,-36.3266,-130.736,-92.9537,2.884
0.0776241,0.0755572,0.0469229,0.0250419,0.0359473,0.0256564,0.0238123,0.000633916,-47,-223,-11.3679,-36.0181,-131.286,-92.7134,2.888
0.077768,0.0756577,0.0470183,0.0250457,0.0360301,0.0254825,0.0238671,0.000739311,-48,-224,-11.6066,-36.9169,-131.836,-92.5112,2.892
0.0779123,0.0757631,0.0471139,0.0250505,0.036113,0.0257695,0.023922,0.000895947,-48,-224,-11.8207,-36.2021,-132.38,-92.1041,2.896
0.0780569,0.0758643,0.0472097,0.0250554,0.0361959,0.0256154,0.0239769,0.00100037,-49,-224,-12.0593,-37.0316,-132.926,-91.9061,2.9
0.0782019,0.07597,0.0473057,0.0250612,0.0362788,0.025887,0.0240318,0.00115636,-48,-224,-12.2751,-36.3715,-133.467,-91.5019,2.904
0.0783471,0.0760744,0.0474019,0.0250668,0.0363618,0.0259528,0.0240868,0.00123156,-48,-225,-12.5002,-36.4314,-134.011,-91.421,2.908
0.0784928,0.0761804,0.0474984,0.0250713,0.0364448,0.0261407,0.0241418,0.00119532,-48,-226,-12.7178,-36.0645,-134.563,-91.7859,2.912
0.0786387,0.0762875,0.0475951,0.0250751,0.0365279,0.0263523,0.0241968,0.00111358,-48,-227,-12.9314,-35.6146,-135.12,-92.3331,2.916
0.078785,0.0763953,0.047692,0.0250764,0.0366111,0.026551,0.0242519,0.000857552,-48,-229,-13.1431,-35.2103,-135.693,-93.5775,2.92
0.0789316,0.0765021,0.0477891,0.0250768,0.0366942,0.0265971,0.024307,0.000600492,-48,-231,-13.3623,-35.3402,-136.274,-94.8261,2.924
0.0790785,0.0766106,0.0478864,0.0250768,0.0367775,0.0267717,0.0243621,0.000400328,-48,-232,-13.5738,-35.0201,-136.858,-95.8473,2.928
0.0792258,0.0767191,0.047984,0.0250768,0.0368607,0.0268882,0.0244173,0.000266885,-48,-234,-13.7871,-34.904,-137.443,-96.6017,2.932
0.0793734,0.0768282,0.0480818,0.0250768,0.0369441,0.0270234,0.0244725,0.000177924,-48,-235,-13.9985,-34.7224,-138.03,-97.1783,2.936
0.0795214,0.0769398,0.0481798,0.0250771,0.0370274,0.0273151,0.0245277,0.000147407,-48,-236,-14.1985,-33.9933,-138.616,-97.5213,2.94
0.0796696,0.0770511,0.048278,0.0250771,0.0371109,0.0274807,0.024583,9.82711e-05,-48,-237,-14.4021,-33.7055,-139.205,-97.9389,2.944
0.0798183,0.0771609,0.0483764,0.0250771,0.0371943,0.027476,0.0246383,6.55141e-05,-48,-238,-14.6152,-34.0141,-139.796,-98.291,2.948
0.0799672,0.0772718,0.0484751,0.0250771,0.0372778,0.0275592,0.0246936,4.3676e-05,-48,-238,-14.8244,-34.0151,-140.388,-98.5996,2.952
0.0801165,0.0773845,0.048574,0.0250775,0.0373614,0.0277586,0.0247489,5.79083e-05,-48,-239,-15.026,-33.6095,-140.979,-98.7641,2.956
0.0802661,0.0774964,0.0486731,0.0250775,0.037445,0.027834,0.0248043,3.86055e-05,-48,-240,-15.2332,-33.6383,-141.574,-99.0628,2.96
0.080416,0.077609,0.0487724,0.0250778,0.0375286,0.0279419,0.0248597,5.45279e-05,-48,-241,-15.4384,-33.5537,-142.168,-99.2208,2.964
0.0805663,0.0777251,0.048872,0.0250778,0.0376123,0.0283017,0.0249152,3.6352e-05,-48,-242,-15.6265,-32.5873,-142.765,-99.5152,2.968
0.0807169,0.0778398,0.0489717,0.0250782,0.037696,0.0284264,0.0249706,5.30256e-05,-48,-243,-15.8241,-32.4439,-143.361,-99.6704,2.972
0.0808679,0.0779528,0.0490717,0.0250782,0.0377798,0.0283655,0.0250261,3.53504e-05,-48,-243,-16.0329,-32.95,-143.961,-99.9631,2.976
0.0810192,0.0780699,0.0491719,0.0250785,0.0378637,0.0286705,0.0250817,5.23578e-05,-48,-244,-16.2208,-32.1761,-144.561,-100.117,2.98
0.0811708,0.0781836,0.0492724,0.0250789,0.0379475,0.0285859,0.0251372,6.36962e-05,-49,-245,-16.4296,-32.7658,-145.161,-100.294,2.984
0.0813228,0.0783,0.049373,0.0250792,0.0380314,0.0287598,0.0251928,7.1255e-05,-49,-246,-16.625,-32.4508,-145.763,-100.486,2.988
0.081475,0.0784172,0.0494739,0.0250795,0.0381154,0.0289333,0.0252484,7.62943e-05,-48,-247,-16.8184,-32.1373,-146.366,-100.689,2.992
0.0816277,0.0785336,0.049575,0.0250802,0.0381994,0.0289914,0.0253041,0.000108445,-49,-247,-17.0175,-32.228,-146.969,-100.783,2.996
0.0817806,0.0786504,0.0496764,0.0250813,0.0382835,0.0290589,0.0253598,0.000158669,-49,-248,-17.2166,-32.2858,-147.57,-100.804,3
0.0819339,0.0788877,0.0497779,0.025084,0.0383676,0.039152,0.0254155,0.000336107,-14,-248,-16.7543,2.74551,-148.163,-100.317,3.004
0.0820876,0.0789385,0.0498797,0.0250847,0.0384517,0.0303336,0.0254712,0.000281653,-45,-249,-17.32,-28.4134,-148.77,-100.758,3.008
0.0822416,0.0790055,0.0499817,0.0250861,0.0385359,0.0258078,0.025527,0.000302932,-62,-250,-17.7982,-44.5482,-149.373,-100.896,3.012
0.0823959,0.0791251,0.0500839,0.0250903,0.0386201,0.0271669,0.0255828,0.000547446,-58,-250,-17.9895,-40.0863,-149.962,-100.141,3.016
0.0825505,0.0792446,0.0501863,0.0250944,0.0387044,0.0280729,0.0256386,0.000710455,-55,-250,-18.1826,-37.2101,-150.552,-99.7125,3.02
0.0827055,0.0793645,0.050289,0.0250985,0.0387887,0.0287057,0.0256944,0.000819128,-53,-250,-18.3756,-35.2904,-151.143,-99.5012,3.024
0.0828608,0.0794861,0.0503919,0.025102,0.0388731,0.0292716,0.0257503,0.000833994,-52,-251,-18.561,-33.6053,-151.739,-99.6652,3.028
0.0830165,0.0796084,0.050495,0.0251055,0.0389575,0.0297064,0.0258062,0.000843906,-51,-252,-18.7445,-32.3789,-152.337,-99.8492,3.032
