peachynonah/Fire_monitor_KIRO_CDSL/csv_datas/trial13/cdsl_data_t14_1_FLDOB_d.csv
joint1_pos_desired, joint1_pos, joint2_pos_desired, joint2_pos, joint1_vel_desired, joint1_vel_filtered, joint2_vel_desired, joint2_vel_filtered, target_torque_joint1, target_torque_joint2, estimated_disturbance_joint1, saturated_DOB_joint1, estimated_disturbance_joint2, saturated_DOB_joint2, current_time
3.127,3.12559,1.038,1.03702,-2.34478e-08,0,-7.78344e-09,0,-4,-10,-0,-0,-50.0394,-50.0394,0.004
3.127,3.12559,1.038,1.03694,-9.37725e-08,-2.87909e-05,-3.11275e-08,-0.00619005,-4,-71,0.0182955,0.0182955,-49.9791,-49.9791,0.008
3.127,3.12559,1.038,1.03689,-2.10946e-07,-1.91939e-05,-7.0023e-08,-0.00858929,-4,-94,0.0368941,0.0368941,-49.6623,-49.6623,0.012
3.127,3.12559,1.038,1.03684,-3.7494e-07,1.5995e-05,-1.2446e-07,-0.00932506,-4,-102,0.0553642,0.0553642,-49.2453,-49.2453,0.016
3.127,3.12559,1.038,1.03681,-5.85726e-07,6.82452e-05,-1.9443e-07,-0.00886547,-4,-99,0.0734173,0.0734173,-48.7975,-48.7975,0.02
3.127,3.12559,1.038,1.03679,-8.43277e-07,4.54968e-05,-2.79924e-07,-0.00752261,-4,-87,0.0909307,0.0909307,-48.3694,-48.3694,0.024
3.127,3.12559,1.038,1.03679,-1.14756e-06,3.03312e-05,-3.80931e-07,-0.00547573,-4,-67,0.108694,0.108694,-47.9982,-47.9982,0.028
3.127,3.12559,1.038,1.03679,-1.49856e-06,2.02208e-05,-4.97443e-07,-0.00342016,-4,-48,0.126622,0.126622,-47.7131,-47.7131,0.032
3.127,3.12559,1.038,1.0368,-1.89623e-06,4.22714e-05,-6.2945e-07,-0.00141638,-4,-29,0.144633,0.144633,-47.5145,-47.5145,0.036
3.127,3.12559,1.038,1.03681,-2.34056e-06,2.8181e-05,-7.76944e-07,0.000207386,-4,-13,0.162415,0.162415,-47.4,-47.4,0.04
3.127,3.12559,1.038,1.03683,-2.83151e-06,4.75782e-05,-9.39914e-07,0.00131869,-4,-2,0.180323,0.180323,-47.3535,-47.3535,0.044
3.127,3.12559,1.038,1.03684,-3.36906e-06,3.17188e-05,-1.11835e-06,0.00194439,-4,3,0.198029,0.198029,-47.3535,-47.3535,0.048
3.127,3.12559,1.038,1.03685,-3.95317e-06,2.11459e-05,-1.31225e-06,0.00218878,-4,5,0.215903,0.215903,-47.3798,-47.3798,0.052
3.127,3.12559,1.038,1.03686,-4.58383e-06,1.40973e-05,-1.52159e-06,0.00220775,-4,6,0.233886,0.233886,-47.4164,-47.4164,0.056
3.127,3.12559,1.038,1.03687,-5.26099e-06,9.39817e-06,-1.74637e-06,0.0019037,-4,3,0.25194,0.25194,-47.4536,-47.4536,0.06
3.127,3.12559,1.038,1.03687,-5.98464e-06,6.26545e-06,-1.98659e-06,0.00147067,-4,0,0.270037,0.270037,-47.4779,-47.4779,0.064
3.127,3.12559,1.038,1.03687,-6.75475e-06,3.29679e-05,-2.24222e-06,0.000980445,-4,-5,0.288138,0.288138,-47.4841,-47.4841,0.068
3.127,3.12559,1.038,1.03687,-7.57128e-06,2.19786e-05,-2.51327e-06,0.000596048,-4,-9,0.305952,0.305952,-47.4699,-47.4699,0.072
3.127,3.12559,1.038,1.03687,-8.43421e-06,1.46524e-05,-2.79972e-06,0.000368574,-4,-11,0.323878,0.323878,-47.4397,-47.4397,0.076
3.127,3.12559,1.038,1.03687,-9.34351e-06,3.85592e-05,-3.10156e-06,0.000245716,-4,-12,0.341852,0.341852,-47.4002,-47.4002,0.08
3.127,3.12559,1.038,1.03687,-1.02992e-05,2.57061e-05,-3.41878e-06,0.000163811,-4,-13,0.359569,0.359569,-47.3556,-47.3556,0.084
3.127,3.12559,1.038,1.03687,-1.13011e-05,1.71374e-05,-3.75138e-06,0.000166789,-4,-13,0.377417,0.377417,-47.3078,-47.3078,0.088
3.127,3.12559,1.038,1.03687,-1.23494e-05,1.14249e-05,-4.09934e-06,0.000139984,-4,-13,0.395348,0.395348,-47.2601,-47.2601,0.092
3.127,3.12559,1.038,1.03687,-1.34439e-05,3.64076e-05,-4.46266e-06,9.33224e-05,-4,-14,0.413307,0.413307,-47.2112,-47.2112,0.096
3.127,3.12559,1.038,1.03687,-1.45846e-05,2.42717e-05,-4.84133e-06,6.2215e-05,-4,-14,0.430994,0.430994,-47.1604,-47.1604,0.1
3.127,3.12559,1.038,1.03687,-1.57716e-05,1.61811e-05,-5.23533e-06,1.26857e-05,-4,-15,0.448802,0.448802,-47.1083,-47.1083,0.104
3.127,3.12559,1.038,1.03687,-1.70047e-05,1.07874e-05,-5.64466e-06,3.72481e-05,-4,-14,0.466686,0.466686,-47.0542,-47.0542,0.108
3.127,3.12559,1.038,1.03687,-1.82839e-05,7.19162e-06,-6.06931e-06,2.4832e-05,-4,-15,0.484614,0.484614,-47.0012,-47.0012,0.112
3.127,3.12559,1.038,1.03687,-1.96093e-05,3.35853e-05,-6.50927e-06,1.65547e-05,-4,-15,0.502544,0.502544,-46.9476,-46.9476,0.116
3.127,3.12559,1.038,1.03687,-2.09808e-05,2.23902e-05,-6.96452e-06,1.10365e-05,-4,-15,0.520183,0.520183,-46.8938,-46.8938,0.12
3.127,3.12559,1.038,1.03687,-2.23983e-05,1.49268e-05,-7.43507e-06,7.35764e-06,-4,-15,0.537931,0.537931,-46.8397,-46.8397,0.124
3.127,3.12559,1.038,1.03687,-2.38619e-05,9.95121e-06,-7.9209e-06,4.9051e-06,-4,-15,0.555743,0.555743,-46.7855,-46.7855,0.128
3.127,3.12559,1.038,1.03687,-2.53715e-05,6.63414e-06,-8.422e-06,3.27006e-06,-4,-15,0.573593,0.573593,-46.7312,-46.7312,0.132
3.127,3.12559,1.038,1.03687,-2.6927e-05,4.42276e-06,-8.93837e-06,2.18004e-06,-4,-15,0.591461,0.591461,-46.6768,-46.6768,0.136
3.127,3.12559,1.038,1.03687,-2.85286e-05,2.94851e-06,-9.46999e-06,1.45336e-06,-4,-15,0.609335,0.609335,-46.6225,-46.6225,0.14
3.127,3.12559,1.038,1.03687,-3.0176e-05,1.96567e-06,-1.00168e-05,9.68908e-07,-4,-15,0.627205,0.627205,-46.5681,-46.5681,0.144
3.127,3.12559,1.038,1.03687,-3.18693e-05,1.31045e-06,-1.05789e-05,6.45938e-07,-4,-15,0.645066,0.645066,-46.5137,-46.5137,0.148
3.127,3.12559,1.038,1.03687,-3.36085e-05,8.73632e-07,-1.11563e-05,4.30626e-07,-4,-15,0.662913,0.662913,-46.4594,-46.4594,0.152
3.127,3.12559,1.038,1.03687,-3.53936e-05,5.82421e-07,-1.17488e-05,2.87084e-07,-4,-15,0.680744,0.680744,-46.4051,-46.4051,0.156
3.127,3.12559,1.038,1.03687,-3.72244e-05,3.88281e-07,-1.23566e-05,1.91389e-07,-4,-15,0.698556,0.698556,-46.3508,-46.3508,0.16
3.127,3.12559,1.038,1.03687,-3.9101e-05,2.58854e-07,-1.29795e-05,1.27593e-07,-4,-16,0.716347,0.716347,-46.2965,-46.2965,0.164
3.127,3.12559,1.038,1.03687,-4.10234e-05,1.72569e-07,-1.36176e-05,2.8876e-05,-4,-15,0.734117,0.734117,-46.2423,-46.2423,0.168
3.127,3.12559,1.038,1.03687,-4.29915e-05,1.15046e-07,-1.42709e-05,-9.54027e-06,-4,-16,0.751863,0.751863,-46.1892,-46.1892,0.172
3.127,3.12559,1.038,1.03687,-4.50054e-05,7.66974e-08,-1.49394e-05,-6.36018e-06,-4,-16,0.769586,0.769586,-46.1346,-46.1346,0.176
3.127,3.12559,1.038,1.03687,-4.70649e-05,5.11316e-08,-1.56231e-05,2.45508e-05,-4,-15,0.787284,0.787284,-46.0802,-46.0802,0.18
3.127,3.12559,1.038,1.03687,-4.917e-05,3.40877e-08,-1.63219e-05,-1.24237e-05,-4,-16,0.804956,0.804956,-46.0271,-46.0271,0.184
3.127,3.12559,1.038,1.03687,-5.13207e-05,2.88136e-05,-1.70358e-05,2.05084e-05,-4,-16,0.822579,0.822579,-45.9725,-45.9725,0.188
3.127,3.12559,1.038,1.03687,-5.35171e-05,-9.58182e-06,-1.77649e-05,1.36723e-05,-4,-16,0.839898,0.839898,-45.9193,-45.9193,0.192
3.127,3.12559,1.038,1.03687,-5.5759e-05,2.2403e-05,-1.85091e-05,9.11486e-06,-4,-16,0.857573,0.857573,-45.8658,-45.8658,0.196
3.127,3.12559,1.038,1.03687,-5.80464e-05,-1.38556e-05,-1.92684e-05,6.07658e-06,-4,-16,0.874907,0.874907,-45.8122,-45.8122,0.2
3.127,3.12559,1.038,1.03687,-6.03793e-05,-9.23704e-06,-2.00428e-05,4.05105e-06,-4,-16,0.892595,0.892595,-45.7585,-45.7585,0.204
3.127,3.12559,1.038,1.03687,-6.27578e-05,-6.15803e-06,-2.08323e-05,3.14916e-05,-4,-16,0.910202,0.910202,-45.7048,-45.7048,0.208
3.127,3.12559,1.038,1.03687,-6.51816e-05,-4.10535e-06,-2.16369e-05,2.09944e-05,-4,-16,0.927745,0.927745,-45.6523,-45.6523,0.212
3.127,3.12559,1.038,1.03687,-6.76509e-05,-2.7369e-06,-2.24566e-05,1.39963e-05,-4,-16,0.945235,0.945235,-45.5993,-45.5993,0.216
3.12699,3.12559,1.038,1.03687,-7.01656e-05,-1.8246e-06,-2.32913e-05,9.33085e-06,-4,-16,0.962678,0.962678,-45.5461,-45.5461,0.22
3.12699,3.12559,1.038,1.03687,-7.27256e-05,-1.2164e-06,-2.41411e-05,6.22057e-06,-4,-16,0.980078,0.980078,-45.4928,-45.4928,0.224
3.12699,3.12559,1.038,1.03687,-7.5331e-05,-8.10934e-07,-2.50059e-05,4.14705e-06,-4,-16,0.997439,0.997439,-45.4393,-45.4393,0.228
3.12699,3.12559,1.038,1.03687,-7.79817e-05,-5.40623e-07,-2.58858e-05,2.7647e-06,-4,-16,1.01476,1.01476,-45.3858,-45.3858,0.232
3.12699,3.12559,1.038,1.03687,-8.06777e-05,-3.60415e-07,-2.67808e-05,1.84313e-06,-4,-16,1.03205,1.03205,-45.3323,-45.3323,0.236
3.12699,3.12559,1.038,1.03687,-8.34189e-05,2.85506e-05,-2.76907e-05,1.22875e-06,-4,-16,1.04927,1.04927,-45.2788,-45.2788,0.24
3.12699,3.12559,1.038,1.03687,-8.62053e-05,-9.75716e-06,-2.86157e-05,8.19169e-07,-4,-16,1.06619,1.06619,-45.2253,-45.2253,0.244
3.12699,3.12559,1.038,1.03687,-8.9037e-05,2.22862e-05,-2.95556e-05,5.46113e-07,-4,-16,1.08345,1.08345,-45.1719,-45.1719,0.248
3.12699,3.12559,1.038,1.03687,-9.19138e-05,-1.39335e-05,-3.05106e-05,3.64075e-07,-5,-16,1.10036,1.10036,-45.1185,-45.1185,0.252
3.12699,3.12559,1.038,1.03687,-9.48358e-05,-9.28899e-06,-3.14805e-05,2.42717e-07,-4,-17,1.11761,1.11761,-45.0651,-45.0651,0.256
3.12699,3.12559,1.038,1.03687,-9.78029e-05,2.25983e-05,-3.24654e-05,1.61811e-07,-4,-17,1.13475,1.13475,-45.0118,-45.0118,0.26
3.12699,3.12559,1.038,1.03687,-0.000100815,-1.37254e-05,-3.34653e-05,2.88988e-05,-5,-16,1.15154,1.15154,-44.9585,-44.9585,0.264
3.12699,3.12559,1.038,1.03687,-0.000103872,-9.15028e-06,-3.44801e-05,1.92659e-05,-5,-16,1.16868,1.16868,-44.9065,-44.9065,0.268
3.12699,3.12559,1.038,1.03687,-0.000106975,2.26907e-05,-3.55099e-05,1.28439e-05,-4,-17,1.1857,1.1857,-44.8541,-44.8541,0.272
3.12699,3.12559,1.038,1.03687,-0.000110122,1.51272e-05,-3.65547e-05,8.56261e-06,-4,-17,1.20235,1.20235,-44.8015,-44.8015,0.276
3.12699,3.12559,1.038,1.03687,-0.000113314,1.00848e-05,-3.76143e-05,5.7084e-06,-4,-17,1.21904,1.21904,-44.7488,-44.7488,0.28
3.12699,3.12559,1.038,1.03687,-0.000116551,6.72318e-06,-3.86889e-05,3.25965e-05,-5,-17,1.23574,1.23574,-44.696,-44.696,0.284
3.12699,3.12559,1.038,1.03687,-0.000119833,4.48212e-06,-3.97784e-05,2.1731e-05,-5,-17,1.25244,1.25244,-44.6444,-44.6444,0.288
3.12699,3.12559,1.038,1.03687,-0.00012316,2.98808e-06,-4.08828e-05,1.44873e-05,-5,-17,1.26912,1.26912,-44.5924,-44.5924,0.292
3.12699,3.12559,1.038,1.03687,-0.000126532,1.99205e-06,-4.20021e-05,9.65823e-06,-5,-17,1.28577,1.28577,-44.5402,-44.5402,0.296
3.12699,3.12559,1.038,1.03687,-0.000129949,1.32804e-06,-4.31362e-05,6.43882e-06,-5,-17,1.30239,1.30239,-44.4878,-44.4878,0.3
3.12699,3.12559,1.038,1.03687,-0.00013341,8.85357e-07,-4.42853e-05,4.29255e-06,-5,-17,1.31897,1.31897,-44.4353,-44.4353,0.304
3.12699,3.12559,1.038,1.03687,-0.000136917,5.90238e-07,-4.54492e-05,3.16526e-05,-5,-17,1.33551,1.33551,-44.3829,-44.3829,0.308
3.12699,3.12559,1.038,1.03687,-0.000140468,3.93492e-07,-4.66279e-05,-7.68918e-06,-5,-17,1.352,1.352,-44.3315,-44.3315,0.312
3.12698,3.12559,1.03799,1.03687,-0.000144064,2.62328e-07,-4.78216e-05,-5.12612e-06,-5,-17,1.36845,1.36845,-44.2786,-44.2786,0.316
3.12698,3.12559,1.03799,1.03687,-0.000147704,1.74885e-07,-4.903e-05,2.53735e-05,-5,-17,1.38486,1.38486,-44.226,-44.226,0.32
3.12698,3.12559,1.03799,1.03687,-0.000151389,1.1659e-07,-5.02533e-05,1.69157e-05,-5,-17,1.40121,1.40121,-44.1746,-44.1746,0.324
3.12698,3.12559,1.03799,1.03687,-0.000155119,7.77268e-08,-5.14914e-05,1.12771e-05,-5,-17,1.41752,1.41752,-44.1229,-44.1229,0.328
3.12698,3.12559,1.03799,1.03687,-0.000158893,5.18179e-08,-5.27443e-05,3.6309e-05,-5,-17,1.43378,1.43378,-44.0711,-44.0711,0.332
3.12698,3.12559,1.03799,1.03687,-0.000162712,3.45453e-08,-5.4012e-05,2.4206e-05,-5,-17,1.44998,1.44998,-44.0204,-44.0204,0.336
3.12698,3.12559,1.03799,1.03687,-0.000166576,2.30302e-08,-5.52945e-05,1.61373e-05,-5,-17,1.46614,1.46614,-43.9693,-43.9693,0.34
3.12698,3.12559,1.03799,1.03687,-0.000170484,1.53535e-08,-5.65918e-05,1.07582e-05,-5,-17,1.48224,1.48224,-43.9178,-43.9178,0.344
3.12698,3.12559,1.03799,1.03687,-0.000174437,1.02356e-08,-5.79038e-05,7.17215e-06,-5,-17,1.49829,1.49829,-43.8663,-43.8663,0.348
3.12698,3.12559,1.03799,1.03687,-0.000178434,6.82376e-09,-5.92307e-05,4.78143e-06,-5,-17,1.51428,1.51428,-43.8146,-43.8146,0.352
3.12698,3.12559,1.03799,1.03687,-0.000182475,4.54917e-09,-6.05722e-05,3.18762e-06,-5,-17,1.53022,1.53022,-43.7629,-43.7629,0.356
3.12698,3.12559,1.03799,1.03687,-0.000186561,3.03278e-09,-6.19286e-05,3.0916e-05,-5,-17,1.54611,1.54611,-43.7113,-43.7113,0.36
3.12698,3.12559,1.03799,1.03687,-0.000190692,2.02185e-09,-6.32996e-05,2.06107e-05,-5,-17,1.56194,1.56194,-43.6608,-43.6608,0.364
3.12698,3.12559,1.03799,1.03687,-0.000194866,1.3479e-09,-6.46854e-05,1.37404e-05,-5,-17,1.57771,1.57771,-43.61,-43.61,0.368
3.12698,3.12559,1.03799,1.03687,-0.000199085,8.98602e-10,-6.60859e-05,9.1603e-06,-5,-18,1.59343,1.59343,-43.559,-43.559,0.372
3.12697,3.12559,1.03799,1.03687,-0.000203349,5.99068e-10,-6.75011e-05,6.10687e-06,-5,-18,1.60909,1.60909,-43.5078,-43.5078,0.376
3.12697,3.12559,1.03799,1.03687,-0.000207656,3.99378e-10,-6.8931e-05,4.07124e-06,-5,-18,1.62469,1.62469,-43.4566,-43.4566,0.38
3.12697,3.12559,1.03799,1.03687,-0.000212008,2.66252e-10,-7.03756e-05,3.15051e-05,-5,-17,1.64023,1.64023,-43.4055,-43.4055,0.384
3.12697,3.12559,1.03799,1.03687,-0.000216404,1.77502e-10,-7.18349e-05,2.10034e-05,-5,-18,1.6557,1.6557,-43.3555,-43.3555,0.388
3.12697,3.12559,1.03799,1.03687,-0.000220845,1.18334e-10,-7.33089e-05,4.27932e-05,-5,-17,1.67112,1.67112,-43.3052,-43.3052,0.392
3.12697,3.12559,1.03799,1.03687,-0.000225329,7.88896e-11,-7.47975e-05,5.73197e-05,-5,-17,1.68648,1.68648,-43.2559,-43.2559,0.396
3.12697,3.12559,1.03799,1.03687,-0.000229858,5.25931e-11,-7.63008e-05,6.70041e-05,-5,-17,1.70177,1.70177,-43.2073,-43.2073,0.4
3.12697,3.12559,1.03799,1.03687,-0.000234431,3.5062e-11,-7.78187e-05,4.46694e-05,-5,-17,1.717,1.717,-43.1592,-43.1592,0.404
3.12697,3.12559,1.03799,1.03687,-0.000239048,2.33747e-11,-7.93513e-05,5.85705e-05,-5,-17,1.73217,1.73217,-43.1102,-43.1102,0.408
3.12697,3.12559,1.03799,1.03687,-0.000243709,1.55831e-11,-8.08985e-05,3.9047e-05,-5,-18,1.74727,1.74727,-43.0619,-43.0619,0.412
3.12697,3.12559,1.03799,1.03687,-0.000248414,1.03888e-11,-8.24603e-05,5.48223e-05,-5,-17,1.76231,1.76231,-43.0129,-43.0129,0.416
3.12696,3.12559,1.03799,1.03687,-0.000253162,6.92583e-12,-8.40367e-05,3.65482e-05,-5,-18,1.77728,1.77728,-42.9646,-42.9646,0.42
3.12696,3.12559,1.03799,1.03687,-0.000257955,4.61722e-12,-8.56277e-05,5.31564e-05,-5,-18,1.79218,1.79218,-42.9157,-42.9157,0.424
3.12696,3.12559,1.03799,1.03687,-0.000262792,3.07815e-12,-8.72333e-05,6.42285e-05,-5,-17,1.80702,1.80702,-42.8676,-42.8676,0.428
3.12696,3.12559,1.03799,1.03688,-0.000267673,2.0521e-12,-8.88535e-05,0.000100401,-5,-17,1.82179,1.82179,-42.8201,-42.8201,0.432
3.12696,3.12559,1.03799,1.03688,-0.000272598,1.36807e-12,-9.04882e-05,6.69339e-05,-5,-17,1.83649,1.83649,-42.7741,-42.7741,0.436
3.12696,3.12559,1.03799,1.03688,-0.000277567,9.12044e-13,-9.21375e-05,0.000102204,-5,-17,1.85111,1.85111,-42.7269,-42.7269,0.44
3.12696,3.12559,1.03799,1.03688,-0.000282579,6.08029e-13,-9.38014e-05,0.000125718,-5,-17,1.86567,1.86567,-42.6813,-42.6813,0.444
3.12696,3.12559,1.03799,1.03688,-0.000287635,4.05353e-13,-9.54798e-05,0.000112603,-5,-17,1.88016,1.88016,-42.6367,-42.6367,0.448
3.12696,3.12559,1.03799,1.03688,-0.000292735,2.70235e-13,-9.71728e-05,0.00010386,-5,-17,1.89457,1.89457,-42.5917,-42.5917,0.452
3.12695,3.12559,1.03798,1.03688,-0.000297879,-2.87909e-05,-9.88802e-05,0.000126822,-5,-17,1.90894,1.90894,-42.5465,-42.5465,0.456
3.12695,3.12559,1.03798,1.03688,-0.000303067,9.59698e-06,-0.000100602,0.000113339,-5,-17,1.9235,1.9235,-42.5023,-42.5023,0.46
3.12695,3.12559,1.03798,1.03688,-0.000308298,3.51889e-05,-0.000102339,0.000133141,-5,-17,1.93757,1.93757,-42.4577,-42.4577,0.464
3.12695,3.12559,1.03798,1.03688,-0.000313573,2.34593e-05,-0.00010409,0.000117552,-5,-17,1.95129,1.95129,-42.4141,-42.4141,0.468
3.12695,3.12559,1.03798,1.03688,-0.000318891,1.56395e-05,-0.000105855,0.000107159,-5,-17,1.96507,1.96507,-42.3698,-42.3698,0.472
3.12695,3.12559,1.03798,1.03688,-0.000324254,1.04263e-05,-0.000107635,0.00010023,-5,-17,1.97886,1.97886,-42.3253,-42.3253,0.476
3.12695,3.12559,1.03798,1.03688,-0.000329659,6.9509e-06,-0.00010943,6.682e-05,-5,-18,1.99262,1.99262,-42.2805,-42.2805,0.48
3.12695,3.12559,1.03798,1.03688,-0.000335109,4.63393e-06,-0.000111239,7.33376e-05,-5,-18,2.00635,2.00635,-42.2345,-42.2345,0.484
3.12694,3.12559,1.03798,1.03688,-0.000340602,3.08929e-06,-0.000113062,4.88917e-05,-5,-18,2.02003,2.02003,-42.1889,-42.1889,0.488
3.12694,3.12559,1.03798,1.03688,-0.000346138,2.05952e-06,-0.0001149,9.01763e-05,-5,-17,2.03364,2.03364,-42.1424,-42.1424,0.492
3.12694,3.12559,1.03798,1.03688,-0.000351718,1.37302e-06,-0.000116752,3.13266e-05,-5,-18,2.04718,2.04718,-42.0976,-42.0976,0.496
3.12694,3.12559,1.03798,1.03688,-0.000357341,9.15344e-07,-0.000118619,7.84663e-05,-5,-18,2.06065,2.06065,-42.0506,-42.0506,0.5
3.12694,3.12559,1.03798,1.03688,-0.000363008,6.1023e-07,-0.0001205,8.11018e-05,-5,-18,2.07404,2.07404,-42.0057,-42.0057,0.504
3.12694,3.12559,1.03798,1.03688,-0.000368718,4.0682e-07,-0.000122395,2.52769e-05,-5,-18,2.08735,2.08735,-41.9608,-41.9608,0.508
3.12694,3.12559,1.03798,1.03688,-0.000374472,2.71213e-07,-0.000124305,4.56422e-05,-5,-18,2.10058,2.10058,-41.9139,-41.9139,0.512
3.12693,3.12559,1.03798,1.03688,-0.000380269,1.80809e-07,-0.000126229,5.92191e-05,-5,-18,2.11373,2.11373,-41.8679,-41.8679,0.516
3.12693,3.12559,1.03798,1.03688,-0.000386109,1.20539e-07,-0.000128168,6.82703e-05,-5,-18,2.12679,2.12679,-41.8226,-41.8226,0.52
3.12693,3.12559,1.03798,1.03688,-0.000391993,8.03594e-08,-0.000130121,7.43045e-05,-5,-18,2.13977,2.13977,-41.7778,-41.7778,0.524
3.12693,3.12559,1.03798,1.03688,-0.00039792,5.3573e-08,-0.000132088,0.000135909,-5,-17,2.15266,2.15266,-41.7335,-41.7335,0.528
3.12693,3.12559,1.03798,1.03688,-0.00040389,3.57153e-08,-0.00013407,9.06061e-05,-5,-18,2.16547,2.16547,-41.6917,-41.6917,0.532
3.12693,3.12559,1.03798,1.03688,-0.000409903,2.38102e-08,-0.000136066,0.000117986,-5,-17,2.17818,2.17818,-41.6483,-41.6483,0.536
3.12692,3.12559,1.03797,1.03689,-0.000415959,1.58735e-08,-0.000138077,0.00016503,-5,-17,2.19081,2.19081,-41.6062,-41.6062,0.54
3.12692,3.12559,1.03797,1.03689,-0.000422059,1.05823e-08,-0.000140101,0.000225184,-5,-16,2.20334,2.20334,-41.5663,-41.5663,0.544
3.12692,3.12559,1.03797,1.03689,-0.000428202,7.05488e-09,-0.00014214,0.000178913,-5,-17,2.21579,2.21579,-41.5289,-41.5289,0.548
3.12692,3.12559,1.03797,1.03689,-0.000434387,4.70325e-09,-0.000144194,0.000148067,-4,-17,2.22814,2.22814,-41.4897,-41.4897,0.552
3.12692,3.12559,1.03797,1.03689,-0.000440616,3.1355e-09,-0.000146262,0.000156293,-4,-17,2.2404,2.2404,-41.4494,-41.4494,0.556
3.12692,3.12559,1.03797,1.03689,-0.000446888,2.09033e-09,-0.000148343,0.000132986,-4,-17,2.25257,2.25257,-41.4095,-41.4095,0.56
3.12691,3.12559,1.03797,1.03689,-0.000453203,1.39356e-09,-0.00015044,0.000146239,-4,-17,2.26464,2.26464,-41.3689,-41.3689,0.564
3.12691,3.12559,1.03797,1.03689,-0.000459561,9.29037e-10,-0.00015255,0.000183866,-4,-17,2.27662,2.27662,-41.329,-41.329,0.568
3.12691,3.12559,1.03797,1.03689,-0.000465962,6.19358e-10,-0.000154675,0.000122577,-4,-17,2.2885,2.2885,-41.2907,-41.2907,0.572
3.12691,3.12559,1.03797,1.03689,-0.000472406,4.12905e-10,-0.000156814,0.0001393,-4,-17,2.30029,2.30029,-41.2501,-41.2501,0.576
3.12691,3.12559,1.03797,1.03689,-0.000478893,2.7527e-10,-0.000158967,6.40757e-05,-4,-18,2.31198,2.31198,-41.2102,-41.2102,0.58
3.1269,3.12559,1.03797,1.03689,-0.000485423,1.83514e-10,-0.000161135,0.000100299,-4,-18,2.32357,2.32357,-41.1674,-41.1674,0.584
3.1269,3.12559,1.03797,1.03689,-0.000491995,1.22342e-10,-0.000163317,9.56569e-05,-4,-18,2.33506,2.33506,-41.1262,-41.1262,0.588
3.1269,3.12559,1.03797,1.03689,-0.00049861,8.15616e-11,-0.000165513,6.37713e-05,-4,-18,2.34645,2.34645,-41.0849,-41.0849,0.592
3.1269,3.12559,1.03797,1.03689,-0.000505269,5.43744e-11,-0.000167723,7.13051e-05,-4,-18,2.35774,2.35774,-41.0425,-41.0425,0.596
3.1269,3.12559,1.03797,1.03689,-0.00051197,3.62496e-11,-0.000169947,7.63277e-05,-4,-18,2.36893,2.36893,-41.0005,-41.0005,0.6
3.12689,3.12559,1.03797,1.03689,-0.000518713,2.41664e-11,-0.000172186,0.000108467,-4,-18,2.38001,2.38001,-40.9589,-40.9589,0.604
3.12689,3.12559,1.03796,1.03689,-0.0005255,1.61109e-11,-0.000174438,4.35204e-05,-4,-18,2.391,2.391,-40.9187,-40.9187,0.608
3.12689,3.12559,1.03796,1.03689,-0.000532329,1.07406e-11,-0.000176705,2.90136e-05,-4,-18,2.40188,2.40188,-40.8759,-40.8759,0.612
3.12689,3.12559,1.03796,1.03689,-0.0005392,7.16041e-12,-0.000178986,1.93424e-05,-4,-19,2.41265,2.41265,-40.8327,-40.8327,0.616
3.12689,3.12559,1.03796,1.03689,-0.000546115,4.77361e-12,-0.000181281,1.28949e-05,-4,-19,2.42332,2.42332,-40.7891,-40.7891,0.62
3.12688,3.12559,1.03796,1.03689,-0.000553072,3.1824e-12,-0.000183591,8.59662e-06,-4,-19,2.43388,2.43388,-40.7455,-40.7455,0.624
3.12688,3.12559,1.03796,1.03689,-0.000560071,2.1216e-12,-0.000185914,5.73108e-06,-4,-19,2.44434,2.44434,-40.7018,-40.7018,0.628
3.12688,3.12559,1.03796,1.03689,-0.000567114,1.4144e-12,-0.000188252,3.82072e-06,-4,-19,2.45468,2.45468,-40.6581,-40.6581,0.632
3.12688,3.12559,1.03796,1.03689,-0.000574198,9.42935e-13,-0.000190604,-2.62438e-05,-4,-19,2.46492,2.46492,-40.6145,-40.6145,0.636
3.12687,3.12559,1.03796,1.03689,-0.000581325,6.28623e-13,-0.00019297,-1.74959e-05,-4,-19,2.47505,2.47505,-40.5697,-40.5697,0.64
3.12687,3.12559,1.03796,1.03689,-0.000588495,4.19082e-13,-0.000195349,7.47089e-05,-4,-18,2.48506,2.48506,-40.5257,-40.5257,0.644
3.12687,3.12559,1.03796,1.03689,-0.000595707,2.79388e-13,-0.000197744,2.1015e-05,-4,-19,2.49497,2.49497,-40.4854,-40.4854,0.648
3.12687,3.12559,1.03796,1.03689,-0.000602962,1.86259e-13,-0.000200152,1.401e-05,-4,-19,2.50476,2.50476,-40.443,-40.443,0.652
3.12687,3.12559,1.03796,1.03689,-0.000610259,1.24172e-13,-0.000202574,9.34e-06,-4,-19,2.51444,2.51444,-40.4005,-40.4005,0.656
3.12686,3.12559,1.03795,1.03689,-0.000617598,8.27817e-14,-0.00020501,6.22666e-06,-4,-19,2.524,2.524,-40.358,-40.358,0.66
3.12686,3.12559,1.03795,1.03689,-0.000624979,5.51878e-14,-0.00020746,6.1733e-05,-4,-18,2.53345,2.53345,-40.3156,-40.3156,0.664
3.12686,3.12559,1.03795,1.03689,-0.000632403,3.67918e-14,-0.000209925,1.23644e-05,-4,-19,2.54279,2.54279,-40.2755,-40.2755,0.668
3.12686,3.12559,1.03795,1.03689,-0.00063987,2.45279e-14,-0.000212403,8.24292e-06,-4,-19,2.552,2.552,-40.2335,-40.2335,0.672
3.12685,3.12559,1.03795,1.03689,-0.000647378,1.63519e-14,-0.000214896,5.49528e-06,-4,-19,2.5611,2.5611,-40.1916,-40.1916,0.676
3.12685,3.12559,1.03795,1.03689,-0.000654929,1.09013e-14,-0.000217402,3.66352e-06,-4,-19,2.57008,2.57008,-40.1496,-40.1496,0.68
3.12685,3.12559,1.03795,1.03689,-0.000662522,7.26753e-15,-0.000219922,2.44235e-06,-4,-19,2.57894,2.57894,-40.1077,-40.1077,0.684
3.12684,3.12559,1.03795,1.03689,-0.000670157,4.84502e-15,-0.000222457,1.62823e-06,-4,-19,2.58768,2.58768,-40.0659,-40.0659,0.688
3.12684,3.12559,1.03795,1.03689,-0.000677834,3.23001e-15,-0.000225005,2.98764e-05,-4,-19,2.5963,2.5963,-40.0243,-40.0243,0.692
3.12684,3.12559,1.03795,1.03689,-0.000685553,2.15334e-15,-0.000227568,1.99176e-05,-4,-19,2.6048,2.6048,-39.984,-39.984,0.696
3.12684,3.12559,1.03795,1.03689,-0.000693315,1.43556e-15,-0.000230144,7.08603e-05,-4,-18,2.61318,2.61318,-39.9435,-39.9435,0.7
3.12683,3.12559,1.03794,1.03689,-0.000701118,9.5704e-16,-0.000232734,1.84492e-05,-4,-19,2.62143,2.62143,-39.9052,-39.9052,0.704
3.12683,3.12559,1.03794,1.03689,-0.000708964,6.38027e-16,-0.000235339,1.22995e-05,-4,-19,2.62955,2.62955,-39.8649,-39.8649,0.708
3.12683,3.12559,1.03794,1.03689,-0.000716851,4.25351e-16,-0.000237957,8.19966e-06,-4,-19,2.63755,2.63755,-39.8245,-39.8245,0.712
3.12683,3.12559,1.03794,1.03689,-0.000724781,2.83568e-16,-0.000240589,5.46644e-06,-4,-19,2.64543,2.64543,-39.784,-39.784,0.716
3.12682,3.12559,1.03794,1.03689,-0.000732752,1.89045e-16,-0.000243235,3.6443e-06,-4,-19,2.65317,2.65317,-39.7436,-39.7436,0.72
3.12682,3.12559,1.03794,1.03689,-0.000740766,1.2603e-16,-0.000245895,2.42953e-06,-4,-19,2.66079,2.66079,-39.7033,-39.7033,0.724
3.12682,3.12559,1.03794,1.03689,-0.000748821,8.402e-17,-0.000248569,1.61969e-06,-4,-19,2.66828,2.66828,-39.6631,-39.6631,0.728
3.12681,3.12559,1.03794,1.03689,-0.000756918,5.60133e-17,-0.000251257,-2.77111e-05,-4,-19,2.67564,2.67564,-39.623,-39.623,0.732
3.12681,3.12559,1.03794,1.03689,-0.000765057,3.73422e-17,-0.000253959,6.78987e-05,-4,-18,2.68287,2.68287,-39.5821,-39.5821,0.736
3.12681,3.12559,1.03794,1.03689,-0.000773238,2.48948e-17,-0.000256674,1.64749e-05,-4,-19,2.68997,2.68997,-39.545,-39.545,0.74
3.1268,3.12559,1.03794,1.03689,-0.000781461,1.65965e-17,-0.000259404,1.09832e-05,-4,-19,2.69693,2.69693,-39.5061,-39.5061,0.744
3.1268,3.12559,1.03793,1.03689,-0.000789725,1.10644e-17,-0.000262147,7.32216e-06,-4,-19,2.70376,2.70376,-39.4671,-39.4671,0.748
3.1268,3.12559,1.03793,1.03689,-0.000798031,7.37624e-18,-0.000264905,4.88144e-06,-4,-19,2.71046,2.71046,-39.4281,-39.4281,0.752
3.12679,3.12559,1.03793,1.03689,-0.000806379,4.91749e-18,-0.000267676,3.25429e-06,-4,-19,2.71702,2.71702,-39.3892,-39.3892,0.756
3.12679,3.12559,1.03793,1.03689,-0.000814769,3.27833e-18,-0.00027046,2.16953e-06,-4,-19,2.72344,2.72344,-39.3504,-39.3504,0.76
3.12679,3.12559,1.03793,1.03689,-0.0008232,2.18555e-18,-0.000273259,1.44635e-06,-4,-19,2.72973,2.72973,-39.3117,-39.3117,0.764
3.12678,3.12559,1.03793,1.03689,-0.000831673,1.45704e-18,-0.000276072,9.64235e-07,-4,-19,2.73588,2.73588,-39.2731,-39.2731,0.768
3.12678,3.12559,1.03793,1.03689,-0.000840187,9.71357e-19,-0.000278898,6.42824e-07,-4,-19,2.74189,2.74189,-39.2347,-39.2347,0.772
3.12678,3.12559,1.03793,1.03689,-0.000848743,6.47571e-19,-0.000281738,4.28549e-07,-4,-19,2.74776,2.74776,-39.1965,-39.1965,0.776
3.12677,3.12559,1.03793,1.03689,-0.000857341,4.31714e-19,-0.000284592,2.85699e-07,-4,-19,2.75349,2.75349,-39.1584,-39.1584,0.78
3.12677,3.12559,1.03792,1.03689,-0.00086598,2.87809e-19,-0.00028746,1.90466e-07,-3,-19,2.75908,2.75908,-39.1205,-39.1205,0.784
3.12677,3.12559,1.03792,1.03689,-0.000874661,1.91873e-19,-0.000290341,-2.86639e-05,-3,-19,2.76452,2.76452,-39.0827,-39.0827,0.788
3.12676,3.12559,1.03792,1.03689,-0.000883383,1.27915e-19,-0.000293237,3.84726e-05,-3,-19,2.76983,2.76983,-39.0441,-39.0441,0.792
3.12676,3.12559,1.03792,1.03689,-0.000892146,8.52769e-20,-0.000296146,2.56484e-05,-3,-19,2.77498,2.77498,-39.0083,-39.0083,0.796
3.12676,3.12559,1.03792,1.03689,-0.000900951,5.68513e-20,-0.000299069,1.70989e-05,-3,-19,2.77999,2.77999,-38.9722,-38.9722,0.8
3.12675,3.12559,1.03792,1.03689,-0.000909798,3.79008e-20,-0.000302005,1.13993e-05,-3,-19,2.78486,2.78486,-38.9359,-38.9359,0.804
3.12675,3.12559,1.03792,1.03689,-0.000918685,2.52672e-20,-0.000304955,7.59952e-06,-3,-19,2.78958,2.78958,-38.8995,-38.8995,0.808
3.12675,3.12559,1.03792,1.03689,-0.000927614,1.68448e-20,-0.000307919,5.06634e-06,-3,-19,2.79415,2.79415,-38.8632,-38.8632,0.812
3.12674,3.12559,1.03791,1.03689,-0.000936585,1.12299e-20,-0.000310897,3.37756e-06,-3,-19,2.79857,2.79857,-38.827,-38.827,0.816
3.12674,3.12559,1.03791,1.03689,-0.000945596,7.48658e-21,-0.000313888,2.25171e-06,-3,-19,2.80284,2.80284,-38.7909,-38.7909,0.82
3.12674,3.12559,1.03791,1.0369,-0.000954649,4.99106e-21,-0.000316893,5.9083e-05,-3,-18,2.80696,2.80696,-38.755,-38.755,0.824
3.12673,3.12559,1.03791,1.03689,-0.000963743,3.32737e-21,-0.000319912,-1.81932e-05,-3,-19,2.81092,2.81092,-38.7215,-38.7215,0.828
3.12673,3.12559,1.03791,1.03689,-0.000972879,2.21825e-21,-0.000322945,-1.21288e-05,-3,-19,2.81474,2.81474,-38.685,-38.685,0.832
3.12672,3.12559,1.03791,1.03689,-0.000982055,1.47883e-21,-0.000325991,-8.08586e-06,-3,-19,2.8184,2.8184,-38.649,-38.649,0.836
3.12672,3.12559,1.03791,1.03689,-0.000991273,9.85888e-22,-0.000329051,-5.39057e-06,-3,-19,2.82191,2.82191,-38.6134,-38.6134,0.84
3.12672,3.12559,1.03791,1.0369,-0.00100053,6.57258e-22,-0.000332124,2.51972e-05,-3,-19,2.82526,2.82526,-38.5781,-38.5781,0.844
3.12671,3.12559,1.0379,1.0369,-0.00100983,2.87909e-05,-0.000335211,1.67981e-05,-3,-19,2.82843,2.82843,-38.5442,-38.5442,0.848
3.12671,3.12559,1.0379,1.0369,-0.00101917,-9.59697e-06,-0.000338312,1.11988e-05,-3,-19,2.83116,2.83116,-38.5102,-38.5102,0.852
3.1267,3.12559,1.0379,1.0369,-0.00102855,-6.39798e-06,-0.000341426,7.46584e-06,-3,-19,2.83415,2.83415,-38.4762,-38.4762,0.856
3.1267,3.12559,1.0379,1.0369,-0.00103798,-4.26532e-06,-0.000344554,4.97723e-06,-3,-19,2.83694,2.83694,-38.4422,-38.4422,0.86
3.12669,3.12559,1.0379,1.0369,-0.00104744,-2.84355e-06,-0.000347695,3.31815e-06,-3,-19,2.83954,2.83954,-38.4083,-38.4083,0.864
3.12669,3.12559,1.0379,1.0369,-0.00105695,-1.8957e-06,-0.000350851,2.2121e-06,-3,-19,2.84197,2.84197,-38.3745,-38.3745,0.868
3.12669,3.12559,1.0379,1.0369,-0.00106649,-5.88456e-05,-0.000354019,1.47473e-06,-3,-19,2.84427,2.84427,-38.3409,-38.3409,0.872
3.12668,3.12559,1.03789,1.0369,-0.00107608,1.83514e-05,-0.000357202,9.83156e-07,-3,-19,2.84695,2.84695,-38.3074,-38.3074,0.876
3.12668,3.12559,1.03789,1.0369,-0.00108571,1.22343e-05,-0.000360397,6.55437e-07,-3,-19,2.84866,2.84866,-38.2741,-38.2741,0.88
3.12667,3.12559,1.03789,1.0369,-0.00109537,8.15619e-06,-0.000363607,4.36958e-07,-3,-19,2.85026,2.85026,-38.2411,-38.2411,0.884
3.12667,3.12559,1.03789,1.0369,-0.00110508,5.43746e-06,-0.00036683,5.78732e-05,-3,-18,2.85175,2.85175,-38.2083,-38.2083,0.888
3.12666,3.12559,1.03789,1.0369,-0.00111483,3.62497e-06,-0.000370066,-1.89997e-05,-3,-19,2.85309,2.85309,-38.1779,-38.1779,0.892
3.12666,3.12559,1.03789,1.0369,-0.00112462,2.41665e-06,-0.000373316,-1.26665e-05,-3,-19,2.85429,2.85429,-38.1447,-38.1447,0.896
3.12666,3.12559,1.03789,1.0369,-0.00113446,1.6111e-06,-0.00037658,-8.44433e-06,-3,-19,2.85534,2.85534,-38.1119,-38.1119,0.9
3.12665,3.12559,1.03788,1.0369,-0.00114433,1.07407e-06,-0.000379857,-5.62955e-06,-3,-19,2.85622,2.85622,-38.0795,-38.0795,0.904
3.12665,3.12559,1.03788,1.0369,-0.00115424,7.16044e-07,-0.000383148,-3.75304e-06,-2,-19,2.85694,2.85694,-38.0474,-38.0474,0.908
3.12664,3.12559,1.03788,1.0369,-0.0011642,4.77362e-07,-0.000386452,-2.50202e-06,-2,-19,2.85749,2.85749,-38.0156,-38.0156,0.912
3.12664,3.12559,1.03788,1.0369,-0.00117419,3.18242e-07,-0.000389769,-1.66802e-06,-2,-19,2.85787,2.85787,-37.9841,-37.9841,0.916
3.12663,3.12559,1.03788,1.03689,-0.00118422,2.90031e-05,-0.0003931,-2.99029e-05,-2,-19,2.85805,2.85805,-37.9528,-37.9528,0.92
3.12663,3.12559,1.03788,1.03689,-0.0011943,-9.45553e-06,-0.000396445,-1.99353e-05,-2,-19,2.85778,2.85778,-37.9205,-37.9205,0.924
3.12662,3.12559,1.03787,1.0369,-0.00120442,-6.30369e-06,-0.000399803,7.30826e-05,-2,-18,2.85775,2.85775,-37.8891,-37.8891,0.928
3.12662,3.12559,1.03787,1.0369,-0.00121457,-4.20246e-06,-0.000403174,4.87217e-05,-2,-18,2.8575,2.8575,-37.8616,-37.8616,0.932
3.12661,3.12559,1.03787,1.0369,-0.00122477,-2.80164e-06,-0.000406559,3.24811e-05,-2,-18,2.85705,2.85705,-37.8333,-37.8333,0.936
3.12661,3.12559,1.03787,1.0369,-0.00123501,-1.86776e-06,-0.000409958,-7.13683e-06,-2,-19,2.85641,2.85641,-37.8046,-37.8046,0.94
3.1266,3.12559,1.03787,1.0369,-0.00124528,-1.24517e-06,-0.000413369,-4.75788e-06,-2,-19,2.85557,2.85557,-37.7744,-37.7744,0.944
3.1266,3.12559,1.03787,1.0369,-0.0012556,-8.30115e-07,-0.000416794,-3.17192e-06,-2,-18,2.85455,2.85455,-37.7446,-37.7446,0.948
3.12659,3.12559,1.03787,1.0369,-0.00126596,-5.5341e-07,-0.000420233,-2.11462e-06,-2,-18,2.85334,2.85334,-37.715,-37.715,0.952
3.12659,3.12559,1.03786,1.0369,-0.00127636,-3.6894e-07,-0.000423685,-1.40974e-06,-2,-18,2.85195,2.85195,-37.6858,-37.6858,0.956
3.12658,3.12559,1.03786,1.0369,-0.0012868,-2.90369e-05,-0.00042715,-9.39829e-07,-2,-18,2.85039,2.85039,-37.6567,-37.6567,0.96
3.12658,3.12559,1.03786,1.0369,-0.00129728,9.433e-06,-0.000430629,2.81644e-05,-2,-18,2.84893,2.84893,-37.628,-37.628,0.964
3.12657,3.12559,1.03786,1.0369,-0.0013078,6.28867e-06,-0.000434121,1.87762e-05,-2,-18,2.84687,2.84687,-37.6007,-37.6007,0.968
3.12657,3.12559,1.03786,1.0369,-0.00131836,4.19245e-06,-0.000437627,1.25175e-05,-2,-18,2.84466,2.84466,-37.5733,-37.5733,0.972
3.12656,3.12559,1.03785,1.0369,-0.00132896,2.79496e-06,-0.000441145,8.345e-06,-2,-18,2.84228,2.84228,-37.5458,-37.5458,0.976
3.12656,3.12559,1.03785,1.0369,-0.0013396,-5.57185e-05,-0.000444678,5.56333e-06,-2,-18,2.83978,2.83978,-37.5183,-37.5183,0.98
3.12655,3.12559,1.03785,1.0369,-0.00135028,2.04362e-05,-0.000448223,3.70889e-06,-2,-18,2.83765,2.83765,-37.491,-37.491,0.984
3.12655,3.12559,1.03785,1.0369,-0.001361,1.36241e-05,-0.000451782,2.47259e-06,-2,-18,2.83453,2.83453,-37.4639,-37.4639,0.988
3.12654,3.12559,1.03785,1.0369,-0.00137177,9.08274e-06,-0.000455354,-5.59335e-05,-2,-19,2.83128,2.83128,-37.4368,-37.4368,0.992
3.12654,3.12559,1.03785,1.0369,-0.00138257,6.05516e-06,-0.00045894,2.02929e-05,-2,-18,2.8279,2.8279,-37.4077,-37.4077,0.996
3.12653,3.12559,1.03784,1.0369,-0.00139341,4.03677e-06,-0.000462538,1.35286e-05,-1,-18,2.82436,2.82436,-37.382,-37.382,1
3.12652,3.12559,1.03784,1.0369,-0.00140429,2.69118e-06,-0.000466151,9.01906e-06,-1,-18,2.82064,2.82064,-37.3562,-37.3562,1.004
3.12652,3.12559,1.03784,1.0369,-0.00141521,-5.57877e-05,-0.000469776,6.01271e-06,-2,-18,2.81679,2.81679,-37.3305,-37.3305,1.008
3.12651,3.12559,1.03784,1.0369,-0.00142617,2.039e-05,-0.000473415,4.00847e-06,-1,-18,2.8133,2.8133,-37.3049,-37.3049,1.012
3.12651,3.12559,1.03784,1.0369,-0.00143717,-4.39885e-05,-0.000477066,2.67231e-06,-1,-18,2.80886,2.80886,-37.2794,-37.2794,1.016
3.1265,3.12559,1.03783,1.0369,-0.00144822,2.82562e-05,-0.000480732,1.78154e-06,-1,-18,2.80485,2.80485,-37.2542,-37.2542,1.02
3.1265,3.12559,1.03783,1.0369,-0.0014593,1.88375e-05,-0.00048441,1.18769e-06,-1,-18,2.79987,2.79987,-37.2292,-37.2292,1.024
3.12649,3.12559,1.03783,1.0369,-0.00147042,4.13492e-05,-0.000488102,7.91797e-07,-1,-18,2.79478,2.79478,-37.2043,-37.2043,1.028
3.12648,3.12559,1.03783,1.0369,-0.00148158,-1.22477e-06,-0.000491807,5.27864e-07,-1,-18,2.78927,2.78927,-37.1798,-37.1798,1.032
3.12648,3.12559,1.03783,1.0369,-0.00149278,-8.16515e-07,-0.000495525,3.5191e-07,-1,-18,2.78402,2.78402,-37.1554,-37.1554,1.036
3.12647,3.12559,1.03782,1.0369,-0.00150402,-5.44343e-07,-0.000499256,2.34606e-07,-1,-18,2.77855,2.77855,-37.1313,-37.1313,1.04
3.12647,3.12559,1.03782,1.0369,-0.0015153,-3.62895e-07,-0.000503,1.56404e-07,-1,-18,2.77288,2.77288,-37.1075,-37.1075,1.044
3.12646,3.12559,1.03782,1.0369,-0.00152662,-2.4193e-07,-0.000506758,1.0427e-07,-1,-18,2.767,2.767,-37.0839,-37.0839,1.048
3.12645,3.12559,1.03782,1.0369,-0.00153798,-5.77431e-05,-0.000510529,6.9513e-08,-1,-18,2.76096,2.76096,-37.0606,-37.0606,1.052
3.12645,3.12559,1.03782,1.0369,-0.00154938,4.78773e-05,-0.000514313,4.6342e-08,-1,-18,2.75524,2.75524,-37.0375,-37.0375,1.056
3.12644,3.12559,1.03781,1.0369,-0.00156082,3.12731e-06,-0.00051811,3.08947e-08,-1,-18,2.74822,2.74822,-37.0147,-37.0147,1.06
3.12643,3.12559,1.03781,1.0369,-0.0015723,3.08758e-05,-0.000521921,2.05964e-08,-1,-18,2.74144,2.74144,-36.9921,-36.9921,1.064
3.12643,3.12559,1.03781,1.0369,-0.00158382,-8.20706e-06,-0.000525744,1.3731e-08,-1,-18,2.73419,2.73419,-36.9698,-36.9698,1.068
3.12642,3.12559,1.03781,1.0369,-0.00159538,-5.47137e-06,-0.000529581,9.15398e-09,-1,-18,2.72713,2.72713,-36.9478,-36.9478,1.072
3.12642,3.12559,1.03781,1.0369,-0.00160697,-3.64758e-06,-0.000533431,6.10265e-09,-1,-17,2.71984,2.71984,-36.926,-36.926,1.076
3.12641,3.12559,1.0378,1.0369,-0.00161861,-6.00136e-05,-0.000537294,4.06843e-09,-1,-17,2.71235,2.71235,-36.9045,-36.9045,1.08
3.1264,3.12559,1.0378,1.0369,-0.00163029,-1.12181e-05,-0.00054117,2.71229e-09,0,-17,2.70522,2.70522,-36.8833,-36.8833,1.084
3.1264,3.12559,1.0378,1.0369,-0.001642,5.01031e-05,-0.000545059,1.80819e-09,0,-17,2.6973,2.6973,-36.8624,-36.8624,1.088
3.12639,3.12559,1.0378,1.0369,-0.00165376,4.61114e-06,-0.000548961,1.20546e-09,0,-17,2.68854,2.68854,-36.8417,-36.8417,1.092
3.12638,3.12559,1.0378,1.0369,-0.00166555,-2.57168e-05,-0.000552877,8.03641e-10,0,-17,2.68007,2.68007,-36.8212,-36.8212,1.096
3.12638,3.12559,1.03779,1.0369,-0.00167739,1.16464e-05,-0.000556805,5.35761e-10,0,-17,2.67168,2.67168,-36.8011,-36.8011,1.1
3.12637,3.12559,1.03779,1.0369,-0.00168926,-4.98176e-05,-0.000560747,3.57174e-10,0,-17,2.66271,2.66271,-36.7812,-36.7812,1.104
3.12636,3.12559,1.03779,1.0369,-0.00170118,-4.42081e-06,-0.000564701,2.38116e-10,0,-17,2.65415,2.65415,-36.7616,-36.7616,1.108
3.12636,3.12559,1.03779,1.0369,-0.00171313,-3.17381e-05,-0.000568669,1.58744e-10,0,-17,2.6449,2.6449,-36.7423,-36.7423,1.112
3.12635,3.12559,1.03778,1.0369,-0.00172512,6.5214e-05,-0.00057265,1.05829e-10,0,-17,2.63564,2.63564,-36.7233,-36.7233,1.116
3.12634,3.12559,1.03778,1.0369,-0.00173715,1.46851e-05,-0.000576643,7.05529e-11,0,-17,2.62516,2.62516,-36.7045,-36.7045,1.12
3.12634,3.12559,1.03778,1.0369,-0.00174922,-1.90009e-05,-0.00058065,4.70352e-11,0,-17,2.61502,2.61502,-36.686,-36.686,1.124
3.12633,3.12559,1.03778,1.0369,-0.00176133,-1.26672e-05,-0.00058467,3.13568e-11,0,-17,2.60501,2.60501,-36.6678,-36.6678,1.128
3.12632,3.12559,1.03777,1.0369,-0.00177348,-8.44483e-06,-0.000588703,2.09046e-11,0,-17,2.5947,2.5947,-36.6499,-36.6499,1.132
3.12631,3.12559,1.03777,1.0369,-0.00178567,-5.62989e-06,-0.000592748,1.39364e-11,0,-17,2.58411,2.58411,-36.6323,-36.6323,1.136
3.12631,3.12559,1.03777,1.0369,-0.0017979,-3.75326e-06,-0.000596807,9.29091e-12,0,-17,2.57326,2.57326,-36.6149,-36.6149,1.14
3.1263,3.12559,1.03777,1.0369,-0.00181016,-3.12931e-05,-0.000600879,6.19394e-12,0,-17,2.56218,2.56218,-36.5979,-36.5979,1.144
3.12629,3.12559,1.03777,1.0369,-0.00182247,7.92886e-06,-0.000604964,-2.87909e-05,0,-17,2.55113,2.55113,-36.5811,-36.5811,1.148
3.12628,3.12559,1.03776,1.0369,-0.00183481,5.28591e-06,-0.000609061,9.59698e-06,0,-17,2.53943,2.53943,-36.5634,-36.5634,1.152
3.12628,3.12559,1.03776,1.0369,-0.00184719,3.23149e-05,-0.000613172,6.39799e-06,0,-17,2.52751,2.52751,-36.5477,-36.5477,1.156
3.12627,3.12559,1.03776,1.0369,-0.00185962,-7.24768e-06,-0.000617295,4.26532e-06,0,-17,2.51509,2.51509,-36.532,-36.532,1.16
3.12626,3.12559,1.03776,1.0369,-0.00187208,-4.83179e-06,-0.000621432,2.84355e-06,0,-16,2.50285,2.50285,-36.5166,-36.5166,1.164
3.12626,3.12559,1.03775,1.0369,-0.00188458,-3.22119e-06,-0.000625581,1.8957e-06,0,-16,2.49035,2.49035,-36.5014,-36.5014,1.168
3.12625,3.12559,1.03775,1.0369,-0.00189712,-2.14746e-06,-0.000629744,1.2638e-06,0,-16,2.47759,2.47759,-36.4865,-36.4865,1.172
3.12624,3.12559,1.03775,1.0369,-0.0019097,2.73593e-05,-0.000633919,8.42533e-07,0,-16,2.46455,2.46455,-36.4719,-36.4719,1.176
3.12623,3.12559,1.03775,1.0369,-0.00192231,-1.05514e-05,-0.000638107,5.61689e-07,0,-16,2.45099,2.45099,-36.4575,-36.4575,1.18
3.12622,3.12559,1.03774,1.0369,-0.00193497,-7.03427e-06,-0.000642308,3.74459e-07,0,-16,2.43759,2.43759,-36.4434,-36.4434,1.184
3.12622,3.12559,1.03774,1.0369,-0.00194766,-4.68951e-06,-0.000646522,2.49639e-07,0,-16,2.42391,2.42391,-36.4296,-36.4296,1.188
3.12621,3.12559,1.03774,1.0369,-0.0019604,-3.12634e-06,-0.000650749,1.66426e-07,0,-16,2.40995,2.40995,-36.4161,-36.4161,1.192
3.1262,3.12559,1.03773,1.0369,-0.00197317,-2.08423e-06,-0.000654989,1.10951e-07,0,-16,2.39573,2.39573,-36.403,-36.403,1.196
3.12619,3.12559,1.03773,1.0369,-0.00198598,-1.38949e-06,-0.000659242,7.39672e-08,0,-16,2.38126,2.38126,-36.3901,-36.3901,1.2
3.12619,3.12559,1.03773,1.0369,-0.00199883,-9.26323e-07,-0.000663507,4.93115e-08,1,-16,2.36653,2.36653,-36.3775,-36.3775,1.204
3.12618,3.12559,1.03773,1.0369,-0.00201172,-6.17549e-07,-0.000667785,3.28743e-08,1,-16,2.35154,2.35154,-36.3652,-36.3652,1.208
3.12617,3.12559,1.03772,1.0369,-0.00202465,-4.11699e-07,-0.000672076,2.19162e-08,1,-16,2.3363,2.3363,-36.3533,-36.3533,1.212
3.12616,3.12559,1.03772,1.0369,-0.00203761,-2.74466e-07,-0.00067638,1.46108e-08,1,-16,2.32081,2.32081,-36.3416,-36.3416,1.216
3.12615,3.12559,1.03772,1.0369,-0.00205062,-1.82977e-07,-0.000680697,9.74054e-09,1,-16,2.30506,2.30506,-36.3303,-36.3303,1.22
3.12614,3.12559,1.03772,1.0369,-0.00206366,-1.21985e-07,-0.000685027,6.49369e-09,1,-16,2.28906,2.28906,-36.3193,-36.3193,1.224
3.12614,3.12559,1.03771,1.0369,-0.00207674,-8.13233e-08,-0.000689369,4.32913e-09,1,-16,2.2728,2.2728,-36.3086,-36.3086,1.228
3.12613,3.12559,1.03771,1.0369,-0.00208986,-5.42155e-08,-0.000693724,2.88609e-09,1,-16,2.25629,2.25629,-36.2982,-36.2982,1.232
3.12612,3.12559,1.03771,1.0369,-0.00210302,-3.61437e-08,-0.000698092,1.92406e-09,1,-15,2.23952,2.23952,-36.2881,-36.2881,1.236
3.12611,3.12559,1.0377,1.0369,-0.00211622,-2.40958e-08,-0.000702473,1.2827e-09,1,-15,2.22249,2.22249,-36.2784,-36.2784,1.24
3.1261,3.12559,1.0377,1.0369,-0.00212945,-1.60639e-08,-0.000706866,8.55137e-10,1,-15,2.2052,2.2052,-36.269,-36.269,1.244
3.12609,3.12559,1.0377,1.0369,-0.00214273,-1.07092e-08,-0.000711273,5.70091e-10,1,-15,2.18765,2.18765,-36.2599,-36.2599,1.248
3.12609,3.12559,1.0377,1.0369,-0.00215604,2.87838e-05,-0.000715692,3.80061e-10,1,-15,2.16982,2.16982,-36.2511,-36.2511,1.252
3.12608,3.12559,1.03769,1.0369,-0.00216939,-9.60173e-06,-0.000720123,2.53374e-10,1,-15,2.15145,2.15145,-36.2427,-36.2427,1.256
3.12607,3.12559,1.03769,1.0369,-0.00218278,-6.40116e-06,-0.000724568,1.68916e-10,2,-15,2.13322,2.13322,-36.2346,-36.2346,1.26
3.12606,3.12559,1.03769,1.0369,-0.0021962,-4.26744e-06,-0.000729025,1.12611e-10,2,-15,2.11469,2.11469,-36.2268,-36.2268,1.264
3.12605,3.12559,1.03768,1.0369,-0.00220967,2.5946e-05,-0.000733495,7.50737e-11,2,-15,2.09585,2.09585,-36.2193,-36.2193,1.268
3.12604,3.12559,1.03768,1.0369,-0.00222317,-1.14936e-05,-0.000737977,5.00492e-11,2,-15,2.07645,2.07645,-36.2122,-36.2122,1.272
3.12603,3.12559,1.03768,1.0369,-0.00223672,-7.66241e-06,-0.000742473,3.33661e-11,2,-15,2.05717,2.05717,-36.2054,-36.2054,1.276
3.12602,3.12559,1.03768,1.0369,-0.0022503,-5.10827e-06,-0.000746981,2.22441e-11,2,-15,2.03759,2.03759,-36.1989,-36.1989,1.28
3.12601,3.12559,1.03767,1.0369,-0.00226392,-3.40552e-06,-0.000751501,1.48294e-11,2,-15,2.01771,2.01771,-36.1928,-36.1928,1.284
3.12601,3.12559,1.03767,1.0369,-0.00227757,-2.27034e-06,-0.000756034,9.88625e-12,2,-15,1.99753,1.99753,-36.187,-36.187,1.288
3.126,3.12559,1.03767,1.0369,-0.00229127,-1.51356e-06,-0.00076058,6.59083e-12,2,-15,1.97707,1.97707,-36.1816,-36.1816,1.292
3.12599,3.12559,1.03766,1.0369,-0.002305,-1.00904e-06,-0.000765139,4.39389e-12,2,-14,1.95633,1.95633,-36.1764,-36.1764,1.296
3.12598,3.12559,1.03766,1.0369,-0.00231877,-6.72694e-07,-0.00076971,2.92926e-12,2,-14,1.93531,1.93531,-36.1717,-36.1717,1.3
3.12597,3.12559,1.03766,1.0369,-0.00233258,-4.48463e-07,-0.000774294,1.95284e-12,2,-14,1.91401,1.91401,-36.1673,-36.1673,1.304
3.12596,3.12559,1.03765,1.0369,-0.00234643,-2.98975e-07,-0.000778891,1.30189e-12,3,-14,1.89243,1.89243,-36.1632,-36.1632,1.308
3.12595,3.12559,1.03765,1.0369,-0.00236031,-1.99317e-07,-0.0007835,8.67929e-13,3,-14,1.87057,1.87057,-36.1594,-36.1594,1.312
3.12594,3.12559,1.03765,1.0369,-0.00237424,-1.32878e-07,-0.000788122,5.78619e-13,3,-14,1.84842,1.84842,-36.1561,-36.1561,1.316
3.12593,3.12559,1.03765,1.0369,-0.0023882,-8.85853e-08,-0.000792756,3.85746e-13,3,-14,1.826,1.826,-36.153,-36.153,1.32
3.12592,3.12559,1.03764,1.0369,-0.00240219,-5.90568e-08,-0.000797403,2.57164e-13,3,-14,1.8033,1.8033,-36.1503,-36.1503,1.324
3.12591,3.12559,1.03764,1.0369,-0.00241623,-3.93712e-08,-0.000802062,1.71443e-13,3,-14,1.78031,1.78031,-36.148,-36.148,1.328
3.1259,3.12559,1.03764,1.0369,-0.00243031,-2.62475e-08,-0.000806734,1.14295e-13,3,-14,1.75703,1.75703,-36.146,-36.146,1.332
3.12589,3.12559,1.03763,1.0369,-0.00244442,-1.74983e-08,-0.000811419,7.61968e-14,3,-14,1.73348,1.73348,-36.1444,-36.1444,1.336
3.12588,3.12559,1.03763,1.0369,-0.00245857,-1.16655e-08,-0.000816116,5.07978e-14,3,-14,1.70963,1.70963,-36.1431,-36.1431,1.34
3.12587,3.12559,1.03763,1.0369,-0.00247276,-7.77703e-09,-0.000820826,3.38652e-14,3,-14,1.6855,1.6855,-36.1422,-36.1422,1.344
3.12586,3.12559,1.03762,1.0369,-0.00248698,-5.18469e-09,-0.000825548,2.25768e-14,3,-13,1.66108,1.66108,-36.1416,-36.1416,1.348
3.12585,3.12559,1.03762,1.0369,-0.00250125,-3.45646e-09,-0.000830283,1.50512e-14,4,-13,1.63637,1.63637,-36.1414,-36.1414,1.352
3.12584,3.12559,1.03762,1.0369,-0.00251555,-2.30431e-09,-0.00083503,1.00341e-14,4,-13,1.61136,1.61136,-36.1416,-36.1416,1.356
3.12583,3.12559,1.03761,1.0369,-0.00252989,-1.5362e-09,-0.00083979,6.68943e-15,4,-13,1.58607,1.58607,-36.1421,-36.1421,1.36
3.12582,3.12559,1.03761,1.0369,-0.00254426,-1.02414e-09,-0.000844562,4.45962e-15,4,-13,1.56048,1.56048,-36.143,-36.143,1.364
3.12581,3.12559,1.03761,1.0369,-0.00255868,-6.82757e-10,-0.000849347,2.97308e-15,4,-13,1.5346,1.5346,-36.1443,-36.1443,1.368
3.1258,3.12559,1.0376,1.0369,-0.00257313,-4.55172e-10,-0.000854144,1.98205e-15,4,-13,1.50842,1.50842,-36.1459,-36.1459,1.372
3.12579,3.12559,1.0376,1.0369,-0.00258762,-3.03448e-10,-0.000858954,1.32137e-15,4,-13,1.48194,1.48194,-36.1479,-36.1479,1.376
3.12578,3.12559,1.0376,1.0369,-0.00260215,-2.02298e-10,-0.000863776,8.80912e-16,4,-13,1.45517,1.45517,-36.1503,-36.1503,1.38
3.12577,3.12559,1.03759,1.0369,-0.00261671,-1.34866e-10,-0.000868611,5.87275e-16,4,-13,1.4281,1.4281,-36.153,-36.153,1.384
3.12576,3.12559,1.03759,1.0369,-0.00263131,-8.99104e-11,-0.000873458,3.91517e-16,4,-13,1.40073,1.40073,-36.1561,-36.1561,1.388
3.12575,3.12559,1.03759,1.0369,-0.00264595,-5.99403e-11,-0.000878318,2.61011e-16,4,-13,1.37305,1.37305,-36.1596,-36.1596,1.392
3.12574,3.12559,1.03758,1.0369,-0.00266063,-3.99602e-11,-0.00088319,1.74007e-16,5,-12,1.34507,1.34507,-36.1635,-36.1635,1.396
3.12573,3.12559,1.03758,1.0369,-0.00267535,-2.66401e-11,-0.000888074,1.16005e-16,5,-12,1.31679,1.31679,-36.1677,-36.1677,1.4
3.12572,3.12559,1.03757,1.0369,-0.0026901,-1.77601e-11,-0.000892971,7.73366e-17,5,-12,1.2882,1.2882,-36.1723,-36.1723,1.404
3.12571,3.12559,1.03757,1.0369,-0.00270489,-1.18401e-11,-0.00089788,5.15577e-17,5,-12,1.25931,1.25931,-36.1773,-36.1773,1.408
3.1257,3.12559,1.03757,1.0369,-0.00271971,-2.87909e-05,-0.000902802,3.43718e-17,5,-12,1.23013,1.23013,-36.1827,-36.1827,1.412
3.12569,3.12559,1.03756,1.0369,-0.00273458,9.59697e-06,-0.000907736,2.29146e-17,5,-12,1.20092,1.20092,-36.1885,-36.1885,1.416
3.12567,3.12559,1.03756,1.0369,-0.00274948,6.39798e-06,-0.000912683,1.52764e-17,5,-12,1.171,1.171,-36.1946,-36.1946,1.42
3.12566,3.12559,1.03756,1.0369,-0.00276442,4.26532e-06,-0.000917641,1.01842e-17,5,-12,1.1408,1.1408,-36.2011,-36.2011,1.424
3.12565,3.12559,1.03755,1.0369,-0.00277939,-2.59474e-05,-0.000922613,6.7895e-18,5,-12,1.11033,1.11033,-36.2081,-36.2081,1.428
3.12564,3.12559,1.03755,1.0369,-0.00279441,-1.72983e-05,-0.000927596,4.52633e-18,5,-12,1.07987,1.07987,-36.2154,-36.2154,1.432
3.12563,3.12559,1.03755,1.0369,-0.00280946,-1.15322e-05,-0.000932592,3.01755e-18,6,-11,1.04899,1.04899,-36.2231,-36.2231,1.436
3.12562,3.12559,1.03754,1.0369,-0.00282454,-7.68811e-06,-0.0009376,2.0117e-18,6,-11,1.01773,1.01773,-36.2312,-36.2312,1.44
3.12561,3.12559,1.03754,1.0369,-0.00283967,2.36655e-05,-0.000942621,1.34114e-18,6,-11,0.986097,0.986097,-36.2397,-36.2397,1.444
3.1256,3.12559,1.03753,1.0369,-0.00285483,-1.30139e-05,-0.000947654,8.9409e-19,6,-11,0.953835,0.953835,-36.2486,-36.2486,1.448
3.12558,3.12559,1.03753,1.0369,-0.00287003,-8.67594e-06,-0.000952699,5.9606e-19,6,-11,0.921642,0.921642,-36.2578,-36.2578,1.452
3.12557,3.12559,1.03753,1.0369,-0.00288526,-5.78396e-06,-0.000957756,3.97373e-19,6,-11,0.889079,0.889079,-36.2675,-36.2675,1.456
3.12556,3.12559,1.03752,1.0369,-0.00290054,-3.85597e-06,-0.000962826,2.64916e-19,6,-11,0.856163,0.856163,-36.2776,-36.2776,1.46
3.12555,3.12559,1.03752,1.0369,-0.00291585,-2.57065e-06,-0.000967908,1.7661e-19,6,-11,0.822901,0.822901,-36.2881,-36.2881,1.464
3.12554,3.12559,1.03751,1.0369,-0.00293119,-1.71377e-06,-0.000973002,-2.87909e-05,6,-11,0.789302,0.789302,-36.2989,-36.2989,1.468
3.12553,3.12559,1.03751,1.0369,-0.00294658,-1.14251e-06,-0.000978109,9.59697e-06,6,-11,0.755367,0.755367,-36.3091,-36.3091,1.472
3.12551,3.12559,1.03751,1.0369,-0.002962,-7.61674e-07,-0.000983228,-2.23929e-05,7,-11,0.721099,0.721099,-36.3211,-36.3211,1.476
3.1255,3.12559,1.0375,1.0369,-0.00297745,-5.07783e-07,-0.000988359,1.38623e-05,7,-10,0.686499,0.686499,-36.3323,-36.3323,1.48
3.12549,3.12559,1.0375,1.0369,-0.00299295,-3.38522e-07,-0.000993502,-1.95494e-05,7,-10,0.651566,0.651566,-36.3453,-36.3453,1.484
3.12548,3.12559,1.0375,1.0369,-0.00300848,-2.25681e-07,-0.000998658,-1.30329e-05,7,-10,0.616302,0.616302,-36.3574,-36.3574,1.488
3.12547,3.12559,1.03749,1.0369,-0.00302405,-1.50454e-07,-0.00100383,2.01023e-05,7,-10,0.580704,0.580704,-36.3703,-36.3703,1.492
3.12545,3.12559,1.03749,1.0369,-0.00303965,-1.00303e-07,-0.00100901,1.34015e-05,7,-10,0.544773,0.544773,-36.3849,-36.3849,1.496
3.12544,3.12559,1.03748,1.0369,-0.0030553,-6.68685e-08,-0.0010142,8.93436e-06,7,-10,0.508507,0.508507,-36.3996,-36.3996,1.5
3.12543,3.12559,1.03748,1.0369,-0.00307097,-4.4579e-08,-0.0010194,5.95624e-06,7,-10,0.471905,0.471905,-36.4145,-36.4145,1.504
3.12542,3.12559,1.03747,1.0369,-0.00308669,-2.97193e-08,-0.00102462,3.97083e-06,7,-10,0.434966,0.434966,-36.4298,-36.4298,1.508
3.12541,3.12559,1.03747,1.0369,-0.00310244,-1.98129e-08,-0.00102985,-2.61437e-05,8,-10,0.397689,0.397689,-36.4453,-36.4453,1.512
3.12539,3.12559,1.03747,1.0369,-0.00311823,-1.32086e-08,-0.00103509,-1.74291e-05,8,-10,0.360073,0.360073,-36.4601,-36.4601,1.516
3.12538,3.12559,1.03746,1.0369,-0.00313405,-8.80573e-09,-0.00104034,-1.16194e-05,8,-9,0.322117,0.322117,-36.4756,-36.4756,1.52
3.12537,3.12559,1.03746,1.0369,-0.00314992,-5.87049e-09,-0.00104561,2.10446e-05,8,-9,0.283819,0.283819,-36.4918,-36.4918,1.524
3.12536,3.12559,1.03745,1.0369,-0.00316581,-3.91366e-09,-0.00105088,-1.47612e-05,8,-9,0.245179,0.245179,-36.5098,-36.5098,1.528
3.12534,3.12559,1.03745,1.0369,-0.00318175,-2.6091e-09,-0.00105617,-9.84078e-06,8,-9,0.206194,0.206194,-36.5267,-36.5267,1.532
3.12533,3.12559,1.03745,1.0369,-0.00319772,-1.7394e-09,-0.00106148,-6.56052e-06,8,-9,0.166864,0.166864,-36.5442,-36.5442,1.536
3.12532,3.12559,1.03744,1.0369,-0.00321373,-1.1596e-09,-0.00106679,-4.37368e-06,8,-9,0.127187,0.127187,-36.5623,-36.5623,1.54
3.1253,3.12559,1.03744,1.0369,-0.00322977,-7.73068e-10,-0.00107212,-2.91579e-06,9,-9,0.087163,0.087163,-36.581,-36.581,1.544
3.12529,3.12559,1.03743,1.0369,-0.00324585,-2.87914e-05,-0.00107745,-1.94386e-06,9,-9,0.0468131,0.0468131,-36.6001,-36.6001,1.548
3.12528,3.12559,1.03743,1.0369,-0.00326197,-1.91943e-05,-0.0010828,-1.2959e-06,9,-8,0.00641278,0.00641278,-36.6197,-36.6197,1.552
3.12527,3.12559,1.03742,1.0369,-0.00327812,1.59947e-05,-0.00108817,-8.63936e-07,9,-8,-0.0344686,-0.0344686,-36.6398,-36.6398,1.556
3.12525,3.12559,1.03742,1.0369,-0.00329432,-1.81278e-05,-0.00109354,-5.75958e-07,9,-8,-0.07605,-0.07605,-36.6603,-36.6603,1.56
3.12524,3.12559,1.03742,1.0369,-0.00331054,1.67057e-05,-0.00109893,-3.83972e-07,9,-8,-0.11765,-0.11765,-36.6813,-36.6813,1.564
3.12523,3.12559,1.03741,1.0369,-0.0033268,1.11372e-05,-0.00110432,-2.55981e-07,9,-8,-0.159972,-0.159972,-36.7027,-36.7027,1.568
3.12521,3.12559,1.03741,1.0369,-0.0033431,7.42477e-06,-0.00110974,-1.70654e-07,9,-8,-0.202588,-0.202588,-36.7246,-36.7246,1.572
3.1252,3.12559,1.0374,1.0369,-0.00335944,4.94985e-06,-0.00111516,-1.13769e-07,10,-8,-0.245522,-0.245522,-36.7469,-36.7469,1.576
3.12519,3.12559,1.0374,1.0369,-0.00337581,3.2999e-06,-0.00112059,-7.58463e-08,10,-8,-0.288787,-0.288787,-36.7697,-36.7697,1.58
3.12517,3.12559,1.03739,1.0369,-0.00339222,-2.6591e-05,-0.00112604,-5.05642e-08,10,-7,-0.33237,-0.33237,-36.7929,-36.7929,1.584
3.12516,3.12559,1.03739,1.0369,-0.00340866,-1.77273e-05,-0.0011315,-3.37095e-08,10,-7,-0.376003,-0.376003,-36.8166,-36.8166,1.588
3.12514,3.12559,1.03738,1.0369,-0.00342514,-1.18182e-05,-0.00113697,-2.2473e-08,10,-7,-0.420097,-0.420097,-36.8407,-36.8407,1.592
3.12513,3.12559,1.03738,1.0369,-0.00344166,-7.87881e-06,-0.00114245,-1.4982e-08,10,-7,-0.464621,-0.464621,-36.8653,-36.8653,1.596
3.12512,3.12559,1.03737,1.0369,-0.00345821,-5.25254e-06,-0.00114794,-9.98799e-09,10,-7,-0.509553,-0.509553,-36.8903,-36.8903,1.6
3.1251,3.12559,1.03737,1.0369,-0.0034748,-3.50169e-06,-0.00115345,-6.65866e-09,10,-7,-0.554881,-0.554881,-36.9158,-36.9158,1.604
3.12509,3.12559,1.03737,1.0369,-0.00349143,-2.33446e-06,-0.00115897,-4.43911e-09,11,-7,-0.600596,-0.600596,-36.9417,-36.9417,1.608
3.12508,3.12559,1.03736,1.0369,-0.00350809,-1.55631e-06,-0.0011645,-2.9594e-09,11,-7,-0.646694,-0.646694,-36.9681,-36.9681,1.612
3.12506,3.12559,1.03736,1.0369,-0.00352478,-1.03754e-06,-0.00117004,-1.97294e-09,11,-6,-0.69317,-0.69317,-36.995,-36.995,1.616
3.12505,3.12559,1.03735,1.0369,-0.00354152,-6.91693e-07,-0.0011756,-1.31529e-09,11,-6,-0.740024,-0.740024,-37.0223,-37.0223,1.62
3.12503,3.12559,1.03735,1.0369,-0.00355828,-4.61128e-07,-0.00118116,-8.7686e-10,11,-6,-0.787254,-0.787254,-37.0501,-37.0501,1.624
3.12502,3.12559,1.03734,1.0369,-0.00357509,-3.07419e-07,-0.00118674,-5.84574e-10,11,-6,-0.834861,-0.834861,-37.0783,-37.0783,1.628
3.125,3.12559,1.03734,1.0369,-0.00359193,-2.04946e-07,-0.00119233,-3.89716e-10,11,-6,-0.882846,-0.882846,-37.107,-37.107,1.632
3.12499,3.12559,1.03733,1.0369,-0.00360881,-1.36631e-07,-0.00119793,-2.5981e-10,11,-6,-0.931208,-0.931208,-37.1362,-37.1362,1.636
3.12498,3.12559,1.03733,1.0369,-0.00362572,-9.10871e-08,-0.00120355,-1.73207e-10,12,-6,-0.979949,-0.979949,-37.1659,-37.1659,1.64
3.12496,3.12559,1.03732,1.0369,-0.00364267,-6.07247e-08,-0.00120917,-1.15471e-10,12,-5,-1.02907,-1.02907,-37.196,-37.196,1.644
3.12495,3.12559,1.03732,1.0369,-0.00365965,-2.88314e-05,-0.00121481,-2.8791e-05,12,-6,-1.07855,-1.07855,-37.2265,-37.2265,1.648
3.12493,3.12559,1.03731,1.0369,-0.00367667,-1.92209e-05,-0.00122046,9.59692e-06,12,-5,-1.12811,-1.12811,-37.2565,-37.2565,1.652
3.12492,3.12559,1.03731,1.0369,-0.00369373,-1.2814e-05,-0.00122612,6.39795e-06,12,-5,-1.17816,-1.17816,-37.2884,-37.2884,1.656
3.1249,3.12559,1.0373,1.0369,-0.00371082,-3.73336e-05,-0.0012318,-2.45256e-05,12,-5,-1.22864,-1.22864,-37.3206,-37.3206,1.66
3.12489,3.12559,1.0373,1.0369,-0.00372794,-2.4889e-05,-0.00123748,1.24405e-05,12,-5,-1.27926,-1.27926,-37.3522,-37.3522,1.664
3.12487,3.12559,1.03729,1.0369,-0.00374511,-1.65927e-05,-0.00124318,8.29367e-06,12,-5,-1.3304,-1.3304,-37.3857,-37.3857,1.668
3.12486,3.12559,1.03729,1.0369,-0.00376231,-1.10618e-05,-0.00124889,-2.32618e-05,13,-5,-1.38202,-1.38202,-37.4194,-37.4194,1.672
3.12484,3.12559,1.03728,1.0369,-0.00377954,2.14164e-05,-0.00125461,1.32831e-05,13,-4,-1.43411,-1.43411,-37.4525,-37.4525,1.676
3.12483,3.12559,1.03728,1.0369,-0.00379681,-1.45133e-05,-0.00126034,-1.99356e-05,13,-4,-1.48692,-1.48692,-37.4874,-37.4874,1.68
3.12481,3.12559,1.03727,1.0369,-0.00381411,1.91154e-05,-0.00126609,-1.32904e-05,13,-4,-1.53976,-1.53976,-37.5215,-37.5215,1.684
3.1248,3.12559,1.03727,1.0369,-0.00383145,-1.60473e-05,-0.00127184,-8.86025e-06,13,-4,-1.59332,-1.59332,-37.5563,-37.5563,1.688
3.12478,3.12559,1.03726,1.0369,-0.00384883,-1.06982e-05,-0.00127761,-5.90683e-06,13,-4,-1.64691,-1.64691,-37.5919,-37.5919,1.692
3.12477,3.12559,1.03726,1.0369,-0.00386624,-7.13215e-06,-0.00128339,-3.93789e-06,14,-4,-1.70095,-1.70095,-37.628,-37.628,1.696
3.12475,3.12559,1.03725,1.0369,-0.00388369,-4.75477e-06,-0.00128918,-2.62526e-06,14,-3,-1.75543,-1.75543,-37.6647,-37.6647,1.7
3.12473,3.12559,1.03725,1.0369,-0.00390117,-3.16985e-06,-0.00129498,-1.75017e-06,14,-3,-1.81034,-1.81034,-37.702,-37.702,1.704
3.12472,3.12559,1.03724,1.0369,-0.00391869,-3.09042e-05,-0.0013008,-1.16678e-06,14,-3,-1.86564,-1.86564,-37.7398,-37.7398,1.708
3.1247,3.12559,1.03724,1.0369,-0.00393624,-2.06028e-05,-0.00130663,-7.77854e-07,14,-3,-1.92105,-1.92105,-37.7781,-37.7781,1.712
3.12469,3.12559,1.03723,1.0369,-0.00395383,-1.37352e-05,-0.00131247,-5.1857e-07,14,-3,-1.97698,-1.97698,-37.8169,-37.8169,1.716
3.12467,3.12559,1.03723,1.0369,-0.00397146,-9.15679e-06,-0.00131832,-3.45713e-07,14,-3,-2.03339,-2.03339,-37.8563,-37.8563,1.72
3.12466,3.12559,1.03722,1.0369,-0.00398912,-6.10452e-06,-0.00132418,-2.30475e-07,15,-3,-2.09025,-2.09025,-37.8961,-37.8961,1.724
3.12464,3.12559,1.03722,1.0369,-0.00400681,-4.06968e-06,-0.00133005,-1.5365e-07,15,-2,-2.14756,-2.14756,-37.9365,-37.9365,1.728
3.12462,3.12559,1.03721,1.0369,-0.00402454,-2.71312e-06,-0.00133594,-1.02433e-07,15,-2,-2.2053,-2.2053,-37.9774,-37.9774,1.732
3.12461,3.12559,1.03721,1.0369,-0.00404231,-1.80875e-06,-0.00134183,-6.8289e-08,15,-2,-2.26346,-2.26346,-38.0188,-38.0188,1.736
3.12459,3.12559,1.0372,1.0369,-0.00406011,-1.20583e-06,-0.00134774,-4.5526e-08,15,-2,-2.32204,-2.32204,-38.0607,-38.0607,1.74
3.12457,3.12559,1.03719,1.0369,-0.00407794,-8.03888e-07,-0.00135366,-3.03507e-08,15,-2,-2.38104,-2.38104,-38.1031,-38.1031,1.744
3.12456,3.12559,1.03719,1.0369,-0.00409581,-2.93269e-05,-0.0013596,-2.02338e-08,15,-2,-2.44043,-2.44043,-38.146,-38.146,1.748
3.12454,3.12559,1.03718,1.0369,-0.00411372,9.23969e-06,-0.00136554,-1.34892e-08,16,-1,-2.49997,-2.49997,-38.1894,-38.1894,1.752
3.12453,3.12559,1.03718,1.0369,-0.00413166,6.15979e-06,-0.0013715,-8.99279e-09,16,-1,-2.56033,-2.56033,-38.2334,-38.2334,1.756
3.12451,3.12559,1.03717,1.03689,-0.00414964,-2.46844e-05,-0.00137746,-2.87969e-05,16,-1,-2.62105,-2.62105,-38.2778,-38.2778,1.76
3.12449,3.12559,1.03717,1.0369,-0.00416765,-1.64563e-05,-0.00138344,9.59298e-06,16,-1,-2.68186,-2.68186,-38.3217,-38.3217,1.764
3.12448,3.12559,1.03716,1.03689,-0.0041857,-1.09708e-05,-0.00138943,-2.23956e-05,16,-1,-2.74319,-2.74319,-38.3675,-38.3675,1.768
3.12446,3.12559,1.03716,1.0369,-0.00420378,-7.31389e-06,-0.00139543,1.38605e-05,16,0,-2.80499,-2.80499,-38.4127,-38.4127,1.772
3.12444,3.12559,1.03715,1.03689,-0.00422189,-4.87593e-06,-0.00140145,-1.95506e-05,17,-1,-2.86726,-2.86726,-38.4598,-38.4598,1.776
3.12443,3.12559,1.03715,1.03689,-0.00424005,-3.25062e-06,-0.00140747,-1.30337e-05,17,0,-2.92999,-2.92999,-38.506,-38.506,1.78
3.12441,3.12559,1.03714,1.03689,-0.00425823,-2.16708e-06,-0.00141351,-8.68915e-06,17,0,-2.99315,-2.99315,-38.5531,-38.5531,1.784
3.12439,3.12559,1.03713,1.03689,-0.00427645,-1.44472e-06,-0.00141956,-5.79276e-06,17,0,-3.05675,-3.05675,-38.6009,-38.6009,1.788
3.12437,3.12559,1.03713,1.03689,-0.00429471,-9.63147e-07,-0.00142562,-3.86184e-06,17,0,-3.12079,-3.12079,-38.6493,-38.6493,1.792
3.12436,3.12559,1.03712,1.03689,-0.004313,-6.42098e-07,-0.00143169,-2.57456e-06,17,0,-3.18527,-3.18527,-38.6983,-38.6983,1.796
3.12434,3.12559,1.03712,1.03689,-0.00433133,-4.28065e-07,-0.00143777,-1.71637e-06,18,0,-3.25017,-3.25017,-38.748,-38.748,1.8
3.12432,3.12559,1.03711,1.03689,-0.00434969,-2.85377e-07,-0.00144387,-1.14425e-06,18,0,-3.31552,-3.31552,-38.7982,-38.7982,1.804
3.1243,3.12559,1.03711,1.03689,-0.00436808,-1.90251e-07,-0.00144997,-7.62833e-07,18,0,-3.38129,-3.38129,-38.8489,-38.8489,1.808
3.12429,3.12559,1.0371,1.03689,-0.00438651,-1.26834e-07,-0.00145609,-5.08555e-07,18,0,-3.44751,-3.44751,-38.9003,-38.9003,1.812
3.12427,3.12559,1.03709,1.03689,-0.00440498,-8.45561e-08,-0.00146222,-3.39037e-07,18,0,-3.51416,-3.51416,-38.9521,-38.9521,1.816
3.12425,3.12559,1.03709,1.03689,-0.00442348,-5.63707e-08,-0.00146836,-2.26025e-07,18,0,-3.58124,-3.58124,-39.0045,-39.0045,1.82
3.12423,3.12559,1.03708,1.03689,-0.00444201,-2.88285e-05,-0.00147451,-1.50683e-07,18,1,-3.64874,-3.64874,-39.0575,-39.0575,1.824
3.12422,3.12559,1.03708,1.03689,-0.00446058,9.57192e-06,-0.00148068,-1.00455e-07,19,1,-3.71641,-3.71641,-39.111,-39.111,1.828
3.1242,3.12559,1.03707,1.03689,-0.00447918,6.38128e-06,-0.00148685,-6.69703e-08,19,1,-3.78492,-3.78492,-39.1651,-39.1651,1.832
3.12418,3.12559,1.03706,1.03689,-0.00449782,4.25419e-06,-0.00149304,-4.46468e-08,19,1,-3.85385,-3.85385,-39.2197,-39.2197,1.836
3.12416,3.12559,1.03706,1.03689,-0.0045165,2.83612e-06,-0.00149924,-2.97646e-08,19,1,-3.92319,-3.92319,-39.2749,-39.2749,1.84
3.12414,3.12559,1.03705,1.03689,-0.0045352,-2.69002e-05,-0.00150545,-1.9843e-08,19,2,-3.99294,-3.99294,-39.3306,-39.3306,1.844
3.12413,3.12559,1.03705,1.03689,-0.00455394,-1.79334e-05,-0.00151167,-1.32287e-08,19,2,-4.06282,-4.06282,-39.3869,-39.3869,1.848
3.12411,3.12559,1.03704,1.03689,-0.00457272,-1.19556e-05,-0.0015179,-8.81913e-09,20,2,-4.13325,-4.13325,-39.4438,-39.4438,1.852
3.12409,3.12559,1.03703,1.03689,-0.00459153,-7.97042e-06,-0.00152415,-5.87942e-09,20,2,-4.2042,-4.2042,-39.5012,-39.5012,1.856
3.12407,3.12559,1.03703,1.03689,-0.00461038,-5.31361e-06,-0.0015304,-3.91961e-09,20,2,-4.27564,-4.27564,-39.5591,-39.5591,1.86
3.12405,3.12559,1.03702,1.03689,-0.00462926,-3.54241e-06,-0.00153667,-2.61308e-09,20,2,-4.34757,-4.34757,-39.6177,-39.6177,1.864
3.12403,3.12559,1.03702,1.03689,-0.00464817,-2.36161e-06,-0.00154295,-1.74205e-09,20,3,-4.41996,-4.41996,-39.6767,-39.6767,1.868
3.12402,3.12559,1.03701,1.03689,-0.00466712,-1.5744e-06,-0.00154924,-1.16137e-09,21,3,-4.49283,-4.49283,-39.7364,-39.7364,1.872
3.124,3.12559,1.037,1.03689,-0.0046861,-1.0496e-06,-0.00155554,-7.74244e-10,21,3,-4.56616,-4.56616,-39.7966,-39.7966,1.876
3.12398,3.12559,1.037,1.03689,-0.00470512,-6.99735e-07,-0.00156185,-5.16163e-10,21,3,-4.63996,-4.63996,-39.8574,-39.8574,1.88
3.12396,3.12559,1.03699,1.03689,-0.00472417,-2.92574e-05,-0.00156818,-3.44109e-10,21,3,-4.71419,-4.71419,-39.9188,-39.9188,1.884
3.12394,3.12559,1.03698,1.03689,-0.00474326,-1.95049e-05,-0.00157451,-2.29406e-10,21,4,-4.78859,-4.78859,-39.9807,-39.9807,1.888
3.12392,3.12559,1.03698,1.03689,-0.00476238,-1.30033e-05,-0.00158086,-1.52937e-10,21,4,-4.86355,-4.86355,-40.0432,-40.0432,1.892
3.1239,3.12559,1.03697,1.03689,-0.00478153,-8.66886e-06,-0.00158722,-1.01958e-10,22,4,-4.93906,-4.93906,-40.1063,-40.1063,1.896
3.12388,3.12559,1.03697,1.03689,-0.00480072,-5.77924e-06,-0.00159359,-6.79721e-11,22,4,-5.01507,-5.01507,-40.1699,-40.1699,1.9
3.12386,3.12559,1.03696,1.03689,-0.00481994,-3.85283e-06,-0.00159997,-4.53147e-11,22,4,-5.09158,-5.09158,-40.2342,-40.2342,1.904
3.12384,3.12559,1.03695,1.03689,-0.0048392,-2.56855e-06,-0.00160636,-3.02098e-11,22,5,-5.16858,-5.16858,-40.299,-40.299,1.908
3.12383,3.12559,1.03695,1.03689,-0.00485849,-1.71237e-06,-0.00161276,-2.01399e-11,22,5,-5.24607,-5.24607,-40.3644,-40.3644,1.912
3.12381,3.12559,1.03694,1.03689,-0.00487781,-1.14158e-06,-0.00161918,-1.34266e-11,23,5,-5.32403,-5.32403,-40.4304,-40.4304,1.916
3.12379,3.12559,1.03693,1.03689,-0.00489717,-2.9552e-05,-0.0016256,-8.95106e-12,23,5,-5.40245,-5.40245,-40.4969,-40.4969,1.92
3.12377,3.12559,1.03693,1.03689,-0.00491657,-1.97013e-05,-0.00163204,-5.96737e-12,23,5,-5.48105,-5.48105,-40.5641,-40.5641,1.924
3.12375,3.12559,1.03692,1.03689,-0.00493599,-1.31342e-05,-0.00163849,-3.97825e-12,23,6,-5.56023,-5.56023,-40.6318,-40.6318,1.928
3.12373,3.12559,1.03691,1.03689,-0.00495546,-8.75614e-06,-0.00164495,-2.65216e-12,23,6,-5.63995,-5.63995,-40.7002,-40.7002,1.932
3.12371,3.12559,1.03691,1.03689,-0.00497495,-3.46284e-05,-0.00165142,-2.87909e-05,23,6,-5.72018,-5.72018,-40.7691,-40.7691,1.936
3.12369,3.12559,1.0369,1.03689,-0.00499448,-5.18765e-05,-0.00165791,-4.79849e-05,24,6,-5.8006,-5.8006,-40.8373,-40.8373,1.94
3.12367,3.12559,1.03689,1.03689,-0.00501404,-6.33753e-05,-0.0016644,-6.07808e-05,24,6,-5.8813,-5.8813,-40.9053,-40.9053,1.944
3.12365,3.12559,1.03689,1.03689,-0.00503364,-7.10411e-05,-0.0016709,-4.05206e-05,24,6,-5.96235,-5.96235,-40.9735,-40.9735,1.948
3.12363,3.12559,1.03688,1.03689,-0.00505327,-4.73607e-05,-0.00167742,-2.70137e-05,24,6,-6.04382,-6.04382,-41.0431,-41.0431,1.952
3.12361,3.12559,1.03687,1.03689,-0.00507293,-3.15738e-05,-0.00168395,-1.80091e-05,24,7,-6.12604,-6.12604,-41.1138,-41.1138,1.956
3.12359,3.12559,1.03687,1.03689,-0.00509263,-4.98401e-05,-0.00169049,-1.20061e-05,24,7,-6.20889,-6.20889,-41.1856,-41.1856,1.96
3.12357,3.12559,1.03686,1.03689,-0.00511236,-3.32268e-05,-0.00169704,-8.00406e-06,25,7,-6.29204,-6.29204,-41.2581,-41.2581,1.964
3.12355,3.12559,1.03685,1.03689,-0.00513213,-2.21512e-05,-0.0017036,-5.33604e-06,25,8,-6.37587,-6.37587,-41.3315,-41.3315,1.968
3.12352,3.12559,1.03685,1.03689,-0.00515193,-4.35584e-05,-0.00171017,-3.55736e-06,25,8,-6.46029,-6.46029,-41.4056,-41.4056,1.972
3.1235,3.12559,1.03684,1.03689,-0.00517176,-5.78298e-05,-0.00171675,-2.37157e-06,25,8,-6.54495,-6.54495,-41.4803,-41.4803,1.976
3.12348,3.12559,1.03683,1.03689,-0.00519163,-6.73442e-05,-0.00172335,-3.0372e-05,25,8,-6.62995,-6.62995,-41.5557,-41.5557,1.98
3.12346,3.12559,1.03683,1.03689,-0.00521153,-4.48961e-05,-0.00172996,-2.0248e-05,26,8,-6.71535,-6.71535,-41.6305,-41.6305,1.984
3.12344,3.12559,1.03682,1.03689,-0.00523147,-5.87217e-05,-0.00173657,-1.34987e-05,26,9,-6.80148,-6.80148,-41.7064,-41.7064,1.988
3.12342,3.12559,1.03681,1.03689,-0.00525143,-3.91478e-05,-0.0017432,-8.9991e-06,26,9,-6.88796,-6.88796,-41.7832,-41.7832,1.992
3.1234,3.12559,1.0368,1.03689,-0.00527144,-2.60985e-05,-0.00174984,-5.9994e-06,26,9,-6.97516,-6.97516,-41.8608,-41.8608,1.996
3.12338,3.12559,1.0368,1.03689,-0.00529147,-1.7399e-05,-0.00175649,-3.9996e-06,27,9,-7.06301,-7.06301,-41.9391,-41.9391,2
3.12336,3.12559,1.03679,1.03689,-0.00531154,-1.15993e-05,-0.00176315,-2.6664e-06,27,9,-7.15145,-7.15145,-42.0182,-42.0182,2.004
3.12334,3.12559,1.03678,1.03689,-0.00533164,-3.65238e-05,-0.00176983,-1.7776e-06,27,10,-7.24044,-7.24044,-42.0979,-42.0979,2.008
3.12331,3.12559,1.03678,1.03689,-0.00535178,-2.43492e-05,-0.00177651,-2.9976e-05,27,10,-7.32967,-7.32967,-42.1782,-42.1782,2.012
3.12329,3.12559,1.03677,1.03689,-0.00537195,-1.62328e-05,-0.0017832,8.80693e-06,27,10,-7.41954,-7.41954,-42.2581,-42.2581,2.016
3.12327,3.12559,1.03676,1.03689,-0.00539215,-1.08219e-05,-0.00178991,5.87129e-06,28,10,-7.51001,-7.51001,-42.3402,-42.3402,2.02
3.12325,3.12559,1.03676,1.03689,-0.00541238,-7.21458e-06,-0.00179663,-2.48767e-05,28,10,-7.60105,-7.60105,-42.4227,-42.4227,2.024
3.12323,3.12559,1.03675,1.03689,-0.00543265,-4.80972e-06,-0.00180336,-1.65845e-05,28,11,-7.69264,-7.69264,-42.5046,-42.5046,2.028
3.12321,3.12559,1.03674,1.03689,-0.00545296,-3.20648e-06,-0.0018101,-1.10563e-05,28,11,-7.78476,-7.78476,-42.5876,-42.5876,2.032
3.12318,3.12559,1.03673,1.03689,-0.00547329,-2.13765e-06,-0.00181685,-7.37088e-06,28,11,-7.87742,-7.87742,-42.6713,-42.6713,2.036
3.12316,3.12559,1.03673,1.03689,-0.00549366,-1.4251e-06,-0.00182361,-4.91392e-06,29,11,-7.9706,-7.9706,-42.7559,-42.7559,2.04
3.12314,3.12559,1.03672,1.03689,-0.00551406,-2.9741e-05,-0.00183038,-3.20669e-05,29,11,-8.06428,-8.06428,-42.8411,-42.8411,2.044
3.12312,3.12559,1.03671,1.03689,-0.0055345,-1.98273e-05,-0.00183716,-2.13779e-05,29,12,-8.15818,-8.15818,-42.926,-42.926,2.048
3.1231,3.12559,1.0367,1.03689,-0.00555497,-4.20091e-05,-0.00184396,-1.42519e-05,29,12,-8.25269,-8.25269,-43.0118,-43.0118,2.052
3.12307,3.12559,1.0367,1.03689,-0.00557547,-5.6797e-05,-0.00185076,-6.70831e-05,29,12,-8.34746,-8.34746,-43.0986,-43.0986,2.056
3.12305,3.12558,1.03669,1.03689,-0.00559601,-6.66556e-05,-0.00185758,-1.59312e-05,30,13,-8.44259,-8.44259,-43.1839,-43.1839,2.06
3.12303,3.12558,1.03668,1.03689,-0.00561658,-4.44371e-05,-0.00186441,-1.06208e-05,30,13,-8.53816,-8.53816,-43.2719,-43.2719,2.064
3.12301,3.12558,1.03667,1.03689,-0.00563718,-2.96247e-05,-0.00187125,-3.58714e-05,30,13,-8.63449,-8.63449,-43.3608,-43.3608,2.068
3.12298,3.12558,1.03667,1.03689,-0.00565781,-0.000106123,-0.0018781,-2.39143e-05,30,13,-8.73144,-8.73144,-43.4493,-43.4493,2.072
3.12296,3.12558,1.03666,1.03689,-0.00567848,-0.00012833,-0.00188496,-1.59429e-05,30,13,-8.82808,-8.82808,-43.539,-43.539,2.076
3.12294,3.12558,1.03665,1.03689,-0.00569918,-5.67626e-05,-0.00189183,-1.06286e-05,31,14,-8.92506,-8.92506,-43.6296,-43.6296,2.08
3.12292,3.12558,1.03664,1.03689,-0.00571992,-6.66326e-05,-0.00189871,-7.08572e-06,31,14,-9.02333,-9.02333,-43.7211,-43.7211,2.084
3.12289,3.12558,1.03664,1.03689,-0.00574068,-4.44218e-05,-0.00190561,-4.72381e-06,31,14,-9.12203,-9.12203,-43.8134,-43.8134,2.088
3.12287,3.12558,1.03663,1.03689,-0.00576148,-2.96145e-05,-0.00191251,-3.14921e-06,31,15,-9.22152,-9.22152,-43.9065,-43.9065,2.092
3.12285,3.12558,1.03662,1.03689,-0.00578232,-4.85339e-05,-0.00191943,-3.08904e-05,32,15,-9.32167,-9.32167,-44.0003,-44.0003,2.096
3.12282,3.12558,1.03661,1.03689,-0.00580318,-3.2356e-05,-0.00192635,-2.05936e-05,32,15,-9.42218,-9.42218,-44.0936,-44.0936,2.1
3.1228,3.12558,1.03661,1.03689,-0.00582408,-2.15706e-05,-0.00193329,-4.252e-05,32,15,-9.5234,-9.5234,-44.188,-44.188,2.104
3.12278,3.12558,1.0366,1.03689,-0.00584501,-4.31713e-05,-0.00194024,-2.83467e-05,32,15,-9.62525,-9.62525,-44.2821,-44.2821,2.108
3.12275,3.12558,1.03659,1.03689,-0.00586598,-5.75718e-05,-0.0019472,-1.88978e-05,32,16,-9.7274,-9.7274,-44.3775,-44.3775,2.112
3.12273,3.12558,1.03658,1.03689,-0.00588697,-6.71721e-05,-0.00195417,-1.25985e-05,33,16,-9.82993,-9.82993,-44.474,-44.474,2.116
3.12271,3.12558,1.03657,1.03689,-0.005908,-7.35724e-05,-0.00196115,2.03919e-05,33,17,-9.93289,-9.93289,-44.5715,-44.5715,2.12
3.12268,3.12558,1.03657,1.03689,-0.00592907,-0.00010663,-0.00196814,-4.39872e-05,33,16,-10.0363,-10.0363,-44.6708,-44.6708,2.124
3.12266,3.12558,1.03656,1.03689,-0.00595016,-0.000157459,-0.00197514,-5.81158e-05,33,16,-10.1398,-10.1398,-44.7682,-44.7682,2.128
3.12264,3.12558,1.03655,1.03689,-0.00597129,-0.000191346,-0.00198216,-3.87438e-05,33,17,-10.2434,-10.2434,-44.8657,-44.8657,2.132
3.12261,3.12558,1.03654,1.03689,-0.00599245,-0.000300309,-0.00198918,-5.46201e-05,33,17,-10.347,-10.347,-44.9647,-44.9647,2.136
3.12259,3.12558,1.03654,1.03689,-0.00601365,-0.000286579,-0.00199622,-6.52044e-05,33,17,-10.45,-10.45,-45.0636,-45.0636,2.14
3.12256,3.12557,1.03653,1.03689,-0.00603487,-0.000392589,-0.00200326,-7.22605e-05,33,17,-10.5536,-10.5536,-45.1628,-45.1628,2.144
3.12254,3.12557,1.03652,1.03689,-0.00605613,-0.000463263,-0.00201032,-4.81737e-05,33,18,-10.6565,-10.6565,-45.2625,-45.2625,2.148
3.12252,3.12557,1.03651,1.03689,-0.00607742,-0.000539169,-0.00201739,-8.96976e-05,33,17,-10.7592,-10.7592,-45.3637,-45.3637,2.152
3.12249,3.12556,1.0365,1.03689,-0.00609875,-0.000618564,-0.00202446,-3.10075e-05,33,18,-10.8615,-10.8615,-45.464,-45.464,2.156
3.12247,3.12556,1.0365,1.03689,-0.00612011,-0.000700286,-0.00203155,-7.82535e-05,33,18,-10.9634,-10.9634,-45.5672,-45.5672,2.16
3.12244,3.12556,1.03649,1.03689,-0.0061415,-0.000812348,-0.00203865,5.41284e-06,33,19,-11.0649,-11.0649,-45.6694,-45.6694,2.164
3.12242,3.12555,1.03648,1.03689,-0.00616292,-0.000944638,-0.00204577,-2.51824e-05,33,19,-11.1657,-11.1657,-45.7757,-45.7757,2.168
3.12239,3.12555,1.03647,1.03689,-0.00618437,-0.00109041,-0.00205289,-1.67882e-05,33,19,-11.2654,-11.2654,-45.8814,-45.8814,2.172
3.12237,3.12554,1.03646,1.03689,-0.00620586,-0.00107243,-0.00206002,-3.99831e-05,33,19,-11.364,-11.364,-45.9881,-45.9881,2.176
3.12234,3.12554,1.03645,1.03689,-0.00622738,-0.00117561,-0.00206716,-2.66554e-05,33,20,-11.4633,-11.4633,-46.0946,-46.0946,2.18
3.12232,3.12553,1.03645,1.03689,-0.00624893,-0.00133077,-0.00207432,-4.65612e-05,33,20,-11.5619,-11.5619,-46.2022,-46.2022,2.184
3.12229,3.12552,1.03644,1.03689,-0.00627051,-0.00140542,-0.00208148,-3.10408e-05,33,20,-11.6593,-11.6593,-46.3098,-46.3098,2.188
3.12227,3.12552,1.03643,1.03689,-0.00629213,-0.00159913,-0.00208866,-4.94848e-05,33,20,-11.7562,-11.7562,-46.4187,-46.4187,2.192
3.12224,3.12551,1.03642,1.03689,-0.00631378,-0.00178586,-0.00209584,-6.17808e-05,33,21,-11.8514,-11.8514,-46.5275,-46.5275,2.196
3.12222,3.1255,1.03641,1.03689,-0.00633546,-0.00199672,-0.00210304,-6.99781e-05,32,21,-11.9449,-11.9449,-46.6365,-46.6365,2.2
3.12219,3.12549,1.0364,1.03689,-0.00635717,-0.00225246,-0.00211025,-4.66521e-05,32,21,-12.0364,-12.0364,-46.7459,-46.7459,2.204
3.12217,3.12547,1.0364,1.03689,-0.00637892,-0.0025669,-0.00211747,-2.31046e-06,31,22,-12.1254,-12.1254,-46.8571,-46.8571,2.208
3.12214,3.12546,1.03639,1.03689,-0.0064007,-0.00274774,-0.0021247,-1.54031e-06,31,22,-12.2114,-12.2114,-46.9708,-46.9708,2.212
3.12212,3.12545,1.03638,1.03689,-0.00642251,-0.00295467,-0.00213194,-5.86087e-05,30,22,-12.2957,-12.2957,-47.0851,-47.0851,2.216
3.12209,3.12543,1.03637,1.03689,-0.00644435,-0.00315021,-0.00213919,-0.000125445,30,22,-12.3781,-12.3781,-47.1976,-47.1976,2.22
3.12206,3.12542,1.03636,1.03689,-0.00646622,-0.00322299,-0.00214645,-0.000112421,30,22,-12.4588,-12.4588,-47.3082,-47.3082,2.224
3.12204,3.12541,1.03635,1.03688,-0.00648813,-0.0032715,-0.00215372,-0.000132529,30,22,-12.539,-12.539,-47.42,-47.42,2.228
3.12201,3.12539,1.03634,1.03688,-0.00651007,-0.00327506,-0.002161,-0.000203517,30,22,-12.6192,-12.6192,-47.5315,-47.5315,2.232
3.12199,3.12538,1.03634,1.03688,-0.00653204,-0.00321984,-0.00216829,-0.000164469,31,22,-12.6998,-12.6998,-47.6409,-47.6409,2.236
3.12196,3.12537,1.03633,1.03688,-0.00655404,-0.00321183,-0.0021756,-0.000109646,31,23,-12.7814,-12.7814,-47.7527,-47.7527,2.24
3.12193,3.12535,1.03632,1.03688,-0.00657608,-0.00329286,-0.00218291,-0.000101888,31,23,-12.8634,-12.8634,-47.8675,-47.8675,2.244
3.12191,3.12534,1.03631,1.03688,-0.00659814,-0.00334687,-0.00219024,-9.67163e-05,31,24,-12.945,-12.945,-47.9832,-47.9832,2.248
3.12188,3.12533,1.0363,1.03688,-0.00662024,-0.0033253,-0.00219757,-3.56866e-05,31,25,-13.0264,-13.0264,-48.1001,-48.1001,2.252
3.12185,3.12531,1.03629,1.03688,-0.00664237,-0.00333972,-0.00220492,-2.37911e-05,31,25,-13.1084,-13.1084,-48.2201,-48.2201,2.256
3.12183,3.1253,1.03628,1.03688,-0.00666453,-0.00332053,-0.00221228,-4.46516e-05,31,25,-13.1908,-13.1908,-48.3414,-48.3414,2.26
3.1218,3.12529,1.03627,1.03688,-0.00668673,-0.00339412,-0.00221964,-5.85587e-05,31,25,-13.2737,-13.2737,-48.4625,-48.4625,2.264
3.12177,3.12527,1.03627,1.03688,-0.00670896,-0.00358713,-0.00222702,-0.000125412,31,25,-13.3561,-13.3561,-48.5836,-48.5836,2.268
3.12175,3.12525,1.03626,1.03688,-0.00673121,-0.00377338,-0.00223441,-5.4817e-05,31,26,-13.4367,-13.4367,-48.7029,-48.7029,2.272
3.12172,3.12524,1.03625,1.03688,-0.0067535,-0.00401272,-0.00224181,-9.41265e-05,30,26,-13.5155,-13.5155,-48.8256,-48.8256,2.276
3.12169,3.12522,1.03624,1.03688,-0.00677583,-0.00414348,-0.00224922,-3.39601e-05,30,27,-13.5921,-13.5921,-48.9477,-48.9477,2.28
3.12167,3.1252,1.03623,1.03688,-0.00679818,-0.00420187,-0.00225664,-8.02219e-05,30,27,-13.6676,-13.6676,-49.0728,-49.0728,2.284
3.12164,3.12519,1.03622,1.03688,-0.00682056,-0.00418321,-0.00226407,-2.46903e-05,30,27,-13.7429,-13.7429,-49.197,-49.197,2.288
3.12161,3.12517,1.03621,1.03688,-0.00684298,-0.00411319,-0.00227151,-4.52512e-05,31,27,-13.8189,-13.8189,-49.324,-49.324,2.292
3.12158,3.12515,1.0362,1.03688,-0.00686543,-0.0040953,-0.00227896,-5.89584e-05,31,28,-13.896,-13.896,-49.451,-49.451,2.296
3.12156,3.12514,1.03619,1.03688,-0.00688791,-0.00416975,-0.00228643,-6.80965e-05,31,28,-13.9736,-13.9736,-49.5781,-49.5781,2.3
3.12153,3.12512,1.03618,1.03688,-0.00691042,-0.00419059,-0.0022939,-0.00010298,31,28,-14.0508,-14.0508,-49.7055,-49.7055,2.304
3.1215,3.1251,1.03617,1.03688,-0.00693297,-0.00426206,-0.00230138,-0.000155026,31,28,-14.1282,-14.1282,-49.8322,-49.8322,2.308
3.12147,3.12508,1.03617,1.03688,-0.00695554,-0.00422334,-0.00230888,-0.000103351,31,28,-14.2052,-14.2052,-49.9576,-49.9576,2.312
3.12145,3.12507,1.03616,1.03688,-0.00697815,-0.00419752,-0.00231638,-6.89003e-05,32,29,-14.283,-14.283,-50.0859,-50.0859,2.316
3.12142,3.12505,1.03615,1.03688,-0.00700079,-0.0042379,-0.00232389,-7.47245e-05,32,29,-14.3615,-14.3615,-50.2163,-50.2163,2.32
3.12139,3.12503,1.03614,1.03688,-0.00702346,-0.00435118,-0.00233142,-7.86073e-05,31,30,-14.4398,-14.4398,-50.3473,-50.3473,2.324
3.12136,3.12501,1.03613,1.03688,-0.00704616,-0.0044555,-0.00233896,-0.000109987,31,30,-14.5173,-14.5173,-50.4788,-50.4788,2.328
3.12133,3.125,1.03612,1.03688,-0.00706889,-0.00449625,-0.0023465,-0.000102115,31,30,-14.594,-14.594,-50.6097,-50.6097,2.332
3.1213,3.12498,1.03611,1.03688,-0.00709166,-0.00443705,-0.00235406,-0.000125659,32,30,-14.6707,-14.6707,-50.7417,-50.7417,2.336
3.12128,3.12496,1.0361,1.03687,-0.00711445,-0.00425362,-0.00236163,-0.000198936,32,30,-14.7486,-14.7486,-50.8734,-50.8734,2.34
3.12125,3.12495,1.03609,1.03687,-0.00713728,-0.00410255,-0.0023692,-0.000161415,33,30,-14.829,-14.829,-51.0029,-51.0029,2.344
3.12122,3.12493,1.03608,1.03687,-0.00716014,-0.00394425,-0.00237679,-0.000251565,34,30,-14.9115,-14.9115,-51.1345,-51.1345,2.348
3.12119,3.12492,1.03607,1.03687,-0.00718303,-0.00372356,-0.00238439,-0.000254083,34,30,-14.9963,-14.9963,-51.2632,-51.2632,2.352
3.12116,3.12491,1.03606,1.03687,-0.00720595,-0.00354764,-0.002392,-0.000255761,35,30,-15.084,-15.084,-51.3925,-51.3925,2.356
3.12113,3.1249,1.03605,1.03687,-0.0072289,-0.0032864,-0.00239962,-0.00025688,36,30,-15.1743,-15.1743,-51.5224,-51.5224,2.36
3.1211,3.12489,1.03604,1.03687,-0.00725189,-0.00308345,-0.00240725,-0.000228835,37,31,-15.268,-15.268,-51.6531,-51.6531,2.364
3.12107,3.12488,1.03603,1.03687,-0.0072749,-0.00277541,-0.00241489,-0.000267721,38,31,-15.3645,-15.3645,-51.7857,-51.7857,2.368
3.12105,3.12487,1.03602,1.03687,-0.00729795,-0.00245488,-0.00242254,-0.000264853,39,31,-15.4651,-15.4651,-51.9174,-51.9174,2.372
3.12102,3.12487,1.03601,1.03687,-0.00732103,-0.00201087,-0.0024302,-0.000234151,40,32,-15.57,-15.57,-52.05,-52.05,2.376
3.12099,3.12486,1.036,1.03686,-0.00734414,-0.00165728,-0.00243787,-0.000328846,41,31,-15.6804,-15.6804,-52.1844,-52.1844,2.38
3.12096,3.12486,1.03599,1.03686,-0.00736728,-0.0012776,-0.00244555,-0.000363185,42,31,-15.7954,-15.7954,-52.3156,-52.3156,2.384
3.12093,3.12486,1.03598,1.03686,-0.00739045,-0.000880523,-0.00245324,-0.000357287,44,32,-15.9154,-15.9154,-52.4462,-52.4462,2.388
3.1209,3.12486,1.03597,1.03686,-0.00741365,-0.000558225,-0.00246094,-0.000353355,45,32,-16.0404,-16.0404,-52.5778,-52.5778,2.392
3.12087,3.12486,1.03596,1.03686,-0.00743688,-0.000429732,-0.00246865,-0.000465898,45,31,-16.1696,-16.1696,-52.71,-52.71,2.396
3.12084,3.12486,1.03595,1.03685,-0.00746015,-0.000286488,-0.00247638,-0.000512135,46,31,-16.301,-16.301,-52.8384,-52.8384,2.4
3.12081,3.12486,1.03594,1.03685,-0.00748344,-0.000219783,-0.00248411,-0.000600542,46,30,-16.4345,-16.4345,-52.9653,-52.9653,2.404
3.12078,3.12486,1.03593,1.03685,-0.00750677,-0.000204104,-0.00249185,-0.000601897,47,31,-16.5694,-16.5694,-53.0894,-53.0894,2.408
3.12075,3.12486,1.03593,1.03684,-0.00753013,-0.00016486,-0.00249961,-0.000689174,47,30,-16.7051,-16.7051,-53.214,-53.214,2.412
3.12072,3.12486,1.03591,1.03684,-0.00755351,-0.000109907,-0.00250737,-0.000862522,48,29,-16.842,-16.842,-53.3353,-53.3353,2.416
3.12069,3.12486,1.0359,1.03684,-0.00757693,-0.000102062,-0.00251514,-0.000891715,48,29,-16.9801,-16.9801,-53.4502,-53.4502,2.42
3.12066,3.12486,1.03589,1.03683,-0.00760038,-0.000125623,-0.00252293,-0.00099755,48,28,-17.1189,-17.1189,-53.5644,-53.5644,2.424
3.12063,3.12486,1.03588,1.03683,-0.00762386,-0.000141331,-0.00253072,-0.00112569,48,27,-17.2581,-17.2581,-53.6746,-53.6746,2.428
3.1206,3.12486,1.03587,1.03682,-0.00764738,-0.000123011,-0.00253853,-0.0012399,49,26,-17.3978,-17.3978,-53.7801,-53.7801,2.432
3.12057,3.12485,1.03586,1.03681,-0.00767092,-0.000110799,-0.00254634,-0.00137363,49,25,-17.5384,-17.5384,-53.8812,-53.8812,2.436
3.12054,3.12485,1.03585,1.03681,-0.00769449,-0.000102657,-0.00255417,-0.00131883,49,26,-17.6797,-17.6797,-53.9776,-53.9776,2.44
3.12051,3.12485,1.03584,1.0368,-0.0077181,-0.000154811,-0.002562,-0.00122471,49,27,-17.8218,-17.8218,-54.0769,-54.0769,2.444
3.12047,3.12485,1.03583,1.0368,-0.00774173,-0.000103207,-0.00256985,-0.00107559,50,29,-17.964,-17.964,-54.181,-54.181,2.448
3.12044,3.12485,1.03582,1.0368,-0.0077654,-9.75956e-05,-0.0025777,-0.000947388,50,30,-18.1075,-18.1075,-54.292,-54.292,2.452
3.12041,3.12485,1.03581,1.0368,-0.00778909,-9.38547e-05,-0.00258557,-0.000804338,50,32,-18.2516,-18.2516,-54.4091,-54.4091,2.456
3.12038,3.12485,1.0358,1.0368,-0.00781282,-0.000120152,-0.00259345,-0.000593807,51,34,-18.3965,-18.3965,-54.5331,-54.5331,2.46
3.12035,3.12485,1.03579,1.03679,-0.00783658,-5.13102e-05,-0.00260133,-0.000453453,51,36,-18.5418,-18.5418,-54.6666,-54.6666,2.464
3.12032,3.12485,1.03578,1.03679,-0.00786037,-0.00012058,-0.00260923,-0.000331093,51,37,-18.6884,-18.6884,-54.8068,-54.8068,2.468
3.12029,3.12485,1.03577,1.03679,-0.00788419,-0.000109177,-0.00261714,-0.000278311,52,38,-18.835,-18.835,-54.9528,-54.9528,2.472
3.12026,3.12485,1.03576,1.03679,-0.00790804,-7.27849e-05,-0.00262505,-0.000127958,52,40,-18.9825,-18.9825,-55.1021,-55.1021,2.476
3.12022,3.12485,1.03575,1.03679,-0.00793192,-0.000134896,-0.00263298,-0.000171678,52,40,-19.1309,-19.1309,-55.2582,-55.2582,2.48
3.12019,3.12485,1.03574,1.03679,-0.00795583,-8.99307e-05,-0.00264092,-0.000200825,53,40,-19.2794,-19.2794,-55.4132,-55.4132,2.484
3.12016,3.12485,1.03573,1.03679,-0.00797977,-0.000175117,-0.00264887,-0.000249047,53,40,-19.4289,-19.4289,-55.5678,-55.5678,2.488
3.12013,3.12485,1.03572,1.03679,-0.00800374,-0.000145536,-0.00265682,-0.000281195,53,40,-19.5783,-19.5783,-55.7212,-55.7212,2.492
3.1201,3.12485,1.03571,1.03679,-0.00802774,-0.000212188,-0.00266479,-0.000302627,53,40,-19.7286,-19.7286,-55.8741,-55.8741,2.496
3.12006,3.12485,1.0357,1.03679,-0.00805178,-0.000170249,-0.00267277,-0.000374497,54,39,-19.8789,-19.8789,-56.0267,-56.0267,2.5
3.12003,3.12485,1.03569,1.03678,-0.00807584,-0.00014229,-0.00268076,-0.000364828,54,40,-20.0304,-20.0304,-56.1772,-56.1772,2.504
3.12,3.12485,1.03568,1.03678,-0.00809993,-0.000152442,-0.00268875,-0.000387174,54,40,-20.1828,-20.1828,-56.3289,-56.3289,2.508
3.11997,3.12485,1.03567,1.03678,-0.00812406,-0.000130419,-0.00269676,-0.000430861,55,40,-20.3358,-20.3358,-56.4803,-56.4803,2.512
3.11993,3.12484,1.03565,1.03678,-0.00814821,-0.000144528,-0.00270478,-0.000431195,55,40,-20.4898,-20.4898,-56.6308,-56.6308,2.516
3.1199,3.12484,1.03564,1.03678,-0.0081724,-0.000125143,-0.00271281,-0.000402627,55,41,-20.6443,-20.6443,-56.782,-56.782,2.52
3.11987,3.12484,1.03563,1.03678,-0.00819661,-0.000112219,-0.00272085,-0.000383582,56,41,-20.7997,-20.7997,-56.9353,-56.9353,2.524
3.11984,3.12484,1.03562,1.03677,-0.00822086,-0.000103604,-0.00272889,-0.000370885,56,42,-20.9559,-20.9559,-57.0902,-57.0902,2.528
3.1198,3.12484,1.03561,1.03677,-0.00824513,-0.000126651,-0.00273695,-0.00036242,56,42,-21.1129,-21.1129,-57.2463,-57.2463,2.532
3.11977,3.12484,1.0356,1.03677,-0.00826944,-0.000142016,-0.00274502,-0.000327986,56,43,-21.2704,-21.2704,-57.4037,-57.4037,2.536
3.11974,3.12484,1.03559,1.03677,-0.00829377,-0.00018105,-0.0027531,-0.000362612,57,43,-21.4283,-21.4283,-57.5633,-57.5633,2.54
3.1197,3.12484,1.03558,1.03677,-0.00831814,-0.000178282,-0.00276119,-0.000356905,57,43,-21.5865,-21.5865,-57.7222,-57.7222,2.544
3.11967,3.12484,1.03557,1.03677,-0.00834254,-0.000176436,-0.00276928,-0.000410682,57,43,-21.7455,-21.7455,-57.8821,-57.8821,2.548
3.11964,3.12484,1.03556,1.03677,-0.00836696,-0.000175206,-0.00277739,-0.000417743,58,43,-21.9052,-21.9052,-58.0406,-58.0406,2.552
3.1196,3.12484,1.03554,1.03676,-0.00839142,-0.000174386,-0.00278551,-0.000451241,58,43,-22.0656,-22.0656,-58.1995,-58.1995,2.556
3.11957,3.12484,1.03553,1.03676,-0.0084159,-0.00020263,-0.00279364,-0.000502364,58,43,-22.2267,-22.2267,-58.3578,-58.3578,2.56
3.11954,3.12484,1.03552,1.03676,-0.00844042,-0.000192669,-0.00280178,-0.000536446,59,43,-22.3882,-22.3882,-58.5147,-58.5147,2.564
3.1195,3.12484,1.03551,1.03676,-0.00846497,-0.000186028,-0.00280993,-0.000616749,59,43,-22.5505,-22.5505,-58.6709,-58.6709,2.568
3.11947,3.12483,1.0355,1.03675,-0.00848954,-0.000210391,-0.00281808,-0.000699075,59,42,-22.7136,-22.7136,-58.8244,-58.8244,2.572
3.11943,3.12483,1.03549,1.03675,-0.00851415,-0.000255424,-0.00282625,-0.000811541,59,42,-22.8771,-22.8771,-58.9751,-58.9751,2.576
3.1194,3.12483,1.03548,1.03674,-0.00853879,-0.000199074,-0.00283443,-0.000800146,60,42,-23.0408,-23.0408,-59.122,-59.122,2.58
3.11937,3.12483,1.03547,1.03674,-0.00856345,-0.000219089,-0.00284262,-0.00082134,60,42,-23.2059,-23.2059,-59.2701,-59.2701,2.584
3.11933,3.12483,1.03545,1.03674,-0.00858815,-0.000203641,-0.00285082,-0.00086426,60,42,-23.3715,-23.3715,-59.418,-59.418,2.588
3.1193,3.12483,1.03544,1.03673,-0.00861288,-0.000135761,-0.00285902,-0.000950455,61,41,-23.538,-23.538,-59.5647,-59.5647,2.592
3.11926,3.12483,1.03543,1.03673,-0.00863763,-0.000119298,-0.00286724,-0.00103671,61,41,-23.706,-23.706,-59.7085,-59.7085,2.596
3.11923,3.12483,1.03542,1.03672,-0.00866242,-0.000108323,-0.00287547,-0.00120938,62,40,-23.8749,-23.8749,-59.8491,-59.8491,2.6
3.11919,3.12483,1.03541,1.03672,-0.00868723,-4.34244e-05,-0.00288371,-0.0012957,62,39,-24.0446,-24.0446,-59.9832,-59.9832,2.604
3.11916,3.12483,1.0354,1.03671,-0.00871208,-8.65314e-05,-0.00289195,-0.00143962,62,38,-24.2158,-24.2158,-60.1142,-60.1142,2.608
3.11912,3.12483,1.03539,1.0367,-0.00873695,-8.64785e-05,-0.00290021,-0.00156435,63,37,-24.3872,-24.3872,-60.2398,-60.2398,2.612
3.11909,3.12483,1.03537,1.03669,-0.00876186,-0.000115234,-0.00290848,-0.0016763,63,36,-24.5594,-24.5594,-60.3607,-60.3607,2.616
3.11905,3.12483,1.03536,1.03669,-0.00878679,-4.80319e-05,-0.00291675,-0.00183731,64,35,-24.732,-24.732,-60.4773,-60.4773,2.62
3.11902,3.12483,1.03535,1.03668,-0.00881176,-8.96031e-05,-0.00292504,-0.00191585,64,34,-24.9061,-24.9061,-60.5878,-60.5878,2.624
3.11898,3.12483,1.03534,1.03667,-0.00883675,-8.85263e-05,-0.00293334,-0.00188185,64,35,-25.0805,-25.0805,-60.6957,-60.6957,2.628
3.11895,3.12483,1.03533,1.03666,-0.00886177,-0.000116599,-0.00294164,-0.00180159,64,36,-25.2555,-25.2555,-60.8058,-60.8058,2.632
3.11891,3.12483,1.03532,1.03666,-0.00888683,-0.000106524,-0.00294996,-0.0017193,65,37,-25.4311,-25.4311,-60.9198,-60.9198,2.636
3.11888,3.12483,1.0353,1.03665,-0.00891191,-9.98068e-05,-0.00295829,-0.00160685,65,38,-25.6075,-25.6075,-61.038,-61.038,2.64
3.11884,3.12483,1.03529,1.03665,-0.00893702,-0.00012412,-0.00296662,-0.00144552,65,40,-25.7847,-25.7847,-61.1616,-61.1616,2.644
3.11881,3.12483,1.03528,1.03664,-0.00896216,-0.000140328,-0.00297497,-0.00139554,66,41,-25.9623,-25.9623,-61.2926,-61.2926,2.648
3.11877,3.12483,1.03527,1.03664,-0.00898733,-9.35522e-05,-0.00298332,-0.00116069,66,43,-26.1406,-26.1406,-61.4267,-61.4267,2.652
3.11873,3.12482,1.03526,1.03664,-0.00901254,-0.00011995,-0.00299169,-0.0010617,66,45,-26.3201,-26.3201,-61.5712,-61.5712,2.656
3.1187,3.12482,1.03524,1.03663,-0.00903777,-0.000137549,-0.00300006,-0.000880547,67,47,-26.5,-26.5,-61.7208,-61.7208,2.66
3.11866,3.12482,1.03523,1.03663,-0.00906303,-0.000178072,-0.00300845,-0.000673404,67,49,-26.6805,-26.6805,-61.8789,-61.8789,2.664
3.11862,3.12482,1.03522,1.03663,-0.00908831,-0.000233878,-0.00301684,-0.000535309,67,51,-26.8613,-26.8613,-62.0465,-62.0465,2.668
3.11859,3.12482,1.03521,1.03663,-0.00911363,-0.00018471,-0.00302525,-0.000443245,68,52,-27.0422,-27.0422,-62.2207,-62.2207,2.672
3.11855,3.12482,1.0352,1.03663,-0.00913898,-0.000180722,-0.00303366,-0.000324288,68,54,-27.2244,-27.2244,-62.3998,-62.3998,2.676
3.11851,3.12482,1.03518,1.03663,-0.00916436,-0.000206854,-0.00304209,-0.000187401,68,55,-27.4074,-27.4074,-62.5848,-62.5848,2.68
3.11848,3.12482,1.03517,1.03663,-0.00918976,-0.000137903,-0.00305052,-0.000182516,69,56,-27.5909,-27.5909,-62.7763,-62.7763,2.684
3.11844,3.12482,1.03516,1.03663,-0.0092152,-0.000120726,-0.00305896,-0.000179259,69,56,-27.776,-27.776,-62.9689,-62.9689,2.688
3.1184,3.12482,1.03515,1.03663,-0.00924067,-0.000109275,-0.00306742,-0.000205879,70,56,-27.9619,-27.9619,-63.1624,-63.1624,2.692
3.11837,3.12482,1.03513,1.03663,-0.00926616,-7.28499e-05,-0.00307588,-0.000223625,70,57,-28.1488,-28.1488,-63.3558,-63.3558,2.696
3.11833,3.12482,1.03512,1.03663,-0.00929168,-7.73576e-05,-0.00308435,-0.000264247,70,57,-28.3369,-28.3369,-63.5493,-63.5493,2.7
3.11829,3.12482,1.03511,1.03662,-0.00931724,-5.15717e-05,-0.00309283,-0.000291329,71,57,-28.5257,-28.5257,-63.742,-63.742,2.704
3.11826,3.12482,1.0351,1.03662,-0.00934282,-9.1963e-05,-0.00310133,-0.000309383,71,57,-28.7155,-28.7155,-63.9345,-63.9345,2.708
3.11822,3.12482,1.03508,1.03662,-0.00936843,-9.00996e-05,-0.00310983,-0.000321419,72,57,-28.9056,-28.9056,-64.1271,-64.1271,2.712
3.11818,3.12482,1.03507,1.03662,-0.00939407,-0.000117648,-0.00311834,-0.000329443,72,57,-29.0965,-29.0965,-64.3201,-64.3201,2.716
3.11814,3.12482,1.03506,1.03662,-0.00941974,-0.000136014,-0.00312686,-0.000334792,72,58,-29.2879,-29.2879,-64.5137,-64.5137,2.72
3.11811,3.12482,1.03505,1.03662,-0.00944544,-0.000177049,-0.00313539,-0.000280777,72,59,-29.4798,-29.4798,-64.7081,-64.7081,2.724
3.11807,3.12481,1.03503,1.03662,-0.00947116,-0.000175614,-0.00314393,-0.000244766,73,59,-29.6721,-29.6721,-64.9056,-64.9056,2.728
3.11803,3.12481,1.03502,1.03662,-0.00949692,-0.000203449,-0.00315248,-0.000163178,73,61,-29.8651,-29.8651,-65.1057,-65.1057,2.732
3.11799,3.12481,1.03501,1.03662,-0.0095227,-0.000164424,-0.00316104,-0.000108785,74,62,-30.0586,-30.0586,-65.3102,-65.3102,2.736
3.11795,3.12481,1.035,1.03662,-0.00954852,-0.000167198,-0.00316961,-0.000101314,74,62,-30.2533,-30.2533,-65.5178,-65.5178,2.74
3.11792,3.12481,1.03498,1.03662,-0.00957436,-0.000140256,-0.00317819,-6.75429e-05,74,63,-30.4488,-30.4488,-65.7268,-65.7268,2.744
3.11788,3.12481,1.03497,1.03662,-0.00960023,-0.000122295,-0.00318677,-0.00010261,75,63,-30.6454,-30.6454,-65.938,-65.938,2.748
3.11784,3.12481,1.03496,1.03662,-0.00962614,-8.15299e-05,-0.00319537,-0.000125989,75,63,-30.843,-30.843,-66.1487,-66.1487,2.752
3.1178,3.12481,1.03495,1.03661,-0.00965207,-8.31442e-05,-0.00320398,-0.000170365,76,63,-31.0418,-31.0418,-66.3593,-66.3593,2.756
3.11776,3.12481,1.03493,1.03661,-0.00967802,-8.42204e-05,-0.0032126,-0.000171159,76,64,-31.2414,-31.2414,-66.5691,-66.5691,2.76
3.11772,3.12481,1.03492,1.03661,-0.00970401,-5.61469e-05,-0.00322122,-0.000171688,76,64,-31.4418,-31.4418,-66.7798,-66.7798,2.764
3.11768,3.12481,1.03491,1.03661,-0.00973003,-3.74313e-05,-0.00322986,-0.00017204,77,64,-31.6433,-31.6433,-66.9915,-66.9915,2.768
3.11764,3.12481,1.03489,1.03661,-0.00975607,-5.37451e-05,-0.0032385,-0.000172275,77,65,-31.8457,-31.8457,-67.2041,-67.2041,2.772
3.11761,3.12481,1.03488,1.03661,-0.00978215,-6.4621e-05,-0.00324716,-0.000143641,78,66,-32.0488,-32.0488,-67.4177,-67.4177,2.776
3.11757,3.12481,1.03487,1.03661,-0.00980825,-7.18716e-05,-0.00325582,-0.000124552,78,66,-32.2526,-32.2526,-67.6334,-67.6334,2.78
3.11753,3.12481,1.03486,1.03661,-0.00983438,-0.000105496,-0.0032645,-0.000140616,78,66,-32.4571,-32.4571,-67.8509,-67.8509,2.784
3.11749,3.12481,1.03484,1.03661,-0.00986054,-0.000127913,-0.00327318,-0.000151326,79,67,-32.662,-32.662,-68.0687,-68.0687,2.788
3.11745,3.12481,1.03483,1.03661,-0.00988673,-0.000114066,-0.00328188,-0.000100884,79,68,-32.8674,-32.8674,-68.2871,-68.2871,2.792
3.11741,3.12481,1.03482,1.03661,-0.00991295,-0.000133626,-0.00329058,-0.000124838,79,68,-33.0738,-33.0738,-68.5085,-68.5085,2.796
3.11737,3.12481,1.0348,1.03661,-0.00993919,-0.000146666,-0.00329929,-0.000112016,80,69,-33.2808,-33.2808,-68.73,-68.73,2.8
3.11733,3.12481,1.03479,1.03661,-0.00996547,-0.000126568,-0.00330801,-0.000103468,80,69,-33.4885,-33.4885,-68.953,-68.953,2.804
3.11729,3.12481,1.03478,1.03661,-0.00999177,-0.000141961,-0.00331674,-0.000126561,81,69,-33.6972,-33.6972,-69.1772,-69.1772,2.808
3.11725,3.12481,1.03476,1.03661,-0.0100181,-0.000152222,-0.00332548,-0.000141956,81,70,-33.9065,-33.9065,-69.4015,-69.4015,2.812
3.11721,3.1248,1.03475,1.03661,-0.0100445,-0.000187854,-0.00333423,-0.000152219,81,70,-34.1165,-34.1165,-69.6261,-69.6261,2.816
3.11717,3.1248,1.03474,1.03661,-0.0100709,-0.0002404,-0.00334299,-0.000159061,81,70,-34.3269,-34.3269,-69.8513,-69.8513,2.82
3.11713,3.1248,1.03472,1.03661,-0.0100973,-0.00027543,-0.00335176,-0.000163623,82,71,-34.5375,-34.5375,-70.0772,-70.0772,2.824
3.11709,3.1248,1.03471,1.0366,-0.0101237,-0.000298784,-0.00336054,-0.000166664,82,71,-34.7485,-34.7485,-70.3039,-70.3039,2.828
3.11705,3.1248,1.0347,1.0366,-0.0101502,-0.000314353,-0.00336933,-0.000168691,82,72,-34.9601,-34.9601,-70.5314,-70.5314,2.832
3.11701,3.1248,1.03468,1.0366,-0.0101767,-0.000295941,-0.00337813,-0.000170042,83,72,-35.1723,-35.1723,-70.7599,-70.7599,2.836
3.11697,3.1248,1.03467,1.0366,-0.0102032,-0.000226085,-0.00338693,-0.000199734,83,72,-35.3856,-35.3856,-70.9892,-70.9892,2.84
3.11693,3.1248,1.03466,1.0366,-0.0102298,-0.000179514,-0.00339575,-0.000190738,84,73,-35.6005,-35.6005,-71.2184,-71.2184,2.844
3.11688,3.1248,1.03464,1.0366,-0.0102564,-0.000177258,-0.00340458,-0.000184741,84,73,-35.8167,-35.8167,-71.4489,-71.4489,2.848
3.11684,3.1248,1.03463,1.0366,-0.010283,-0.000118172,-0.00341341,-0.000180742,85,74,-36.0338,-36.0338,-71.6806,-71.6806,2.852
3.1168,3.1248,1.03461,1.0366,-0.0103096,-7.87814e-05,-0.00342226,-0.000178077,85,74,-36.2524,-36.2524,-71.9136,-71.9136,2.856
3.11676,3.1248,1.0346,1.0366,-0.0103363,-8.13118e-05,-0.00343111,-0.0001763,86,75,-36.4723,-36.4723,-72.1476,-72.1476,2.86
3.11672,3.1248,1.03459,1.0366,-0.010363,-0.00011179,-0.00343997,-0.000203906,86,75,-36.6929,-36.6929,-72.3827,-72.3827,2.864
3.11668,3.12479,1.03457,1.0366,-0.0103897,-0.000132108,-0.00344884,-0.00022231,87,75,-36.9141,-36.9141,-72.6176,-72.6176,2.868
3.11664,3.12479,1.03456,1.0366,-0.0104165,-0.000116863,-0.00345773,-0.000205789,87,76,-37.1358,-37.1358,-72.8528,-72.8528,2.872
3.11659,3.12479,1.03455,1.0366,-0.0104433,-0.000135491,-0.00346662,-0.000194774,87,76,-37.3586,-37.3586,-73.0897,-73.0897,2.876
3.11655,3.12479,1.03453,1.03659,-0.0104701,-0.0001767,-0.00347552,-0.00015864,88,77,-37.5819,-37.5819,-73.3282,-73.3282,2.88
3.11651,3.12479,1.03452,1.03659,-0.0104969,-0.000204173,-0.00348443,-0.000163342,88,78,-37.8056,-37.8056,-73.5691,-73.5691,2.884
3.11647,3.12479,1.0345,1.03659,-0.0105238,-0.000193697,-0.00349335,-0.000166477,88,78,-38.0299,-38.0299,-73.8108,-73.8108,2.888
3.11643,3.12479,1.03449,1.03659,-0.0105507,-0.000215504,-0.00350228,-0.000168566,89,79,-38.2552,-38.2552,-74.0535,-74.0535,2.892
3.11638,3.12479,1.03448,1.03659,-0.0105776,-0.000230042,-0.00351121,-0.000169959,89,79,-38.481,-38.481,-74.297,-74.297,2.896
3.11634,3.12479,1.03446,1.03659,-0.0106046,-0.000239734,-0.00352016,-0.000199679,90,79,-38.7075,-38.7075,-74.5415,-74.5415,2.9
3.1163,3.12479,1.03445,1.03659,-0.0106315,-0.000246196,-0.00352912,-0.000219492,90,79,-38.9347,-38.9347,-74.7858,-74.7858,2.904
3.11626,3.12479,1.03443,1.03659,-0.0106586,-0.000250503,-0.00353808,-0.000232701,90,80,-39.1627,-39.1627,-75.0302,-75.0302,2.908
3.11621,3.12478,1.03442,1.03659,-0.0106856,-0.000224584,-0.00354706,-0.000212716,91,80,-39.3915,-39.3915,-75.2752,-75.2752,2.912
3.11617,3.12478,1.03441,1.03659,-0.0107127,-0.000236095,-0.00355604,-0.000228183,91,81,-39.6215,-39.6215,-75.522,-75.522,2.916
3.11613,3.12478,1.03439,1.03659,-0.0107398,-0.000214979,-0.00356504,-0.000209704,92,81,-39.8522,-39.8522,-75.7692,-75.7692,2.92
3.11609,3.12478,1.03438,1.03659,-0.0107669,-0.000229692,-0.00357404,-0.000226175,92,82,-40.0839,-40.0839,-76.0182,-76.0182,2.924
3.11604,3.12478,1.03436,1.03658,-0.010794,-0.00021071,-0.00358305,-0.000265947,93,82,-40.3164,-40.3164,-76.2674,-76.2674,2.928
3.116,3.12478,1.03435,1.03658,-0.0108212,-0.000226846,-0.00359207,-0.000263671,93,82,-40.5499,-40.5499,-76.5161,-76.5161,2.932
3.11596,3.12478,1.03433,1.03658,-0.0108484,-0.000237603,-0.0036011,-0.000262153,93,83,-40.7841,-40.7841,-76.7659,-76.7659,2.936
3.11591,3.12478,1.03432,1.03658,-0.0108756,-0.000215984,-0.00361014,-0.000261142,94,83,-41.0191,-41.0191,-77.0168,-77.0168,2.94
3.11587,3.12478,1.03431,1.03658,-0.0109029,-0.000201571,-0.00361919,-0.000202885,94,84,-41.2551,-41.2551,-77.2689,-77.2689,2.944
3.11583,3.12478,1.03429,1.03658,-0.0109302,-0.000163172,-0.00362825,-0.000192839,95,85,-41.4922,-41.4922,-77.5244,-77.5244,2.948
3.11578,3.12478,1.03428,1.03658,-0.0109575,-0.000166363,-0.00363731,-0.000186141,95,86,-41.7306,-41.7306,-77.7813,-77.7813,2.952
3.11574,3.12478,1.03426,1.03658,-0.0109848,-0.0001397,-0.00364639,-0.000181676,96,86,-41.9699,-41.9699,-78.0397,-78.0397,2.956
3.11569,3.12478,1.03425,1.03658,-0.0110122,-0.000150715,-0.00365548,-0.000178699,96,87,-42.2103,-42.2103,-78.2992,-78.2992,2.96
3.11565,3.12478,1.03423,1.03658,-0.0110396,-0.000158058,-0.00366457,-0.000205506,97,87,-42.4514,-42.4514,-78.5599,-78.5599,2.964
3.11561,3.12477,1.03422,1.03658,-0.011067,-0.000162954,-0.00367368,-0.000223376,97,87,-42.6933,-42.6933,-78.8205,-78.8205,2.968
3.11556,3.12477,1.0342,1.03657,-0.0110945,-0.000195009,-0.00368279,-0.00023529,97,88,-42.9361,-42.9361,-79.0814,-79.0814,2.972
3.11552,3.12477,1.03419,1.03657,-0.011122,-0.000216379,-0.00369191,-0.000243233,98,88,-43.1793,-43.1793,-79.3429,-79.3429,2.976
3.11547,3.12477,1.03417,1.03657,-0.0111495,-0.000201834,-0.00370104,-0.000277319,98,88,-43.4232,-43.4232,-79.605,-79.605,2.98
3.11543,3.12477,1.03416,1.03657,-0.011177,-0.000220929,-0.00371018,-0.000300043,99,88,-43.6682,-43.6682,-79.8668,-79.8668,2.984
3.11538,3.12477,1.03414,1.03657,-0.0112046,-0.000204868,-0.00371933,-0.000343983,99,89,-43.9138,-43.9138,-80.1286,-80.1286,2.988
3.11534,3.12477,1.03413,1.03657,-0.0112322,-0.00019416,-0.00372849,-0.000373277,100,89,-44.1605,-44.1605,-80.3896,-80.3896,2.992
3.11529,3.12477,1.03411,1.03657,-0.0112598,-0.000187022,-0.00373766,-0.000364015,100,89,-44.4082,-44.4082,-80.6505,-80.6505,2.996
3.11525,3.12477,1.0341,1.03656,-0.0112874,-0.000211054,-0.00374684,-0.000386631,100,90,-44.6568,-44.6568,-80.9128,-80.9128,3
3.1152,3.12477,1.03408,1.03656,-0.0113151,-0.000169494,-0.00375602,-0.000401709,101,90,-44.9061,-44.9061,-81.1751,-81.1751,3.004
3.11516,3.12477,1.03407,1.03656,-0.0113428,-0.000170578,-0.00376522,-0.00038297,102,91,-45.1568,-45.1568,-81.4379,-81.4379,3.008
3.11511,3.12477,1.03405,1.03656,-0.0113705,-0.000142509,-0.00377442,-0.000370477,102,91,-45.4083,-45.4083,-81.7026,-81.7026,3.012
3.11507,3.12477,1.03404,1.03656,-0.0113983,-0.000152588,-0.00378363,-0.000362148,102,92,-45.6611,-45.6611,-81.9688,-81.9688,3.016
3.11502,3.12476,1.03402,1.03656,-0.0114261,-0.000159307,-0.00379286,-0.000327805,103,93,-45.9146,-45.9146,-82.2365,-82.2365,3.02
3.11497,3.12476,1.03401,1.03656,-0.0114539,-0.000192578,-0.00380209,-0.000304909,103,93,-46.1689,-46.1689,-82.5067,-82.5067,3.024
3.11493,3.12476,1.03399,1.03656,-0.0114817,-0.000185967,-0.00381133,-0.000318437,104,94,-46.4238,-46.4238,-82.7788,-82.7788,3.028
3.11488,3.12476,1.03398,1.03655,-0.0115096,-0.000210351,-0.00382058,-0.000298664,104,95,-46.6796,-46.6796,-83.0515,-83.0515,3.032
3.11484,3.12476,1.03396,1.03655,-0.0115375,-0.000197816,-0.00382984,-0.000285482,105,95,-46.9361,-46.9361,-83.3261,-83.3261,3.036
3.11479,3.12476,1.03395,1.03655,-0.0115654,-0.000189459,-0.0038391,-0.000247903,105,96,-47.1937,-47.1937,-83.6024,-83.6024,3.04
3.11474,3.12476,1.03393,1.03655,-0.0115933,-0.000212679,-0.00384838,-0.000251642,106,97,-47.4522,-47.4522,-83.8813,-83.8813,3.044
3.1147,3.12476,1.03392,1.03655,-0.0116213,-0.000199368,-0.00385766,-0.000254134,106,97,-47.7113,-47.7113,-84.1612,-84.1612,3.048
3.11465,3.12476,1.0339,1.03655,-0.0116493,-0.000219285,-0.00386696,-0.000255795,106,98,-47.9716,-47.9716,-84.442,-84.442,3.052
3.1146,3.12476,1.03389,1.03655,-0.0116773,-0.000232562,-0.00387626,-0.000256903,107,98,-48.2325,-48.2325,-84.7239,-84.7239,3.056
3.11456,3.12476,1.03387,1.03655,-0.0117054,-0.000241414,-0.00388557,-0.000257641,107,99,-48.4941,-48.4941,-85.0068,-85.0068,3.06
3.11451,3.12476,1.03385,1.03655,-0.0117335,-0.000218525,-0.0038949,-0.000286925,108,99,-48.7566,-48.7566,-85.2907,-85.2907,3.064
3.11446,3.12475,1.03384,1.03654,-0.0117616,-0.000232056,-0.00390423,-0.000306447,108,99,-49.0203,-49.0203,-85.5745,-85.5745,3.068
3.11442,3.12475,1.03382,1.03654,-0.0117897,-0.000241077,-0.00391357,-0.000348252,109,99,-49.2847,-49.2847,-85.8585,-85.8585,3.072
3.11437,3.12475,1.03381,1.03654,-0.0118179,-0.0002183,-0.00392291,-0.000376123,109,100,-49.55,-49.55,-86.1418,-86.1418,3.076
3.11432,3.12475,1.03379,1.03654,-0.0118461,-0.000203115,-0.00393227,-0.000365912,110,100,-49.8164,-49.8164,-86.4251,-86.4251,3.08
3.11427,3.12475,1.03378,1.03654,-0.0118743,-0.000192992,-0.00394164,-0.000330314,110,101,-50.084,-50.084,-86.71,-86.71,3.084
3.11423,3.12475,1.03376,1.03654,-0.0119025,-0.000186243,-0.00395101,-0.000277791,111,102,-50.3525,-50.3525,-86.9975,-86.9975,3.088
3.11418,3.12475,1.03374,1.03654,-0.0119308,-0.000152953,-0.0039604,-0.000271567,111,103,-50.6221,-50.6221,-87.2883,-87.2883,3.092
3.11413,3.12475,1.03373,1.03654,-0.0119591,-0.00013076,-0.00396979,-0.000209836,112,104,-50.8931,-50.8931,-87.5806,-87.5806,3.096
3.11408,3.12475,1.03371,1.03654,-0.0119874,-0.000115964,-0.00397919,-0.000197472,112,105,-51.1651,-51.1651,-87.8765,-87.8765,3.1
3.11404,3.12475,1.0337,1.03654,-0.0120158,-0.0001061,-0.0039886,-0.00018923,113,105,-51.4383,-51.4383,-88.1741,-88.1741,3.104
3.11399,3.12475,1.03368,1.03653,-0.0120441,-9.95244e-05,-0.00399802,-0.000212526,113,105,-51.7126,-51.7126,-88.4731,-88.4731,3.108
3.11394,3.12475,1.03366,1.03653,-0.0120725,-0.000123931,-0.00400745,-0.000228057,114,106,-51.9878,-51.9878,-88.7722,-88.7722,3.112
3.11389,3.12475,1.03365,1.03653,-0.012101,-0.000140203,-0.00401689,-0.000238411,114,106,-52.2637,-52.2637,-89.0719,-89.0719,3.116
3.11384,3.12475,1.03363,1.03653,-0.0121294,-0.00015105,-0.00402633,-0.000274104,115,107,-52.5404,-52.5404,-89.3721,-89.3721,3.12
3.11379,3.12475,1.03362,1.03653,-0.0121579,-0.000187073,-0.00403579,-0.000269109,115,107,-52.8179,-52.8179,-89.6721,-89.6721,3.124
3.11375,3.12474,1.0336,1.03653,-0.0121864,-0.000211088,-0.00404525,-0.00029457,116,107,-53.0959,-53.0959,-89.9734,-89.9734,3.128
