peachynonah/Fire_monitor_KIRO_CDSL/csv_datas/trial13/cdsl_data_t13_1_FL_d.csv
joint1_pos_desired, joint1_pos, joint2_pos_desired, joint2_pos, joint1_vel_desired, joint1_vel_filtered, joint2_vel_desired, joint2_vel_filtered, target_torque_joint1, target_torque_joint2, nonlinear_term_torque_joint1, PD_term_torque_joint1, nonlinear_term_torque_joint2, PD_term_torque_joint2, current_time
1.4565,1.45583,0.96,0.96117,-8.73251e-08,0,-5.7577e-08,0,-2,-43,0,-2,-56.311,13.311,0.004
1.4565,1.45583,0.96,0.96108,-3.49161e-07,0,-2.30216e-07,-0.00754322,-2,-116,-0,-2,-56.3183,-59.6817,0.008
1.4565,1.45583,0.96,0.961014,-7.85297e-07,0,-5.17778e-07,-0.0105567,-2,-146,-0,-2,-56.3237,-89.6763,0.012
1.4565,1.45583,0.96,0.960958,-1.39552e-06,0,-9.20126e-07,-0.0116731,-2,-157,-0,-2,-56.3282,-100.672,0.016
1.4565,1.45583,0.96,0.960919,-2.17963e-06,0,-1.43712e-06,-0.0110642,-2,-152,-0,-2,-56.3313,-95.6687,0.02
1.4565,1.45583,0.96,0.9609,-3.13742e-06,0,-2.06863e-06,-0.00895966,-2,-132,-0,-2,-56.3329,-75.6671,0.024
1.4565,1.45583,0.96,0.960896,-4.26866e-06,0,-2.8145e-06,-0.00623223,-2,-106,-0,-2,-56.3331,-49.6669,0.028
1.4565,1.45583,0.96,0.960906,-5.57316e-06,0,-3.67461e-06,-0.00334867,-2,-78,-0,-2,-56.3323,-21.6677,0.032
1.4565,1.45583,0.96,0.960926,-7.05071e-06,0,-4.64882e-06,-0.000591366,-2,-51,-0,-2,-56.3308,5.33075,0.036
1.4565,1.45583,0.96,0.960952,-8.70109e-06,0,-5.73698e-06,0.00176508,-2,-28,0,-2,-56.3287,28.3287,0.04
1.4565,1.45583,0.96,0.960981,-1.05241e-05,0,-6.93897e-06,0.00359515,-2,-11,0,-2,-56.3263,45.3263,0.044
1.4565,1.45583,0.96,0.96101,-1.25195e-05,0,-8.25463e-06,0.00487279,-2,1,0,-2,-56.3239,57.3239,0.048
1.4565,1.45583,0.96,0.961038,-1.46872e-05,0,-9.68385e-06,0.0055518,-2,8,0,-2,-56.3217,64.3217,0.052
1.4565,1.45583,0.96,0.961064,-1.70268e-05,0,-1.12265e-05,0.00583173,-2,11,0,-2,-56.3196,67.3196,0.056
1.4565,1.45583,0.96,0.961086,-1.95382e-05,0,-1.28824e-05,0.00573044,-2,10,0,-2,-56.3179,66.3179,0.06
1.4565,1.45583,0.96,0.961104,-2.22213e-05,0,-1.46514e-05,0.00534621,-2,7,0,-2,-56.3164,63.3164,0.064
1.4565,1.45583,0.96,0.961119,-2.50757e-05,0,-1.65334e-05,0.00483094,-2,2,0,-2,-56.3152,58.3152,0.068
1.4565,1.45583,0.96,0.961131,-2.81012e-05,0,-1.85283e-05,0.00417073,-2,-3,0,-2,-56.3142,53.3142,0.072
1.4565,1.45583,0.959999,0.961139,-3.12977e-05,0,-2.06359e-05,0.00350026,-2,-10,0,-2,-56.3135,46.3135,0.076
1.4565,1.45583,0.959999,0.961146,-3.4665e-05,0,-2.2856e-05,0.00285174,-2,-16,0,-2,-56.313,40.313,0.08
1.4565,1.45583,0.959999,0.96115,-3.82028e-05,0,-2.51887e-05,0.00227544,-2,-21,0,-2,-56.3127,35.3127,0.084
1.4565,1.45583,0.959999,0.961155,-4.1911e-05,0,-2.76336e-05,0.00192004,-2,-24,0,-2,-56.3123,32.3123,0.088
1.4565,1.45583,0.959999,0.961158,-4.57893e-05,0,-3.01907e-05,0.00156793,-2,-28,0,-2,-56.312,28.312,0.092
1.4565,1.45583,0.959999,0.961163,-4.98375e-05,0,-3.28599e-05,0.00141957,-2,-29,0,-2,-56.3116,27.3116,0.096
1.4565,1.45583,0.959999,0.961169,-5.40554e-05,0,-3.56409e-05,0.00143583,-2,-29,0,-2,-56.3112,27.3112,0.1
1.4565,1.45583,0.959999,0.961175,-5.84428e-05,0,-3.85337e-05,0.00150424,-2,-28,0,-2,-56.3106,28.3106,0.104
1.4565,1.45583,0.959999,0.961183,-6.29995e-05,0,-4.15381e-05,0.00166502,-2,-26,0,-2,-56.31,30.31,0.108
1.4565,1.45583,0.959998,0.961191,-6.77253e-05,0,-4.4654e-05,0.00174341,-2,-26,0,-2,-56.3094,30.3094,0.112
1.4565,1.45583,0.959998,0.961198,-7.262e-05,0,-4.78813e-05,0.00176689,-2,-25,0,-2,-56.3088,31.3088,0.116
1.4565,1.45583,0.959998,0.961205,-7.76833e-05,0,-5.12198e-05,0.00172495,-2,-26,0,-2,-56.3083,30.3083,0.12
1.4565,1.45583,0.959998,0.96121,-8.29152e-05,0,-5.46693e-05,0.00163941,-2,-26,0,-2,-56.3078,30.3078,0.124
1.4565,1.45583,0.959998,0.961215,-8.83153e-05,0,-5.82298e-05,0.00146722,-2,-28,0,-2,-56.3074,28.3074,0.128
1.4565,1.45583,0.959997,0.961219,-9.38834e-05,0,-6.19011e-05,0.00135243,-2,-29,0,-2,-56.3071,27.3071,0.132
1.4565,1.45583,0.959997,0.961222,-9.96194e-05,0,-6.56831e-05,0.00113195,-2,-31,0,-2,-56.3069,25.3069,0.136
1.4565,1.45583,0.959997,0.961225,-0.000105523,0,-6.95756e-05,0.000956169,-2,-33,0,-2,-56.3067,23.3067,0.14
1.45649,1.45583,0.959996,0.961227,-0.000111594,0,-7.35785e-05,0.000810191,-2,-34,0,-2,-56.3065,22.3065,0.144
1.45649,1.45583,0.959996,0.961229,-0.000117832,0,-7.76917e-05,0.000712873,-2,-35,0,-2,-56.3063,21.3063,0.148
1.45649,1.45583,0.959996,0.96123,-0.000124238,0,-8.1915e-05,0.000590412,-2,-36,0,-2,-56.3062,20.3062,0.152
1.45649,1.45583,0.959995,0.961232,-0.00013081,0,-8.62482e-05,0.000566354,-2,-36,0,-2,-56.306,20.306,0.156
1.45649,1.45583,0.959995,0.961234,-0.000137549,0,-9.06913e-05,0.000521524,-1,-36,0,-1,-56.3059,20.3059,0.16
1.45649,1.45583,0.959995,0.961236,-0.000144454,0,-9.52442e-05,0.000520428,-1,-36,0,-1,-56.3057,20.3057,0.164
1.45649,1.45583,0.959994,0.961238,-0.000151525,0,-9.99066e-05,0.000548489,-1,-36,0,-1,-56.3055,20.3055,0.168
1.45649,1.45583,0.959994,0.961241,-0.000158762,0,-0.000104678,0.000595986,-1,-35,0,-1,-56.3053,21.3053,0.172
1.45649,1.45583,0.959994,0.961244,-0.000166165,0,-0.00010956,0.000656443,-1,-35,0,-1,-56.3051,21.3051,0.176
1.45649,1.45583,0.959993,0.961248,-0.000173734,0,-0.00011455,0.000725538,-1,-34,0,-1,-56.3048,22.3048,0.18
1.45649,1.45583,0.959993,0.961251,-0.000181468,0,-0.000119649,0.000771601,-1,-33,0,-1,-56.3045,23.3045,0.184
1.45649,1.45583,0.959992,0.961255,-0.000189367,0,-0.000124858,0.00080231,-1,-33,0,-1,-56.3042,23.3042,0.188
1.45649,1.45583,0.959992,0.961258,-0.000197431,0,-0.000130175,0.000851573,-1,-32,0,-1,-56.3039,24.3039,0.192
1.45649,1.45583,0.959991,0.961263,-0.00020566,0,-0.0001356,0.000970789,-1,-31,0,-1,-56.3035,25.3035,0.196
1.45649,1.45583,0.959991,0.961269,-0.000214054,0,-0.000141134,0.00107906,-1,-30,0,-1,-56.3031,26.3031,0.2
1.45648,1.45583,0.95999,0.961274,-0.000222612,0,-0.000146777,0.00115123,-1,-29,0,-1,-56.3027,27.3027,0.204
1.45648,1.45583,0.959989,0.96128,-0.000231334,0,-0.000152528,0.00131452,-1,-28,0,-1,-56.3022,28.3022,0.208
1.45648,1.45583,0.959989,0.961288,-0.000240219,0,-0.000158386,0.00153854,-1,-25,0,-1,-56.3015,31.3015,0.212
1.45648,1.45583,0.959988,0.961296,-0.000249269,0,-0.000164353,0.00168788,-1,-24,0,-1,-56.3009,32.3009,0.216
1.45648,1.45583,0.959987,0.961305,-0.000258482,0,-0.000170428,0.00184503,-1,-22,0,-1,-56.3002,34.3002,0.22
1.45648,1.45583,0.959987,0.961313,-0.000267859,0,-0.00017661,0.001921,-1,-21,0,-1,-56.2995,35.2995,0.224
1.45648,1.45583,0.959986,0.961321,-0.000277398,0,-0.0001829,0.00194286,-1,-21,0,-1,-56.2989,35.2989,0.228
1.45648,1.45583,0.959985,0.961327,-0.000287101,0,-0.000189297,0.00181348,-1,-22,0,-1,-56.2984,34.2984,0.232
1.45648,1.45583,0.959985,0.961332,-0.000296966,0,-0.000195802,0.00161206,-1,-24,0,-1,-56.298,32.298,0.236
1.45648,1.45583,0.959984,0.961337,-0.000306993,0,-0.000202413,0.00144899,-1,-25,0,-1,-56.2976,31.2976,0.24
1.45647,1.45583,0.959983,0.961339,-0.000317183,0,-0.000209132,0.00119632,-1,-27,0,-1,-56.2974,29.2974,0.244
1.45647,1.45583,0.959982,0.961341,-0.000327535,0,-0.000215957,0.0009415,-1,-30,0,-1,-56.2973,26.2973,0.248
1.45647,1.45583,0.959981,0.961342,-0.000338049,0,-0.00022289,0.000742831,-1,-32,0,-1,-56.2972,24.2972,0.252
1.45647,1.45583,0.95998,0.961343,-0.000348725,0,-0.000229928,0.000552802,-1,-33,0,-1,-56.2971,23.2971,0.256
1.45647,1.45583,0.959979,0.961344,-0.000359562,0,-0.000237074,0.000426117,-1,-34,0,-1,-56.297,22.297,0.26
1.45647,1.45583,0.959978,0.961345,-0.00037056,0,-0.000244325,0.00034166,-1,-35,0,-1,-56.297,21.297,0.264
1.45647,1.45583,0.959977,0.961346,-0.00038172,0,-0.000251683,0.000314146,-1,-35,0,-1,-56.2969,21.2969,0.268
1.45646,1.45583,0.959976,0.961347,-0.00039304,0,-0.000259147,0.000324594,-1,-35,0,-1,-56.2968,21.2968,0.272
1.45646,1.45583,0.959975,0.961349,-0.000404521,0,-0.000266717,0.000389142,-1,-34,0,-1,-56.2966,22.2966,0.276
1.45646,1.45583,0.959974,0.961352,-0.000416162,0,-0.000274393,0.000489755,0,-33,0,0,-56.2964,23.2964,0.28
1.45646,1.45583,0.959973,0.961355,-0.000427964,0,-0.000282174,0.000585622,0,-32,0,0,-56.2962,24.2962,0.284
1.45646,1.45583,0.959972,0.961358,-0.000439925,0,-0.000290061,0.000678324,0,-31,0,0,-56.2959,25.2959,0.288
1.45646,1.45583,0.959971,0.961362,-0.000452047,0,-0.000298053,0.000768916,0,-30,0,0,-56.2956,26.2956,0.292
1.45645,1.45583,0.95997,0.961367,-0.000464328,0,-0.00030615,0.000886893,0,-29,0,0,-56.2952,27.2952,0.296
1.45645,1.45583,0.959968,0.961372,-0.000476769,0,-0.000314353,0.00102313,0,-28,0,0,-56.2948,28.2948,0.3
1.45645,1.45583,0.959967,0.961377,-0.000489368,0,-0.00032266,0.00108516,0,-27,0,0,-56.2944,29.2944,0.304
1.45645,1.45583,0.959966,0.961383,-0.000502127,0,-0.000331073,0.00124167,0,-25,0,0,-56.2939,31.2939,0.308
1.45645,1.45583,0.959964,0.961389,-0.000515045,0,-0.00033959,0.00134602,0,-24,0,0,-56.2934,32.2934,0.312
1.45644,1.45583,0.959963,0.961394,-0.000528121,0,-0.000348212,0.00132921,0,-24,0,0,-56.293,32.293,0.316
1.45644,1.45583,0.959962,0.961399,-0.000541356,0,-0.000356938,0.00126042,0,-25,0,0,-56.2926,31.2926,0.32
1.45644,1.45583,0.95996,0.961405,-0.000554749,0,-0.000365768,0.00132973,0,-24,0,0,-56.2921,32.2921,0.324
1.45644,1.45583,0.959959,0.96141,-0.0005683,0,-0.000374703,0.00131835,0,-24,0,0,-56.2917,32.2917,0.328
1.45644,1.45583,0.959957,0.961415,-0.000582008,0,-0.000383742,0.00128197,0,-24,0,0,-56.2913,32.2913,0.332
1.45643,1.45583,0.959956,0.961419,-0.000595875,0,-0.000392884,0.00122893,0,-24,0,0,-56.291,32.291,0.336
1.45643,1.45583,0.959954,0.961423,-0.000609898,0,-0.000402131,0.00113599,0,-25,0,0,-56.2907,31.2907,0.34
1.45643,1.45583,0.959952,0.961426,-0.000624079,0,-0.000411481,0.000987652,0,-26,0,0,-56.2904,30.2904,0.344
1.45643,1.45583,0.959951,0.961428,-0.000638417,0,-0.000420934,0.000859971,0,-27,0,0,-56.2902,29.2902,0.348
1.45642,1.45583,0.959949,0.96143,-0.000652912,0,-0.000430491,0.000717269,0,-29,0,0,-56.2901,27.2901,0.352
1.45642,1.45583,0.959947,0.961432,-0.000667563,0,-0.000440152,0.000622134,0,-29,0,0,-56.29,27.29,0.356
1.45642,1.45583,0.959946,0.961433,-0.000682371,0,-0.000449915,0.00055871,0,-30,0,0,-56.2898,26.2898,0.36
1.45641,1.45583,0.959944,0.961434,-0.000697335,0,-0.000459781,0.000458846,0,-31,0,0,-56.2897,25.2897,0.364
1.45641,1.45583,0.959942,0.961436,-0.000712455,0,-0.00046975,0.000421061,0,-31,0,0,-56.2896,25.2896,0.368
1.45641,1.45583,0.95994,0.961436,-0.000727731,0,-0.000479822,0.000309498,0,-32,0,0,-56.2896,24.2896,0.372
1.45641,1.45583,0.959938,0.961437,-0.000743162,0,-0.000489997,0.000292705,0,-32,0,0,-56.2895,24.2895,0.376
1.4564,1.45583,0.959936,0.961438,-0.000758749,0,-0.000500274,0.000281509,0,-32,0,0,-56.2894,24.2894,0.38
1.4564,1.45583,0.959934,0.961438,-0.00077449,0,-0.000510653,0.000216464,0,-32,0,0,-56.2894,24.2894,0.384
1.4564,1.45583,0.959932,0.961439,-0.000790387,0,-0.000521134,0.000201891,0,-32,0,0,-56.2894,24.2894,0.388
1.45639,1.45583,0.95993,0.96144,-0.000806439,0,-0.000531718,0.000163385,0,-33,0,0,-56.2893,23.2893,0.392
1.45639,1.45583,0.959928,0.96144,-0.000822645,0,-0.000542403,0.000137714,0,-33,0,0,-56.2893,23.2893,0.396
1.45639,1.45583,0.959925,0.96144,-0.000839005,0,-0.00055319,0.0001206,0,-33,0,0,-56.2893,23.2893,0.4
1.45638,1.45583,0.959923,0.961441,-0.00085552,0,-0.000564079,0.000109191,0,-33,0,0,-56.2892,23.2892,0.404
1.45638,1.45583,0.959921,0.961441,-0.000872189,0,-0.00057507,0.000101585,0,-33,0,0,-56.2892,23.2892,0.408
1.45638,1.45583,0.959919,0.961442,-0.000889011,0,-0.000586161,0.000154096,0,-32,0,0,-56.2891,24.2891,0.412
1.45637,1.45583,0.959916,0.961442,-0.000905987,0,-0.000597354,0.000102731,0,-32,0,0,-56.2891,24.2891,0.416
1.45637,1.45583,0.959914,0.961442,-0.000923117,0,-0.000608648,9.72781e-05,0,-32,0,0,-56.2891,24.2891,0.42
1.45637,1.45583,0.959911,0.961443,-0.000940399,0,-0.000620043,9.3643e-05,1,-32,0,1,-56.2891,24.2891,0.424
1.45636,1.45583,0.959909,0.961443,-0.000957835,0,-0.000631539,6.24287e-05,1,-32,0,1,-56.2891,24.2891,0.428
1.45636,1.45583,0.959906,0.961442,-0.000975423,0,-0.000643136,1.28282e-05,1,-33,0,1,-56.2891,23.2891,0.432
1.45635,1.45583,0.959904,0.961443,-0.000993164,0,-0.000654833,6.6134e-05,1,-32,0,1,-56.289,24.289,0.436
1.45635,1.45583,0.959901,0.961443,-0.00101106,0,-0.000666631,4.40893e-05,1,-32,0,1,-56.289,24.289,0.44
1.45635,1.45583,0.959898,0.961443,-0.0010291,0,-0.000678529,2.93929e-05,1,-32,0,1,-56.289,24.289,0.444
1.45634,1.45583,0.959896,0.961443,-0.0010473,0,-0.000690527,1.95953e-05,1,-32,0,1,-56.289,24.289,0.448
1.45634,1.45583,0.959893,0.961443,-0.00106565,0,-0.000702626,1.30635e-05,1,-32,0,1,-56.289,24.289,0.452
1.45633,1.45583,0.95989,0.961443,-0.00108415,0,-0.000714824,8.709e-06,1,-32,0,1,-56.289,24.289,0.456
1.45633,1.45583,0.959887,0.961443,-0.0011028,0,-0.000727122,3.45969e-05,1,-31,0,1,-56.289,25.289,0.46
1.45632,1.45583,0.959884,0.961444,-0.0011216,0,-0.00073952,8.06465e-05,1,-31,0,1,-56.289,25.289,0.464
1.45632,1.45583,0.959881,0.961443,-0.00114056,0,-0.000752017,-3.81754e-06,1,-31,-0,1,-56.289,25.289,0.468
1.45632,1.45583,0.959878,0.961443,-0.00115966,0,-0.000764614,-2.54503e-06,1,-31,-0,1,-56.289,25.289,0.472
1.45631,1.45583,0.959875,0.961443,-0.00117892,0,-0.00077731,-1.69668e-06,2,-31,-0,2,-56.289,25.289,0.476
1.45631,1.45583,0.959872,0.961443,-0.00119833,0,-0.000790105,-1.13112e-06,2,-31,-0,2,-56.289,25.289,0.48
1.4563,1.45583,0.959869,0.961443,-0.00121788,0,-0.000802999,-7.54082e-07,2,-31,-0,2,-56.289,25.289,0.484
1.4563,1.45583,0.959866,0.961443,-0.00123759,0,-0.000815992,-2.92936e-05,2,-31,-0,2,-56.289,25.289,0.488
1.45629,1.45583,0.959862,0.961443,-0.00125744,0,-0.000829083,-1.95291e-05,2,-31,-0,2,-56.289,25.289,0.492
1.45629,1.45583,0.959859,0.961444,-0.00127745,0,-0.000842274,4.45625e-05,2,-30,0,2,-56.289,26.289,0.496
1.45628,1.45583,0.959856,0.961444,-0.0012976,0,-0.000855563,2.97083e-05,2,-30,0,2,-56.289,26.289,0.5
1.45628,1.45583,0.959852,0.961444,-0.00131791,0,-0.00086895,1.98055e-05,2,-30,0,2,-56.289,26.289,0.504
1.45627,1.45583,0.959849,0.961444,-0.00133836,0,-0.000882435,4.19946e-05,2,-29,0,2,-56.289,27.289,0.508
1.45627,1.45583,0.959845,0.961444,-0.00135896,0,-0.000896018,-7.94515e-07,2,-30,-0,2,-56.289,26.289,0.512
1.45626,1.45583,0.959841,0.961443,-0.00137971,0,-0.0009097,-2.93206e-05,2,-30,-0,2,-56.289,26.289,0.516
1.45625,1.45583,0.959838,0.961444,-0.00140061,0,-0.000923479,9.24386e-06,2,-29,0,2,-56.289,27.289,0.52
1.45625,1.45583,0.959834,0.961444,-0.00142166,-2.87909e-05,-0.000937356,6.16257e-06,2,-29,-4.56432e-10,2,-56.289,27.289,0.524
1.45624,1.45583,0.95983,0.961444,-0.00144285,9.59697e-06,-0.000951331,4.10838e-06,3,-29,1.01429e-10,3,-56.289,27.289,0.528
1.45624,1.45583,0.959826,0.961444,-0.00146419,6.39798e-06,-0.000965403,2.73892e-06,3,-29,4.50797e-11,3,-56.289,27.289,0.532
1.45623,1.45583,0.959823,0.961444,-0.00148568,-2.45256e-05,-0.000979572,3.06169e-05,3,-28,-1.9317e-09,3,-56.289,28.289,0.536
1.45622,1.45583,0.959819,0.961443,-0.00150732,1.24405e-05,-0.000993838,-6.59615e-05,3,-29,-2.111e-09,3,-56.289,27.289,0.54
1.45622,1.45583,0.959815,0.961444,-0.00152911,-2.04972e-05,-0.0010082,4.23984e-05,3,-28,-2.23565e-09,3,-56.289,28.289,0.544
1.45621,1.45583,0.959811,0.961444,-0.00155104,-1.36648e-05,-0.00102266,2.82656e-05,3,-28,-9.93622e-10,3,-56.289,28.289,0.548
1.45621,1.45583,0.959806,0.961444,-0.00157312,1.9681e-05,-0.00103722,-9.94718e-06,3,-28,-5.03624e-10,3,-56.289,28.289,0.552
1.4562,1.45583,0.959802,0.961444,-0.00159534,-1.56702e-05,-0.00105187,2.21595e-05,3,-27,-8.93292e-10,3,-56.289,29.289,0.556
1.45619,1.45583,0.959798,0.961443,-0.00161771,-1.04468e-05,-0.00106662,-7.15998e-05,3,-28,1.92422e-09,3,-56.289,28.289,0.56
1.45619,1.45583,0.959794,0.961444,-0.00164023,-6.96455e-06,-0.00108147,9.84865e-06,3,-27,-1.76453e-10,3,-56.289,29.289,0.564
1.45618,1.45583,0.959789,0.961444,-0.00166289,2.41479e-05,-0.00109641,3.53567e-05,4,-27,2.19639e-09,4,-56.289,29.289,0.568
1.45617,1.45583,0.959785,0.961443,-0.0016857,-1.26923e-05,-0.00111145,-3.40107e-05,4,-27,1.11049e-09,4,-56.289,29.289,0.572
1.45617,1.45583,0.95978,0.961444,-0.00170866,-8.46155e-06,-0.00112659,3.4908e-05,4,-26,-7.59861e-10,4,-56.289,30.289,0.576
1.45616,1.45583,0.959776,0.961443,-0.00173176,-5.64104e-06,-0.00114182,-6.31008e-05,4,-27,9.15698e-10,4,-56.289,29.289,0.58
1.45615,1.45583,0.959771,0.961444,-0.001755,-3.76069e-06,-0.00115714,4.43056e-05,4,-26,-4.28632e-10,4,-56.289,30.289,0.584
1.45615,1.45583,0.959767,0.961444,-0.00177839,-2.50713e-06,-0.00117257,7.46147e-07,4,-26,-4.81237e-12,4,-56.289,30.289,0.588
1.45614,1.45583,0.959762,0.961444,-0.00180193,-1.67142e-06,-0.00118808,4.97431e-07,4,-26,-2.13883e-12,4,-56.289,30.289,0.592
1.45613,1.45583,0.959757,0.961443,-0.00182561,-1.11428e-06,-0.0012037,-2.84593e-05,4,-26,8.15787e-11,4,-56.289,30.289,0.596
1.45612,1.45583,0.959752,0.961443,-0.00184943,-7.42852e-07,-0.00121941,-1.89729e-05,4,-26,3.62572e-11,4,-56.289,30.289,0.6
1.45612,1.45583,0.959747,0.961443,-0.0018734,-4.95235e-07,-0.00123521,-1.26486e-05,4,-25,1.61143e-11,4,-56.289,31.289,0.604
1.45611,1.45583,0.959742,0.961443,-0.00189751,-3.30157e-07,-0.00125111,-8.43239e-06,5,-25,7.16191e-12,5,-56.289,31.289,0.608
1.4561,1.45583,0.959737,0.961443,-0.00192177,-2.20104e-07,-0.0012671,-5.62159e-06,5,-25,3.18307e-12,5,-56.289,31.289,0.612
1.45609,1.45583,0.959732,0.961443,-0.00194617,-1.46736e-07,-0.00128319,-3.74773e-06,5,-25,1.4147e-12,5,-56.289,31.289,0.616
1.45609,1.45583,0.959727,0.961443,-0.00197071,-9.78242e-08,-0.00129937,-2.49848e-06,5,-25,6.28755e-13,5,-56.289,31.289,0.62
1.45608,1.45583,0.959722,0.961443,-0.0019954,-6.52161e-08,-0.00131565,-1.66566e-06,5,-24,2.79447e-13,5,-56.289,32.289,0.624
1.45607,1.45583,0.959717,0.961443,-0.00202023,-4.34774e-08,-0.00133202,-1.11044e-06,5,-24,1.24199e-13,5,-56.289,32.289,0.628
1.45606,1.45583,0.959711,0.961443,-0.0020452,-2.89849e-08,-0.00134849,-7.40292e-07,5,-24,5.51994e-14,5,-56.289,32.289,0.632
1.45605,1.45583,0.959706,0.961443,-0.00207032,-1.93233e-08,-0.00136504,-4.93528e-07,5,-24,2.4533e-14,5,-56.289,32.289,0.636
1.45605,1.45583,0.9597,0.961443,-0.00209558,-1.28822e-08,-0.0013817,-3.29019e-07,5,-23,1.09036e-14,5,-56.289,33.289,0.64
1.45604,1.45583,0.959695,0.961443,-0.00212098,-8.58813e-09,-0.00139845,-2.19346e-07,6,-23,4.84603e-15,6,-56.289,33.289,0.644
1.45603,1.45583,0.959689,0.961443,-0.00214652,-5.72542e-09,-0.00141529,-1.4623e-07,6,-23,2.15379e-15,6,-56.289,33.289,0.648
1.45602,1.45583,0.959683,0.961444,-0.0021722,-3.81695e-09,-0.00143222,5.74844e-05,6,-22,-5.64448e-13,6,-56.289,34.289,0.652
1.45601,1.45583,0.959678,0.961443,-0.00219803,-2.54463e-09,-0.00144925,-1.92589e-05,6,-23,1.26071e-13,6,-56.289,33.289,0.656
1.456,1.45583,0.959672,0.961443,-0.00222399,-1.69642e-09,-0.00146637,-1.28393e-05,6,-22,5.60317e-14,6,-56.289,34.289,0.66
1.45599,1.45583,0.959666,0.961443,-0.0022501,-2.87921e-05,-0.00148358,-8.55953e-06,6,-22,6.33988e-10,6,-56.289,34.289,0.664
1.45598,1.45583,0.95966,0.961443,-0.00227635,-1.91947e-05,-0.00150089,-5.70635e-06,6,-22,2.81773e-10,6,-56.289,34.289,0.668
1.45598,1.45583,0.959654,0.961443,-0.00230274,-1.27965e-05,-0.00151829,-3.80424e-06,6,-22,1.25232e-10,6,-56.289,34.289,0.672
1.45597,1.45583,0.959648,0.961443,-0.00232927,-8.53098e-06,-0.00153578,-2.53616e-06,6,-21,5.56588e-11,6,-56.289,35.289,0.676
1.45596,1.45583,0.959642,0.961443,-0.00235594,-5.68732e-06,-0.00155337,-1.69077e-06,7,-21,2.47372e-11,7,-56.289,35.289,0.68
1.45595,1.45583,0.959635,0.961443,-0.00238275,2.49994e-05,-0.00157105,-1.12718e-06,7,-21,-7.24906e-11,7,-56.289,35.289,0.684
1.45594,1.45583,0.959629,0.961443,-0.00240971,-1.21247e-05,-0.00158882,-7.51454e-07,7,-21,2.34386e-11,7,-56.289,35.289,0.688
1.45593,1.45583,0.959623,0.961443,-0.0024368,-8.08312e-06,-0.00160668,-5.00969e-07,7,-20,1.04171e-11,7,-56.289,36.289,0.692
1.45592,1.45583,0.959616,0.961443,-0.00246403,-5.38874e-06,-0.00162463,-5.79158e-05,7,-21,8.02867e-10,7,-56.2891,35.2891,0.696
1.45591,1.45583,0.95961,0.961443,-0.0024914,-3.5925e-06,-0.00164268,-3.86106e-05,7,-20,3.5683e-10,7,-56.2891,36.2891,0.7
1.4559,1.45583,0.959603,0.961443,-0.00251891,-2.395e-06,-0.00166082,-2.57404e-05,7,-20,1.58591e-10,7,-56.2891,36.2891,0.704
1.45589,1.45583,0.959596,0.961443,-0.00254656,-1.59666e-06,-0.00167905,4.04216e-05,7,-19,-1.6603e-10,7,-56.289,37.289,0.708
1.45588,1.45583,0.95959,0.961444,-0.00257435,-1.06444e-06,-0.00169737,5.57387e-05,8,-19,-1.52629e-10,8,-56.289,37.289,0.712
1.45587,1.45583,0.959583,0.961444,-0.00260227,-7.09629e-07,-0.00171578,3.71591e-05,8,-19,-6.78352e-11,8,-56.289,37.289,0.716
1.45586,1.45583,0.959576,0.961443,-0.00263034,-4.73086e-07,-0.00173429,-3.28091e-05,8,-19,3.99294e-11,8,-56.289,37.289,0.72
1.45585,1.45583,0.959569,0.961443,-0.00265854,-3.15391e-07,-0.00175289,-2.18727e-05,8,-19,1.77464e-11,8,-56.289,37.289,0.724
1.45584,1.45583,0.959562,0.961443,-0.00268688,-2.1026e-07,-0.00177157,-1.45818e-05,8,-18,7.8873e-12,8,-56.289,38.289,0.728
1.45582,1.45583,0.959555,0.961443,-0.00271536,-1.40174e-07,-0.00179035,-9.72122e-06,8,-18,3.50546e-12,8,-56.289,38.289,0.732
1.45581,1.45583,0.959548,0.961443,-0.00274398,-9.34491e-08,-0.00180922,-6.48081e-06,8,-18,1.55798e-12,8,-56.289,38.289,0.736
1.4558,1.45583,0.95954,0.961443,-0.00277274,-6.22994e-08,-0.00182818,-4.32054e-06,9,-17,6.92438e-13,9,-56.289,39.289,0.74
1.45579,1.45583,0.959533,0.961443,-0.00280163,-4.15329e-08,-0.00184723,-2.88036e-06,9,-17,3.0775e-13,9,-56.289,39.289,0.744
1.45578,1.45583,0.959526,0.961443,-0.00283066,-2.76886e-08,-0.00186637,-1.92024e-06,9,-17,1.36778e-13,9,-56.289,39.289,0.748
1.45577,1.45583,0.959518,0.961443,-0.00285983,-2.88094e-05,-0.0018856,-1.28016e-06,9,-17,9.48762e-11,9,-56.289,39.289,0.752
1.45576,1.45583,0.95951,0.961443,-0.00288913,9.58467e-06,-0.00190492,-8.5344e-07,9,-16,-2.10431e-11,9,-56.289,40.289,0.756
1.45575,1.45583,0.959503,0.961443,-0.00291857,-2.24011e-05,-0.00192433,-5.6896e-07,9,-16,3.27877e-11,9,-56.289,40.289,0.76
1.45573,1.45583,0.959495,0.961443,-0.00294815,-1.49341e-05,-0.00194383,-3.79307e-07,9,-16,1.45723e-11,9,-56.289,40.289,0.764
1.45572,1.45583,0.959487,0.961443,-0.00297786,1.88349e-05,-0.00196342,-2.52871e-07,10,-16,-1.22524e-11,10,-56.289,40.289,0.768
1.45571,1.45583,0.959479,0.961443,-0.00300771,-1.62344e-05,-0.0019831,-2.89595e-05,10,-16,1.20944e-09,10,-56.2891,40.2891,0.772
1.4557,1.45583,0.959471,0.961443,-0.00303769,-1.08229e-05,-0.00200287,-1.93063e-05,10,-15,5.3753e-10,10,-56.2891,41.2891,0.776
1.45569,1.45583,0.959463,0.961443,-0.00306781,-7.21527e-06,-0.00202273,-1.28709e-05,10,-15,2.38902e-10,10,-56.2891,41.2891,0.78
1.45567,1.45583,0.959455,0.961443,-0.00309807,-3.36011e-05,-0.00204268,-8.58059e-06,10,-14,7.41703e-10,10,-56.2891,42.2891,0.784
1.45566,1.45583,0.959447,0.961443,-0.00312846,-2.24007e-05,-0.00206272,-5.7204e-06,10,-14,3.29646e-10,10,-56.2891,42.2891,0.788
1.45565,1.45583,0.959439,0.961443,-0.00315898,-1.49338e-05,-0.00208285,-3.8136e-06,10,-14,1.46509e-10,10,-56.2891,42.2891,0.792
1.45564,1.45583,0.95943,0.961443,-0.00318964,-9.95588e-06,-0.00210306,-2.5424e-06,10,-14,6.51152e-11,10,-56.2891,42.2891,0.796
1.45562,1.45583,0.959422,0.961443,-0.00322044,-6.63725e-06,-0.00212337,-1.69493e-06,11,-13,2.89401e-11,11,-56.2891,43.2891,0.8
1.45561,1.45583,0.959413,0.961443,-0.00325137,-4.42484e-06,-0.00214376,-1.12995e-06,11,-13,1.28623e-11,11,-56.2891,43.2891,0.804
1.4556,1.45583,0.959405,0.961443,-0.00328243,-2.94989e-06,-0.00216424,-7.53303e-07,11,-13,5.71656e-12,11,-56.2891,43.2891,0.808
1.45558,1.45583,0.959396,0.961443,-0.00331363,-1.96659e-06,-0.00218481,-5.02202e-07,11,-12,2.54069e-12,11,-56.2891,44.2891,0.812
1.45557,1.45583,0.959387,0.961442,-0.00334496,-1.31106e-06,-0.00220547,-2.91257e-05,11,-12,9.82334e-11,11,-56.2891,44.2891,0.816
1.45556,1.45583,0.959378,0.961443,-0.00337643,-8.74042e-07,-0.00222622,3.81647e-05,11,-11,-8.58129e-11,11,-56.289,45.289,0.82
1.45554,1.45583,0.959369,0.961442,-0.00340803,-5.82695e-07,-0.00224705,-3.21387e-05,12,-12,4.81757e-11,12,-56.2891,44.2891,0.824
1.45553,1.45583,0.95936,0.961442,-0.00343976,-3.88463e-07,-0.00226797,-2.14258e-05,12,-11,2.14114e-11,12,-56.2891,45.2891,0.828
1.45552,1.45583,0.959351,0.961442,-0.00347163,-2.58975e-07,-0.00228898,-1.42839e-05,12,-11,9.5162e-12,12,-56.2891,45.2891,0.832
1.4555,1.45583,0.959342,0.961442,-0.00350362,-1.7265e-07,-0.00231008,-9.52258e-06,12,-11,4.22942e-12,12,-56.2891,45.2891,0.836
1.45549,1.45583,0.959333,0.961442,-0.00353576,-1.151e-07,-0.00233127,-6.34839e-06,12,-10,1.87974e-12,12,-56.2891,46.2891,0.84
1.45547,1.45583,0.959323,0.961442,-0.00356802,-2.88677e-05,-0.00235254,-4.23226e-06,12,-10,3.14299e-10,12,-56.2891,46.2891,0.844
1.45546,1.45583,0.959314,0.961442,-0.00360042,-1.92451e-05,-0.0023739,-2.82151e-06,12,-10,1.39688e-10,12,-56.2891,46.2891,0.848
1.45545,1.45583,0.959304,0.961442,-0.00363294,-1.28301e-05,-0.00239535,-1.881e-06,13,-9,6.20837e-11,13,-56.2891,47.2891,0.852
1.45543,1.45583,0.959295,0.961442,-0.0036656,-8.55338e-06,-0.00241688,-1.254e-06,13,-9,2.75928e-11,13,-56.2891,47.2891,0.856
1.45542,1.45583,0.959285,0.961442,-0.0036984,-5.70225e-06,-0.0024385,-8.36002e-07,13,-9,1.22635e-11,13,-56.2891,47.2891,0.86
1.4554,1.45583,0.959275,0.961442,-0.00373132,-3.8015e-06,-0.00246021,-2.93483e-05,13,-9,2.8701e-10,13,-56.2891,47.2891,0.864
1.45539,1.45583,0.959265,0.961442,-0.00376437,-2.53433e-06,-0.00248201,-1.95655e-05,13,-8,1.2756e-10,13,-56.2891,48.2891,0.868
1.45537,1.45583,0.959255,0.961442,-0.00379756,-1.68956e-06,-0.00250389,-4.18346e-05,13,-8,1.81831e-10,13,-56.2892,48.2892,0.872
1.45536,1.45583,0.959245,0.961442,-0.00383088,-1.12637e-06,-0.00252585,9.01194e-07,14,-7,-2.61131e-12,14,-56.2891,49.2891,0.876
1.45534,1.45583,0.959235,0.961442,-0.00386433,-7.50914e-07,-0.00254791,6.00796e-07,14,-7,-1.16058e-12,14,-56.2891,49.2891,0.88
1.45532,1.45583,0.959225,0.961442,-0.0038979,-5.00609e-07,-0.00257005,2.91915e-05,14,-7,-3.75936e-11,14,-56.2891,49.2891,0.884
1.45531,1.45583,0.959215,0.961442,-0.00393161,-2.91247e-05,-0.00259227,1.9461e-05,14,-6,-1.45809e-09,14,-56.2891,50.2891,0.888
1.45529,1.45583,0.959204,0.961442,-0.00396545,-1.94164e-05,-0.00261458,-4.46079e-05,14,-7,2.22813e-09,14,-56.2892,49.2892,0.892
1.45528,1.45583,0.959194,0.961442,-0.00399942,-1.29443e-05,-0.00263698,-2.97386e-05,14,-6,9.9028e-10,14,-56.2892,50.2892,0.896
1.45526,1.45583,0.959183,0.961442,-0.00403352,-8.62953e-06,-0.00265946,-1.98257e-05,15,-6,4.40124e-10,15,-56.2892,50.2892,0.9
1.45524,1.45583,0.959173,0.961441,-0.00406775,-5.75302e-06,-0.00268203,-7.0799e-05,15,-6,1.04781e-09,15,-56.2892,50.2892,0.904
1.45523,1.45583,0.959162,0.961441,-0.00410211,-3.26263e-05,-0.00270469,-1.84084e-05,15,-5,1.54505e-09,15,-56.2892,51.2892,0.908
1.45521,1.45583,0.959151,0.961442,-0.0041366,-2.17508e-05,-0.00272743,4.53096e-05,15,-4,-2.53528e-09,15,-56.2891,52.2891,0.912
1.4552,1.45583,0.95914,0.961441,-0.00417121,-1.45006e-05,-0.00275025,-2.73755e-05,15,-4,1.02119e-09,15,-56.2892,52.2892,0.916
1.45518,1.45583,0.959129,0.961441,-0.00420596,-9.66704e-06,-0.00277316,-1.82503e-05,15,-4,4.53861e-10,15,-56.2892,52.2892,0.92
1.45516,1.45583,0.959118,0.961441,-0.00424083,-3.52356e-05,-0.00279615,-1.21669e-05,16,-4,1.10286e-09,16,-56.2892,52.2892,0.924
1.45514,1.45583,0.959106,0.961441,-0.00427584,5.30051e-06,-0.00281923,-8.11125e-06,16,-3,-1.10602e-10,16,-56.2892,53.2892,0.928
1.45513,1.45583,0.959095,0.961441,-0.00431097,3.53367e-06,-0.0028424,-6.29893e-05,16,-3,-5.72602e-10,16,-56.2892,53.2892,0.932
1.45511,1.45583,0.959084,0.961441,-0.00434623,2.35578e-06,-0.00286564,-1.3202e-05,16,-3,-8.0008e-11,16,-56.2892,53.2892,0.936
1.45509,1.45583,0.959072,0.961441,-0.00438161,-2.72204e-05,-0.00288898,-3.75922e-05,16,-2,2.6324e-09,16,-56.2892,54.2892,0.94
1.45508,1.45583,0.959061,0.961441,-0.00441713,-1.81469e-05,-0.00291239,-2.50615e-05,16,-2,1.16996e-09,16,-56.2892,54.2892,0.944
1.45506,1.45583,0.959049,0.961441,-0.00445277,-1.2098e-05,-0.00293589,-1.67077e-05,17,-2,5.19981e-10,17,-56.2892,54.2892,0.948
1.45504,1.45583,0.959037,0.961441,-0.00448854,-8.0653e-06,-0.00295948,-1.11384e-05,17,-1,2.31103e-10,17,-56.2892,55.2892,0.952
1.45502,1.45583,0.959025,0.96144,-0.00452444,-5.37687e-06,-0.00298315,-6.50075e-05,17,-1,8.99192e-10,17,-56.2893,55.2893,0.956
1.455,1.45583,0.959013,0.961441,-0.00456046,-3.58458e-06,-0.0030069,1.42435e-05,17,0,-1.31346e-10,17,-56.2892,56.2892,0.96
1.45499,1.45583,0.959001,0.961441,-0.00459661,-2.38972e-06,-0.00303074,9.49569e-06,17,0,-5.83758e-11,17,-56.2892,56.2892,0.964
1.45497,1.45583,0.958989,0.961441,-0.00463289,-1.59315e-06,-0.00305465,3.51214e-05,18,0,-1.43942e-10,18,-56.2892,56.2892,0.968
1.45495,1.45583,0.958977,0.96144,-0.0046693,-1.0621e-06,-0.00307866,-3.41676e-05,18,0,9.33552e-11,18,-56.2893,56.2893,0.972
1.45493,1.45583,0.958964,0.96144,-0.00470583,-2.9499e-05,-0.00310274,-2.27784e-05,18,0,1.72858e-09,18,-56.2893,56.2893,0.976
1.45491,1.45583,0.958952,0.96144,-0.00474248,-1.9666e-05,-0.00312691,-1.51856e-05,18,0,7.68259e-10,18,-56.2893,56.2893,0.98
1.45489,1.45583,0.958939,0.96144,-0.00477927,-1.31107e-05,-0.00315116,-1.01237e-05,18,1,3.41448e-10,18,-56.2893,57.2893,0.984
1.45487,1.45583,0.958927,0.96144,-0.00481617,-3.75314e-05,-0.0031755,-6.74915e-06,18,1,6.51633e-10,18,-56.2893,57.2893,0.988
1.45485,1.45583,0.958914,0.96144,-0.00485321,-2.50209e-05,-0.00319992,-4.49944e-06,19,2,2.89615e-10,19,-56.2893,58.2893,0.992
1.45483,1.45583,0.958901,0.96144,-0.00489037,-1.66806e-05,-0.00322442,-2.99962e-06,19,2,1.28718e-10,19,-56.2893,58.2893,0.996
1.45481,1.45583,0.958888,0.96144,-0.00492765,-1.11204e-05,-0.003249,-1.99975e-06,19,2,5.72079e-11,19,-56.2893,58.2893,1
1.45479,1.45583,0.958875,0.96144,-0.00496506,-7.4136e-06,-0.00327367,-1.33317e-06,19,3,2.54257e-11,19,-56.2893,59.2893,1.004
1.45477,1.45583,0.958862,0.96144,-0.00500259,-4.9424e-06,-0.00329841,-8.88778e-07,19,3,1.13003e-11,19,-56.2893,59.2893,1.008
1.45475,1.45583,0.958849,0.96144,-0.00504025,-3.29493e-06,-0.00332324,-5.92518e-07,20,4,5.02236e-12,20,-56.2893,60.2893,1.012
1.45473,1.45583,0.958835,0.96144,-0.00507803,-2.19662e-06,-0.00334815,-3.95012e-07,20,4,2.23216e-12,20,-56.2893,60.2893,1.016
1.45471,1.45583,0.958822,0.96144,-0.00511594,-1.46442e-06,-0.00337315,-2.63341e-07,20,4,9.92072e-13,20,-56.2893,60.2893,1.02
1.45469,1.45583,0.958808,0.96144,-0.00515397,-2.97672e-05,-0.00339822,-2.89665e-05,20,4,2.21816e-09,20,-56.2893,60.2893,1.024
1.45467,1.45583,0.958795,0.96144,-0.00519212,-1.98448e-05,-0.00342338,-1.9311e-05,20,5,9.8585e-10,20,-56.2893,61.2893,1.028
1.45465,1.45583,0.958781,0.96144,-0.0052304,-1.32299e-05,-0.00344862,-1.2874e-05,21,5,4.38156e-10,21,-56.2893,61.2893,1.032
1.45463,1.45583,0.958767,0.96144,-0.0052688,-8.81991e-06,-0.00347394,-8.58266e-06,21,6,1.94736e-10,21,-56.2893,62.2893,1.036
1.45461,1.45583,0.958753,0.96144,-0.00530733,-3.46709e-05,-0.00349934,-5.72177e-06,21,6,5.10335e-10,21,-56.2893,62.2893,1.04
1.45459,1.45583,0.958739,0.96144,-0.00534598,-2.31139e-05,-0.00352482,-3.81452e-06,21,7,2.26815e-10,21,-56.2893,63.2893,1.044
1.45457,1.45583,0.958725,0.96144,-0.00538475,-1.54093e-05,-0.00355038,-3.13339e-05,21,7,1.2421e-09,21,-56.2893,63.2893,1.048
1.45454,1.45583,0.958711,0.961438,-0.00542364,-1.02728e-05,-0.00357603,-0.000107262,22,6,2.83464e-09,22,-56.2894,62.2894,1.052
1.45452,1.45582,0.958696,0.961438,-0.00546266,-3.56395e-05,-0.00360175,-7.1508e-05,22,7,6.55612e-09,22,-56.2894,63.2894,1.056
1.4545,1.45582,0.958682,0.961438,-0.00550179,-2.37597e-05,-0.00362756,-0.000105254,22,7,6.43337e-09,22,-56.2895,63.2895,1.06
1.45448,1.45582,0.958667,0.961437,-0.00554105,-1.58398e-05,-0.00365344,-0.000156542,22,7,6.37882e-09,22,-56.2896,63.2896,1.064
1.45446,1.45582,0.958653,0.961436,-0.00558044,-1.05598e-05,-0.00367941,-0.000190734,22,7,5.1814e-09,22,-56.2896,63.2896,1.068
1.45443,1.45582,0.958638,0.961435,-0.00561994,-7.0399e-06,-0.00370545,-0.000213529,23,7,3.86709e-09,23,-56.2897,63.2897,1.072
1.45441,1.45582,0.958623,0.961434,-0.00565957,-4.69327e-06,-0.00373158,-0.000199934,23,8,2.41393e-09,23,-56.2898,64.2898,1.076
1.45439,1.45582,0.958608,0.961433,-0.00569931,-3.19198e-05,-0.00375779,-0.000190871,23,8,1.56734e-08,23,-56.2898,64.2898,1.08
1.45437,1.45582,0.958593,0.961433,-0.00573918,-2.12798e-05,-0.00378407,-0.000127248,23,9,6.96595e-09,23,-56.2898,65.2898,1.084
1.45434,1.45582,0.958578,0.961433,-0.00577917,-1.41866e-05,-0.00381044,-0.000142414,24,10,5.19746e-09,24,-56.2899,66.2899,1.088
1.45432,1.45582,0.958563,0.961433,-0.00581928,-3.82486e-05,-0.00383689,-3.73606e-05,24,11,3.67613e-09,24,-56.2898,67.2898,1.092
1.4543,1.45582,0.958547,0.961433,-0.00585951,-5.429e-05,-0.00386341,-2.4907e-05,24,12,3.4786e-09,24,-56.2898,68.2898,1.096
1.45427,1.45582,0.958532,0.961433,-0.00589986,-6.49843e-05,-0.00389002,-4.53956e-05,24,12,7.58899e-09,24,-56.2899,68.2899,1.1
1.45425,1.45582,0.958516,0.961432,-0.00594033,-4.33228e-05,-0.0039167,-8.78456e-05,24,12,9.79037e-09,24,-56.2899,68.2899,1.104
1.45423,1.45582,0.9585,0.961432,-0.00598092,-2.88819e-05,-0.00394346,-5.85637e-05,25,13,4.35128e-09,25,-56.2899,69.2899,1.108
1.4542,1.45582,0.958485,0.961431,-0.00602163,-1.92546e-05,-0.00397031,-0.000125415,25,12,6.21223e-09,25,-56.29,68.29,1.112
1.45418,1.45582,0.958469,0.961431,-0.00606246,-4.16273e-05,-0.00399723,-0.000112401,25,13,1.20368e-08,25,-56.29,69.29,1.116
1.45415,1.45582,0.958453,0.96143,-0.00610341,-5.65425e-05,-0.00402423,-0.000132516,25,13,1.92755e-08,25,-56.2901,69.2901,1.12
1.45413,1.45582,0.958436,0.96143,-0.00614448,-6.64859e-05,-0.00405131,-0.000117135,25,14,2.00345e-08,25,-56.2901,70.2901,1.124
1.4541,1.45582,0.95842,0.961429,-0.00618567,-4.43239e-05,-0.00407846,-0.000135672,26,14,1.547e-08,26,-56.2902,70.2902,1.128
1.45408,1.45582,0.958404,0.961429,-0.00622698,-2.95493e-05,-0.0041057,-0.000119239,26,15,9.06417e-09,26,-56.2902,71.2902,1.132
1.45405,1.45582,0.958387,0.961428,-0.0062684,-0.000106072,-0.00413301,-0.000108283,26,15,2.9548e-08,26,-56.2902,71.2902,1.136
1.45403,1.45582,0.958371,0.961428,-0.00630995,-7.07149e-05,-0.0041604,-0.00010098,26,16,1.837e-08,26,-56.2902,72.2902,1.14
1.454,1.45582,0.958354,0.961428,-0.00635161,-0.000104725,-0.00418787,-9.61108e-05,26,16,2.58933e-08,26,-56.2903,72.2903,1.144
1.45398,1.45582,0.958337,0.961427,-0.00639339,-0.000127399,-0.00421542,-9.28648e-05,26,17,3.04354e-08,26,-56.2903,73.2903,1.148
1.45395,1.45582,0.95832,0.961427,-0.00643529,-0.000171305,-0.00424305,-0.000119492,27,17,5.2659e-08,27,-56.2904,73.2904,1.152
1.45393,1.45582,0.958303,0.961426,-0.00647731,-0.000171785,-0.00427075,-0.000166034,27,17,7.33748e-08,27,-56.2904,73.2904,1.156
1.4539,1.45582,0.958286,0.961424,-0.00651944,-0.000200896,-0.00429853,-0.000254644,27,16,1.31604e-07,27,-56.2906,72.2906,1.16
1.45387,1.45582,0.958269,0.961423,-0.00656169,-0.000249095,-0.00432639,-0.000284926,27,17,1.82584e-07,27,-56.2907,73.2907,1.164
1.45385,1.45581,0.958251,0.961421,-0.00660406,-0.000338809,-0.00435433,-0.000305115,27,17,2.6594e-07,27,-56.2908,73.2908,1.168
1.45382,1.45581,0.958234,0.96142,-0.00664655,-0.000341036,-0.00438234,-0.000318573,27,17,2.79496e-07,27,-56.2909,73.2909,1.172
1.45379,1.45581,0.958216,0.961418,-0.00668915,-0.000400103,-0.00441043,-0.000327546,27,17,3.3714e-07,27,-56.291,73.291,1.176
1.45377,1.45581,0.958199,0.961418,-0.00673187,-0.000497063,-0.0044386,-0.000275946,27,18,3.52859e-07,27,-56.2911,74.2911,1.18
1.45374,1.4558,0.958181,0.961417,-0.00677471,-0.000561703,-0.00446684,-0.000241546,27,19,3.49038e-07,27,-56.2911,75.2911,1.184
1.45371,1.4558,0.958163,0.961417,-0.00681766,-0.000691169,-0.00449516,-0.00016103,27,20,2.86325e-07,27,-56.2911,76.2911,1.188
1.45369,1.4558,0.958145,0.961417,-0.00686073,-0.000863852,-0.00452356,-0.000107354,27,21,2.38574e-07,27,-56.2911,77.2911,1.192
1.45366,1.45579,0.958127,0.961417,-0.00690392,-0.000921392,-0.00455203,-7.15691e-05,27,22,1.69644e-07,27,-56.2911,78.2911,1.196
1.45363,1.45579,0.958109,0.961417,-0.00694722,-0.00110371,-0.00458058,-4.77127e-05,26,23,1.35474e-07,26,-56.2911,79.2911,1.2
1.4536,1.45578,0.95809,0.961417,-0.00699063,-0.00125404,-0.00460921,-6.05994e-05,26,23,1.955e-07,26,-56.2912,79.2912,1.204
1.45358,1.45577,0.958072,0.961416,-0.00703416,-0.00132547,-0.00463791,-6.91905e-05,26,24,2.35931e-07,26,-56.2912,80.2912,1.208
1.45355,1.45577,0.958053,0.961416,-0.00707781,-0.00157463,-0.00466669,-0.000103709,25,24,4.20109e-07,25,-56.2913,80.2913,1.212
1.45352,1.45576,0.958034,0.961415,-0.00712157,-0.00165436,-0.00469554,-0.000126721,25,24,5.39321e-07,25,-56.2913,80.2913,1.216
1.45349,1.45575,0.958015,0.961414,-0.00716545,-0.00167873,-0.00472447,-0.000170854,26,24,7.37857e-07,26,-56.2914,80.2914,1.22
1.45346,1.45575,0.957997,0.961413,-0.00720944,-0.00166618,-0.00475348,-0.000200275,26,24,8.58454e-07,26,-56.2915,80.2915,1.224
1.45343,1.45574,0.957977,0.961412,-0.00725355,-0.00165781,-0.00478256,-0.000191099,26,25,8.15008e-07,26,-56.2915,81.2915,1.228
1.4534,1.45573,0.957958,0.961411,-0.00729777,-0.00162345,-0.00481172,-0.000213772,26,25,8.92806e-07,26,-56.2916,81.2916,1.232
1.45337,1.45573,0.957939,0.961411,-0.0073421,-0.00160053,-0.00484095,-0.000200096,27,26,8.23898e-07,27,-56.2917,82.2917,1.236
1.45334,1.45572,0.95792,0.96141,-0.00738655,-0.00158526,-0.00487025,-0.000190979,27,26,7.78854e-07,27,-56.2917,82.2917,1.24
1.45332,1.45571,0.9579,0.961409,-0.00743111,-0.00157508,-0.00489963,-0.000213692,27,27,8.65885e-07,27,-56.2918,83.2918,1.244
1.45329,1.45571,0.95788,0.961408,-0.00747579,-0.0015395,-0.00492909,-0.000200043,28,27,7.92269e-07,28,-56.2919,83.2919,1.248
1.45326,1.4557,0.957861,0.961407,-0.00752058,-0.00154457,-0.00495862,-0.000219735,28,28,8.73125e-07,28,-56.2919,84.2919,1.252
1.45323,1.4557,0.957841,0.961406,-0.00756548,-0.00154795,-0.00498823,-0.000261654,28,28,1.04197e-06,28,-56.2921,84.2921,1.256
1.45319,1.45569,0.957821,0.961404,-0.0076105,-0.00160778,-0.00501791,-0.000347181,28,27,1.436e-06,28,-56.2922,83.2922,1.26
1.45316,1.45568,0.957801,0.961402,-0.00765562,-0.00153251,-0.00504766,-0.000375409,29,28,1.48006e-06,29,-56.2924,84.2924,1.264
1.45313,1.45568,0.95778,0.9614,-0.00770086,-0.00151112,-0.00507749,-0.000423018,29,28,1.64449e-06,29,-56.2925,84.2925,1.268
1.4531,1.45567,0.95776,0.961398,-0.00774622,-0.00146807,-0.0051074,-0.000454758,29,28,1.71751e-06,29,-56.2927,84.2927,1.272
1.45307,1.45567,0.957739,0.961396,-0.00779168,-0.00146816,-0.00513737,-0.000447126,29,28,1.68879e-06,29,-56.2928,84.2928,1.276
1.45304,1.45566,0.957719,0.961394,-0.00783726,-0.00149701,-0.00516742,-0.000442039,30,29,1.70239e-06,30,-56.293,85.293,1.28
1.45301,1.45565,0.957698,0.961393,-0.00788295,-0.00151624,-0.00519755,-0.000409856,30,30,1.59873e-06,30,-56.2931,86.2931,1.284
1.45298,1.45565,0.957677,0.961392,-0.00792875,-0.00158665,-0.00522775,-0.000388401,30,30,1.58539e-06,30,-56.2932,86.2932,1.288
1.45295,1.45564,0.957656,0.96139,-0.00797466,-0.00169116,-0.00525802,-0.000345307,30,31,1.50233e-06,30,-56.2933,87.2933,1.292
1.45291,1.45563,0.957635,0.961389,-0.00802069,-0.00187601,-0.00528837,-0.000316577,29,32,1.52788e-06,29,-56.2934,88.2934,1.296
1.45288,1.45562,0.957614,0.961388,-0.00806682,-0.00205682,-0.00531878,-0.000297424,29,33,1.5738e-06,29,-56.2935,89.2935,1.3
1.45285,1.45561,0.957593,0.961387,-0.00811307,-0.00217736,-0.00534928,-0.000313447,29,33,1.75578e-06,29,-56.2936,89.2936,1.304
1.45282,1.4556,0.957571,0.961385,-0.00815943,-0.00222893,-0.00537984,-0.00038171,29,33,2.1888e-06,29,-56.2937,89.2937,1.308
1.45278,1.45559,0.95755,0.961383,-0.0082059,-0.0022921,-0.00541048,-0.00045601,29,33,2.68897e-06,29,-56.2939,89.2939,1.312
1.45275,1.45558,0.957528,0.96138,-0.00825247,-0.00233421,-0.00544119,-0.000534334,29,33,3.20872e-06,29,-56.2942,89.2942,1.316
1.45272,1.45557,0.957506,0.961377,-0.00829916,-0.00236229,-0.00547198,-0.000615341,29,32,3.73963e-06,29,-56.2944,88.2944,1.32
1.45268,1.45556,0.957484,0.961373,-0.00834596,-0.00243859,-0.00550283,-0.000698137,29,32,4.37985e-06,29,-56.2947,88.2947,1.324
1.45265,1.45555,0.957462,0.961369,-0.00839287,-0.00251824,-0.00553376,-0.000810915,29,31,5.25358e-06,29,-56.295,87.295,1.328
1.45262,1.45554,0.95744,0.961365,-0.00843989,-0.00248497,-0.00556476,-0.000886101,29,31,5.66486e-06,29,-56.2954,87.2954,1.332
1.45258,1.45553,0.957418,0.96136,-0.00848702,-0.00260675,-0.00559583,-0.000993807,29,31,6.66479e-06,29,-56.2957,87.2957,1.336
1.45255,1.45552,0.957395,0.961355,-0.00853425,-0.00265914,-0.00562698,-0.0010944,29,30,7.48696e-06,29,-56.2962,86.2962,1.34
1.45251,1.45551,0.957373,0.961348,-0.0085816,-0.00275165,-0.0056582,-0.00127663,29,29,9.03748e-06,29,-56.2967,85.2967,1.344
1.45248,1.45549,0.95735,0.961341,-0.00862906,-0.00287091,-0.00568949,-0.0014269,29,28,1.05391e-05,29,-56.2973,84.2973,1.348
1.45245,1.45548,0.957327,0.961334,-0.00867662,-0.0029792,-0.00572085,-0.00158467,29,27,1.2146e-05,29,-56.2979,83.2979,1.352
1.45241,1.45547,0.957304,0.961327,-0.00872429,-0.00302261,-0.00575228,-0.00166106,29,27,1.2917e-05,29,-56.2984,83.2984,1.356
1.45238,1.45546,0.957281,0.961319,-0.00877207,-0.00299396,-0.00578379,-0.00171198,29,27,1.31869e-05,29,-56.299,83.299,1.36
1.45234,1.45545,0.957258,0.961312,-0.00881996,-0.00294608,-0.00581536,-0.00174593,30,27,1.32334e-05,30,-56.2996,83.2996,1.364
1.45231,1.45543,0.957234,0.961306,-0.00886796,-0.00300052,-0.00584701,-0.00168219,30,28,1.2986e-05,30,-56.3001,84.3001,1.368
1.45227,1.45542,0.957211,0.9613,-0.00891607,-0.0031232,-0.00587873,-0.00158211,30,29,1.27128e-05,30,-56.3006,85.3006,1.372
1.45223,1.45541,0.957187,0.961296,-0.00896428,-0.00326256,-0.00591051,-0.00142903,30,31,1.19951e-05,30,-56.3009,87.3009,1.376
1.4522,1.45539,0.957164,0.961291,-0.0090126,-0.00341305,-0.00594237,-0.00132697,29,33,1.16522e-05,29,-56.3013,89.3013,1.38
1.45216,1.45538,0.95714,0.961287,-0.00906103,-0.00357096,-0.00597431,-0.00123013,29,34,1.13018e-05,29,-56.3016,90.3016,1.384
1.45213,1.45536,0.957116,0.961283,-0.00910957,-0.00373381,-0.00600631,-0.00119437,29,35,1.14737e-05,29,-56.302,91.302,1.388
1.45209,1.45534,0.957092,0.961278,-0.00915821,-0.00381359,-0.00603838,-0.00117053,29,36,1.14849e-05,29,-56.3024,92.3024,1.392
1.45205,1.45533,0.957068,0.961274,-0.00920696,-0.00375161,-0.00607052,-0.00115464,29,36,1.11449e-05,29,-56.3027,92.3027,1.396
1.45202,1.45531,0.957043,0.96127,-0.00925581,-0.00382546,-0.00610273,-0.00108646,29,38,1.06933e-05,29,-56.303,94.303,1.4
1.45198,1.4553,0.957019,0.961265,-0.00930478,-0.00390348,-0.00613502,-0.00109859,29,38,1.10332e-05,29,-56.3034,94.3034,1.404
1.45194,1.45528,0.956994,0.96126,-0.00935385,-0.00404187,-0.00616737,-0.00116426,29,38,1.21073e-05,29,-56.3038,94.3038,1.408
1.4519,1.45526,0.956969,0.961254,-0.00940302,-0.00407654,-0.00619979,-0.00129441,29,37,1.35763e-05,29,-56.3043,93.3043,1.412
1.45187,1.45525,0.956945,0.961247,-0.0094523,-0.00409966,-0.00623229,-0.00146755,29,36,1.54796e-05,29,-56.3049,92.3049,1.416
1.45183,1.45523,0.95692,0.961239,-0.00950169,-0.00411507,-0.00626485,-0.00164056,29,35,1.73697e-05,29,-56.3055,91.3055,1.42
1.45179,1.45521,0.956894,0.961229,-0.00955118,-0.00418293,-0.00629748,-0.00192864,29,33,2.07567e-05,29,-56.3063,89.3063,1.424
1.45175,1.4552,0.956869,0.961218,-0.00960078,-0.004113,-0.00633018,-0.00214949,30,31,2.2747e-05,30,-56.3072,87.3072,1.428
1.45171,1.45518,0.956844,0.961206,-0.00965048,-0.00415276,-0.00636295,-0.00246947,30,28,2.6386e-05,30,-56.3082,84.3082,1.432
1.45167,1.45516,0.956818,0.961194,-0.00970029,-0.00429442,-0.00639579,-0.0026252,30,27,2.90072e-05,30,-56.3091,83.3091,1.436
1.45164,1.45514,0.956793,0.961183,-0.0097502,-0.00433129,-0.0064287,-0.00270024,30,27,3.00926e-05,30,-56.3101,83.3101,1.44
1.4516,1.45513,0.956767,0.961172,-0.00980022,-0.00429828,-0.00646168,-0.00266388,30,28,2.94615e-05,30,-56.3109,84.3109,1.444
1.45156,1.45511,0.956741,0.961163,-0.00985034,-0.00424748,-0.00649473,-0.00255328,31,29,2.79047e-05,31,-56.3116,85.3116,1.448
1.45152,1.45509,0.956715,0.961155,-0.00990057,-0.00421362,-0.00652785,-0.00239317,31,32,2.59465e-05,31,-56.3123,88.3123,1.452
1.45148,1.45508,0.956689,0.961147,-0.0099509,-0.00421984,-0.00656103,-0.00225764,31,33,2.45133e-05,31,-56.3129,89.3129,1.456
1.45144,1.45506,0.956662,0.961139,-0.0100013,-0.0041664,-0.00659428,-0.00216728,32,35,2.32344e-05,32,-56.3136,91.3136,1.46
1.4514,1.45504,0.956636,0.961131,-0.0100519,-0.00413077,-0.00662761,-0.00207826,32,36,2.20896e-05,32,-56.3142,92.3142,1.464
1.45136,1.45503,0.956609,0.961123,-0.0101025,-0.00413581,-0.006661,-0.00207649,32,37,2.20979e-05,32,-56.3149,93.3149,1.468
1.45132,1.45501,0.956583,0.961114,-0.0101533,-0.00416796,-0.00669445,-0.00216168,32,36,2.31835e-05,32,-56.3156,92.3156,1.472
1.45128,1.45499,0.956556,0.961103,-0.0102041,-0.00416061,-0.00672798,-0.00230485,33,35,2.46755e-05,33,-56.3165,91.3165,1.476
1.45124,1.45498,0.956529,0.961093,-0.0102551,-0.00418449,-0.00676158,-0.00240029,33,35,2.5845e-05,33,-56.3173,91.3173,1.48
1.45119,1.45496,0.956502,0.961081,-0.0103061,-0.00422921,-0.00679524,-0.00257909,33,34,2.80672e-05,33,-56.3182,90.3182,1.484
1.45115,1.45494,0.956475,0.961069,-0.0103573,-0.00425902,-0.00682897,-0.00272707,33,33,2.98871e-05,33,-56.3192,89.3192,1.488
1.45111,1.45493,0.956447,0.961057,-0.0104085,-0.00427889,-0.00686277,-0.00279694,33,33,3.07961e-05,33,-56.3202,89.3202,1.492
1.45107,1.45491,0.95642,0.961046,-0.0104599,-0.00423456,-0.00689663,-0.00284352,34,33,3.09849e-05,34,-56.3211,89.3211,1.496
1.45103,1.45489,0.956392,0.961035,-0.0105114,-0.004205,-0.00693056,-0.0027882,34,34,3.01702e-05,34,-56.322,90.322,1.5
1.45099,1.45488,0.956364,0.961025,-0.0105629,-0.00407014,-0.00696456,-0.00272253,35,35,2.8515e-05,35,-56.3228,91.3228,1.504
1.45094,1.45486,0.956336,0.961013,-0.0106146,-0.00383627,-0.00699863,-0.00276512,36,35,2.72972e-05,36,-56.3237,91.3237,1.508
1.4509,1.45485,0.956308,0.961001,-0.0106664,-0.00350761,-0.00703276,-0.0028223,37,35,2.5475e-05,37,-56.3247,91.3247,1.512
1.45086,1.45484,0.95628,0.960989,-0.0107182,-0.00317335,-0.00706696,-0.00288922,39,35,2.3594e-05,39,-56.3256,91.3256,1.516
1.45081,1.45483,0.956252,0.960978,-0.0107702,-0.00280655,-0.00710123,-0.00290504,40,35,2.09812e-05,40,-56.3266,91.3266,1.52
1.45077,1.45483,0.956223,0.960966,-0.0108223,-0.00250443,-0.00713556,-0.00288679,41,36,1.86052e-05,41,-56.3275,92.3275,1.524
1.45073,1.45482,0.956195,0.960955,-0.0108744,-0.00224544,-0.00716997,-0.00284584,42,37,1.64447e-05,42,-56.3284,93.3284,1.528
1.45068,1.45481,0.956166,0.960945,-0.0109267,-0.00192882,-0.00720443,-0.00273216,44,38,1.35618e-05,44,-56.3292,94.3292,1.532
1.45064,1.45481,0.956137,0.960935,-0.0109791,-0.001545,-0.00723897,-0.00268517,45,39,1.06763e-05,45,-56.33,95.33,1.536
1.4506,1.45481,0.956108,0.960925,-0.0110316,-0.00131791,-0.00727357,-0.00259626,46,41,8.80557e-06,46,-56.3308,97.3308,1.54
1.45055,1.45481,0.956079,0.960916,-0.0110842,-0.00099377,-0.00730823,-0.0024794,48,43,6.34103e-06,48,-56.3315,99.3315,1.544
1.45051,1.4548,0.956049,0.960907,-0.0111368,-0.000835259,-0.00734296,-0.00237271,49,44,5.10029e-06,49,-56.3322,100.332,1.548
1.45046,1.4548,0.95602,0.960897,-0.0111896,-0.000614421,-0.00737776,-0.00241674,50,44,3.82146e-06,50,-56.333,100.333,1.552
1.45042,1.4548,0.95599,0.960887,-0.0112425,-0.000524778,-0.00741262,-0.00247489,50,44,3.34247e-06,50,-56.3339,100.334,1.556
1.45037,1.4548,0.955961,0.960876,-0.0112955,-0.000407434,-0.00744755,-0.00257124,51,44,2.69611e-06,51,-56.3348,100.335,1.56
1.45033,1.4548,0.955931,0.960864,-0.0113485,-0.000271622,-0.00748255,-0.00269305,52,43,1.88258e-06,52,-56.3357,99.3357,1.564
1.45028,1.4548,0.955901,0.960852,-0.0114017,-0.000209873,-0.00751761,-0.00280305,52,43,1.51403e-06,52,-56.3367,99.3367,1.568
1.45024,1.4548,0.955871,0.96084,-0.011455,-0.000168706,-0.00755273,-0.00290517,53,42,1.2614e-06,53,-56.3377,98.3377,1.572
1.45019,1.4548,0.95584,0.960827,-0.0115083,-0.000112471,-0.00758792,-0.00300205,53,42,8.68983e-07,53,-56.3387,98.3387,1.576
1.45015,1.4548,0.95581,0.960815,-0.0115618,-7.49804e-05,-0.00762318,-0.00303784,54,42,5.86234e-07,54,-56.3397,98.3397,1.58
1.4501,1.4548,0.955779,0.960802,-0.0116154,-0.000165151,-0.0076585,-0.00309049,54,42,1.31362e-06,54,-56.3408,98.3408,1.584
1.45005,1.4548,0.955749,0.960789,-0.0116691,-0.0001101,-0.00769388,-0.0030968,54,43,8.77544e-07,54,-56.3418,99.3418,1.588
1.45001,1.4548,0.955718,0.960777,-0.0117228,-0.000102191,-0.00772933,-0.00310101,55,43,8.15619e-07,55,-56.3428,99.3428,1.592
1.44996,1.4548,0.955687,0.960764,-0.0117767,-0.000125709,-0.00776484,-0.00310381,55,44,1.00424e-06,55,-56.3438,100.344,1.596
1.44991,1.4548,0.955656,0.960752,-0.0118306,-0.000141388,-0.00780042,-0.00313447,55,44,1.14066e-06,55,-56.3448,100.345,1.6
1.44986,1.4548,0.955624,0.960739,-0.0118847,-0.000180631,-0.00783607,-0.0031837,55,44,1.48016e-06,55,-56.3458,100.346,1.604
1.44982,1.4548,0.955593,0.960725,-0.0119389,-0.000120421,-0.00787177,-0.00327411,56,44,1.0148e-06,56,-56.347,100.347,1.608
1.44977,1.4548,0.955562,0.960711,-0.0119931,-0.000137863,-0.00790754,-0.00333437,56,43,1.18318e-06,56,-56.3481,99.3481,1.612
1.44972,1.4548,0.95553,0.960698,-0.0120475,-0.000120699,-0.00794338,-0.00331697,57,44,1.03049e-06,57,-56.3491,100.349,1.616
1.44967,1.4548,0.955498,0.960684,-0.0121019,-0.000109257,-0.00797928,-0.00333416,57,45,9.37641e-07,57,-56.3502,101.35,1.62
1.44962,1.45479,0.955466,0.960671,-0.0121564,-0.00013042,-0.00801524,-0.00331683,57,45,1.11345e-06,57,-56.3513,101.351,1.624
1.44957,1.45479,0.955434,0.960658,-0.0122111,-0.000173319,-0.00805127,-0.00330527,58,46,1.47456e-06,58,-56.3523,102.352,1.628
1.44953,1.45479,0.955402,0.960644,-0.0122658,-0.000115546,-0.00808736,-0.00335515,58,46,9.97887e-07,58,-56.3535,102.353,1.632
1.44948,1.45479,0.955369,0.960629,-0.0123207,-0.000105822,-0.00812351,-0.00347478,59,45,9.46498e-07,59,-56.3546,101.355,1.636
1.44943,1.45479,0.955337,0.960613,-0.0123756,-7.05478e-05,-0.00815973,-0.0036409,59,44,6.61174e-07,59,-56.3559,100.356,1.64
1.44938,1.45479,0.955304,0.960596,-0.0124306,-4.70319e-05,-0.00819601,-0.00386681,59,43,4.68138e-07,59,-56.3573,99.3573,1.644
1.44933,1.45479,0.955271,0.960579,-0.0124857,-6.01455e-05,-0.00823235,-0.00401742,60,42,6.21992e-07,60,-56.3587,98.3587,1.648
1.44928,1.45479,0.955238,0.960562,-0.0125409,-4.0097e-05,-0.00826875,-0.00406025,60,42,4.19086e-07,60,-56.3601,98.3601,1.652
1.44923,1.45479,0.955205,0.960546,-0.0125963,-5.55223e-05,-0.00830522,-0.00406,61,42,5.8028e-07,61,-56.3614,98.3614,1.656
1.44918,1.45479,0.955172,0.96053,-0.0126517,-6.58058e-05,-0.00834175,-0.00408863,61,43,6.92615e-07,61,-56.3627,99.3627,1.66
1.44913,1.45479,0.955138,0.960513,-0.0127072,-7.26614e-05,-0.00837835,-0.00407893,61,43,7.62965e-07,61,-56.364,99.364,1.664
1.44908,1.45479,0.955105,0.960498,-0.0127628,-0.000134814,-0.008415,-0.00401488,61,44,1.39337e-06,61,-56.3653,100.365,1.668
1.44902,1.45479,0.955071,0.960484,-0.0128184,-6.10849e-05,-0.00845172,-0.00382822,62,47,6.01998e-07,62,-56.3664,103.366,1.672
1.44897,1.45479,0.955037,0.960474,-0.0128742,-6.95142e-05,-0.0084885,-0.00341588,62,51,6.11284e-07,62,-56.3672,107.367,1.676
1.44892,1.45479,0.955003,0.960466,-0.0129301,-7.51337e-05,-0.00852535,-0.00293944,63,57,5.68551e-07,63,-56.3678,113.368,1.68
1.44887,1.45479,0.954969,0.960461,-0.0129861,-5.00891e-05,-0.00856225,-0.00233391,63,63,3.00953e-07,63,-56.3682,119.368,1.684
1.44882,1.45479,0.954934,0.960459,-0.0130421,-6.21837e-05,-0.00859922,-0.00169989,63,70,2.72126e-07,63,-56.3683,126.368,1.688
1.44876,1.45479,0.9549,0.960458,-0.0130983,-4.14558e-05,-0.00863625,-0.00121964,64,75,1.30163e-07,64,-56.3684,131.368,1.692
1.44871,1.45479,0.954865,0.960458,-0.0131546,-2.76372e-05,-0.00867334,-0.000841881,64,80,5.98987e-08,64,-56.3685,136.368,1.696
1.44866,1.45479,0.954831,0.960458,-0.0132109,-4.72157e-05,-0.00871049,-0.000590045,65,83,7.17206e-08,65,-56.3685,139.368,1.7
1.44861,1.45479,0.954796,0.960457,-0.0132673,-3.14771e-05,-0.0087477,-0.000450945,65,85,3.6542e-08,65,-56.3685,141.369,1.704
1.44855,1.45479,0.954761,0.960456,-0.0133239,-7.85666e-05,-0.00878498,-0.000415794,65,86,8.40987e-08,65,-56.3687,142.369,1.708
1.4485,1.45479,0.954725,0.960454,-0.0133805,-2.35868e-05,-0.00882231,-0.000421151,66,87,2.55729e-08,66,-56.3688,143.369,1.712
1.44845,1.45479,0.95469,0.960451,-0.0134372,-1.57245e-05,-0.00885971,-0.000482304,66,87,1.95242e-08,66,-56.369,143.369,1.716
1.44839,1.45479,0.954654,0.960449,-0.013494,-1.0483e-05,-0.00889717,-0.000551863,67,87,1.48934e-08,67,-56.3692,143.369,1.72
1.44834,1.45479,0.954619,0.960446,-0.0135509,-3.57796e-05,-0.00893469,-0.000627027,67,87,5.77561e-08,67,-56.3695,143.369,1.724
1.44828,1.45479,0.954583,0.960443,-0.0136079,-5.2644e-05,-0.00897227,-0.000648345,67,87,8.78683e-08,67,-56.3697,143.37,1.728
1.44823,1.45479,0.954547,0.960439,-0.013665,-6.38869e-05,-0.00900991,-0.00072014,68,87,1.18442e-07,68,-56.37,143.37,1.732
1.44817,1.45479,0.954511,0.960435,-0.0137222,-4.25913e-05,-0.00904761,-0.000854375,68,87,9.36804e-08,68,-56.3703,143.37,1.736
1.44812,1.45479,0.954475,0.960431,-0.0137795,-2.83942e-05,-0.00908537,-0.000886284,69,87,6.47862e-08,69,-56.3706,143.371,1.74
1.44806,1.45479,0.954438,0.960427,-0.0138368,-4.77204e-05,-0.00912319,-0.000965138,69,87,1.1857e-07,69,-56.371,143.371,1.744
1.44801,1.45479,0.954402,0.960422,-0.0138943,-3.18136e-05,-0.00916107,-0.00101771,69,87,8.33526e-08,69,-56.3714,143.371,1.748
1.44795,1.45479,0.954365,0.960418,-0.0139518,-2.12091e-05,-0.00919901,-0.00102396,70,88,5.59101e-08,70,-56.3717,144.372,1.752
1.4479,1.45479,0.954328,0.960414,-0.0140095,-7.17212e-05,-0.00923702,-0.00102813,70,89,1.89838e-07,70,-56.372,145.372,1.756
1.44784,1.45479,0.954291,0.96041,-0.0140672,-1.90232e-05,-0.00927508,-0.00103091,71,89,5.04886e-08,71,-56.3724,145.372,1.76
1.44779,1.45479,0.954254,0.960405,-0.014125,-7.0264e-05,-0.0093132,-0.00103277,71,90,1.8682e-07,71,-56.3727,146.373,1.764
1.44773,1.45479,0.954217,0.960402,-0.0141829,-1.80517e-05,-0.00935138,-0.00097642,71,91,4.5378e-08,71,-56.373,147.373,1.768
1.44767,1.45479,0.954179,0.960399,-0.0142409,-4.08254e-05,-0.00938962,-0.000881274,72,93,9.26259e-08,72,-56.3732,149.373,1.772
1.44761,1.45479,0.954141,0.960398,-0.014299,-5.60079e-05,-0.00942792,-0.000731471,72,95,1.05472e-07,72,-56.3733,151.373,1.776
1.44756,1.45479,0.954104,0.960395,-0.0143572,-3.73386e-05,-0.00946628,-0.000660393,72,97,6.34822e-08,72,-56.3735,153.373,1.78
1.4475,1.45479,0.954066,0.960394,-0.0144155,-5.36833e-05,-0.0095047,-0.000555426,73,98,7.6764e-08,73,-56.3736,154.374,1.784
1.44744,1.45479,0.954028,0.960393,-0.0144738,-6.45798e-05,-0.00954317,-0.000427866,73,100,7.11372e-08,73,-56.3737,156.374,1.788
1.44738,1.45479,0.953989,0.960393,-0.0145323,-7.18441e-05,-0.00958171,-0.000342826,74,102,6.34099e-08,74,-56.3737,158.374,1.792
1.44733,1.45479,0.953951,0.960392,-0.0145908,-7.6687e-05,-0.0096203,-0.000257341,74,104,5.08071e-08,74,-56.3737,160.374,1.796
1.44727,1.45478,0.953912,0.960392,-0.0146494,-7.99156e-05,-0.00965896,-0.000229143,74,105,4.71445e-08,74,-56.3738,161.374,1.8
1.44721,1.45478,0.953874,0.960391,-0.0147081,-8.2068e-05,-0.00969767,-0.000181553,75,106,3.83592e-08,75,-56.3738,162.374,1.804
1.44715,1.45478,0.953835,0.960391,-0.0147669,-8.35029e-05,-0.00973644,-0.000178617,75,107,3.83988e-08,75,-56.3739,163.374,1.808
1.44709,1.45478,0.953796,0.96039,-0.0148258,-0.00011325,-0.00977527,-0.000205451,75,107,5.9902e-08,75,-56.374,163.374,1.812
1.44703,1.45478,0.953757,0.960389,-0.0148848,-0.000104291,-0.00981416,-0.00022334,76,108,5.99665e-08,76,-56.3741,164.374,1.816
1.44697,1.45478,0.953717,0.960388,-0.0149439,-9.83184e-05,-0.0098531,-0.000206475,76,109,5.22633e-08,76,-56.3741,165.374,1.82
1.44691,1.45478,0.953678,0.960386,-0.015003,-0.000123127,-0.00989211,-0.000252814,77,109,8.01402e-08,77,-56.3742,165.374,1.824
1.44685,1.45478,0.953638,0.960385,-0.0150623,-0.000110876,-0.00993117,-0.000283706,77,110,8.09844e-08,77,-56.3743,166.374,1.828
1.44679,1.45478,0.953598,0.960384,-0.0151216,-0.00016029,-0.00997029,-0.000304301,77,110,1.25576e-07,77,-56.3744,166.374,1.832
1.44673,1.45478,0.953558,0.960383,-0.015181,-0.00010686,-0.0100095,-0.00028924,78,111,7.95738e-08,78,-56.3745,167.375,1.836
1.44667,1.45478,0.953518,0.960381,-0.0152405,-0.000128822,-0.0100487,-0.000307991,78,112,1.02146e-07,78,-56.3746,168.375,1.84
1.44661,1.45478,0.953478,0.96038,-0.0153001,-0.000114672,-0.010088,-0.000320491,79,113,9.46173e-08,79,-56.3748,169.375,1.844
1.44655,1.45478,0.953438,0.960379,-0.0153598,-0.000105239,-0.0101273,-0.000328824,79,113,8.90918e-08,79,-56.3749,169.375,1.848
1.44649,1.45478,0.953397,0.960377,-0.0154196,-0.000127741,-0.0101667,-0.000305589,80,114,1.005e-07,80,-56.3749,170.375,1.852
1.44642,1.45478,0.953356,0.960376,-0.0154794,-5.63699e-05,-0.0102062,-0.00031889,80,115,4.62792e-08,80,-56.3751,171.375,1.856
1.44636,1.45478,0.953315,0.960375,-0.0155394,-9.51618e-05,-0.0102457,-0.000327757,80,116,8.02995e-08,80,-56.3752,172.375,1.86
1.4463,1.45478,0.953274,0.960373,-0.0155994,-9.22321e-05,-0.0102853,-0.000333668,81,116,7.92311e-08,81,-56.3753,172.375,1.864
1.44624,1.45478,0.953233,0.960372,-0.0156595,-0.000147861,-0.0103249,-0.000337609,81,117,1.28519e-07,81,-56.3754,173.375,1.868
1.44617,1.45478,0.953192,0.960371,-0.0157197,-0.000156156,-0.0103646,-0.000311446,82,118,1.2521e-07,82,-56.3755,174.375,1.872
1.44611,1.45478,0.95315,0.96037,-0.01578,-0.000132895,-0.0104044,-0.000322794,82,119,1.10442e-07,82,-56.3756,175.376,1.876
1.44605,1.45477,0.953108,0.960369,-0.0158403,-0.00020376,-0.0104442,-0.000301569,82,120,1.582e-07,82,-56.3757,176.376,1.88
1.44598,1.45477,0.953067,0.960367,-0.0159008,-0.000164631,-0.010484,-0.000287419,83,121,1.21823e-07,83,-56.3758,177.376,1.884
1.44592,1.45477,0.953025,0.960366,-0.0159613,-0.000196127,-0.010524,-0.000277985,83,122,1.40365e-07,83,-56.3758,178.376,1.888
1.44586,1.45477,0.952982,0.960366,-0.016022,-0.000188333,-0.0105639,-0.000242905,84,123,1.17778e-07,84,-56.3759,179.376,1.892
1.44579,1.45477,0.95294,0.960365,-0.0160827,-0.000183137,-0.010604,-0.00024831,84,124,1.17077e-07,84,-56.376,180.376,1.896
1.44573,1.45477,0.952898,0.960364,-0.0161435,-0.000179673,-0.010644,-0.000251913,84,125,1.16529e-07,84,-56.3761,181.376,1.9
1.44566,1.45477,0.952855,0.960363,-0.0162044,-0.000148573,-0.0106842,-0.000254314,85,126,9.72778e-08,85,-56.3761,182.376,1.904
1.4456,1.45477,0.952812,0.960362,-0.0162653,-0.00012784,-0.0107244,-0.000255916,86,126,8.42297e-08,86,-56.3762,182.376,1.908
1.44553,1.45477,0.952769,0.960361,-0.0163264,-8.52265e-05,-0.0107646,-0.000256983,86,127,5.63874e-08,86,-56.3763,183.376,1.912
1.44547,1.45477,0.952726,0.96036,-0.0163875,-8.56086e-05,-0.0108049,-0.000228904,87,128,5.04515e-08,87,-56.3764,184.376,1.916
1.4454,1.45477,0.952683,0.960359,-0.0164487,-5.70724e-05,-0.0108453,-0.000238975,87,129,3.51142e-08,87,-56.3765,185.376,1.92
1.44534,1.45477,0.952639,0.960357,-0.01651,-6.68392e-05,-0.0108857,-0.000274481,87,130,4.72331e-08,87,-56.3766,186.377,1.924
1.44527,1.45477,0.952596,0.960356,-0.0165714,-7.33504e-05,-0.0109262,-0.000298151,88,130,5.63045e-08,88,-56.3767,186.377,1.928
1.4452,1.45477,0.952552,0.960355,-0.0166329,-7.76912e-05,-0.0109667,-0.000313931,88,131,6.27929e-08,88,-56.3768,187.377,1.932
1.44514,1.45477,0.952508,0.960353,-0.0166944,-0.000109376,-0.0110073,-0.000353242,89,131,9.94717e-08,89,-56.3769,187.377,1.936
1.44507,1.45477,0.952464,0.960351,-0.016756,-0.000101708,-0.0110479,-0.000379449,89,132,9.9361e-08,89,-56.3771,188.377,1.94
1.445,1.45477,0.952419,0.96035,-0.0168178,-9.65964e-05,-0.0110886,-0.000396921,90,133,9.87123e-08,90,-56.3772,189.377,1.944
1.44494,1.45477,0.952375,0.960347,-0.0168796,-0.000121979,-0.0111294,-0.00046615,90,133,1.46393e-07,90,-56.3774,189.377,1.948
1.44487,1.45477,0.95233,0.960345,-0.0169414,-0.000138901,-0.0111702,-0.000483512,90,134,1.72911e-07,90,-56.3776,190.378,1.952
1.4448,1.45477,0.952286,0.960343,-0.0170034,-0.000178974,-0.011211,-0.000523878,91,134,2.41395e-07,91,-56.3778,190.378,1.956
1.44473,1.45476,0.952241,0.96034,-0.0170655,-0.000176898,-0.0112519,-0.000579579,91,134,2.63964e-07,91,-56.378,190.378,1.96
1.44466,1.45476,0.952196,0.960337,-0.0171276,-0.000204305,-0.0112929,-0.000616714,91,135,3.24394e-07,91,-56.3782,191.378,1.964
1.44459,1.45476,0.95215,0.960334,-0.0171898,-0.000251367,-0.0113339,-0.000670261,92,135,4.33774e-07,92,-56.3785,191.378,1.968
1.44453,1.45476,0.952105,0.960331,-0.0172521,-0.00022516,-0.011375,-0.000677168,92,136,3.92554e-07,92,-56.3787,192.379,1.972
1.44446,1.45476,0.952059,0.960327,-0.0173145,-0.000294061,-0.0114161,-0.000796936,93,136,6.03358e-07,93,-56.379,192.379,1.976
1.44439,1.45476,0.952014,0.960324,-0.0173769,-0.000253623,-0.0114573,-0.0008192,93,136,5.34925e-07,93,-56.3793,192.379,1.98
1.44432,1.45476,0.951968,0.960319,-0.0174394,-0.000226664,-0.0114985,-0.000920415,94,136,5.37133e-07,94,-56.3797,192.38,1.984
1.44425,1.45476,0.951922,0.960315,-0.0175021,-0.000237482,-0.0115398,-0.000987892,94,136,6.04029e-07,94,-56.38,192.38,1.988
1.44418,1.45476,0.951875,0.96031,-0.0175648,-0.000187112,-0.0115812,-0.00103288,95,137,4.97588e-07,95,-56.3804,193.38,1.992
1.44411,1.45476,0.951829,0.960305,-0.0176275,-0.000153532,-0.0116226,-0.00109166,95,137,4.31526e-07,95,-56.3808,193.381,1.996
1.44404,1.45476,0.951782,0.9603,-0.0176904,-0.000131146,-0.011664,-0.00115964,96,137,3.9156e-07,96,-56.3812,193.381,2
1.44397,1.45476,0.951736,0.960295,-0.0177533,-0.000145012,-0.0117055,-0.00123375,96,137,4.60632e-07,96,-56.3816,193.382,2.004
1.44389,1.45476,0.951689,0.960288,-0.0178164,-0.000125466,-0.011747,-0.00134073,97,137,4.33106e-07,97,-56.3821,193.382,2.008
1.44382,1.45475,0.951642,0.960283,-0.0178795,-0.000141226,-0.0117887,-0.00135448,97,138,4.92508e-07,97,-56.3826,194.383,2.012
1.44375,1.45475,0.951594,0.960277,-0.0179426,-0.000151732,-0.0118303,-0.00142122,98,138,5.55226e-07,98,-56.3831,194.383,2.016
1.44368,1.45475,0.951547,0.960271,-0.0180059,-0.000158737,-0.011872,-0.00143693,98,139,5.87278e-07,98,-56.3835,195.384,2.02
1.44361,1.45475,0.951499,0.960266,-0.0180692,-0.000163406,-0.0119138,-0.00138981,99,140,5.84735e-07,99,-56.384,196.384,2.024
1.44354,1.45475,0.951452,0.96026,-0.0181327,-0.000166519,-0.0119556,-0.0013872,99,141,5.94755e-07,99,-56.3844,197.384,2.028
1.44346,1.45475,0.951404,0.960256,-0.0181962,-0.000168595,-0.0119975,-0.00129908,99,143,5.63919e-07,99,-56.3848,199.385,2.032
1.44339,1.45475,0.951356,0.960251,-0.0182597,-0.000141187,-0.0120394,-0.00126913,100,144,4.61359e-07,100,-56.3852,200.385,2.036
1.44332,1.45475,0.951308,0.960246,-0.0183234,-0.000180498,-0.0120814,-0.00124916,100,145,5.80535e-07,100,-56.3856,201.386,2.04
1.44324,1.45475,0.951259,0.960241,-0.0183871,-0.000206705,-0.0121234,-0.00126464,101,146,6.73064e-07,101,-56.386,202.386,2.044
1.44317,1.45475,0.951211,0.960235,-0.0184509,-0.000224176,-0.0121654,-0.00127495,101,147,7.35912e-07,101,-56.3864,203.386,2.048
1.4431,1.45475,0.951162,0.96023,-0.0185148,-0.000264614,-0.0122076,-0.00131062,102,147,8.92968e-07,102,-56.3868,203.387,2.052
1.44302,1.45475,0.951113,0.960224,-0.0185788,-0.000233991,-0.0122498,-0.0013344,102,148,8.03958e-07,102,-56.3873,204.387,2.056
1.44295,1.45474,0.951064,0.960218,-0.0186428,-0.000242367,-0.012292,-0.00140784,103,148,8.78567e-07,103,-56.3878,204.388,2.06
1.44287,1.45474,0.951015,0.960213,-0.018707,-0.000276742,-0.0123343,-0.00139921,103,149,9.97031e-07,103,-56.3882,205.388,2.064
1.4428,1.45474,0.950965,0.960206,-0.0187712,-0.000299658,-0.0123766,-0.00150863,103,149,1.16402e-06,103,-56.3888,205.389,2.068
1.44272,1.45474,0.950916,0.960199,-0.0188354,-0.000314936,-0.012419,-0.00155278,104,149,1.25917e-06,104,-56.3893,205.389,2.072
1.44265,1.45474,0.950866,0.960192,-0.0188998,-0.000353912,-0.0124614,-0.001611,104,149,1.46808e-06,104,-56.3899,205.39,2.076
1.44257,1.45474,0.950816,0.960185,-0.0189642,-0.000437478,-0.0125039,-0.00164982,104,150,1.85845e-06,104,-56.3904,206.39,2.08
1.44249,1.45473,0.950766,0.96018,-0.0190287,-0.000435606,-0.0125464,-0.00158933,105,151,1.78266e-06,105,-56.3909,207.391,2.084
1.44242,1.45473,0.950715,0.960174,-0.0190933,-0.000520732,-0.012589,-0.00152021,105,153,2.03835e-06,105,-56.3913,209.391,2.088
1.44234,1.45473,0.950665,0.960169,-0.019158,-0.000548691,-0.0126316,-0.00141654,105,155,2.00134e-06,105,-56.3917,211.392,2.092
1.44227,1.45473,0.950614,0.960165,-0.0192227,-0.000538539,-0.0126743,-0.00128985,106,157,1.78864e-06,106,-56.3921,213.392,2.096
1.44219,1.45472,0.950564,0.960162,-0.0192876,-0.000560563,-0.0127171,-0.00111902,106,160,1.61521e-06,106,-56.3923,216.392,2.1
1.44211,1.45472,0.950513,0.960159,-0.0193525,-0.000517663,-0.0127599,-0.000976341,107,162,1.30141e-06,107,-56.3925,218.393,2.104
1.44203,1.45472,0.950462,0.960156,-0.0194174,-0.000460272,-0.0128027,-0.000881222,108,164,1.0444e-06,108,-56.3928,220.393,2.108
1.44196,1.45472,0.95041,0.960154,-0.0194825,-0.000393221,-0.0128456,-0.000760227,108,166,7.69747e-07,108,-56.3929,222.393,2.112
1.44188,1.45472,0.950359,0.960152,-0.0195476,-0.000319729,-0.0128885,-0.000737145,109,167,6.06882e-07,109,-56.3932,223.393,2.116
1.4418,1.45472,0.950307,0.96015,-0.0196128,-0.000299526,-0.0129315,-0.000606594,110,169,4.67845e-07,110,-56.3933,225.393,2.12
1.44172,1.45472,0.950255,0.960148,-0.0196781,-0.000257266,-0.0129745,-0.000605932,110,170,4.01399e-07,110,-56.3935,226.393,2.124
1.44164,1.45472,0.950203,0.960146,-0.0197434,-0.000200301,-0.0130176,-0.0005767,111,171,2.97444e-07,111,-56.3936,227.394,2.128
1.44156,1.45472,0.950151,0.960144,-0.0198088,-0.000191116,-0.0130608,-0.000557213,112,173,2.74214e-07,112,-56.3938,229.394,2.132
1.44148,1.45472,0.950099,0.960142,-0.0198743,-0.000184993,-0.013104,-0.00051543,112,174,2.45525e-07,112,-56.3939,230.394,2.136
1.4414,1.45472,0.950046,0.960139,-0.0199399,-0.000209701,-0.0131472,-0.000602738,112,174,3.25464e-07,112,-56.3942,230.394,2.14
1.44132,1.45471,0.949994,0.960136,-0.0200056,-0.000254964,-0.0131905,-0.000660944,113,175,4.33929e-07,113,-56.3944,231.394,2.144
1.44124,1.45471,0.949941,0.960133,-0.0200713,-0.00028514,-0.0132338,-0.000670957,113,175,4.92638e-07,113,-56.3947,231.395,2.148
1.44116,1.45471,0.949888,0.960131,-0.0201371,-0.000305257,-0.0132772,-0.00062005,114,177,4.8738e-07,114,-56.3948,233.395,2.152
1.44108,1.45471,0.949835,0.960128,-0.0202029,-0.000347459,-0.0133206,-0.000672485,114,177,6.01677e-07,114,-56.3951,233.395,2.156
1.441,1.45471,0.949781,0.960125,-0.0202689,-0.000346803,-0.0133641,-0.000678651,115,178,6.06048e-07,115,-56.3953,234.395,2.16
1.44092,1.45471,0.949728,0.960123,-0.0203349,-0.000346366,-0.0134076,-0.00065397,115,179,5.83273e-07,115,-56.3955,235.395,2.164
1.44084,1.45471,0.949674,0.960119,-0.020401,-0.000259701,-0.0134512,-0.00075268,116,179,5.03344e-07,116,-56.3958,235.396,2.168
1.44076,1.45471,0.94962,0.960116,-0.0204672,-0.000230716,-0.0134948,-0.000732114,116,181,4.34948e-07,116,-56.396,237.396,2.172
1.44068,1.45471,0.949566,0.960113,-0.0205334,-0.000153811,-0.0135385,-0.000718404,117,182,2.84536e-07,117,-56.3962,238.396,2.176
1.44059,1.45471,0.949512,0.960111,-0.0205997,-0.000131331,-0.0135822,-0.000680472,118,183,2.30124e-07,118,-56.3964,239.396,2.18
1.44051,1.45471,0.949457,0.960108,-0.0206661,-0.000116345,-0.013626,-0.000655185,118,184,1.96289e-07,118,-56.3966,240.397,2.184
1.44043,1.4547,0.949403,0.960106,-0.0207325,-0.000106354,-0.0136698,-0.000638326,119,185,1.74816e-07,119,-56.3968,241.397,2.188
1.44034,1.4547,0.949348,0.960104,-0.0207991,-7.09029e-05,-0.0137137,-0.000569505,120,187,1.03979e-07,120,-56.397,243.397,2.192
1.44026,1.4547,0.949293,0.960101,-0.0208657,-7.60596e-05,-0.0137576,-0.000638789,120,187,1.25111e-07,120,-56.3972,243.397,2.196
1.44018,1.4547,0.949238,0.960099,-0.0209324,-0.000108288,-0.0138016,-0.000598605,121,189,1.6692e-07,121,-56.3974,245.397,2.2
1.44009,1.4547,0.949183,0.960095,-0.0209991,-0.000129774,-0.0138456,-0.00071577,121,189,2.39193e-07,121,-56.3977,245.398,2.204
1.44001,1.4547,0.949127,0.960092,-0.0210659,-0.000144098,-0.0138896,-0.000707507,121,190,2.62528e-07,121,-56.3979,246.398,2.208
1.43993,1.4547,0.949072,0.960088,-0.0211328,-0.000153647,-0.0139337,-0.000817163,122,190,3.23312e-07,122,-56.3982,246.398,2.212
1.43984,1.4547,0.949016,0.960084,-0.0211998,-0.000188804,-0.0139779,-0.000919057,122,190,4.46832e-07,122,-56.3986,246.399,2.216
1.43976,1.4547,0.94896,0.960078,-0.0212668,-0.000183451,-0.0140221,-0.00107336,123,189,5.07059e-07,123,-56.3991,245.399,2.22
1.43967,1.4547,0.948904,0.960071,-0.0213339,-0.000208674,-0.0140663,-0.00132018,123,188,7.09408e-07,123,-56.3996,244.4,2.224
1.43958,1.4547,0.948847,0.960063,-0.0214011,-0.000225489,-0.0141106,-0.00151352,124,187,8.78841e-07,124,-56.4003,243.4,2.228
1.4395,1.4547,0.948791,0.960055,-0.0214683,-0.000236698,-0.0141549,-0.00172879,124,186,1.05375e-06,124,-56.4009,242.401,2.232
1.43941,1.4547,0.948734,0.960045,-0.0215356,-0.000244172,-0.0141993,-0.00195867,125,185,1.23157e-06,125,-56.4017,241.402,2.236
1.43933,1.4547,0.948677,0.960034,-0.021603,-0.000191572,-0.0142438,-0.00225588,126,183,1.1129e-06,126,-56.4026,239.403,2.24
1.43924,1.45469,0.94862,0.960022,-0.0216705,-0.000185297,-0.0142882,-0.00245402,126,182,1.171e-06,126,-56.4036,238.404,2.244
1.43915,1.45469,0.948563,0.960011,-0.021738,-0.000209904,-0.0143328,-0.00261491,127,181,1.41348e-06,127,-56.4045,237.405,2.248
1.43907,1.45469,0.948505,0.959999,-0.0218056,-0.000197518,-0.0143773,-0.00269337,127,181,1.37e-06,127,-56.4054,237.405,2.252
1.43898,1.45469,0.948448,0.959989,-0.0218733,-0.000218051,-0.0144219,-0.00265931,128,182,1.4933e-06,128,-56.4063,238.406,2.256
1.43889,1.45469,0.94839,0.959979,-0.021941,-0.000202949,-0.0144666,-0.00255023,128,184,1.33288e-06,128,-56.407,240.407,2.26
1.4388,1.45469,0.948332,0.959971,-0.0220088,-0.000192881,-0.0145113,-0.00241992,129,187,1.20204e-06,129,-56.4077,243.408,2.264
1.43872,1.45469,0.948274,0.959964,-0.0220767,-0.000157379,-0.0145561,-0.00216031,129,190,8.75569e-07,129,-56.4082,246.408,2.268
1.43863,1.45469,0.948216,0.959958,-0.0221446,-0.00013371,-0.0146009,-0.00195844,130,193,6.74381e-07,130,-56.4087,249.409,2.272
1.43854,1.45469,0.948157,0.959953,-0.0222127,-8.914e-05,-0.0146457,-0.00176628,131,196,4.05476e-07,131,-56.4092,252.409,2.276
1.43845,1.45469,0.948098,0.959947,-0.0222807,-8.82176e-05,-0.0146906,-0.00160939,131,198,3.65636e-07,131,-56.4096,254.41,2.28
1.43836,1.45469,0.94804,0.959942,-0.0223489,-8.76026e-05,-0.0147355,-0.00150479,132,201,3.39491e-07,132,-56.41,257.41,2.284
1.43827,1.45469,0.94798,0.959936,-0.0224171,-5.84018e-05,-0.0147805,-0.00149264,133,202,2.24501e-07,133,-56.4105,258.41,2.288
1.43818,1.45469,0.947921,0.95993,-0.0224854,-6.77254e-05,-0.0148255,-0.00154212,133,202,2.68973e-07,133,-56.411,258.411,2.292
1.43809,1.45469,0.947862,0.959922,-0.0225538,-7.39412e-05,-0.0148706,-0.00166148,134,202,3.16391e-07,134,-56.4116,258.412,2.296
1.438,1.45469,0.947802,0.959914,-0.0226222,-7.80851e-05,-0.0149157,-0.00176984,134,202,3.55916e-07,134,-56.4123,258.412,2.3
1.43791,1.45469,0.947743,0.959905,-0.0226907,-8.08476e-05,-0.0149609,-0.00198604,135,201,4.13526e-07,135,-56.4131,257.413,2.304
1.43782,1.45469,0.947683,0.959895,-0.0227593,-0.00011148,-0.0150061,-0.00213017,135,201,6.11594e-07,135,-56.4138,257.414,2.308
1.43773,1.45469,0.947623,0.959886,-0.0228279,-0.000131902,-0.0150514,-0.00219747,136,201,7.46497e-07,136,-56.4146,257.415,2.312
1.43764,1.45469,0.947562,0.959876,-0.0228966,-0.000116726,-0.0150967,-0.00224234,136,201,6.74098e-07,136,-56.4153,257.415,2.316
1.43754,1.45469,0.947502,0.959868,-0.0229654,-0.000135399,-0.015142,-0.00218587,137,203,7.62253e-07,137,-56.416,259.416,2.32
1.43745,1.45468,0.947441,0.95986,-0.0230342,-0.000147848,-0.0151874,-0.00209065,137,205,7.96081e-07,137,-56.4166,261.417,2.324
1.43736,1.45468,0.94738,0.959853,-0.0231031,-0.000127356,-0.0152328,-0.00199838,138,207,6.55482e-07,138,-56.4172,263.417,2.328
1.43727,1.45468,0.947319,0.959845,-0.0231721,-0.000142486,-0.0152783,-0.00196565,138,208,7.21347e-07,138,-56.4178,264.418,2.332
1.43717,1.45468,0.947258,0.959836,-0.0232411,-0.000181363,-0.0153238,-0.00208779,139,208,9.75226e-07,139,-56.4186,264.419,2.336
1.43708,1.45468,0.947197,0.959826,-0.0233102,-0.000207282,-0.0153694,-0.0022268,139,208,1.18881e-06,139,-56.4194,264.419,2.34
1.43699,1.45468,0.947135,0.959814,-0.0233794,-0.000253352,-0.015415,-0.002521,140,206,1.64503e-06,140,-56.4204,262.42,2.344
1.43689,1.45468,0.947073,0.959801,-0.0234486,-0.000255274,-0.0154606,-0.00277472,140,204,1.82434e-06,140,-56.4214,260.421,2.348
1.4368,1.45468,0.947011,0.959786,-0.0235179,-0.000227764,-0.0155063,-0.00305904,141,203,1.79455e-06,141,-56.4226,259.423,2.352
1.43671,1.45468,0.946949,0.959771,-0.0235873,-0.000209425,-0.015552,-0.00330616,142,201,1.78337e-06,142,-56.4238,257.424,2.356
1.43661,1.45468,0.946887,0.959756,-0.0236567,-0.000168407,-0.0155978,-0.00341332,142,201,1.48058e-06,142,-56.425,257.425,2.36
1.43652,1.45468,0.946824,0.959743,-0.0237262,-0.000141063,-0.0156436,-0.0033696,143,202,1.2243e-06,143,-56.4261,258.426,2.364
1.43642,1.45468,0.946762,0.959732,-0.0237957,-0.000122833,-0.0156895,-0.00316771,144,205,1.00222e-06,144,-56.4269,261.427,2.368
1.43633,1.45468,0.946699,0.95972,-0.0238654,-8.18884e-05,-0.0157354,-0.0030907,144,207,6.51906e-07,144,-56.4279,263.428,2.372
1.43623,1.45468,0.946636,0.95971,-0.0239351,-8.33832e-05,-0.0157814,-0.00292419,145,210,6.28049e-07,145,-56.4287,266.429,2.376
1.43614,1.45468,0.946573,0.959698,-0.0240048,-8.43797e-05,-0.0158274,-0.00292835,146,211,6.36465e-07,146,-56.4297,267.43,2.38
1.43604,1.45468,0.946509,0.959687,-0.0240746,-8.50441e-05,-0.0158734,-0.00287355,146,212,6.29475e-07,146,-56.4306,268.431,2.384
1.43594,1.45468,0.946446,0.959675,-0.0241445,-0.000114278,-0.0159195,-0.00292338,147,213,8.60533e-07,147,-56.4315,269.432,2.388
1.43585,1.45467,0.946382,0.959665,-0.0242145,-0.000133767,-0.0159656,-0.00281265,147,215,9.69143e-07,147,-56.4324,271.432,2.392
1.43575,1.45467,0.946318,0.959654,-0.0242845,-0.00014676,-0.0160118,-0.00273883,148,217,1.03538e-06,148,-56.4332,273.433,2.396
1.43565,1.45467,0.946254,0.959646,-0.0243546,-0.000184213,-0.016058,-0.00248808,148,220,1.18063e-06,148,-56.4338,276.434,2.4
1.43555,1.45467,0.94619,0.95964,-0.0244247,-0.000209181,-0.0161042,-0.00223454,149,224,1.20404e-06,149,-56.4344,280.434,2.404
1.43546,1.45467,0.946125,0.959635,-0.0244949,-0.000254618,-0.0161505,-0.00186397,149,228,1.22253e-06,149,-56.4348,284.435,2.408
1.43536,1.45467,0.94606,0.959632,-0.0245652,-0.000284909,-0.0161968,-0.00153056,150,233,1.12328e-06,150,-56.435,289.435,2.412
1.43526,1.45467,0.945995,0.959629,-0.0246355,-0.000305103,-0.0162432,-0.00122191,150,237,9.60327e-07,150,-56.4352,293.435,2.416
1.43516,1.45467,0.94593,0.959627,-0.0247059,-0.000347357,-0.0162896,-0.00095856,151,240,8.57689e-07,151,-56.4354,296.435,2.42
1.43506,1.45466,0.945865,0.959625,-0.0247764,-0.000404317,-0.0163361,-0.000811786,151,243,8.45471e-07,151,-56.4355,299.436,2.424
1.43496,1.45466,0.9458,0.959623,-0.0248469,-0.000413499,-0.0163826,-0.000742727,151,245,7.91116e-07,151,-56.4357,301.436,2.428
1.43486,1.45466,0.945734,0.95962,-0.0249175,-0.000477203,-0.0164291,-0.000725479,152,246,8.91794e-07,152,-56.436,302.436,2.432
1.43476,1.45466,0.945668,0.959616,-0.0249881,-0.000519671,-0.0164757,-0.000800353,152,246,1.07139e-06,152,-56.4363,302.436,2.436
1.43466,1.45465,0.945602,0.959613,-0.0250589,-0.000576775,-0.0165223,-0.000821478,153,247,1.22051e-06,153,-56.4365,303.437,2.44
1.43456,1.45465,0.945536,0.959609,-0.0251296,-0.000557262,-0.016569,-0.000864352,153,248,1.24077e-06,153,-56.4369,304.437,2.444
1.43446,1.45465,0.94547,0.959605,-0.0252005,-0.000486672,-0.0166157,-0.000950517,154,248,1.19162e-06,154,-56.4372,304.437,2.448
1.43436,1.45465,0.945403,0.959599,-0.0252714,-0.000410821,-0.0166624,-0.00112312,155,248,1.18857e-06,155,-56.4377,304.438,2.452
1.43426,1.45465,0.945336,0.959593,-0.0253423,-0.000331462,-0.0167092,-0.0012094,156,248,1.03265e-06,156,-56.4381,304.438,2.456
1.43416,1.45465,0.945269,0.959587,-0.0254134,-0.000249766,-0.0167561,-0.00132451,157,248,8.52186e-07,157,-56.4386,304.439,2.46
1.43406,1.45465,0.945202,0.959581,-0.0254844,-0.000166511,-0.0168029,-0.00137245,158,249,5.88691e-07,158,-56.4391,305.439,2.464
1.43395,1.45465,0.945135,0.959576,-0.0255556,-0.000139798,-0.0168498,-0.00137562,158,250,4.95394e-07,158,-56.4396,306.44,2.468
1.43385,1.45465,0.945068,0.95957,-0.0256268,-0.00012199,-0.0168968,-0.00140653,159,251,4.42001e-07,159,-56.44,307.44,2.472
1.43375,1.45465,0.945,0.959566,-0.0256981,-0.000138908,-0.0169438,-0.00128318,160,253,4.59165e-07,160,-56.4404,309.44,2.476
1.43365,1.45465,0.944932,0.959562,-0.0257694,-0.000121396,-0.0169908,-0.00114336,160,255,3.57556e-07,160,-56.4406,311.441,2.48
1.43354,1.45465,0.944864,0.959559,-0.0258408,-0.000138513,-0.0170379,-0.00105015,161,258,3.74712e-07,161,-56.4409,314.441,2.484
1.43344,1.45465,0.944796,0.959557,-0.0259122,-0.000149924,-0.017085,-0.000872845,161,260,3.37105e-07,161,-56.4411,316.441,2.488
1.43334,1.45465,0.944727,0.959556,-0.0259837,-0.000157531,-0.0171321,-0.000639478,162,264,2.59507e-07,162,-56.4411,320.441,2.492
1.43323,1.45464,0.944659,0.959555,-0.0260553,-0.000191393,-0.0171793,-0.000512692,162,266,2.52779e-07,162,-56.4412,322.441,2.496
1.43313,1.45464,0.94459,0.959555,-0.026127,-0.000213968,-0.0172266,-0.000313004,163,269,1.72527e-07,163,-56.4412,325.441,2.5
1.43302,1.45464,0.944521,0.959555,-0.0261986,-0.000229018,-0.0172738,-0.000208669,164,272,1.23108e-07,164,-56.4412,328.441,2.504
1.43292,1.45464,0.944452,0.959555,-0.0262704,-0.000267843,-0.0173211,-0.000167904,164,273,1.1585e-07,164,-56.4412,329.441,2.508
1.43281,1.45464,0.944382,0.959554,-0.0263422,-0.000264935,-0.0173685,-0.000169518,165,274,1.15694e-07,165,-56.4413,330.441,2.512
1.43271,1.45464,0.944313,0.959554,-0.0264141,-0.000234205,-0.0174159,-0.000141803,165,276,8.55536e-08,165,-56.4413,332.441,2.516
1.4326,1.45464,0.944243,0.959552,-0.026486,-0.0002713,-0.0174633,-0.000209699,166,276,1.46556e-07,166,-56.4414,332.441,2.52
1.4325,1.45464,0.944173,0.959552,-0.026558,-0.00026724,-0.0175108,-0.000197381,167,278,1.35883e-07,167,-56.4415,334.441,2.524
1.43239,1.45463,0.944103,0.95955,-0.0266301,-0.000293323,-0.0175583,-0.000246751,167,278,1.86451e-07,167,-56.4416,334.442,2.528
1.43228,1.45463,0.944033,0.959549,-0.0267022,-0.000253131,-0.0176058,-0.000279664,168,279,1.82365e-07,168,-56.4417,335.442,2.532
1.43218,1.45463,0.943962,0.959548,-0.0267743,-0.000197545,-0.0176534,-0.000272816,169,281,1.38834e-07,169,-56.4418,337.442,2.536
1.43207,1.45463,0.943891,0.959547,-0.0268466,-0.000189278,-0.017701,-0.000297041,169,282,1.44836e-07,169,-56.4419,338.442,2.54
1.43196,1.45463,0.94382,0.959545,-0.0269188,-0.000183767,-0.0177487,-0.000370773,170,282,1.75524e-07,170,-56.4421,338.442,2.544
1.43185,1.45463,0.943749,0.959543,-0.0269912,-0.000180093,-0.0177964,-0.000391136,171,283,1.81463e-07,171,-56.4422,339.442,2.548
1.43175,1.45463,0.943678,0.959542,-0.0270636,-0.000206435,-0.0178441,-0.00034713,171,285,1.84603e-07,171,-56.4423,341.442,2.552
1.43164,1.45463,0.943607,0.95954,-0.027136,-0.000223996,-0.0178919,-0.000346584,172,286,1.99991e-07,172,-56.4424,342.442,2.556
1.43153,1.45463,0.943535,0.959539,-0.0272086,-0.000264494,-0.0179397,-0.00034622,172,287,2.35902e-07,172,-56.4425,343.443,2.56
1.43142,1.45463,0.943463,0.959538,-0.0272811,-0.000320284,-0.0179876,-0.000345977,173,289,2.8546e-07,173,-56.4426,345.443,2.564
1.43131,1.45462,0.943391,0.959536,-0.0273538,-0.000386268,-0.0180354,-0.000403397,173,289,4.01407e-07,173,-56.4428,345.443,2.568
1.4312,1.45462,0.943319,0.959534,-0.0274265,-0.000430258,-0.0180834,-0.000355304,174,291,3.93816e-07,174,-56.4429,347.443,2.572
1.43109,1.45462,0.943246,0.959532,-0.0274992,-0.000488375,-0.0181313,-0.000438406,174,291,5.51562e-07,174,-56.4431,347.443,2.576
1.43098,1.45462,0.943174,0.959531,-0.027572,-0.00052712,-0.0181793,-0.000407434,175,293,5.53264e-07,175,-56.4432,349.443,2.58
1.43087,1.45461,0.943101,0.959529,-0.0276449,-0.000581741,-0.0182274,-0.000444368,175,294,6.65945e-07,175,-56.4433,350.443,2.584
1.43076,1.45461,0.943028,0.959526,-0.0277178,-0.000646945,-0.0182755,-0.000526573,175,294,8.77593e-07,175,-56.4436,350.444,2.588
1.43065,1.45461,0.942955,0.959524,-0.0277908,-0.000805579,-0.0183236,-0.000495003,176,296,1.02727e-06,176,-56.4437,352.444,2.592
1.43054,1.4546,0.942881,0.959522,-0.0278638,-0.000824962,-0.0183717,-0.000531539,176,297,1.12963e-06,176,-56.4439,353.444,2.596
1.43043,1.4546,0.942808,0.959519,-0.0279369,-0.000924257,-0.0184199,-0.000584686,176,297,1.39215e-06,176,-56.4441,353.444,2.6
1.43031,1.4546,0.942734,0.959516,-0.02801,-0.00090408,-0.0184681,-0.000620118,177,298,1.44428e-06,177,-56.4443,354.444,2.604
1.4302,1.45459,0.94266,0.959514,-0.0280832,-0.000890629,-0.0185164,-0.000614949,178,300,1.41093e-06,178,-56.4445,356.445,2.608
1.43009,1.45459,0.942586,0.959512,-0.0281565,-0.000852871,-0.0185647,-0.000582711,179,301,1.28029e-06,179,-56.4447,357.445,2.612
1.42998,1.45459,0.942511,0.95951,-0.0282298,-0.000770117,-0.018613,-0.00056122,180,303,1.11343e-06,180,-56.4449,359.445,2.616
1.42986,1.45459,0.942437,0.959508,-0.0283032,-0.000657366,-0.0186614,-0.000546892,181,304,9.26151e-07,181,-56.445,360.445,2.62
1.42975,1.45458,0.942362,0.959506,-0.0283766,-0.000524617,-0.0187098,-0.000479758,182,306,6.48393e-07,182,-56.4451,362.445,2.624
1.42964,1.45458,0.942287,0.959505,-0.02845,-0.000378536,-0.0187583,-0.000435003,183,308,4.24201e-07,183,-56.4453,364.445,2.628
1.42952,1.45458,0.942212,0.959504,-0.0285236,-0.000281148,-0.0188068,-0.000347584,184,310,2.51749e-07,184,-56.4453,366.445,2.632
1.42941,1.45458,0.942137,0.959503,-0.0285972,-0.000187432,-0.0188553,-0.000346886,185,311,1.67496e-07,185,-56.4454,367.445,2.636
1.42929,1.45458,0.942061,0.9595,-0.0286708,-0.000124955,-0.0189038,-0.000432794,186,311,1.39318e-07,186,-56.4456,367.446,2.64
1.42918,1.45458,0.941986,0.959499,-0.0287445,-0.000112094,-0.0189524,-0.000432484,186,313,1.2489e-07,186,-56.4458,369.446,2.644
1.42906,1.45458,0.94191,0.959495,-0.0288183,-0.00010352,-0.019001,-0.000576232,187,313,1.53674e-07,187,-56.446,369.446,2.648
1.42895,1.45458,0.941834,0.959492,-0.0288921,-9.78044e-05,-0.0190497,-0.000672064,188,313,1.69335e-07,188,-56.4463,369.446,2.652
1.42883,1.45458,0.941757,0.959487,-0.0289659,-0.000122785,-0.0190984,-0.000822325,188,313,2.60116e-07,188,-56.4467,369.447,2.656
1.42872,1.45458,0.941681,0.959483,-0.0290398,-0.000110647,-0.0191471,-0.000922498,189,313,2.62959e-07,189,-56.447,369.447,2.66
1.4286,1.45458,0.941604,0.959476,-0.0291138,-0.000131347,-0.0191959,-0.00116203,190,312,3.93204e-07,190,-56.4476,368.448,2.664
1.42848,1.45458,0.941527,0.959468,-0.0291878,-0.000173937,-0.0192447,-0.00143688,190,311,6.43868e-07,190,-56.4482,367.448,2.668
1.42837,1.45458,0.94145,0.95946,-0.0292619,-0.000202331,-0.0192936,-0.0016489,191,310,8.59497e-07,191,-56.4489,366.449,2.672
1.42825,1.45458,0.941373,0.959452,-0.029336,-0.00022126,-0.0193424,-0.00173267,191,310,9.87662e-07,191,-56.4495,366.449,2.676
1.42813,1.45458,0.941295,0.959445,-0.0294102,-0.00023388,-0.0193913,-0.00175972,192,311,1.0603e-06,192,-56.4501,367.45,2.68
1.42801,1.45458,0.941218,0.959439,-0.0294844,-0.000242292,-0.0194403,-0.00166259,193,313,1.03782e-06,193,-56.4505,369.451,2.684
1.4279,1.45457,0.94114,0.959436,-0.0295587,-0.00021911,-0.0194893,-0.00136751,193,317,7.7195e-07,193,-56.4508,373.451,2.688
1.42778,1.45457,0.941062,0.959435,-0.0296331,-0.000174864,-0.0195383,-0.00102684,194,322,4.62593e-07,194,-56.4509,378.451,2.692
1.42766,1.45457,0.940984,0.959434,-0.0297075,-0.000145367,-0.0195873,-0.000742141,195,326,2.77939e-07,195,-56.451,382.451,2.696
1.42754,1.45457,0.940905,0.959434,-0.0297819,-0.000125702,-0.0196364,-0.000494761,196,330,1.60227e-07,196,-56.451,386.451,2.7
1.42742,1.45457,0.940826,0.959434,-0.0298564,-8.38016e-05,-0.0196855,-0.000358632,196,332,7.74278e-08,196,-56.451,388.451,2.704
1.4273,1.45457,0.940748,0.959433,-0.0299309,-8.46586e-05,-0.0197347,-0.00032546,197,334,7.09849e-08,197,-56.4511,390.451,2.708
1.42718,1.45457,0.940669,0.959432,-0.0300055,-8.523e-05,-0.0197839,-0.000245765,198,336,5.39645e-08,198,-56.4511,392.451,2.712
1.42706,1.45457,0.940589,0.959431,-0.0300802,-8.56109e-05,-0.0198331,-0.000279007,199,337,6.15376e-08,199,-56.4512,393.451,2.716
1.42694,1.45457,0.94051,0.959429,-0.0301549,-8.58649e-05,-0.0198824,-0.000329959,199,338,7.29916e-08,199,-56.4513,394.451,2.72
1.42682,1.45457,0.94043,0.959426,-0.0302297,-8.60342e-05,-0.0199316,-0.0004503,200,338,9.98094e-08,200,-56.4516,394.452,2.724
1.4267,1.45457,0.94035,0.959424,-0.0303045,-8.6147e-05,-0.019981,-0.000472946,201,339,1.04966e-07,201,-56.4517,395.452,2.728
1.42658,1.45457,0.94027,0.959422,-0.0303793,-8.62223e-05,-0.0200303,-0.000545624,201,340,1.21203e-07,201,-56.452,396.452,2.732
1.42646,1.45457,0.94019,0.959419,-0.0304542,-8.62725e-05,-0.0200797,-0.000536495,202,341,1.19245e-07,202,-56.4521,397.452,2.736
1.42633,1.45457,0.94011,0.959418,-0.0305292,-8.63059e-05,-0.0201291,-0.000501618,203,343,1.11536e-07,203,-56.4523,399.452,2.74
1.42621,1.45457,0.940029,0.959416,-0.0306042,-8.63282e-05,-0.0201786,-0.000478367,203,345,1.06394e-07,203,-56.4524,401.452,2.744
1.42609,1.45457,0.939948,0.959416,-0.0306793,-8.6343e-05,-0.0202281,-0.000347702,204,347,7.73457e-08,204,-56.4524,403.452,2.748
1.42597,1.45457,0.939867,0.959415,-0.0307544,-8.6353e-05,-0.0202776,-0.000289383,205,349,6.43802e-08,205,-56.4525,405.452,2.752
1.42584,1.45457,0.939786,0.959414,-0.0308295,-8.63596e-05,-0.0203272,-0.000250504,205,351,5.57349e-08,205,-56.4525,407.453,2.756
1.42572,1.45457,0.939705,0.959413,-0.0309048,-8.6364e-05,-0.0203768,-0.000282166,206,352,6.27828e-08,206,-56.4527,408.453,2.76
1.4256,1.45457,0.939623,0.959413,-0.03098,-8.63669e-05,-0.0204264,-0.000216902,207,354,4.82629e-08,207,-56.4527,410.453,2.764
1.42547,1.45457,0.939541,0.959412,-0.0310553,-8.63689e-05,-0.020476,-0.000230974,208,355,5.13953e-08,208,-56.4528,411.453,2.768
1.42535,1.45457,0.939459,0.95941,-0.0311307,-0.000115161,-0.0205257,-0.000269146,208,356,7.98542e-08,208,-56.4529,412.453,2.772
1.42522,1.45457,0.939377,0.959409,-0.0312061,-0.000134356,-0.0205755,-0.000265804,209,357,9.20071e-08,209,-56.453,413.453,2.776
1.4251,1.45457,0.939295,0.959408,-0.0312816,-0.000118362,-0.0206252,-0.000292366,210,359,8.91542e-08,210,-56.4531,415.453,2.78
1.42497,1.45457,0.939212,0.959406,-0.0313571,-0.00013649,-0.020675,-0.000310074,210,360,1.09036e-07,210,-56.4532,416.453,2.784
1.42485,1.45457,0.939129,0.959405,-0.0314326,-0.000119784,-0.0207248,-0.000293089,211,361,9.04489e-08,211,-56.4533,417.453,2.788
1.42472,1.45456,0.939046,0.959405,-0.0315082,-0.000137438,-0.0207747,-0.000252975,212,363,8.95753e-08,212,-56.4533,419.453,2.792
1.42459,1.45456,0.938963,0.959404,-0.0315839,-0.000149207,-0.0208246,-0.000197441,212,365,7.58981e-08,212,-56.4534,421.453,2.796
1.42447,1.45456,0.93888,0.959404,-0.0316596,-0.000185844,-0.0208745,-0.000189209,213,366,9.05933e-08,213,-56.4534,422.453,2.8
1.42434,1.45456,0.938796,0.959403,-0.0317354,-0.000181478,-0.0209244,-0.000183721,214,368,8.58991e-08,214,-56.4535,424.453,2.804
1.42421,1.45456,0.938712,0.959402,-0.0318112,-0.000207358,-0.0209744,-0.000208854,214,369,1.11575e-07,214,-56.4535,425.454,2.808
1.42409,1.45456,0.938628,0.9594,-0.031887,-0.000224611,-0.0210244,-0.000254399,215,370,1.47216e-07,215,-56.4537,426.454,2.812
1.42396,1.45456,0.938544,0.959399,-0.0319629,-0.000264905,-0.0210745,-0.000255972,215,371,1.74699e-07,215,-56.4537,427.454,2.816
1.42383,1.45456,0.93846,0.959398,-0.0320389,-0.000262976,-0.0211245,-0.000314603,216,372,2.1315e-07,216,-56.4539,428.454,2.82
1.4237,1.45456,0.938375,0.959396,-0.0321149,-0.000290481,-0.0211746,-0.00035369,217,373,2.64696e-07,217,-56.454,429.454,2.824
1.42357,1.45456,0.93829,0.959393,-0.0321909,-0.000280027,-0.0212248,-0.000466121,218,374,3.36284e-07,218,-56.4542,430.454,2.828
1.42344,1.45455,0.938205,0.95939,-0.032267,-0.000301848,-0.0212749,-0.000569865,218,374,4.4317e-07,218,-56.4545,430.454,2.832
1.42332,1.45455,0.93812,0.959386,-0.0323431,-0.000345187,-0.0213251,-0.000725401,219,374,6.45124e-07,219,-56.4548,430.455,2.836
1.42319,1.45455,0.938035,0.959381,-0.0324193,-0.000316497,-0.0213754,-0.000915465,220,373,7.46491e-07,220,-56.4552,429.455,2.84
1.42306,1.45455,0.937949,0.959374,-0.0324956,-0.000326162,-0.0214256,-0.00115734,220,372,9.72541e-07,220,-56.4558,428.456,2.844
1.42293,1.45455,0.937863,0.959367,-0.0325718,-0.000275023,-0.0214759,-0.00140496,221,371,9.9552e-07,221,-56.4564,427.456,2.848
1.4228,1.45455,0.937777,0.959358,-0.0326482,-0.000240931,-0.0215263,-0.00162762,222,371,1.01033e-06,222,-56.4571,427.457,2.852
1.42266,1.45455,0.937691,0.95935,-0.0327245,-0.000189411,-0.0215766,-0.00180485,223,370,8.80786e-07,223,-56.4577,426.458,2.856
1.42253,1.45455,0.937605,0.959341,-0.0328009,-0.000183856,-0.021627,-0.00189422,224,371,8.9729e-07,224,-56.4584,427.458,2.86
1.4224,1.45455,0.937518,0.959334,-0.0328774,-0.000151362,-0.0216774,-0.00186742,225,372,7.28258e-07,225,-56.459,428.459,2.864
1.42227,1.45455,0.937431,0.959328,-0.0329539,-0.000129699,-0.0217279,-0.00179198,225,374,5.98821e-07,225,-56.4595,430.46,2.868
1.42214,1.45455,0.937344,0.959321,-0.0330305,-0.000144048,-0.0217783,-0.00171289,226,376,6.3572e-07,226,-56.46,432.46,2.872
1.42201,1.45455,0.937257,0.959316,-0.0331071,-0.000153614,-0.0218288,-0.00157379,227,379,6.22887e-07,227,-56.4604,435.46,2.876
1.42187,1.45454,0.93717,0.959312,-0.0331837,-0.000217573,-0.0218794,-0.00139468,227,382,7.81834e-07,227,-56.4608,438.461,2.88
1.42174,1.45454,0.937082,0.959309,-0.0332604,-0.00020263,-0.0219299,-0.00118891,228,386,6.20709e-07,228,-56.461,442.461,2.884
1.42161,1.45454,0.936994,0.959306,-0.0333372,-0.000250251,-0.0219805,-0.00105172,229,388,6.7813e-07,229,-56.4613,444.461,2.888
1.42147,1.45454,0.936906,0.959303,-0.0334139,-0.000281997,-0.0220312,-0.000902685,229,391,6.55871e-07,229,-56.4615,447.461,2.892
1.42134,1.45454,0.936818,0.959301,-0.0334908,-0.000389535,-0.0220818,-0.000832118,230,393,8.35158e-07,230,-56.4617,449.462,2.896
1.42121,1.45454,0.93673,0.959297,-0.0335676,-0.000403644,-0.0221325,-0.000871445,230,394,9.06313e-07,230,-56.462,450.462,2.9
1.42107,1.45453,0.936641,0.959292,-0.0336446,-0.000470633,-0.0221832,-0.000984036,231,395,1.19326e-06,231,-56.4624,451.462,2.904
1.42094,1.45453,0.936552,0.959286,-0.0337215,-0.000544083,-0.022234,-0.00114547,231,395,1.6058e-06,231,-56.4629,451.463,2.908
1.4208,1.45453,0.936463,0.95928,-0.0337985,-0.00062184,-0.0222847,-0.00128188,232,395,2.05386e-06,232,-56.4634,451.463,2.912
1.42067,1.45452,0.936374,0.959272,-0.0338756,-0.00073126,-0.0223356,-0.00148799,232,394,2.80362e-06,232,-56.464,450.464,2.916
1.42053,1.45452,0.936284,0.959263,-0.0339527,-0.000804207,-0.0223864,-0.00176935,233,393,3.66632e-06,233,-56.4647,449.465,2.92
1.4204,1.45452,0.936195,0.959251,-0.0340298,-0.000852838,-0.0224372,-0.00215846,233,390,4.74311e-06,233,-56.4657,446.466,2.924
1.42026,1.45451,0.936105,0.959236,-0.034107,-0.000942841,-0.0224881,-0.00267698,234,387,6.50342e-06,234,-56.4669,443.467,2.928
1.42012,1.45451,0.936015,0.959216,-0.0341842,-0.00108922,-0.0225391,-0.00345453,234,380,9.69543e-06,234,-56.4685,436.468,2.932
1.41999,1.4545,0.935925,0.95919,-0.0342615,-0.00130196,-0.02259,-0.00446234,234,372,1.49704e-05,234,-56.4706,428.471,2.936
1.41985,1.45449,0.935834,0.959159,-0.0343388,-0.00164533,-0.022641,-0.00556608,234,363,2.35985e-05,234,-56.4731,419.473,2.94
1.41971,1.45448,0.935743,0.959121,-0.0344162,-0.00198941,-0.022692,-0.00687772,233,351,3.52583e-05,233,-56.4761,407.476,2.944
1.41957,1.45447,0.935653,0.959076,-0.0344936,-0.00233395,-0.022743,-0.00838555,233,338,5.0435e-05,233,-56.4798,394.48,2.948
1.41943,1.45445,0.935561,0.959022,-0.034571,-0.00270761,-0.0227941,-0.010053,233,322,7.01463e-05,233,-56.4841,378.484,2.952
1.4193,1.45444,0.93547,0.95896,-0.0346485,-0.00312945,-0.0228452,-0.0118555,232,306,9.5617e-05,232,-56.4891,362.489,2.956
1.41916,1.45442,0.935379,0.95889,-0.034726,-0.00343948,-0.0228963,-0.013777,232,288,0.000122128,232,-56.4948,344.495,2.96
1.41902,1.4544,0.935287,0.95881,-0.0348036,-0.00376132,-0.0229474,-0.0158066,231,269,0.00015324,231,-56.5012,325.501,2.964
1.41888,1.45438,0.935195,0.958722,-0.0348812,-0.00414863,-0.0229986,-0.017937,231,249,0.000191811,231,-56.5083,305.508,2.968
1.41874,1.45436,0.935103,0.958626,-0.0349589,-0.00455079,-0.0230498,-0.0199619,230,231,0.000234174,230,-56.5161,287.516,2.972
1.4186,1.45434,0.935011,0.958523,-0.0350366,-0.00502043,-0.023101,-0.0218588,230,213,0.000282911,230,-56.5243,269.524,2.976
1.41846,1.45431,0.934918,0.958411,-0.0351143,-0.00547748,-0.0231523,-0.023872,229,194,0.000337122,229,-56.5333,250.533,2.98
1.41832,1.45429,0.934826,0.958295,-0.0351921,-0.00595493,-0.0232036,-0.0256172,228,177,0.000393335,228,-56.5427,233.543,2.984
1.41818,1.45426,0.934733,0.958176,-0.0352699,-0.00650355,-0.0232549,-0.027011,227,164,0.000452984,227,-56.5523,220.552,2.988
1.41804,1.45422,0.934639,0.958048,-0.0353478,-0.0072148,-0.0233062,-0.0286888,225,148,0.000533786,224.999,-56.5626,204.563,2.992
1.41789,1.45418,0.934546,0.957919,-0.0354257,-0.00791928,-0.0233576,-0.0298361,224,137,0.000609395,223.999,-56.573,193.573,2.996
1.41775,1.45414,0.934453,0.95779,-0.0355036,-0.00870564,-0.023409,-0.0306009,222,130,0.000687143,221.999,-56.5833,186.583,3
1.41761,1.4541,0.934359,0.957659,-0.0355816,-0.00960416,-0.0234604,-0.03137,220,122,0.000777188,219.999,-56.594,178.594,3.004
1.41747,1.45405,0.934265,0.957527,-0.0356597,-0.0104623,-0.0235119,-0.0318827,218,118,0.000860547,217.999,-56.6046,174.605,3.008
1.41733,1.45399,0.934171,0.957393,-0.0357377,-0.0114662,-0.0235633,-0.032426,215,112,0.000959289,214.999,-56.6154,168.615,3.012
1.41718,1.45393,0.934076,0.957258,-0.0358159,-0.012625,-0.0236148,-0.0328746,212,108,0.00107095,211.999,-56.6263,164.626,3.016
1.41704,1.45387,0.933982,0.957123,-0.035894,-0.0139157,-0.0236664,-0.0331736,208,105,0.00119129,207.999,-56.6372,161.637,3.02
1.4169,1.4538,0.933887,0.956985,-0.0359722,-0.0152945,-0.0237179,-0.0336321,204,101,0.00132755,203.999,-56.6483,157.648,3.024
1.41675,1.45372,0.933792,0.956847,-0.0360504,-0.0166743,-0.0237695,-0.0338802,201,99,0.00145813,200.999,-56.6594,155.659,3.028
1.41661,1.45364,0.933697,0.956708,-0.0361287,-0.018026,-0.0238211,-0.0342183,197,95,0.00159223,196.998,-56.6707,151.671,3.032
1.41646,1.45355,0.933602,0.956564,-0.036207,-0.0194742,-0.0238728,-0.034818,193,90,0.00175048,192.998,-56.6824,146.682,3.036
1.41632,1.45345,0.933506,0.956422,-0.0362854,-0.021073,-0.0239244,-0.0349875,188,88,0.0019036,187.998,-56.6938,144.694,3.04
1.41617,1.45335,0.93341,0.956278,-0.0363638,-0.0226284,-0.0239761,-0.0353308,183,85,0.00206437,182.998,-56.7055,141.705,3.044
1.41603,1.45324,0.933314,0.956132,-0.0364422,-0.0243275,-0.0240278,-0.0357324,178,81,0.00224484,177.998,-56.7173,137.717,3.048
1.41588,1.45312,0.933218,0.955984,-0.0365207,-0.0262088,-0.0240796,-0.0361441,172,77,0.00244656,171.998,-56.7293,133.729,3.052
1.41573,1.45299,0.933121,0.955835,-0.0365992,-0.0278948,-0.0241313,-0.0365626,167,73,0.00263438,166.997,-56.7415,129.741,3.056
1.41559,1.45286,0.933025,0.955686,-0.0366777,-0.0294795,-0.0241831,-0.0367264,162,71,0.0027968,161.997,-56.7535,127.753,3.06
1.41544,1.45272,0.932928,0.955534,-0.0367563,-0.0313133,-0.0242349,-0.0371522,157,67,0.00300555,156.997,-56.7658,123.766,3.064
1.41529,1.45258,0.932831,0.955384,-0.0368349,-0.0329102,-0.0242868,-0.0372922,152,65,0.00317106,151.997,-56.778,121.778,3.068
1.41515,1.45242,0.932734,0.95523,-0.0369136,-0.0346369,-0.0243386,-0.037731,147,61,0.00337708,146.997,-56.7906,117.791,3.072
1.415,1.45227,0.932636,0.955076,-0.0369923,-0.0362487,-0.0243905,-0.037966,142,59,0.00355662,141.996,-56.8031,115.803,3.076
1.41485,1.4521,0.932539,0.954924,-0.037071,-0.0378127,-0.0244424,-0.0380074,137,58,0.00371453,136.996,-56.8155,114.815,3.08
1.4147,1.45193,0.932441,0.954771,-0.0371498,-0.0393448,-0.0244944,-0.0380351,132,58,0.00386826,131.996,-56.8279,114.828,3.084
1.41455,1.45175,0.932343,0.954619,-0.0372286,-0.0409708,-0.0245464,-0.0380247,127,58,0.00402746,126.996,-56.8402,114.84,3.088
1.4144,1.45157,0.932244,0.954464,-0.0373075,-0.0426595,-0.0245983,-0.038277,121,55,0.00422173,120.996,-56.8529,111.853,3.092
1.41425,1.45138,0.932146,0.954314,-0.0373864,-0.0441019,-0.0246504,-0.0379844,117,58,0.00433158,116.996,-56.865,114.865,3.096
1.4141,1.45119,0.932047,0.954161,-0.0374653,-0.0457257,-0.0247024,-0.0381061,112,57,0.00450594,111.995,-56.8775,113.878,3.1
1.41395,1.45099,0.931948,0.95401,-0.0375443,-0.0472977,-0.0247545,-0.0380145,107,57,0.00465014,106.995,-56.8899,113.89,3.104
1.4138,1.45078,0.931849,0.953859,-0.0376233,-0.0484321,-0.0248066,-0.0378671,103,59,0.0047437,102.995,-56.9021,115.902,3.108
1.41365,1.45057,0.93175,0.953708,-0.0377023,-0.049649,-0.0248587,-0.0378839,99,58,0.00486557,98.9951,-56.9144,114.914,3.112
1.4135,1.45036,0.93165,0.953562,-0.0377814,-0.0507194,-0.0249108,-0.0374345,96,63,0.00491201,95.9951,-56.9262,119.926,3.116
1.41335,1.45015,0.931551,0.953419,-0.0378605,-0.051433,-0.024963,-0.0368182,93,69,0.00489959,92.9951,-56.9377,125.938,3.12
1.4132,1.44994,0.931451,0.953279,-0.0379397,-0.0520526,-0.0250152,-0.0362058,91,75,0.00487662,90.9951,-56.9491,131.949,3.124
1.41305,1.44972,0.93135,0.95314,-0.0380189,-0.0524658,-0.0250674,-0.0357399,90,79,0.00485255,89.9951,-56.9603,135.96,3.128
1.4129,1.44951,0.93125,0.953003,-0.0380981,-0.0529715,-0.0251196,-0.0352854,88,84,0.00483749,87.9952,-56.9714,140.971,3.132
1.41274,1.4493,0.931149,0.952869,-0.0381774,-0.0531071,-0.0251719,-0.0346945,88,89,0.0047691,87.9952,-56.9821,145.982,3.136
1.41259,1.44909,0.931049,0.952736,-0.0382567,-0.0529384,-0.0252242,-0.0342142,89,94,0.00468857,88.9953,-56.9928,150.993,3.14
1.41244,1.44887,0.930948,0.952603,-0.038336,-0.0531714,-0.0252765,-0.0338364,88,98,0.00465763,87.9953,-57.0034,155.003,3.144
1.41228,1.44866,0.930846,0.952472,-0.0384154,-0.0529237,-0.0253288,-0.0335269,89,101,0.00459395,88.9954,-57.0139,158.014,3.148
1.41213,1.44845,0.930745,0.952339,-0.0384948,-0.0529025,-0.0253812,-0.0334358,89,102,0.00458006,88.9954,-57.0246,159.025,3.152
1.41198,1.44824,0.930643,0.952207,-0.0385742,-0.0526005,-0.0254335,-0.0332311,90,104,0.00452644,89.9955,-57.0351,161.035,3.156
1.41182,1.44803,0.930542,0.952078,-0.0386537,-0.0523703,-0.025486,-0.0329506,91,107,0.004469,90.9955,-57.0454,164.045,3.16
1.41167,1.44783,0.930439,0.951947,-0.0387332,-0.0519578,-0.0255384,-0.0328789,92,108,0.00442454,91.9956,-57.0558,165.056,3.164
1.41151,1.44763,0.930337,0.951815,-0.0388128,-0.0515676,-0.0255908,-0.0328886,94,108,0.00439301,93.9956,-57.0663,165.066,3.168
1.41136,1.44742,0.930235,0.951682,-0.0388923,-0.0511923,-0.0256433,-0.0330102,95,107,0.00437757,94.9956,-57.0769,164.077,3.172
1.4112,1.44723,0.930132,0.951551,-0.038972,-0.0504526,-0.0256958,-0.0329762,98,107,0.00431026,97.9957,-57.0874,164.087,3.176
1.41104,1.44703,0.930029,0.95142,-0.0390516,-0.0498156,-0.0257483,-0.0328383,100,109,0.00423842,99.9958,-57.0977,166.098,3.18
1.41089,1.44684,0.929926,0.951286,-0.0391313,-0.0491318,-0.0258009,-0.0330631,103,107,0.00420925,102.996,-57.1084,164.108,3.184
1.41073,1.44665,0.929823,0.951155,-0.039211,-0.0485895,-0.0258534,-0.0329826,104,108,0.00415303,103.996,-57.1188,165.119,3.188
1.41057,1.44647,0.929719,0.951021,-0.0392908,-0.0477962,-0.025906,-0.0331593,107,106,0.00410749,106.996,-57.1295,163.129,3.192
1.41042,1.44628,0.929616,0.950884,-0.0393706,-0.0472385,-0.0259586,-0.0335074,109,103,0.00410256,108.996,-57.1403,160.14,3.196
1.41026,1.4461,0.929512,0.950749,-0.0394504,-0.0467803,-0.0260112,-0.0335667,111,103,0.00407034,110.996,-57.1511,160.151,3.2
1.4101,1.44592,0.929407,0.950613,-0.0395302,-0.0465036,-0.0260639,-0.0337214,112,101,0.0040653,111.996,-57.1619,158.162,3.204
1.40994,1.44574,0.929303,0.950478,-0.0396101,-0.0460889,-0.0261166,-0.0337094,114,102,0.00402798,113.996,-57.1727,159.173,3.208
1.40978,1.44555,0.929199,0.950342,-0.03969,-0.0460139,-0.0261693,-0.0338454,114,101,0.00403802,113.996,-57.1836,158.184,3.212
1.40963,1.44537,0.929094,0.950204,-0.03977,-0.0459927,-0.026222,-0.0340799,115,98,0.00406452,114.996,-57.1946,155.195,3.216
1.40947,1.44518,0.928989,0.950069,-0.03985,-0.0462377,-0.0262747,-0.0339772,114,100,0.00407423,113.996,-57.2055,157.205,3.22
1.40931,1.44499,0.928884,0.94993,-0.03993,-0.0464586,-0.0263275,-0.0341966,113,98,0.00412052,112.996,-57.2166,155.217,3.224
1.40915,1.4448,0.928778,0.949793,-0.0400101,-0.0467498,-0.0263803,-0.034199,113,98,0.00414702,112.996,-57.2276,155.228,3.228
1.40899,1.44461,0.928672,0.949656,-0.0400902,-0.0473183,-0.0264331,-0.0342581,111,97,0.0042051,110.996,-57.2386,154.239,3.232
1.40883,1.44442,0.928567,0.949515,-0.0401703,-0.0477548,-0.0264859,-0.0345566,110,95,0.00428129,109.996,-57.2499,152.25,3.236
1.40867,1.44422,0.928461,0.949377,-0.0402504,-0.0483913,-0.0265388,-0.0345829,108,94,0.00434206,107.996,-57.2611,151.261,3.24
1.4085,1.44402,0.928354,0.949239,-0.0403306,-0.048902,-0.0265916,-0.0345429,106,95,0.00438321,105.996,-57.2722,152.272,3.244
1.40834,1.44381,0.928248,0.949101,-0.0404109,-0.0497607,-0.0266445,-0.0345162,103,95,0.00445715,102.996,-57.2833,152.283,3.248
