peachynonah/Fire_monitor_KIRO_CDSL/csv_datas/trial13/cdsl_data_t14_1_PD_d.csv
joint1_pos_desired, joint1_pos, joint2_pos_desired, joint2_pos, joint1_vel_desired, joint1_vel_filtered, joint2_vel_desired, joint2_vel_filtered, target_torque_joint1, target_torque_joint2, propo_term_torque_joint1, deriv_term_torque_joint1, propo_term_torque_joint2, deriv_term_torque_joint2, current_time
3.1,3.10066,0.922,0.920615,-2.32454e-08,0,-6.91362e-09,0,3,-8,3.62778,8.13587e-05,-8.30839,2.76545e-05,0.004
3.1,3.10066,0.922,0.920541,-9.29628e-08,2.87909e-05,-2.76489e-08,-0.00616126,3,-33,3.62968,0.101094,-8.752,-24.6449,0.008
3.1,3.10066,0.922,0.920488,-2.09124e-07,1.91939e-05,-6.21977e-08,-0.00854131,3,-43,3.62969,0.0679108,-9.07123,-34.165,0.012
3.1,3.10066,0.922,0.920442,-3.71702e-07,1.2796e-05,-1.10552e-07,-0.00955219,3,-47,3.62969,0.0460868,-9.349,-38.2083,0.016
3.1,3.10066,0.922,0.920402,-5.80669e-07,8.53064e-06,-1.72702e-07,-0.00965029,3,-48,3.6297,0.0318896,-9.58531,-38.6005,0.02
3.1,3.10066,0.922,0.920371,-8.35996e-07,5.6871e-06,-2.48641e-07,-0.00908229,3,-46,3.62972,0.0228308,-9.77602,-36.3282,0.024
3.1,3.10066,0.922,0.920347,-1.13766e-06,3.7914e-06,-3.38361e-07,-0.00804144,3,-42,3.62974,0.0172517,-9.91905,-32.1644,0.028
3.1,3.10066,0.922,0.920332,-1.48562e-06,2.5276e-06,-4.41852e-07,-0.00659897,3,-36,3.62977,0.0140463,-10.0082,-26.3941,0.032
3.1,3.10066,0.922,0.920325,-1.87986e-06,1.68507e-06,-5.59107e-07,-0.00500392,3,-30,3.62981,0.0124772,-10.0517,-20.0134,0.036
3.1,3.10066,0.922,0.920324,-2.32035e-06,1.12338e-06,-6.90118e-07,-0.00336474,3,-23,3.62985,0.0120531,-10.0538,-13.4562,0.04
3.1,3.10066,0.922,0.920326,-2.80706e-06,7.48918e-07,-8.34875e-07,-0.00212799,3,-18,3.62991,0.0124459,-10.0454,-8.50864,0.044
3.1,3.10066,0.922,0.920329,-3.33997e-06,4.99279e-07,-9.93372e-07,-0.00115954,3,-14,3.62998,0.0134374,-10.0268,-4.63421,0.048
3.1,3.10066,0.922,0.920334,-3.91904e-06,3.32852e-07,-1.1656e-06,-0.000341166,3,-11,3.63006,0.0148816,-9.99564,-1.36,0.052
3.1,3.10066,0.922,0.92034,-4.54425e-06,2.21902e-07,-1.35155e-06,0.000290793,3,-8,3.63015,0.0166815,-9.9583,1.16858,0.056
3.1,3.10066,0.922,0.920347,-5.21557e-06,1.47934e-07,-1.55121e-06,0.000740889,3,-6,3.63026,0.0187723,-9.91888,2.96976,0.06
3.1,3.10066,0.922,0.920353,-5.93297e-06,9.86229e-08,-1.76458e-06,0.000983372,3,-5,3.63038,0.0211106,-9.8836,3.94055,0.064
3.1,3.10066,0.922,0.920357,-6.69642e-06,6.57486e-08,-1.99165e-06,0.00102986,3,-5,3.63052,0.0236676,-9.85661,4.12742,0.068
3.1,3.10066,0.922,0.920361,-7.50591e-06,4.38324e-08,-2.2324e-06,0.00100328,3,-5,3.63067,0.0264241,-9.83375,4.02203,0.072
3.1,3.10066,0.922,0.920363,-8.36139e-06,2.92216e-08,-2.48684e-06,0.000870387,3,-6,3.63085,0.0293671,-9.81919,3.4915,0.076
3.1,3.10066,0.922,0.920365,-9.26284e-06,1.94811e-08,-2.75495e-06,0.000695422,3,-7,3.63104,0.0324881,-9.81083,2.79271,0.08
3.1,3.10066,0.922,0.920365,-1.02102e-05,1.29874e-08,-3.03672e-06,0.000463614,3,-7,3.63126,0.0357813,-9.81076,1.8666,0.084
3.1,3.10066,0.922,0.920364,-1.12035e-05,8.65826e-09,-3.33215e-06,0.000280285,3,-8,3.63149,0.0392427,-9.81276,1.13447,0.088
3.1,3.10066,0.922,0.920364,-1.22427e-05,5.77217e-09,-3.64123e-06,0.000186857,3,-9,3.63175,0.0428698,-9.81268,0.761993,0.092
3.1,3.10066,0.922,0.920364,-1.33278e-05,3.84811e-09,-3.96394e-06,0.000124571,3,-9,3.63203,0.0466608,-9.81258,0.514141,0.096
3.1,3.10066,0.922,0.920365,-1.44587e-05,2.56541e-09,-4.30029e-06,0.000140629,3,-9,3.63234,0.0506144,-9.80834,0.579719,0.1
3.1,3.10066,0.922,0.920365,-1.56354e-05,1.71027e-09,-4.65026e-06,9.37529e-05,3,-9,3.63267,0.0547298,-9.80823,0.393613,0.104
3.1,3.10066,0.922,0.920365,-1.68578e-05,1.14018e-09,-5.01385e-06,6.25019e-05,3,-9,3.63303,0.0590065,-9.80812,0.270063,0.108
3.1,3.10066,0.922,0.920365,-1.81261e-05,7.60121e-10,-5.39104e-06,1.2877e-05,3,-9,3.63341,0.0634439,-9.81006,0.0730723,0.112
3.1,3.10066,0.922,0.920365,-1.944e-05,-2.87904e-05,-5.78183e-06,8.58469e-06,3,-9,3.63192,-0.0327264,-9.80993,0.0574661,0.116
3.1,3.10066,0.922,0.920365,-2.07996e-05,-1.91936e-05,-6.18622e-06,5.72313e-06,3,-9,3.63237,0.00562109,-9.80979,0.0476374,0.12
3.1,3.10066,0.922,0.920365,-2.22049e-05,-1.27957e-05,-6.60418e-06,3.81542e-06,3,-9,3.63284,0.0329322,-9.80963,0.0416784,0.124
3.1,3.10066,0.922,0.920365,-2.36559e-05,-8.53049e-06,-7.03571e-06,2.54361e-06,3,-9,3.63334,0.0529388,-9.80947,0.0383173,0.128
3.1,3.10066,0.922,0.920365,-2.51524e-05,-5.687e-06,-7.48082e-06,1.69574e-06,3,-9,3.63388,0.068129,-9.80929,0.0367062,0.132
3.1,3.10066,0.922,0.920365,-2.66945e-05,-3.79133e-06,-7.93947e-06,1.13049e-06,3,-9,3.63445,0.0801613,-9.80911,0.0362799,0.136
3.1,3.10066,0.922,0.920365,-2.82822e-05,-2.52755e-06,-8.41168e-06,7.53663e-07,3,-9,3.63505,0.0901414,-9.80891,0.0366614,0.14
3.1,3.10066,0.922,0.920365,-2.99154e-05,-1.68504e-06,-8.89743e-06,5.02442e-07,3,-9,3.63569,0.0988064,-9.80871,0.0375995,0.144
3.1,3.10066,0.922,0.920365,-3.15941e-05,-1.12336e-06,-9.39671e-06,3.34961e-07,3,-9,3.63637,0.106648,-9.80849,0.0389267,0.148
3.1,3.10066,0.921999,0.920365,-3.33183e-05,-7.48905e-07,-9.90952e-06,2.23307e-07,3,-9,3.63709,0.113993,-9.80825,0.0405313,0.152
3.1,3.10066,0.921999,0.920365,-3.5088e-05,-4.9927e-07,-1.04358e-05,1.48872e-07,3,-9,3.63784,0.12106,-9.80801,0.0423388,0.156
3.1,3.10066,0.921999,0.920365,-3.6903e-05,-3.32847e-07,-1.09757e-05,9.92478e-08,3,-9,3.63863,0.127996,-9.80775,0.0442997,0.16
3.1,3.10066,0.921999,0.920365,-3.87634e-05,-2.90128e-05,-1.1529e-05,2.88571e-05,3,-9,3.63756,0.0341271,-9.80541,0.161544,0.164
3.1,3.10066,0.921999,0.920365,-4.06692e-05,9.44904e-06,-1.20958e-05,-9.55286e-06,3,-9,3.64034,0.175414,-9.8072,0.0101718,0.168
3.1,3.10066,0.921999,0.920365,-4.26203e-05,6.29936e-06,-1.26761e-05,-6.36858e-06,3,-9,3.64125,0.171219,-9.8069,0.0252301,0.172
3.1,3.10066,0.921999,0.920365,-4.46168e-05,4.19957e-06,-1.32699e-05,2.45452e-05,3,-9,3.64221,0.170857,-9.80452,0.15126,0.176
3.1,3.10066,0.921999,0.920365,-4.66585e-05,2.79972e-06,-1.38771e-05,-1.24275e-05,3,-9,3.64321,0.173104,-9.80627,0.00579872,0.18
3.1,3.10066,0.921999,0.920365,-4.87454e-05,1.86648e-06,-1.44978e-05,-8.28497e-06,3,-9,3.64426,0.177142,-9.80593,0.0248515,0.184
3.1,3.10066,0.921999,0.920365,-5.08776e-05,1.24432e-06,-1.5132e-05,-5.52331e-06,3,-9,3.64536,0.182427,-9.80557,0.0384347,0.188
3.1,3.10066,0.921999,0.920365,-5.3055e-05,8.29546e-07,-1.57796e-05,-3.68221e-06,3,-9,3.6465,0.188596,-9.8052,0.0483895,0.192
3.1,3.10066,0.921999,0.920365,-5.52775e-05,5.5303e-07,-1.64406e-05,-2.45481e-06,3,-9,3.64769,0.195407,-9.80481,0.0559432,0.196
3.1,3.10066,0.921999,0.920365,-5.75452e-05,3.68687e-07,-1.71151e-05,-1.63654e-06,3,-9,3.64894,0.202699,-9.80441,0.0619141,0.2
3.1,3.10066,0.921999,0.920365,-5.9858e-05,2.45791e-07,-1.78029e-05,-1.09102e-06,3,-9,3.65023,0.210363,-9.80399,0.0668476,0.204
3.1,3.10066,0.921999,0.920365,-6.22159e-05,1.63861e-07,-1.85042e-05,-7.2735e-07,3,-9,3.65157,0.218329,-9.80355,0.0711074,0.208
3.1,3.10066,0.921999,0.920365,-6.46188e-05,1.09241e-07,-1.92189e-05,2.8306e-05,3,-9,3.65296,0.226548,-9.80103,0.1901,0.212
3.1,3.10066,0.921999,0.920365,-6.70668e-05,7.28271e-08,-1.9947e-05,1.88707e-05,3,-9,3.65441,0.234989,-9.80056,0.155271,0.216
3.09999,3.10066,0.921998,0.920365,-6.95597e-05,4.85514e-08,-2.06884e-05,-1.62105e-05,3,-9,3.65592,0.243629,-9.80214,0.0179118,0.22
3.09999,3.10066,0.921998,0.920365,-7.20977e-05,3.23676e-08,-2.14432e-05,-1.0807e-05,3,-9,3.65747,0.252455,-9.80164,0.0425451,0.224
3.09999,3.10066,0.921998,0.920365,-7.46806e-05,2.15784e-08,-2.22114e-05,-7.20465e-06,3,-9,3.65909,0.261457,-9.80112,0.0600272,0.228
3.09999,3.10066,0.921998,0.920365,-7.73084e-05,5.75962e-05,-2.2993e-05,-4.8031e-06,4,-9,3.66456,0.472166,-9.80057,0.0727596,0.232
3.09999,3.10066,0.921998,0.920365,-7.99811e-05,-1.91844e-05,-2.37879e-05,-3.20207e-06,3,-9,3.66249,0.212788,-9.80001,0.0823434,0.236
3.09999,3.10066,0.921998,0.920365,-8.26986e-05,-1.27896e-05,-2.45962e-05,-2.13471e-06,3,-9,3.66428,0.244682,-9.79943,0.0898458,0.24
3.09999,3.10066,0.921998,0.920365,-8.5461e-05,-8.52638e-06,-2.54178e-05,-1.42314e-06,3,-9,3.66613,0.269271,-9.79883,0.0959785,0.244
3.09999,3.10066,0.921998,0.920365,-8.82682e-05,-5.68425e-06,-2.62527e-05,-9.48761e-07,3,-9,3.66804,0.289044,-9.79821,0.101216,0.248
3.09999,3.10066,0.921998,0.920365,-9.11202e-05,-3.7895e-06,-2.71009e-05,-6.32507e-07,3,-9,3.67001,0.305657,-9.79757,0.105874,0.252
3.09999,3.10066,0.921998,0.920365,-9.40169e-05,-2.52634e-06,-2.79625e-05,-4.21672e-07,3,-9,3.67205,0.320217,-9.79691,0.110163,0.256
3.09999,3.10066,0.921997,0.920365,-9.69584e-05,-1.68422e-06,-2.88373e-05,-2.81114e-07,4,-9,3.67415,0.33346,-9.79623,0.114225,0.26
3.09999,3.10066,0.921997,0.920365,-9.99446e-05,-1.12282e-06,-2.97254e-05,-1.8741e-07,4,-9,3.67632,0.345876,-9.79553,0.118152,0.264
3.09999,3.10066,0.921997,0.920365,-0.000102975,-7.48544e-07,-3.06269e-05,-1.2494e-07,4,-9,3.67855,0.357794,-9.7948,0.122008,0.268
3.09999,3.10066,0.921997,0.920365,-0.000106051,-4.99029e-07,-3.15416e-05,-8.32931e-08,4,-9,3.68085,0.369431,-9.79406,0.125833,0.272
3.09999,3.10066,0.921997,0.920365,-0.000109171,-3.32686e-07,-3.24696e-05,-5.55288e-08,4,-9,3.68322,0.380934,-9.79329,0.129656,0.276
3.09999,3.10066,0.921997,0.920365,-0.000112336,-2.21791e-07,-3.34108e-05,-3.70192e-08,4,-9,3.68565,0.392398,-9.7925,0.133495,0.28
3.09999,3.10066,0.921997,0.920365,-0.000115545,-1.47861e-07,-3.43653e-05,-2.46794e-08,4,-9,3.68816,0.40389,-9.79168,0.137362,0.284
3.09999,3.10066,0.921997,0.920365,-0.000118799,-9.85737e-08,-3.5333e-05,-1.6453e-08,4,-9,3.69074,0.41545,-9.79085,0.141266,0.288
3.09999,3.10066,0.921996,0.920365,-0.000122097,-6.57158e-08,-3.6314e-05,-1.09686e-08,4,-9,3.69339,0.427109,-9.78999,0.145212,0.292
3.09999,3.10066,0.921996,0.920365,-0.00012544,-4.38105e-08,-3.73082e-05,-7.31243e-09,4,-9,3.69611,0.438886,-9.7891,0.149204,0.296
3.09999,3.10066,0.921996,0.920365,-0.000128827,-2.9207e-08,-3.83156e-05,-4.87495e-09,4,-9,3.69891,0.450792,-9.7882,0.153243,0.3
3.09999,3.10066,0.921996,0.920365,-0.000132259,-1.94713e-08,-3.93362e-05,-3.24997e-09,4,-9,3.70178,0.462837,-9.78726,0.157332,0.304
3.09999,3.10066,0.921996,0.920365,-0.000135735,-1.29809e-08,-4.03701e-05,-2.16665e-09,4,-9,3.70473,0.475025,-9.78631,0.161472,0.308
3.09999,3.10066,0.921996,0.920365,-0.000139255,-8.65393e-09,-4.14171e-05,-1.44443e-09,4,-9,3.70775,0.487362,-9.78533,0.165663,0.312
3.09998,3.10066,0.921996,0.920365,-0.00014282,-5.76929e-09,-4.24773e-05,-9.62954e-10,4,-9,3.71085,0.499849,-9.78432,0.169905,0.316
3.09998,3.10066,0.921995,0.920365,-0.000146429,-3.84619e-09,-4.35507e-05,-6.41969e-10,4,-9,3.71403,0.512487,-9.78329,0.1742,0.32
3.09998,3.10066,0.921995,0.920365,-0.000150082,-2.56413e-09,-4.46373e-05,2.87905e-05,4,-9,3.7173,0.525278,-9.78016,0.293711,0.324
3.09998,3.10066,0.921995,0.920365,-0.00015378,-1.70942e-09,-4.5737e-05,-9.59726e-06,4,-9,3.72064,0.538223,-9.78115,0.144559,0.328
3.09998,3.10066,0.921995,0.920365,-0.000157521,-1.13961e-09,-4.68499e-05,2.23928e-05,4,-9,3.72406,0.551321,-9.77796,0.276971,0.332
3.09998,3.10066,0.921995,0.920365,-0.000161308,-7.59741e-10,-4.7976e-05,1.49285e-05,4,-9,3.72757,0.564574,-9.77682,0.251618,0.336
3.09998,3.10066,0.921994,0.920365,-0.000165138,-5.06494e-10,-4.91151e-05,-1.88386e-05,4,-9,3.73116,0.57798,-9.77773,0.121106,0.34
3.09998,3.10066,0.921994,0.920365,-0.000169012,-3.37663e-10,-5.02675e-05,-1.25591e-05,4,-9,3.73484,0.591541,-9.77654,0.150834,0.344
3.09998,3.10066,0.921994,0.920365,-0.000172931,-2.25109e-10,-5.14329e-05,-8.37271e-06,4,-9,3.7386,0.605256,-9.77532,0.172241,0.348
3.09998,3.10066,0.921994,0.920365,-0.000176893,-1.50072e-10,-5.26114e-05,-5.5818e-06,4,-9,3.74245,0.619125,-9.77407,0.188119,0.352
3.09998,3.10066,0.921994,0.920365,-0.0001809,-1.00048e-10,-5.38031e-05,-3.7212e-06,4,-9,3.74638,0.633149,-9.77279,0.200328,0.356
3.09998,3.10066,0.921993,0.920365,-0.00018495,-6.66988e-11,-5.50078e-05,-2.4808e-06,4,-9,3.75041,0.647326,-9.77149,0.210108,0.36
3.09998,3.10066,0.921993,0.920365,-0.000189045,-4.44659e-11,-5.62257e-05,-1.65387e-06,4,-9,3.75452,0.661658,-9.77015,0.218287,0.364
3.09998,3.10066,0.921993,0.920365,-0.000193184,-2.96439e-11,-5.74566e-05,-1.10258e-06,4,-9,3.75872,0.676143,-9.76879,0.225416,0.368
3.09998,3.10066,0.921993,0.920365,-0.000197366,-1.97626e-11,-5.87006e-05,2.80559e-05,4,-9,3.76302,0.690782,-9.76532,0.347026,0.372
3.09997,3.10066,0.921992,0.920365,-0.000201593,-1.31751e-11,-5.99576e-05,-1.0087e-05,4,-9,3.76741,0.705575,-9.76597,0.199483,0.376
3.09997,3.10066,0.921992,0.920365,-0.000205863,-8.78339e-12,-6.12278e-05,-6.72467e-06,4,-9,3.77189,0.720522,-9.76452,0.218012,0.38
3.09997,3.10066,0.921992,0.920365,-0.000210178,-5.85559e-12,-6.25109e-05,-4.48312e-06,4,-9,3.77647,0.735622,-9.76303,0.232111,0.384
3.09997,3.10066,0.921992,0.920365,-0.000214536,-3.90373e-12,-6.38071e-05,-2.98874e-06,4,-9,3.78114,0.750876,-9.76152,0.243274,0.388
3.09997,3.10066,0.921991,0.920365,-0.000218938,-2.60248e-12,-6.51164e-05,-1.9925e-06,4,-9,3.78591,0.766283,-9.75997,0.252495,0.392
3.09997,3.10066,0.921991,0.920365,-0.000223384,-1.73499e-12,-6.64386e-05,-1.32833e-06,4,-9,3.79077,0.781843,-9.75839,0.260441,0.396
3.09997,3.10066,0.921991,0.920365,-0.000227873,-1.15666e-12,-6.77739e-05,-8.85554e-07,4,-9,3.79574,0.797556,-9.75678,0.267553,0.4
3.09997,3.10066,0.921991,0.920365,-0.000232407,-7.71107e-13,-6.91222e-05,-5.90369e-07,4,-9,3.8008,0.813423,-9.75514,0.274127,0.404
3.09997,3.10066,0.92199,0.920365,-0.000236984,-5.14071e-13,-7.04835e-05,-3.93579e-07,4,-9,3.80596,0.829442,-9.75346,0.28036,0.408
3.09997,3.10066,0.92199,0.920365,-0.000241604,-3.42714e-13,-7.18578e-05,-2.62386e-07,4,-9,3.81123,0.845615,-9.75175,0.286382,0.412
3.09997,3.10066,0.92199,0.920365,-0.000246269,-2.28476e-13,-7.3245e-05,-1.74924e-07,4,-9,3.81659,0.86194,-9.75001,0.29228,0.416
3.09996,3.10066,0.921989,0.920365,-0.000250977,-1.52317e-13,-7.46453e-05,2.86743e-05,4,-9,3.82206,0.878418,-9.74616,0.413278,0.42
3.09996,3.10066,0.921989,0.920365,-0.000255728,-1.01545e-13,-7.60585e-05,-9.67472e-06,4,-9,3.82764,0.895048,-9.74643,0.265535,0.424
3.09996,3.10066,0.921989,0.920365,-0.000260523,-6.76966e-14,-7.74847e-05,-6.44981e-06,4,-9,3.83331,0.911831,-9.74459,0.284139,0.428
3.09996,3.10066,0.921989,0.920365,-0.000265362,-4.51311e-14,-7.89238e-05,-4.29988e-06,4,-9,3.8391,0.928767,-9.74271,0.298496,0.432
3.09996,3.10066,0.921988,0.920365,-0.000270244,-3.00874e-14,-8.03759e-05,-2.86658e-06,4,-9,3.84499,0.945855,-9.7408,0.310037,0.436
3.09996,3.10066,0.921988,0.920365,-0.00027517,-2.00583e-14,-8.18409e-05,-1.91106e-06,4,-9,3.85099,0.963095,-9.73885,0.319719,0.44
3.09996,3.10066,0.921988,0.920365,-0.000280139,-1.33722e-14,-8.33188e-05,-1.27404e-06,4,-9,3.8571,0.980487,-9.73687,0.328179,0.444
3.09996,3.10066,0.921987,0.920365,-0.000285152,-8.91478e-15,-8.48096e-05,-8.49358e-07,4,-9,3.86332,0.998031,-9.73485,0.335841,0.448
3.09996,3.10066,0.921987,0.920365,-0.000290208,-5.94319e-15,-8.63134e-05,-5.66239e-07,4,-9,3.86965,1.01573,-9.7328,0.342989,0.452
3.09995,3.10066,0.921987,0.920365,-0.000295307,-3.96212e-15,-8.783e-05,-3.77492e-07,4,-9,3.87609,1.03357,-9.73071,0.34981,0.456
3.09995,3.10066,0.921986,0.920365,-0.00030045,-2.64142e-15,-8.93596e-05,-2.51662e-07,4,-9,3.88264,1.05157,-9.72858,0.356432,0.46
3.09995,3.10066,0.921986,0.920365,-0.000305636,-1.76094e-15,-9.0902e-05,-1.67774e-07,4,-9,3.88931,1.06973,-9.72642,0.362937,0.464
3.09995,3.10066,0.921985,0.920365,-0.000310865,-1.17396e-15,-9.24574e-05,-1.1185e-07,4,-9,3.89609,1.08803,-9.72422,0.369382,0.468
3.09995,3.10066,0.921985,0.920365,-0.000316138,-7.82642e-16,-9.40256e-05,-7.45664e-08,5,-9,3.90298,1.10648,-9.72198,0.375804,0.472
3.09995,3.10066,0.921985,0.920365,-0.000321454,-5.21761e-16,-9.56066e-05,-4.97109e-08,5,-9,3.91,1.12509,-9.71971,0.382228,0.476
3.09995,3.10066,0.921984,0.920365,-0.000326813,-3.47841e-16,-9.72005e-05,-3.31406e-08,5,-9,3.91713,1.14385,-9.71739,0.388669,0.48
3.09995,3.10066,0.921984,0.920365,-0.000332215,-2.31894e-16,-9.88073e-05,-2.20938e-08,5,-9,3.92438,1.16275,-9.71504,0.395141,0.484
3.09994,3.10066,0.921984,0.920365,-0.000337661,-1.54596e-16,-0.000100427,-1.47292e-08,5,-9,3.93175,1.18181,-9.71265,0.401649,0.488
3.09994,3.10066,0.921983,0.920365,-0.000343149,-1.03064e-16,-0.000102059,-9.81945e-09,5,-9,3.93924,1.20102,-9.71022,0.408198,0.492
3.09994,3.10066,0.921983,0.920365,-0.000348681,-6.87093e-17,-0.000103705,-6.5463e-09,5,-9,3.94685,1.22038,-9.70775,0.414792,0.496
3.09994,3.10066,0.921982,0.920365,-0.000354256,-4.58062e-17,-0.000105363,-4.3642e-09,5,-9,3.95458,1.2399,-9.70524,0.421433,0.5
3.09994,3.10066,0.921982,0.920365,-0.000359874,-3.05375e-17,-0.000107033,-2.90947e-09,5,-9,3.96243,1.25956,-9.70269,0.428122,0.504
3.09994,3.10066,0.921981,0.920365,-0.000365535,-2.03583e-17,-0.000108717,-1.93964e-09,5,-9,3.97041,1.27937,-9.7001,0.434861,0.508
3.09994,3.10066,0.921981,0.920365,-0.000371239,-1.35722e-17,-0.000110414,-1.2931e-09,5,-9,3.97852,1.29934,-9.69747,0.441649,0.512
3.09993,3.10066,0.921981,0.920365,-0.000376986,-9.04814e-18,-0.000112123,-8.62064e-10,5,-9,3.98675,1.31945,-9.6948,0.448488,0.516
3.09993,3.10066,0.92198,0.920365,-0.000382775,-6.03209e-18,-0.000113845,-5.74709e-10,5,-9,3.9951,1.33971,-9.69209,0.455377,0.52
3.09993,3.10066,0.92198,0.920365,-0.000388608,-4.02139e-18,-0.00011558,2.87905e-05,5,-9,4.00359,1.36013,-9.68727,0.57748,0.524
3.09993,3.10066,0.921979,0.920365,-0.000394484,-2.68093e-18,-0.000117327,1.91937e-05,5,-9,4.0122,1.38069,-9.68447,0.546083,0.528
3.09993,3.10066,0.921979,0.920365,-0.000400402,-1.78729e-18,-0.000119087,1.27958e-05,5,-9,4.02095,1.40141,-9.68163,0.527533,0.532
3.09993,3.10066,0.921978,0.920365,-0.000406364,-1.19152e-18,-0.00012086,-2.02604e-05,5,-9,4.02982,1.42227,-9.68083,0.4024,0.536
3.09993,3.10066,0.921978,0.920365,-0.000412368,-7.94349e-19,-0.000122646,1.5284e-05,5,-9,4.03883,1.44329,-9.67583,0.551721,0.54
3.09992,3.10066,0.921977,0.920365,-0.000418415,-5.29566e-19,-0.000124445,-1.86016e-05,5,-9,4.04797,1.46445,-9.67494,0.423372,0.544
3.09992,3.10066,0.921977,0.920365,-0.000424504,-3.53044e-19,-0.000126256,-1.24011e-05,5,-9,4.05724,1.48577,-9.67193,0.455419,0.548
3.09992,3.10066,0.921976,0.920365,-0.000430637,-2.35363e-19,-0.00012808,-8.26738e-06,5,-9,4.06664,1.50723,-9.66888,0.479249,0.552
3.09992,3.10066,0.921976,0.920365,-0.000436812,-1.56909e-19,-0.000129916,-5.51158e-06,5,-9,4.07619,1.52884,-9.66578,0.497619,0.556
3.09992,3.10066,0.921975,0.920365,-0.00044303,-1.04606e-19,-0.000131766,-3.67439e-06,5,-9,4.08586,1.5506,-9.66264,0.512365,0.56
3.09991,3.10066,0.921975,0.920365,-0.00044929,-6.97371e-20,-0.000133628,-2.44959e-06,5,-9,4.09568,1.57252,-9.65946,0.524712,0.564
3.09991,3.10066,0.921974,0.920365,-0.000455593,-4.64914e-20,-0.000135502,-1.63306e-06,5,-9,4.10563,1.59458,-9.65623,0.535477,0.568
3.09991,3.10066,0.921974,0.920365,-0.000461939,-3.09943e-20,-0.00013739,-1.08871e-06,5,-9,4.11573,1.61679,-9.65296,0.545203,0.572
3.09991,3.10066,0.921973,0.920365,-0.000468327,-2.06629e-20,-0.00013929,-7.25805e-07,5,-9,4.12596,1.63915,-9.64964,0.554255,0.576
3.09991,3.10066,0.921972,0.920365,-0.000474758,-1.37752e-20,-0.000141202,-4.8387e-07,5,-9,4.13633,1.66165,-9.64627,0.562873,0.58
3.09991,3.10066,0.921972,0.920365,-0.000481231,-9.18349e-21,-0.000143127,-3.2258e-07,5,-9,4.14685,1.68431,-9.64286,0.57122,0.584
3.0999,3.10066,0.921971,0.920365,-0.000487747,-6.12233e-21,-0.000145065,-2.15053e-07,5,-9,4.15751,1.70711,-9.6394,0.579401,0.588
3.0999,3.10066,0.921971,0.920365,-0.000494305,-4.08155e-21,-0.000147016,-1.43369e-07,5,-9,4.16831,1.73007,-9.63589,0.58749,0.592
3.0999,3.10066,0.92197,0.920365,-0.000500906,-2.72103e-21,-0.000148979,-9.55793e-08,5,-9,4.17926,1.75317,-9.63234,0.595534,0.596
3.0999,3.10066,0.92197,0.920365,-0.000507549,-1.81402e-21,-0.000150955,-6.37195e-08,5,-9,4.19035,1.77642,-9.62874,0.603565,0.6
3.0999,3.10066,0.921969,0.920365,-0.000514234,-1.20935e-21,-0.000152943,-4.24797e-08,6,-9,4.20159,1.79982,-9.6251,0.611603,0.604
3.09989,3.10066,0.921968,0.920365,-0.000520962,-8.06232e-22,-0.000154944,-2.83198e-08,6,-9,4.21298,1.82337,-9.6214,0.619664,0.608
3.09989,3.10066,0.921968,0.920365,-0.000527732,-5.37488e-22,-0.000156958,-1.88799e-08,6,-8,4.22451,1.84706,-9.61766,0.627756,0.612
3.09989,3.10066,0.921967,0.920365,-0.000534545,-3.58325e-22,-0.000158984,-1.25866e-08,6,-8,4.2362,1.87091,-9.61387,0.635885,0.616
3.09989,3.10066,0.921966,0.920365,-0.000541399,-2.38884e-22,-0.000161023,-8.39105e-09,6,-8,4.24803,1.8949,-9.61003,0.644057,0.62
3.09989,3.10066,0.921966,0.920365,-0.000548296,-1.59256e-22,-0.000163074,-5.59403e-09,6,-8,4.26002,1.91904,-9.60614,0.652273,0.624
3.09988,3.10066,0.921965,0.920365,-0.000555236,-5.75818e-05,-0.000165138,-3.72936e-09,6,-8,4.26836,1.74179,-9.6022,0.660536,0.628
3.09988,3.10066,0.921964,0.920365,-0.000562217,1.91939e-05,-0.000167214,-2.48624e-09,6,-8,4.28445,2.03494,-9.59821,0.668847,0.632
3.09988,3.10066,0.921964,0.920365,-0.00056924,4.15869e-05,-0.000169303,-1.65749e-09,6,-8,4.2988,2.1379,-9.59417,0.677206,0.636
3.09988,3.10066,0.921963,0.920365,-0.000576306,-1.06633e-06,-0.000171405,-1.10499e-09,6,-8,4.3095,2.01334,-9.59009,0.685614,0.64
3.09987,3.10066,0.921962,0.920365,-0.000583414,-7.10887e-07,-0.000173519,-7.36663e-10,6,-8,4.32225,2.03946,-9.58595,0.694071,0.644
3.09987,3.10066,0.921962,0.920365,-0.000590564,-4.73925e-07,-0.000175645,-4.91108e-10,6,-8,4.33517,2.06531,-9.58176,0.702578,0.648
3.09987,3.10066,0.921961,0.920365,-0.000597755,2.8475e-05,-0.000177784,-3.27406e-10,6,-8,4.35014,2.19181,-9.57752,0.711135,0.652
3.09987,3.10066,0.92196,0.920365,-0.000604989,-9.80761e-06,-0.000179936,-2.1827e-10,6,-8,4.36147,2.08314,-9.57322,0.719741,0.656
3.09986,3.10066,0.92196,0.920365,-0.000612265,-6.53841e-06,-0.0001821,-1.45514e-10,6,-8,4.37486,2.12004,-9.56888,0.728397,0.66
3.09986,3.10066,0.921959,0.920365,-0.000619583,-4.35894e-06,-0.000184276,-9.70091e-11,6,-8,4.38841,2.15328,-9.56448,0.737104,0.664
3.09986,3.10066,0.921958,0.920365,-0.000626943,-3.16969e-05,-0.000186465,-6.46727e-11,6,-8,4.40022,2.08336,-9.56003,0.74586,0.668
3.09986,3.10066,0.921957,0.920365,-0.000634345,3.64506e-05,-0.000188666,-4.31151e-11,6,-8,4.4179,2.34778,-9.55553,0.754665,0.672
3.09985,3.10066,0.921957,0.920365,-0.000641788,-4.49053e-06,-0.00019088,-2.87434e-11,6,-8,4.43003,2.23054,-9.55098,0.763521,0.676
3.09985,3.10066,0.921956,0.920365,-0.000649274,-6.05755e-05,-0.000193107,-1.91623e-11,6,-8,4.44043,2.06044,-9.54637,0.772426,0.68
3.09985,3.10066,0.921955,0.920365,-0.000656801,4.59891e-05,-0.000195345,-1.27749e-11,6,-8,4.4605,2.45977,-9.54171,0.781381,0.684
3.09985,3.10066,0.921954,0.920365,-0.00066437,3.06594e-05,-0.000197597,-8.51657e-12,6,-8,4.47503,2.4326,-9.53699,0.790386,0.688
3.09984,3.10066,0.921953,0.920365,-0.000671981,2.04396e-05,-0.00019986,-5.67771e-12,6,-8,4.48973,2.42347,-9.53222,0.799441,0.692
3.09984,3.10066,0.921953,0.920365,-0.000679634,-1.51645e-05,-0.000202136,-3.78514e-12,6,-8,4.5027,2.32564,-9.5274,0.808545,0.696
3.09984,3.10066,0.921952,0.920365,-0.000687328,-6.76915e-05,-0.000204425,-2.52343e-12,6,-8,4.51394,2.16873,-9.52252,0.817699,0.7
3.09984,3.10066,0.921951,0.920365,-0.000695064,1.24542e-05,-0.000206726,-1.68229e-12,7,-8,4.53294,2.47631,-9.51759,0.826902,0.704
3.09983,3.10066,0.92195,0.920365,-0.000702842,-4.92791e-05,-0.000209039,-1.12152e-12,6,-8,4.54452,2.28747,-9.5126,0.836155,0.708
3.09983,3.10066,0.921949,0.920365,-0.000710662,5.35201e-05,-0.000211365,-7.47683e-13,7,-8,4.56577,2.67464,-9.50755,0.845458,0.712
3.09983,3.10066,0.921949,0.920365,-0.000718523,-5.06927e-05,-0.000213703,-4.98455e-13,6,-8,4.57579,2.3374,-9.50245,0.85481,0.716
3.09982,3.10066,0.921948,0.920365,-0.000726425,-5.00423e-06,-0.000216053,-3.32303e-13,7,-8,4.59358,2.52497,-9.49729,0.864212,0.72
3.09982,3.10066,0.921947,0.920365,-0.000734369,-3.33616e-06,-0.000218416,-2.21536e-13,7,-8,4.60965,2.55862,-9.49208,0.873663,0.724
3.09982,3.10066,0.921946,0.920365,-0.000742355,-3.1015e-05,-0.000220791,-1.4769e-13,7,-8,4.624,2.48969,-9.48681,0.883163,0.728
3.09982,3.10066,0.921945,0.920365,-0.000750383,6.56961e-05,-0.000223178,-9.84603e-14,7,-8,4.64612,2.85628,-9.48148,0.892713,0.732
3.09981,3.10066,0.921944,0.920365,-0.000758451,4.37974e-05,-0.000225578,-6.56402e-14,7,-8,4.66271,2.80787,-9.4761,0.902312,0.736
3.09981,3.10066,0.921943,0.920365,-0.000766562,4.07337e-07,-0.00022799,-4.37601e-14,7,-8,4.67759,2.68439,-9.47066,0.911961,0.74
3.09981,3.10066,0.921942,0.920365,-0.000774713,-5.73103e-05,-0.000230415,-2.91734e-14,7,-8,4.69074,2.51091,-9.46515,0.921659,0.744
3.0998,3.10066,0.921941,0.920365,-0.000782906,-9.41594e-06,-0.000232851,-1.94489e-14,7,-8,4.70978,2.70722,-9.4596,0.931406,0.748
3.0998,3.10066,0.92194,0.920365,-0.000791141,-6.27729e-06,-0.000235301,-1.2966e-14,7,-8,4.72709,2.74702,-9.45398,0.941202,0.752
3.0998,3.10066,0.92194,0.920365,-0.000799417,-3.29758e-05,-0.000237762,-8.64397e-15,7,-8,4.74269,2.68254,-9.4483,0.951048,0.756
3.09979,3.10066,0.921939,0.920365,-0.000807734,6.80707e-06,-0.000240236,-5.76265e-15,7,-8,4.76227,2.85089,-9.44256,0.960942,0.76
3.09979,3.10066,0.921938,0.920365,-0.000816092,4.53805e-06,-0.000242722,-3.84177e-15,7,-8,4.78013,2.87221,-9.43677,0.970886,0.764
3.09979,3.10066,0.921937,0.920365,-0.000824492,3.02536e-06,-0.00024522,-2.56118e-15,7,-8,4.79817,2.89631,-9.43091,0.980879,0.768
3.09978,3.10066,0.921936,0.920365,-0.000832933,2.01691e-06,-0.00024773,-1.70745e-15,7,-8,4.81641,2.92232,-9.425,0.990921,0.772
3.09978,3.10066,0.921935,0.920365,-0.000841415,1.34461e-06,-0.000250253,-1.1383e-15,7,-8,4.83482,2.94966,-9.41902,1.00101,0.776
3.09978,3.10066,0.921934,0.920365,-0.000849938,8.96404e-07,-0.000252788,-7.58867e-16,7,-8,4.85343,2.97792,-9.41299,1.01115,0.78
3.09977,3.10066,0.921933,0.920365,-0.000858503,5.97603e-07,-0.000255335,-5.05912e-16,7,-8,4.87222,3.00685,-9.40689,1.02134,0.784
3.09977,3.10066,0.921932,0.920365,-0.000867108,3.98402e-07,-0.000257895,-3.37274e-16,7,-8,4.8912,3.03627,-9.40073,1.03158,0.788
3.09977,3.10066,0.921931,0.920365,-0.000875755,2.65601e-07,-0.000260467,-2.2485e-16,7,-8,4.91037,3.06607,-9.39451,1.04187,0.792
3.09976,3.10066,0.921929,0.920365,-0.000884443,-2.86139e-05,-0.00026305,-1.499e-16,7,-8,4.92784,2.9954,-9.38823,1.0522,0.796
3.09976,3.10066,0.921928,0.920365,-0.000893172,9.71502e-06,-0.000265647,-9.99332e-17,8,-8,4.94929,3.1601,-9.38188,1.06259,0.8
3.09976,3.10066,0.921927,0.920365,-0.000901942,6.47668e-06,-0.000268255,-6.66221e-17,8,-8,4.96904,3.17947,-9.37548,1.07302,0.804
3.09975,3.10066,0.921926,0.920365,-0.000910753,4.31779e-06,-0.000270876,-4.44147e-17,8,-8,4.98898,3.20275,-9.36901,1.0835,0.808
3.09975,3.10066,0.921925,0.920365,-0.000919605,2.87852e-06,-0.000273508,-2.96098e-17,8,-8,5.00911,3.22869,-9.36247,1.09403,0.812
3.09974,3.10066,0.921924,0.920365,-0.000928498,1.91902e-06,-0.000276153,-1.97399e-17,8,-8,5.02944,3.25646,-9.35588,1.10461,0.816
3.09974,3.10066,0.921923,0.920365,-0.000937432,1.27934e-06,-0.00027881,-1.31599e-17,8,-8,5.04996,3.28549,-9.34922,1.11524,0.82
3.09974,3.10066,0.921922,0.920365,-0.000946406,5.84347e-05,-0.00028148,-8.77328e-18,8,-8,5.07449,3.51694,-9.3425,1.12592,0.824
3.09973,3.10066,0.921921,0.920365,-0.000955422,-1.86254e-05,-0.000284161,-5.84885e-18,8,-8,5.09161,3.27879,-9.33571,1.13664,0.828
3.09973,3.10066,0.92192,0.920365,-0.000964478,-1.24169e-05,-0.000286854,-3.89924e-18,8,-8,5.11272,3.33221,-9.32886,1.14742,0.832
3.09973,3.10066,0.921918,0.920365,-0.000973575,-8.27793e-06,-0.00028956,-2.59949e-18,8,-8,5.13404,3.37854,-9.32194,1.15824,0.836
3.09972,3.10066,0.921917,0.920365,-0.000982714,-5.51862e-06,-0.000292278,-1.73299e-18,8,-8,5.15556,3.42018,-9.31496,1.16911,0.84
3.09972,3.10066,0.921916,0.920365,-0.000991892,-3.67908e-06,-0.000295008,-1.15533e-18,8,-8,5.17728,3.45875,-9.30791,1.18003,0.844
3.09971,3.10066,0.921915,0.920365,-0.00100111,-2.45272e-06,-0.00029775,-7.70219e-19,8,-8,5.19921,3.49531,-9.3008,1.191,0.848
3.09971,3.10066,0.921914,0.920365,-0.00101037,-1.63515e-06,-0.000300504,-5.1348e-19,8,-8,5.22133,3.53058,-9.29362,1.20202,0.852
3.09971,3.10066,0.921913,0.920365,-0.00101967,-1.0901e-06,-0.00030327,-3.4232e-19,8,-8,5.24366,3.56504,-9.28637,1.21308,0.856
3.0997,3.10066,0.921911,0.920364,-0.00102901,-7.26732e-07,-0.000306049,-2.87909e-05,8,-8,5.2662,3.59901,-9.28113,1.10903,0.86
3.0997,3.10066,0.92191,0.920365,-0.0010384,-4.84488e-07,-0.000308839,9.59697e-06,8,-7,5.28894,3.63269,-9.27168,1.27375,0.864
3.09969,3.10066,0.921909,0.920365,-0.00104782,-3.22992e-07,-0.000311642,6.39798e-06,8,-7,5.31189,3.66624,-9.26424,1.27216,0.868
3.09969,3.10066,0.921908,0.920365,-0.00105728,-2.15328e-07,-0.000314456,4.26532e-06,9,-7,5.33504,3.69974,-9.25672,1.27489,0.872
3.09968,3.10066,0.921906,0.920365,-0.00106679,-1.43552e-07,-0.000317283,2.84355e-06,9,-7,5.35841,3.73325,-9.24914,1.28051,0.876
3.09968,3.10066,0.921905,0.920365,-0.00107633,-9.57014e-08,-0.000320122,1.8957e-06,9,-7,5.38198,3.76683,-9.24149,1.28807,0.88
3.09968,3.10066,0.921904,0.920365,-0.00108592,-6.38009e-08,-0.000322973,1.2638e-06,9,-7,5.40577,3.80048,-9.23378,1.29695,0.884
3.09967,3.10066,0.921902,0.920365,-0.00109554,-4.25339e-08,-0.000325835,8.42533e-07,9,-7,5.42976,3.83425,-9.22599,1.30671,0.888
3.09967,3.10066,0.921901,0.920365,-0.00110521,-2.8356e-08,-0.00032871,5.61689e-07,9,-7,5.45397,3.86813,-9.21814,1.31709,0.892
3.09966,3.10066,0.9219,0.920365,-0.00111491,-1.8904e-08,-0.000331597,3.74459e-07,9,-7,5.47839,3.90213,-9.21021,1.32789,0.896
3.09966,3.10066,0.921898,0.920365,-0.00112466,-1.26026e-08,-0.000334496,2.49639e-07,9,-7,5.50303,3.93627,-9.20222,1.33898,0.9
3.09965,3.10066,0.921897,0.920365,-0.00113445,-8.40177e-09,-0.000337407,1.66426e-07,9,-7,5.52788,3.97054,-9.19416,1.35029,0.904
3.09965,3.10066,0.921896,0.920364,-0.00114428,-5.60118e-09,-0.00034033,-2.868e-05,9,-7,5.55294,4.00494,-9.1881,1.2466,0.908
3.09965,3.10066,0.921894,0.920364,-0.00115414,-3.73412e-09,-0.000343264,-1.912e-05,9,-7,5.57823,4.03949,-9.17989,1.29658,0.912
3.09964,3.10066,0.921893,0.920365,-0.00116405,-2.48941e-09,-0.000346211,1.60443e-05,9,-7,5.60373,4.07417,-9.16955,1.44902,0.916
3.09964,3.10066,0.921892,0.920365,-0.001174,-1.65961e-09,-0.00034917,1.06962e-05,9,-7,5.62945,4.10899,-9.1612,1.43946,0.92
3.09963,3.10066,0.92189,0.920365,-0.00118399,-1.10641e-09,-0.000352141,7.13079e-06,9,-7,5.65538,4.14395,-9.15279,1.43709,0.924
3.09963,3.10066,0.921889,0.920365,-0.00119402,-7.37604e-10,-0.000355124,4.75386e-06,9,-7,5.68154,4.17905,-9.1443,1.43951,0.928
3.09962,3.10066,0.921887,0.920365,-0.00120409,-4.91736e-10,-0.000358118,3.16924e-06,9,-7,5.70792,4.2143,-9.13574,1.44515,0.932
3.09962,3.10066,0.921886,0.920365,-0.00121419,-3.27824e-10,-0.000361125,2.11283e-06,9,-7,5.73452,4.24968,-9.12711,1.45295,0.936
3.09961,3.10066,0.921885,0.920365,-0.00122434,-2.18549e-10,-0.000364143,1.40855e-06,10,-7,5.76134,4.2852,-9.11841,1.46221,0.94
3.09961,3.10066,0.921883,0.920365,-0.00123453,-1.45699e-10,-0.000367174,9.39034e-07,10,-7,5.78839,4.32086,-9.10963,1.47245,0.944
3.0996,3.10066,0.921882,0.920365,-0.00124476,-9.7133e-11,-0.000370216,6.26022e-07,10,-7,5.81566,4.35667,-9.10078,1.48337,0.948
3.0996,3.10066,0.92188,0.920364,-0.00125503,-6.47553e-11,-0.000373271,-2.83736e-05,10,-7,5.84316,4.39261,-9.09393,1.37959,0.952
3.09959,3.10066,0.921879,0.920365,-0.00126534,-4.31702e-11,-0.000376337,9.87521e-06,10,-7,5.87089,4.42869,-9.08286,1.54485,0.956
3.09959,3.10066,0.921877,0.920365,-0.00127569,-2.87801e-11,-0.000379415,6.58347e-06,10,-7,5.89884,4.46491,-9.0738,1.54399,0.96
3.09958,3.10066,0.921876,0.920365,-0.00128608,-1.91868e-11,-0.000382505,4.38898e-06,10,-7,5.92702,4.50128,-9.06465,1.54758,0.964
3.09958,3.10066,0.921874,0.920365,-0.00129651,-1.27912e-11,-0.000385607,3.17169e-05,10,-7,5.95543,4.53778,-9.05336,1.66929,0.968
3.09957,3.10066,0.921872,0.920365,-0.00130698,-8.52745e-12,-0.00038872,-7.64632e-06,10,-7,5.98406,4.57442,-9.04614,1.5243,0.972
3.09957,3.10066,0.921871,0.920365,-0.00131749,-5.68497e-12,-0.000391846,-5.09754e-06,10,-7,6.01293,4.6112,-9.03678,1.54699,0.976
3.09956,3.10066,0.921869,0.920365,-0.00132804,-3.78998e-12,-0.000394983,-3.39836e-06,10,-7,6.04203,4.64812,-9.02733,1.56634,0.98
3.09956,3.10066,0.921868,0.920365,-0.00133862,-2.52665e-12,-0.000398133,-2.26558e-06,10,-7,6.07137,4.68518,-9.01782,1.58347,0.984
3.09955,3.10066,0.921866,0.920365,-0.00134925,-1.68443e-12,-0.000401294,-1.51038e-06,10,-7,6.10093,4.72238,-9.00822,1.59913,0.988
3.09954,3.10066,0.921865,0.920365,-0.00135992,-1.12296e-12,-0.000404467,-1.00692e-06,10,-7,6.13073,4.75972,-8.99856,1.61384,0.992
3.09954,3.10066,0.921863,0.920365,-0.00137063,-7.48638e-13,-0.000407652,-6.71282e-07,10,-7,6.16077,4.7972,-8.98881,1.62792,0.996
3.09953,3.10066,0.921861,0.920365,-0.00138138,-4.99092e-13,-0.000410848,-4.47521e-07,11,-7,6.19104,4.83482,-8.97899,1.6416,1
3.09953,3.10066,0.92186,0.920365,-0.00139216,-3.32728e-13,-0.000414057,-2.98347e-07,11,-7,6.22155,4.87258,-8.96909,1.65503,1.004
3.09952,3.10066,0.921858,0.920365,-0.00140299,-2.21819e-13,-0.000417277,-1.98898e-07,11,-7,6.2523,4.91047,-8.95911,1.66831,1.008
3.09952,3.10066,0.921856,0.920365,-0.00141386,-1.47879e-13,-0.000420509,-1.32599e-07,11,-7,6.28328,4.9485,-8.94906,1.68151,1.012
3.09951,3.10066,0.921855,0.920364,-0.00142476,-9.8586e-14,-0.000423753,-5.76702e-05,11,-7,6.31451,4.98668,-8.94307,1.46433,1.016
3.09951,3.10066,0.921853,0.920365,-0.00143571,-6.5724e-14,-0.000427008,1.9135e-05,11,-7,6.34597,5.02499,-8.92872,1.78457,1.02
3.0995,3.10066,0.921851,0.920365,-0.0014467,-2.87909e-05,-0.000430276,4.15476e-05,11,-7,6.37578,4.96267,-8.91636,1.88729,1.024
3.09949,3.10066,0.921849,0.920365,-0.00145772,-1.91939e-05,-0.000433555,-1.09252e-06,11,-7,6.40773,5.03485,-8.90807,1.72985,1.028
3.09949,3.10066,0.921848,0.920365,-0.00146879,-1.2796e-05,-0.000436845,-7.28349e-07,11,-7,6.43992,5.09597,-8.89762,1.74447,1.032
3.09948,3.10066,0.921846,0.920364,-0.00147989,-8.53064e-06,-0.000440148,-5.80674e-05,11,-7,6.47235,5.14976,-8.89124,1.52832,1.036
3.09948,3.10066,0.921844,0.920365,-0.00149103,-5.6871e-06,-0.000443462,1.88702e-05,11,-7,6.50503,5.19871,-8.87649,1.84933,1.04
3.09947,3.10066,0.921842,0.920364,-0.00150222,-3.7914e-06,-0.000446788,-1.62108e-05,11,-7,6.53796,5.24449,-8.86788,1.72231,1.044
3.09946,3.10066,0.921841,0.920364,-0.00151344,-2.5276e-06,-0.000450126,-3.95981e-05,11,-7,6.57113,5.28819,-8.85919,1.64211,1.048
3.09946,3.10066,0.921839,0.920364,-0.0015247,-1.68507e-06,-0.000453476,2.39219e-06,11,-7,6.60455,5.33056,-8.84628,1.82347,1.052
3.09945,3.10066,0.921837,0.920365,-0.001536,-1.12338e-06,-0.000456837,3.03857e-05,12,-6,6.63822,5.37208,-8.83328,1.94889,1.056
3.09945,3.10066,0.921835,0.920365,-0.00154734,-7.48918e-07,-0.00046021,2.02571e-05,12,-6,6.67214,5.41308,-8.82228,1.92187,1.06
3.09944,3.10066,0.921833,0.920365,-0.00155872,-4.99279e-07,-0.000463594,4.22957e-05,12,-6,6.7063,5.45378,-8.80912,2.02356,1.064
3.09943,3.10066,0.921831,0.920364,-0.00157014,-2.91238e-05,-0.000466991,-5.81756e-05,12,-7,6.73882,5.39356,-8.80417,1.63526,1.068
3.09943,3.10066,0.92183,0.920365,-0.0015816,-1.94159e-05,-0.000470399,4.7589e-05,12,-6,6.77349,5.46765,-8.7867,2.07195,1.072
3.09942,3.10066,0.921828,0.920364,-0.0015931,-1.29439e-05,-0.000473818,-5.46468e-05,12,-7,6.80841,5.53054,-8.78159,1.67669,1.076
3.09941,3.10066,0.921826,0.920365,-0.00160463,-8.62927e-06,-0.000477249,4.99416e-05,12,-6,6.84359,5.58602,-8.76396,2.10876,1.08
3.09941,3.10066,0.921824,0.920364,-0.00161621,-5.75284e-06,-0.000480692,-2.42875e-05,12,-6,6.87901,5.6366,-8.75661,1.82562,1.084
3.0994,3.10066,0.921822,0.920365,-0.00162783,-3.83523e-06,-0.000484147,1.25993e-05,12,-6,6.9147,5.68397,-8.74296,1.98698,1.088
3.09939,3.10066,0.92182,0.920364,-0.00163948,-2.55682e-06,-0.000487613,-4.91823e-05,12,-6,6.95064,5.72923,-8.73544,1.75372,1.092
3.09939,3.10066,0.921818,0.920365,-0.00165117,-1.70455e-06,-0.000491091,5.35846e-05,12,-6,6.98684,5.77314,-8.71748,2.1787,1.096
3.09938,3.10066,0.921816,0.920364,-0.00166291,-1.13636e-06,-0.00049458,-2.18588e-05,12,-6,7.02329,5.81619,-8.7098,1.89089,1.1
3.09937,3.10066,0.921814,0.920365,-0.00167468,-7.57576e-07,-0.000498081,1.42184e-05,12,-6,7.06,5.85872,-8.69581,2.0492,1.104
3.09937,3.10066,0.921812,0.920364,-0.00168649,-2.9296e-05,-0.000501594,-1.9312e-05,12,-6,7.09508,5.80017,-8.68589,1.92913,1.108
3.09936,3.10066,0.92181,0.920364,-0.00169834,9.26027e-06,-0.000505118,-1.28747e-05,13,-6,7.13421,5.97659,-8.67381,1.96897,1.112
3.09935,3.10066,0.921808,0.920364,-0.00171022,6.17352e-06,-0.000508654,-3.7374e-05,13,-6,7.1717,6.00739,-8.66372,1.88512,1.116
3.09935,3.10066,0.921806,0.920365,-0.00172215,4.11568e-06,-0.000512201,6.14567e-05,13,-6,7.20946,6.04194,-8.64525,2.29463,1.12
3.09934,3.10066,0.921804,0.920365,-0.00173412,2.74378e-06,-0.00051576,4.09712e-05,13,-6,7.24748,6.07902,-8.63291,2.22693,1.124
3.09933,3.10066,0.921802,0.920364,-0.00174612,1.82919e-06,-0.000519331,-3.02677e-05,13,-6,7.28576,6.11783,-8.62464,1.95625,1.128
3.09933,3.10066,0.9218,0.920365,-0.00175817,1.21946e-06,-0.000522913,8.61243e-06,13,-6,7.32431,6.15785,-8.61006,2.1261,1.132
3.09932,3.10066,0.921798,0.920364,-0.00177025,8.12973e-07,-0.000526507,-2.30493e-05,13,-6,7.36312,6.19872,-8.59954,2.01383,1.136
3.09931,3.10066,0.921796,0.920364,-0.00178237,5.41982e-07,-0.000530112,-1.53662e-05,13,-6,7.4022,6.2402,-8.58686,2.05898,1.14
3.09931,3.10066,0.921793,0.920364,-0.00179453,-2.84296e-05,-0.000533729,-1.02441e-05,13,-6,7.43965,6.18136,-8.57409,2.09394,1.144
3.0993,3.10066,0.921791,0.920364,-0.00180673,-1.89531e-05,-0.000537357,-6.82942e-06,13,-6,7.47926,6.25722,-8.56124,2.12211,1.148
3.09929,3.10066,0.921789,0.920365,-0.00181897,1.61555e-05,-0.000540997,2.4238e-05,13,-6,7.52104,6.42294,-8.54623,2.26094,1.152
3.09928,3.10066,0.921787,0.920364,-0.00183125,1.07704e-05,-0.000544648,-1.26323e-05,14,-6,7.56119,6.44706,-8.53527,2.12806,1.156
3.09928,3.10066,0.921785,0.920364,-0.00184356,-2.16107e-05,-0.000548311,-8.42152e-06,13,-6,7.59972,6.37682,-8.52216,2.15956,1.16
3.09927,3.10066,0.921783,0.920365,-0.00185591,-1.44071e-05,-0.000551985,5.19675e-05,14,-6,7.64041,6.44528,-8.50481,2.41581,1.164
3.09926,3.10066,0.92178,0.920364,-0.00186831,1.91862e-05,-0.000555671,-2.29368e-05,14,-6,7.68328,6.60623,-8.49566,2.13094,1.168
3.09925,3.10066,0.921778,0.920364,-0.00188074,-1.60001e-05,-0.000559368,-1.52912e-05,14,-6,7.72262,6.52658,-8.48228,2.17631,1.172
3.09925,3.10066,0.921776,0.920365,-0.00189321,-1.06668e-05,-0.000563077,4.73877e-05,14,-6,7.76413,6.58889,-8.46466,2.44186,1.176
3.09924,3.10066,0.921774,0.920364,-0.00190572,-7.11117e-06,-0.000566797,-2.59901e-05,14,-6,7.80592,6.64512,-8.45525,2.16323,1.18
3.09923,3.10066,0.921771,0.920364,-0.00191826,-4.74078e-06,-0.000570528,-1.73267e-05,14,-6,7.84798,6.69732,-8.4416,2.21281,1.184
3.09922,3.10066,0.921769,0.920364,-0.00193085,-3.16052e-06,-0.000574271,-1.15511e-05,14,-6,7.89032,6.7469,-8.42787,2.25088,1.188
3.09922,3.10066,0.921767,0.920364,-0.00194347,-2.10701e-06,-0.000578026,-7.70076e-06,14,-6,7.93294,6.79477,-8.41404,2.2813,1.192
3.09921,3.10066,0.921764,0.920364,-0.00195613,-1.40468e-06,-0.000581792,-5.13384e-06,14,-6,7.97584,6.84155,-8.40012,2.30663,1.196
3.0992,3.10066,0.921762,0.920364,-0.00196883,-9.36451e-07,-0.000585569,-3.42256e-06,14,-6,8.01901,6.88764,-8.38611,2.32859,1.2
3.09919,3.10066,0.92176,0.920364,-0.00198157,-6.24301e-07,-0.000589358,-2.28171e-06,14,-6,8.06246,6.93332,-8.37201,2.3483,1.204
3.09918,3.10066,0.921757,0.920364,-0.00199435,-4.162e-07,-0.000593158,-1.52114e-06,15,-5,8.1062,6.97877,-8.35782,2.36655,1.208
3.09918,3.10066,0.921755,0.920364,-0.00200716,-2.77467e-07,-0.00059697,-1.01409e-06,15,-5,8.15022,7.02411,-8.34354,2.38382,1.212
3.09917,3.10066,0.921753,0.920364,-0.00202002,-1.84978e-07,-0.000600793,-6.76061e-07,15,-5,8.19452,7.06942,-8.32917,2.40047,1.216
3.09916,3.10066,0.92175,0.920364,-0.00203291,-1.23319e-07,-0.000604627,-4.50707e-07,15,-5,8.2391,7.11476,-8.3147,2.4167,1.22
3.09915,3.10066,0.921748,0.920364,-0.00204584,-8.22124e-08,-0.000608473,-3.00472e-07,15,-5,8.28396,7.16016,-8.30015,2.43269,1.224
3.09914,3.10066,0.921745,0.920364,-0.00205881,-5.48083e-08,-0.00061233,-2.00314e-07,15,-5,8.32911,7.20564,-8.2855,2.44852,1.228
3.09914,3.10066,0.921743,0.920364,-0.00207182,-3.65389e-08,-0.000616198,-1.33543e-07,15,-5,8.37455,7.25123,-8.27076,2.46426,1.232
3.09913,3.10066,0.92174,0.920364,-0.00208486,-2.43592e-08,-0.000620078,-8.90286e-08,15,-5,8.42027,7.29693,-8.25592,2.47996,1.236
3.09912,3.10066,0.921738,0.920364,-0.00209794,-2.88072e-05,-0.000623969,-5.93524e-08,15,-5,8.46439,7.24198,-8.24099,2.49564,1.24
3.09911,3.10066,0.921735,0.920364,-0.00211107,9.58615e-06,-0.000627872,-3.95683e-08,15,-5,8.51258,7.42228,-8.22597,2.51133,1.244
3.0991,3.10066,0.921733,0.920364,-0.00212422,-2.24002e-05,-0.000631785,-2.63788e-08,15,-5,8.55727,7.35639,-8.21085,2.52704,1.248
3.09909,3.10066,0.92173,0.920364,-0.00213742,-1.49334e-05,-0.000635711,-1.75859e-08,16,-5,8.60415,7.42871,-8.19564,2.54277,1.252
3.09908,3.10066,0.921728,0.920364,-0.00215066,1.88353e-05,-0.000639647,-1.17239e-08,16,-5,8.65322,7.59322,-8.18034,2.55854,1.256
3.09908,3.10066,0.921725,0.920364,-0.00216393,-1.62341e-05,-0.000643595,-7.81595e-09,16,-5,8.69878,7.51694,-8.16494,2.57435,1.26
3.09907,3.10066,0.921723,0.920364,-0.00217724,-1.08227e-05,-0.000647554,-5.21064e-09,16,-5,8.74653,7.58247,-8.14945,2.59019,1.264
3.09906,3.10066,0.92172,0.920364,-0.00219059,2.15758e-05,-0.000651524,-3.47376e-09,16,-5,8.79648,7.74258,-8.13386,2.60608,1.268
3.09905,3.10066,0.921717,0.920364,-0.00220398,-1.44071e-05,-0.000655506,-2.31584e-09,16,-5,8.84292,7.6635,-8.11817,2.62201,1.272
3.09904,3.10066,0.921715,0.920364,-0.0022174,-9.60471e-06,-0.000659499,-1.54389e-09,16,-5,8.89155,7.7273,-8.10239,2.63799,1.276
3.09903,3.10066,0.921712,0.920364,-0.00223087,-6.40314e-06,-0.000663503,-1.02926e-09,16,-5,8.94048,7.78562,-8.08652,2.65401,1.28
3.09902,3.10066,0.92171,0.920364,-0.00224437,-4.26876e-06,-0.000667518,-6.86174e-10,16,-5,8.98971,7.84035,-8.07054,2.67007,1.284
3.09901,3.10066,0.921707,0.920364,-0.00225791,-2.84584e-06,-0.000671545,-4.5745e-10,16,-5,9.03924,7.89271,-8.05448,2.68618,1.288
3.09901,3.10066,0.921704,0.920364,-0.00227148,-1.89723e-06,-0.000675583,-3.04966e-10,17,-5,9.08906,7.94355,-8.03831,2.70233,1.292
3.099,3.10066,0.921701,0.920364,-0.0022851,-1.26482e-06,-0.000679632,-2.03311e-10,17,-5,9.13918,7.99341,-8.02205,2.71853,1.296
3.09899,3.10066,0.921699,0.920364,-0.00229875,-8.43212e-07,-0.000683693,-1.35541e-10,17,-5,9.18961,8.04267,-8.00569,2.73477,1.3
3.09898,3.10066,0.921696,0.920364,-0.00231244,-5.62141e-07,-0.000687764,-9.03604e-11,17,-5,9.24033,8.09157,-7.98923,2.75106,1.304
3.09897,3.10066,0.921693,0.920364,-0.00232617,-3.74761e-07,-0.000691847,-6.02403e-11,17,-5,9.29135,8.14027,-7.97268,2.76739,1.308
3.09896,3.10066,0.92169,0.920364,-0.00233993,-2.49841e-07,-0.000695941,-4.01602e-11,17,-5,9.34268,8.18889,-7.95602,2.78376,1.312
3.09895,3.10066,0.921688,0.920364,-0.00235373,-1.6656e-07,-0.000700046,-2.67735e-11,17,-5,9.39431,8.23749,-7.93927,2.80018,1.316
3.09894,3.10066,0.921685,0.920364,-0.00236758,-1.1104e-07,-0.000704163,-1.7849e-11,17,-5,9.44624,8.28612,-7.92242,2.81665,1.32
3.09893,3.10066,0.921682,0.920364,-0.00238145,-7.40268e-08,-0.00070829,-1.18993e-11,17,-5,9.49848,8.33483,-7.90547,2.83316,1.324
3.09892,3.10066,0.921679,0.920364,-0.00239537,-2.88403e-05,-0.000712429,-7.93287e-12,17,-5,9.54913,8.28285,-7.88842,2.84972,1.328
3.09891,3.10066,0.921676,0.920364,-0.00240932,-1.92269e-05,-0.000716579,-5.28858e-12,17,-5,9.60198,8.36533,-7.87127,2.86632,1.332
3.0989,3.10066,0.921673,0.920364,-0.00242331,-1.28179e-05,-0.00072074,-3.52572e-12,18,-4,9.65514,8.43673,-7.85403,2.88296,1.336
3.09889,3.10066,0.921671,0.920364,-0.00243734,-8.54527e-06,-0.000724912,-2.35048e-12,18,-4,9.70861,8.50078,-7.83668,2.89965,1.34
3.09888,3.10066,0.921668,0.920364,-0.00245141,-5.69684e-06,-0.000729096,-1.56699e-12,18,-4,9.76238,8.55998,-7.81923,2.91638,1.344
3.09887,3.10066,0.921665,0.920364,-0.00246551,-3.7979e-06,-0.00073329,-1.04466e-12,18,-4,9.81647,8.61599,-7.80168,2.93316,1.348
3.09886,3.10066,0.921662,0.920364,-0.00247965,-2.53193e-06,-0.000737496,-6.96439e-13,18,-4,9.87086,8.66991,-7.78403,2.94998,1.352
3.09885,3.10066,0.921659,0.920364,-0.00249383,-1.68795e-06,-0.000741713,-4.64293e-13,18,-4,9.92557,8.72249,-7.76628,2.96685,1.356
3.09884,3.10066,0.921656,0.920364,-0.00250804,-1.1253e-06,-0.000745941,-3.09528e-13,18,-4,9.98059,8.77421,-7.74843,2.98376,1.36
3.09883,3.10066,0.921653,0.920364,-0.0025223,-7.50202e-07,-0.00075018,-2.06352e-13,18,-4,10.0359,8.82541,-7.73048,3.00072,1.364
3.09882,3.10066,0.92165,0.920364,-0.00253659,-5.00135e-07,-0.00075443,-1.37568e-13,18,-4,10.0916,8.8763,-7.71242,3.01772,1.368
3.09881,3.10066,0.921647,0.920364,-0.00255091,-3.33423e-07,-0.000758691,-9.17121e-14,19,-4,10.1475,8.92703,-7.69426,3.03476,1.372
3.0988,3.10066,0.921644,0.920364,-0.00256528,-2.22282e-07,-0.000762963,-6.11414e-14,19,-4,10.2038,8.97769,-7.676,3.05185,1.376
3.09879,3.10066,0.921641,0.920364,-0.00257968,-1.48188e-07,-0.000767247,-4.07609e-14,19,-4,10.2604,9.02836,-7.65764,3.06899,1.38
3.09878,3.10066,0.921638,0.920364,-0.00259412,-9.8792e-08,-0.000771541,-2.7174e-14,19,-4,10.3173,9.07907,-7.63918,3.08616,1.384
3.09877,3.10066,0.921635,0.920364,-0.00260859,-6.58613e-08,-0.000775846,-1.8116e-14,19,-4,10.3746,9.12985,-7.62061,3.10339,1.388
3.09876,3.10066,0.921631,0.920365,-0.00262311,-4.39076e-08,-0.000780163,2.87909e-05,19,-4,10.4321,9.18072,-7.59986,3.23582,1.392
3.09875,3.10066,0.921628,0.920364,-0.00263766,-2.92717e-08,-0.00078449,-9.59697e-06,19,-4,10.49,9.2317,-7.58316,3.09957,1.396
3.09874,3.10066,0.921625,0.920364,-0.00265225,-2.88104e-05,-0.000788829,-6.39798e-06,19,-4,10.5463,9.18202,-7.56428,3.12972,1.4
3.09873,3.10066,0.921622,0.920364,-0.00266687,9.58397e-06,-0.000793179,-4.26532e-06,19,-4,10.6067,9.36759,-7.5453,3.15565,1.404
3.09872,3.10066,0.921619,0.920364,-0.00268153,6.38931e-06,-0.000797539,-2.84355e-06,20,-4,10.6655,9.40772,-7.52621,3.17878,1.408
3.09871,3.10066,0.921616,0.920364,-0.00269623,-2.45314e-05,-0.000801911,-1.8957e-06,20,-4,10.7228,9.35094,-7.50701,3.20006,1.412
3.0987,3.10066,0.921612,0.920364,-0.00271097,-1.63543e-05,-0.000806294,-1.2638e-06,20,-4,10.7822,9.43114,-7.48771,3.22012,1.416
3.09869,3.10066,0.921609,0.920364,-0.00272574,-1.09028e-05,-0.000810687,-8.42533e-07,20,-4,10.842,9.50192,-7.46831,3.23938,1.42
3.09867,3.10066,0.921606,0.920364,-0.00274055,-7.26856e-06,-0.000815092,-5.61689e-07,20,-4,10.9022,9.56648,-7.4488,3.25812,1.424
3.09866,3.10066,0.921603,0.920364,-0.00275539,-4.84571e-06,-0.000819508,-3.74459e-07,20,-4,10.9626,9.62692,-7.42919,3.27653,1.428
3.09865,3.10066,0.921599,0.920364,-0.00277028,-3.23047e-06,-0.000823934,-2.49639e-07,20,-4,11.0234,9.68466,-7.40947,3.29474,1.432
3.09864,3.10066,0.921596,0.920364,-0.0027852,-2.15365e-06,-0.000828372,-1.66426e-07,20,-4,11.0845,9.74065,-7.38964,3.31282,1.436
3.09863,3.10066,0.921593,0.920364,-0.00280015,-1.43576e-06,-0.00083282,-1.10951e-07,20,-4,11.146,9.79552,-7.3697,3.33084,1.44
3.09862,3.10066,0.921589,0.920364,-0.00281515,-9.57176e-07,-0.00083728,-7.39672e-08,21,-4,11.2077,9.84967,-7.34966,3.34882,1.444
3.09861,3.10066,0.921586,0.920364,-0.00283018,-6.38118e-07,-0.00084175,-4.93115e-08,21,-3,11.2698,9.90339,-7.32951,3.3668,1.448
3.0986,3.10066,0.921583,0.920364,-0.00284525,-2.92163e-05,-0.000846231,-3.28743e-08,21,-3,11.3303,9.85611,-7.30926,3.38479,1.452
3.09859,3.10066,0.921579,0.920364,-0.00286035,-1.94776e-05,-0.000850724,-2.19162e-08,21,-3,11.3931,9.94306,-7.28889,3.40281,1.456
3.09857,3.10066,0.921576,0.920364,-0.00287549,-1.2985e-05,-0.000855227,-5.75965e-05,21,-4,11.4562,10.0188,-7.27257,3.19052,1.46
3.09856,3.10066,0.921572,0.920364,-0.00289067,-8.65669e-06,-0.000859741,-9.60672e-06,21,-3,11.5196,10.087,-7.24992,3.40054,1.464
3.09855,3.10066,0.921569,0.920364,-0.00290588,-5.77113e-06,-0.000864266,2.23864e-05,21,-3,11.5834,10.1504,-7.22716,3.54661,1.468
3.09854,3.10066,0.921566,0.920364,-0.00292113,-3.84742e-06,-0.000868802,1.49243e-05,21,-3,11.6475,10.2105,-7.20636,3.5349,1.472
3.09853,3.10066,0.921562,0.920365,-0.00293642,-2.56495e-06,-0.000873349,3.87405e-05,21,-3,11.7119,10.2685,-7.18338,3.64836,1.476
3.09852,3.10066,0.921559,0.920364,-0.00295175,-1.70996e-06,-0.000877906,-2.96395e-06,22,-3,11.7767,10.3251,-7.16444,3.49977,1.48
3.0985,3.10066,0.921555,0.920364,-0.00296711,-1.13998e-06,-0.000882475,-5.95578e-05,22,-3,11.8418,10.3809,-7.14746,3.29167,1.484
3.09849,3.10066,0.921551,0.920364,-0.0029825,2.80309e-05,-0.000887054,-1.09143e-05,22,-3,11.9091,10.5369,-7.12415,3.50456,1.488
3.09848,3.10066,0.921548,0.920364,-0.00299794,-3.88946e-05,-0.000891645,2.15147e-05,22,-3,11.9711,10.3567,-7.10073,3.65264,1.492
3.09847,3.10066,0.921544,0.920364,-0.00301341,-5.47206e-05,-0.000896246,1.43432e-05,22,-3,12.0354,10.3554,-7.07928,3.64236,1.496
3.09846,3.10066,0.921541,0.920364,-0.00302891,-3.64804e-05,-0.000900858,-1.92288e-05,22,-3,12.1018,10.4735,-7.05979,3.52652,1.5
3.09844,3.10066,0.921537,0.920364,-0.00304446,4.47065e-06,-0.000905481,1.59717e-05,22,-3,12.1705,10.6712,-7.03604,3.68581,1.504
3.09843,3.10066,0.921533,0.920365,-0.00306004,-2.58105e-05,-0.000910114,3.94387e-05,22,-3,12.2358,10.6198,-7.01218,3.79821,1.508
3.09842,3.10066,0.92153,0.920364,-0.00307565,-1.7207e-05,-0.000914759,-3.12894e-05,23,-3,12.3033,10.7046,-6.99443,3.53388,1.512
3.09841,3.10066,0.921526,0.920364,-0.0030913,-1.14713e-05,-0.000919414,7.93135e-06,23,-3,12.3711,10.7794,-6.97034,3.70938,1.516
3.09839,3.10066,0.921522,0.920364,-0.00310699,-3.64385e-05,-0.00092408,5.28757e-06,23,-3,12.4374,10.7469,-6.94822,3.71747,1.52
3.09838,3.10066,0.921519,0.920364,-0.00312272,-2.42923e-05,-0.000928757,-5.40568e-05,23,-3,12.5059,10.8445,-6.93013,3.4988,1.524
3.09837,3.10066,0.921515,0.920364,-0.00313848,-4.49858e-05,-0.000933444,2.1544e-05,23,-3,12.5729,10.8272,-6.90364,3.81995,1.528
3.09836,3.10066,0.921511,0.920364,-0.00315428,-2.99905e-05,-0.000938143,1.43627e-05,23,-3,12.6421,10.935,-6.88118,3.81002,1.532
3.09834,3.10066,0.921508,0.920364,-0.00317011,-1.99937e-05,-0.000942852,9.5751e-06,23,-3,12.7117,11.0254,-6.85861,3.80971,1.536
3.09833,3.10066,0.921504,0.920364,-0.00318598,-1.33291e-05,-0.000947572,-5.11984e-05,23,-3,12.7816,11.1043,-6.84007,3.58549,1.54
3.09832,3.10066,0.9215,0.920364,-0.00320189,-8.88608e-06,-0.000952303,2.34496e-05,24,-2,12.8519,11.1755,-6.81313,3.90301,1.544
3.09831,3.10066,0.921496,0.920364,-0.00321783,-5.92406e-06,-0.000957044,-1.31579e-05,24,-3,12.9225,11.2417,-6.79229,3.77555,1.548
3.09829,3.10066,0.921492,0.920364,-0.00323381,-3.94937e-06,-0.000961796,2.0019e-05,24,-2,12.9934,11.3045,-6.76719,3.92726,1.552
3.09828,3.10066,0.921488,0.920365,-0.00324982,-2.63291e-06,-0.000966559,4.21369e-05,24,-2,13.0648,11.3652,-6.74198,4.03479,1.556
3.09827,3.10066,0.921485,0.920364,-0.00326587,-1.75528e-06,-0.000971333,-5.82815e-05,24,-3,13.1364,11.4244,-6.72494,3.65221,1.56
3.09825,3.10066,0.921481,0.920364,-0.00328196,-2.99611e-05,-0.000976117,-3.88543e-05,24,-2,13.2066,11.382,-6.70157,3.74905,1.564
3.09824,3.10066,0.921477,0.920364,-0.00329808,-1.99741e-05,-0.000980913,-2.59029e-05,24,-2,13.2789,11.4734,-6.67809,3.82004,1.568
3.09823,3.10066,0.921473,0.920364,-0.00331424,-1.3316e-05,-0.000985718,4.03133e-05,24,-2,13.3517,11.5532,-6.65034,4.10413,1.572
3.09821,3.10066,0.921469,0.920364,-0.00333043,-8.87737e-06,-0.000990535,-3.07063e-05,25,-2,13.4248,11.6254,-6.63077,3.83931,1.576
3.0982,3.10066,0.921465,0.920364,-0.00334666,-5.91824e-06,-0.000995362,8.32003e-06,25,-2,13.4982,11.6926,-6.60487,4.01473,1.58
3.09819,3.10066,0.921461,0.920364,-0.00336293,-3.9455e-06,-0.0010002,3.43376e-05,25,-2,13.572,11.7564,-6.57885,4.13815,1.584
3.09817,3.10065,0.921457,0.920364,-0.00337923,-3.14213e-05,-0.00100505,-5.89918e-06,25,-2,13.6443,11.7173,-6.55686,3.9966,1.588
3.09816,3.10065,0.921453,0.920365,-0.00339557,-4.97384e-05,-0.00100991,5.36491e-05,25,-2,13.7169,11.7104,-6.52853,4.25423,1.592
3.09815,3.10065,0.921449,0.920364,-0.00341194,-6.19499e-05,-0.00101478,-5.06067e-05,25,-2,13.7899,11.725,-6.51045,3.85668,1.596
3.09813,3.10065,0.921445,0.920364,-0.00342835,-4.12999e-05,-0.00101966,-4.9469e-06,25,-2,13.8651,11.8547,-6.48397,4.05885,1.6
3.09812,3.10065,0.921441,0.920364,-0.0034448,-5.63242e-05,-0.00102455,-3.29793e-06,25,-2,13.9388,11.8597,-6.45944,4.08501,1.604
3.09811,3.10065,0.921437,0.920364,-0.00346128,-3.75495e-05,-0.00102945,-2.19862e-06,25,-2,14.0148,11.9831,-6.43479,4.10901,1.608
3.09809,3.10065,0.921432,0.920364,-0.0034778,-2.5033e-05,-0.00103436,-3.02567e-05,26,-2,14.0911,12.0847,-6.4121,4.01643,1.612
3.09808,3.10065,0.921428,0.920364,-0.00349435,-1.66887e-05,-0.00103929,3.74107e-05,26,-2,14.1678,12.1718,-6.38307,4.30679,1.616
3.09806,3.10065,0.921424,0.920365,-0.00351094,-1.11258e-05,-0.00104422,5.37314e-05,26,-1,14.2449,12.2493,-6.35599,4.39181,1.62
3.09805,3.10065,0.92142,0.920364,-0.00352756,-7.41718e-06,-0.00104916,-2.17609e-05,26,-2,14.3223,12.3205,-6.33502,4.10962,1.624
3.09804,3.10065,0.921416,0.920364,-0.00354422,-4.94479e-06,-0.00105412,-1.45073e-05,26,-2,14.4001,12.3875,-6.30978,4.15845,1.628
3.09802,3.10065,0.921412,0.920364,-0.00356092,-3.29652e-06,-0.00105909,-9.67151e-06,26,-2,14.4783,12.4517,-6.28442,4.19765,1.632
3.09801,3.10065,0.921407,0.920364,-0.00357765,-3.09886e-05,-0.00106406,2.23432e-05,26,-1,14.5549,12.4133,-6.25687,4.34562,1.636
3.09799,3.10065,0.921403,0.920365,-0.00359441,-2.06591e-05,-0.00106905,4.36864e-05,27,-1,14.6338,12.5081,-6.2292,4.45094,1.64
3.09798,3.10065,0.921399,0.920364,-0.00361121,-1.37727e-05,-0.00107404,-2.84576e-05,27,-2,14.713,12.591,-6.20763,4.18235,1.644
3.09796,3.10065,0.921394,0.920364,-0.00362805,-9.18181e-06,-0.00107905,-4.77626e-05,27,-2,14.7927,12.666,-6.18386,4.12516,1.648
3.09795,3.10065,0.92139,0.920364,-0.00364492,-6.12121e-06,-0.00108407,-3.05083e-06,27,-1,14.8727,12.7358,-6.15583,4.32408,1.652
3.09793,3.10065,0.921386,0.920364,-0.00366183,-3.28717e-05,-0.0010891,-2.03389e-06,27,-1,14.9511,12.7014,-6.12976,4.34826,1.656
3.09792,3.10065,0.921381,0.920364,-0.00367878,-2.19145e-05,-0.00109414,-1.35593e-06,27,-1,15.0319,12.799,-6.10356,4.37113,1.66
3.09791,3.10065,0.921377,0.920364,-0.00369576,-4.34006e-05,-0.00109919,-9.0395e-07,27,-1,15.1111,12.7832,-6.07724,4.39314,1.664
3.09789,3.10065,0.921373,0.920364,-0.00371277,-2.89337e-05,-0.00110425,-6.02634e-07,28,-1,15.1926,12.8934,-6.0508,4.41459,1.668
3.09788,3.10065,0.921368,0.920364,-0.00372982,-1.92891e-05,-0.00110932,-4.01756e-07,28,-1,15.2745,12.9869,-6.02423,4.43568,1.672
3.09786,3.10065,0.921364,0.920364,-0.00374691,-1.28594e-05,-0.0011144,-2.67837e-07,28,-1,15.3567,13.0692,-5.99755,4.45654,1.676
3.09785,3.10065,0.921359,0.920364,-0.00376403,-3.73639e-05,-0.00111949,-1.78558e-07,28,-1,15.4374,13.0433,-5.97074,4.47726,1.68
3.09783,3.10065,0.921355,0.920364,-0.00378118,-2.49093e-05,-0.0011246,-1.19039e-07,28,-1,15.5204,13.147,-5.94381,4.49791,1.684
3.09782,3.10065,0.92135,0.920364,-0.00379837,-4.53971e-05,-0.00112971,-7.93592e-08,28,-1,15.6019,13.1354,-5.91676,4.51852,1.688
3.0978,3.10065,0.921346,0.920364,-0.0038156,-8.78466e-05,-0.00113483,-5.29061e-08,28,-1,15.6819,13.0471,-5.88959,4.53912,1.692
3.09778,3.10065,0.921341,0.920364,-0.00383286,-8.73553e-05,-0.00113997,-3.52707e-08,28,-1,15.7641,13.1093,-5.86229,4.55973,1.696
3.09777,3.10065,0.921337,0.920364,-0.00385016,-0.000115819,-0.00114511,-2.35138e-08,28,-1,15.8448,13.0702,-5.83487,4.58035,1.7
3.09775,3.10065,0.921332,0.920364,-0.00386749,-0.000134794,-0.00115027,-1.56759e-08,28,-1,15.9259,13.0644,-5.80732,4.601,1.704
3.09774,3.10065,0.921327,0.920364,-0.00388486,-0.000147445,-0.00115543,-1.04506e-08,29,-1,16.0074,13.0809,-5.77965,4.62168,1.708
3.09772,3.10065,0.921323,0.920364,-0.00390226,-0.000155878,-0.00116061,-6.96706e-09,29,-1,16.0892,13.1123,-5.75186,4.6424,1.712
3.09771,3.10065,0.921318,0.920364,-0.00391969,-0.000219083,-0.00116579,-4.64471e-09,29,-1,16.1677,12.9521,-5.72395,4.66315,1.716
3.09769,3.10065,0.921313,0.920364,-0.00393717,-0.000261219,-0.00117099,-3.09647e-09,29,-1,16.2465,12.8658,-5.6959,4.68395,1.72
3.09768,3.10064,0.921309,0.920364,-0.00395467,-0.000346891,-0.0011762,-2.06431e-09,28,0,16.3219,12.6272,-5.66774,4.70478,1.724
3.09766,3.10064,0.921304,0.920364,-0.00397222,-0.000404006,-0.00118141,-1.37621e-09,28,0,16.3977,12.4887,-5.63945,4.72565,1.728
3.09764,3.10064,0.921299,0.920364,-0.00398979,-0.000499665,-0.00118664,-9.17473e-10,28,0,16.4701,12.2154,-5.61103,4.74656,1.732
3.09763,3.10064,0.921295,0.920364,-0.0040074,-0.000563437,-0.00119188,-6.11649e-10,28,0,16.5428,12.0539,-5.58249,4.76752,1.736
3.09761,3.10063,0.92129,0.920364,-0.00402505,-0.000663534,-0.00119713,-4.07766e-10,28,0,16.6122,11.7653,-5.55382,4.78851,1.74
3.0976,3.10063,0.921285,0.920364,-0.00404273,-0.000759056,-0.00120239,-2.71844e-10,28,0,16.68,11.4929,-5.52503,4.80955,1.744
3.09758,3.10062,0.92128,0.920364,-0.00406045,-0.00088032,-0.00120766,-1.81229e-10,27,0,16.7445,11.1305,-5.49611,4.83062,1.748
3.09756,3.10062,0.921275,0.920364,-0.0040782,-0.00107633,-0.00121294,-1.20819e-10,27,0,16.8017,10.5066,-5.46706,4.85174,1.752
3.09755,3.10061,0.92127,0.920364,-0.00409599,-0.001207,-0.00121823,-8.05463e-11,26,0,16.8593,10.1115,-5.43788,4.8729,1.756
3.09753,3.10061,0.921266,0.920364,-0.00411381,-0.00123653,-0.00122353,-5.36975e-11,26,0,16.9211,10.0705,-5.40858,4.89411,1.76
3.09751,3.1006,0.921261,0.920364,-0.00413166,-0.00134259,-0.00122884,-3.57984e-11,26,0,16.9776,9.76177,-5.37915,4.91535,1.764
3.0975,3.10059,0.921256,0.920364,-0.00414956,-0.00149967,-0.00123416,-2.38656e-11,26,0,17.0288,9.2746,-5.3496,4.93663,1.768
3.09748,3.10059,0.921251,0.920364,-0.00416748,-0.00154681,-0.00123949,-1.59104e-11,26,0,17.0842,9.17236,-5.31991,4.95796,1.772
3.09746,3.10058,0.921246,0.920364,-0.00418544,-0.00157823,-0.00124483,-1.06069e-11,26,0,17.14,9.12523,-5.2901,4.97932,1.776
3.09745,3.10057,0.921241,0.920364,-0.00420344,-0.00162797,-0.00125018,-7.07128e-12,26,0,17.1942,9.01412,-5.26016,5.00073,1.78
3.09743,3.10057,0.921236,0.920364,-0.00422146,-0.00160355,-0.00125555,-4.71419e-12,26,0,17.2527,9.16269,-5.23009,5.02218,1.784
3.09741,3.10056,0.921231,0.920364,-0.00423953,-0.00158727,-0.00126092,-3.14279e-12,26,0,17.3116,9.2829,-5.1999,5.04367,1.788
3.0974,3.10055,0.921226,0.920364,-0.00425763,-0.00157642,-0.0012663,-2.09519e-12,26,0,17.3708,9.38423,-5.16957,5.0652,1.792
3.09738,3.10055,0.921221,0.920364,-0.00427576,-0.00148281,-0.00127169,-1.3968e-12,27,0,17.4362,9.77533,-5.13911,5.08678,1.796
3.09736,3.10054,0.921216,0.920364,-0.00429393,-0.0014204,-0.0012771,-9.31197e-13,27,0,17.502,10.0573,-5.10853,5.10839,1.8
3.09735,3.10054,0.92121,0.920364,-0.00431213,-0.00129243,-0.00128251,-6.20798e-13,28,0,17.5738,10.569,-5.07781,5.13004,1.804
3.09733,3.10054,0.921205,0.920364,-0.00433037,-0.00112074,-0.00128793,-4.13866e-13,28,0,17.6518,11.2337,-5.04697,5.15174,1.808
3.09731,3.10053,0.9212,0.920364,-0.00434864,-0.00109265,-0.00129337,-2.7591e-13,29,0,17.7245,11.396,-5.01599,5.17348,1.812
3.09729,3.10053,0.921195,0.920364,-0.00436694,-0.00095876,-0.00129881,-1.8394e-13,29,0,17.8051,11.9286,-4.98489,5.19525,1.816
3.09728,3.10053,0.92119,0.920364,-0.00438528,-0.000927082,-0.00130427,-1.22627e-13,29,0,17.8824,12.1037,-4.95365,5.21707,1.82
3.09726,3.10052,0.921184,0.920364,-0.00440366,-0.000905964,-0.00130973,-8.17512e-14,30,0,17.9601,12.2419,-4.92228,5.23893,1.824
3.09724,3.10052,0.921179,0.920364,-0.00442207,-0.000920676,-0.00131521,-5.45008e-14,30,0,18.0363,12.2549,-4.89078,5.26083,1.828
3.09722,3.10051,0.921174,0.920364,-0.00444051,-0.00104565,-0.00132069,-3.63339e-14,29,0,18.1053,11.882,-4.85915,5.28277,1.832
3.0972,3.10051,0.921169,0.920364,-0.00445899,-0.00112896,-0.00132619,-2.42226e-14,29,0,18.1746,11.6551,-4.82739,5.30476,1.836
3.09719,3.1005,0.921163,0.920364,-0.0044775,-0.0012133,-0.00133169,-1.61484e-14,29,0,18.2425,11.4247,-4.79549,5.32678,1.84
3.09717,3.1005,0.921158,0.920364,-0.00449604,-0.00135589,-0.00133721,-1.07656e-14,29,0,18.3051,10.9905,-4.76347,5.34884,1.844
3.09715,3.10049,0.921153,0.920364,-0.00451462,-0.00153733,-0.00134274,-7.17706e-15,28,0,18.3625,10.4205,-4.73131,5.37095,1.848
3.09713,3.10048,0.921147,0.920364,-0.00453324,-0.00171587,-0.00134827,-4.78471e-15,28,0,18.4164,9.8608,-4.69902,5.39309,1.852
3.09711,3.10047,0.921142,0.920364,-0.00455189,-0.0018061,-0.00135382,-3.18981e-15,28,0,18.4726,9.61024,-4.66659,5.41528,1.856
3.0971,3.10047,0.921136,0.920364,-0.00457057,-0.00180868,-0.00135938,-2.12654e-15,28,0,18.5331,9.66662,-4.63403,5.4375,1.86
3.09708,3.10046,0.921131,0.920364,-0.00458929,-0.00175281,-0.00136494,-1.41769e-15,28,0,18.5977,9.92765,-4.60134,5.45977,1.864
3.09706,3.10045,0.921126,0.920364,-0.00460804,-0.00165799,-0.00137052,-9.45127e-16,28,0,18.6666,10.3252,-4.56852,5.48208,1.868
3.09704,3.10045,0.92112,0.920364,-0.00462682,-0.00159477,-0.00137611,-6.30085e-16,29,0,18.7359,10.6122,-4.53556,5.50442,1.872
3.09702,3.10044,0.921115,0.920364,-0.00464564,-0.00146625,-0.0013817,-2.87909e-05,29,0,18.8113,11.1279,-4.50454,5.41165,1.876
3.097,3.10044,0.921109,0.920364,-0.00466449,-0.00138058,-0.00138731,9.59697e-06,30,1,18.8871,11.4937,-4.46923,5.58763,1.88
3.09699,3.10043,0.921103,0.920364,-0.00468338,-0.00126587,-0.00139293,6.39798e-06,30,1,18.9671,11.9613,-4.43587,5.5973,1.884
3.09697,3.10043,0.921098,0.920364,-0.0047023,-0.0012182,-0.00139856,4.26532e-06,31,1,19.0456,12.1944,-4.40237,5.61128,1.888
3.09695,3.10042,0.921092,0.920364,-0.00472126,-0.00121521,-0.00140419,2.84355e-06,31,1,19.1227,12.2712,-4.36874,5.62815,1.892
3.09693,3.10042,0.921087,0.920364,-0.00474025,-0.00127079,-0.00140984,1.8957e-06,31,1,19.1964,12.1431,-4.33497,5.64695,1.896
3.09691,3.10041,0.921081,0.920364,-0.00475927,-0.00139422,-0.0014155,1.2638e-06,31,1,19.2647,11.7777,-4.30107,5.66705,1.9
3.09689,3.10041,0.921075,0.920364,-0.00477832,-0.0015053,-0.00142117,8.42533e-07,30,1,19.3317,11.4556,-4.26703,5.68803,1.904
3.09687,3.1004,0.92107,0.920364,-0.00479741,-0.00160814,-0.00142684,-2.82292e-05,30,1,19.3971,11.1625,-4.23492,5.59446,1.908
3.09685,3.10039,0.921064,0.920364,-0.00481654,-0.00184945,-0.00143253,9.97143e-06,29,1,19.4515,10.3848,-4.19854,5.77001,1.912
3.09683,3.10038,0.921058,0.920364,-0.0048357,-0.00203911,-0.00143823,6.64762e-06,29,1,19.5045,9.78805,-4.16409,5.77951,1.916
3.09681,3.10037,0.921052,0.920364,-0.00485489,-0.00225193,-0.00144394,4.43175e-06,28,1,19.5522,9.11037,-4.1295,5.79348,1.92
3.09679,3.10036,0.921047,0.920364,-0.00487411,-0.00242259,-0.00144966,2.9545e-06,28,1,19.5984,8.58032,-4.09478,5.81044,1.924
3.09677,3.10035,0.921041,0.920364,-0.00489337,-0.00256516,-0.00145538,1.96967e-06,27,1,19.6431,8.14874,-4.05992,5.82942,1.928
3.09676,3.10034,0.921035,0.920364,-0.00491267,-0.00263142,-0.00146112,1.31311e-06,27,1,19.6902,7.98437,-4.02492,5.84974,1.932
3.09674,3.10032,0.921029,0.920364,-0.00493199,-0.00261801,-0.00146687,8.75407e-07,27,1,19.7415,8.09896,-3.98979,5.87098,1.936
3.09672,3.10032,0.921023,0.920364,-0.00495135,-0.00255148,-0.00147263,-2.82073e-05,28,1,19.797,8.39955,-3.95659,5.77769,1.94
3.0967,3.10031,0.921017,0.920364,-0.00497075,-0.00250714,-0.0014784,9.98604e-06,28,2,19.8529,8.62265,-3.9191,5.95353,1.944
3.09668,3.1003,0.921011,0.920364,-0.00499018,-0.00253515,-0.00148417,6.65736e-06,28,2,19.9055,8.59259,-3.88355,5.96333,1.948
3.09666,3.10028,0.921005,0.920364,-0.00500964,-0.00258262,-0.00148996,4.43824e-06,28,2,19.9566,8.49456,-3.84786,5.97761,1.952
3.09664,3.10027,0.920999,0.920364,-0.00502913,-0.00270064,-0.00149576,2.95883e-06,28,2,20.0024,8.14973,-3.81203,5.99488,1.956
3.09662,3.10026,0.920993,0.920364,-0.00504866,-0.00275053,-0.00150157,1.97255e-06,28,2,20.0506,8.04347,-3.77606,6.01417,1.96
3.0966,3.10025,0.920987,0.920364,-0.00506822,-0.0027262,-0.00150739,1.31503e-06,28,2,20.1029,8.19707,-3.73996,6.03481,1.964
3.09658,3.10024,0.920981,0.920364,-0.00508782,-0.00270999,-0.00151322,-2.79142e-05,28,2,20.1557,8.32241,-3.70578,5.9412,1.968
3.09655,3.10023,0.920975,0.920364,-0.00510745,-0.00264159,-0.00151905,-1.86095e-05,28,2,20.2128,8.63048,-3.66939,6.00178,1.972
3.09653,3.10022,0.920969,0.920364,-0.00512711,-0.002596,-0.0015249,-1.24063e-05,29,2,20.2703,8.85888,-3.63287,6.04998,1.976
3.09651,3.10021,0.920963,0.920364,-0.0051468,-0.00259439,-0.00153076,-8.27088e-06,29,2,20.3263,8.93343,-3.5962,6.08995,1.98
3.09649,3.1002,0.920957,0.920364,-0.00516653,-0.00256453,-0.00153663,-5.51392e-06,29,2,20.3846,9.107,-3.55939,6.12445,1.984
3.09647,3.10019,0.920951,0.920364,-0.00518629,-0.00251583,-0.0015425,-3.67595e-06,29,2,20.4453,9.34661,-3.52244,6.15531,1.988
3.09645,3.10018,0.920945,0.920364,-0.00520609,-0.00259853,-0.00154839,-2.45063e-06,29,2,20.4988,9.12645,-3.48535,6.18377,1.992
3.09643,3.10017,0.920938,0.920363,-0.00522592,-0.00268246,-0.00155429,-3.04247e-05,29,2,20.5508,8.90212,-3.45019,6.09546,1.996
3.09641,3.10016,0.920932,0.920363,-0.00524578,-0.00279599,-0.0015602,-2.02831e-05,29,2,20.5995,8.57428,-3.41282,6.15966,2
3.09639,3.10014,0.920926,0.920363,-0.00526568,-0.00295805,-0.00156611,-1.35221e-05,28,2,20.6429,8.07671,-3.3753,6.21037,2.004
3.09637,3.10013,0.92092,0.920363,-0.00528561,-0.00303729,-0.00157204,-9.01472e-06,28,2,20.6887,7.86909,-3.33764,6.25211,2.008
3.09635,3.10012,0.920913,0.920363,-0.00530557,-0.00303255,-0.00157798,-6.00981e-06,28,2,20.7387,7.95558,-3.29984,6.28787,2.012
3.09633,3.10011,0.920907,0.920363,-0.00532556,-0.00300059,-0.00158393,-4.00654e-06,28,3,20.791,8.13741,-3.2619,6.31967,2.016
3.0963,3.10009,0.920901,0.920363,-0.00534559,-0.00297928,-0.00158988,-2.67103e-06,29,3,20.8438,8.28207,-3.22381,6.34884,2.02
3.09628,3.10008,0.920894,0.920363,-0.00536565,-0.00299387,-0.00159585,-1.78069e-06,29,3,20.8951,8.30123,-3.18559,6.37627,2.024
3.09626,3.10007,0.920888,0.920363,-0.00538575,-0.00297481,-0.00160182,-1.18712e-06,29,3,20.9488,8.43829,-3.14721,6.40255,2.028
3.09624,3.10006,0.920882,0.920363,-0.00540587,-0.00290451,-0.00160781,-7.91416e-07,29,3,21.0067,8.75476,-3.1087,6.42808,2.032
3.09622,3.10005,0.920875,0.920364,-0.00542603,-0.00288644,-0.00161381,2.82633e-05,29,3,21.0631,8.88857,-3.06797,6.56828,2.036
3.0962,3.10004,0.920869,0.920363,-0.00544623,-0.0028744,-0.00161981,-9.94872e-06,30,3,21.12,9.00141,-3.03124,6.43946,2.04
3.09617,3.10002,0.920862,0.920363,-0.00546645,-0.00289516,-0.00162583,-6.63248e-06,30,3,21.1754,8.99954,-2.99229,6.47679,2.044
3.09615,3.10001,0.920856,0.920363,-0.00548671,-0.00299537,-0.00163185,-4.42165e-06,29,3,21.2256,8.71971,-2.9532,6.50973,2.048
3.09613,3.1,0.920849,0.920363,-0.00550701,-0.00314855,-0.00163789,-2.94777e-06,29,3,21.2705,8.2546,-2.91396,6.53977,2.052
3.09611,3.09998,0.920843,0.920363,-0.00552733,-0.00322188,-0.00164394,-1.96518e-06,29,3,21.3178,8.06908,-2.87458,6.56788,2.056
3.09609,3.09997,0.920836,0.920363,-0.00554769,-0.00327077,-0.00164999,-1.31012e-06,29,3,21.3655,7.96923,-2.83505,6.59472,2.06
3.09606,3.09996,0.920829,0.920363,-0.00556808,-0.00327457,-0.00165605,-8.73413e-07,29,3,21.4156,8.0273,-2.79538,6.62073,2.064
3.09604,3.09994,0.920823,0.920363,-0.0055885,-0.00339226,-0.00166213,-5.82275e-07,29,3,21.4585,7.68684,-2.75556,6.64619,2.068
3.09602,3.09993,0.920816,0.920363,-0.00560896,-0.00341315,-0.00166821,-3.88183e-07,29,3,21.5057,7.68535,-2.7156,6.6713,2.072
3.096,3.09992,0.920809,0.920363,-0.00562945,-0.00339828,-0.00167431,-2.58789e-07,29,4,21.5552,7.80911,-2.67548,6.69619,2.076
3.09597,3.0999,0.920803,0.920363,-0.00564997,-0.00341715,-0.00168041,-1.72526e-07,29,4,21.6033,7.81486,-2.63523,6.72095,2.08
3.09595,3.09989,0.920796,0.920363,-0.00567053,-0.00342974,-0.00168652,-1.15017e-07,29,4,21.6518,7.84276,-2.59483,6.74564,2.084
3.09593,3.09987,0.920789,0.920363,-0.00569112,-0.00349571,-0.00169265,-7.66782e-08,29,4,21.6969,7.68391,-2.55427,6.77028,2.088
3.09591,3.09986,0.920782,0.920363,-0.00571174,-0.00348211,-0.00169878,-5.11188e-08,29,4,21.7464,7.80368,-2.51358,6.79492,2.092
3.09588,3.09985,0.920776,0.920363,-0.00573239,-0.00335788,-0.00170492,-3.40792e-08,30,4,21.8038,8.31078,-2.47273,6.81956,2.096
3.09586,3.09983,0.920769,0.920363,-0.00575307,-0.00327506,-0.00171108,-2.27195e-08,30,4,21.8618,8.67305,-2.43174,6.84421,2.1
3.09584,3.09982,0.920762,0.920363,-0.00577379,-0.00319106,-0.00171724,-1.51463e-08,30,4,21.9221,9.03958,-2.3906,6.86889,2.104
3.09581,3.09981,0.920755,0.920363,-0.00579454,-0.00325022,-0.00172341,-1.00975e-08,30,4,21.9752,8.90514,-2.34931,6.8936,2.108
3.09579,3.0998,0.920748,0.920363,-0.00581533,-0.00323208,-0.00172959,-6.73169e-09,31,4,22.0326,9.04138,-2.30788,6.91834,2.112
3.09577,3.09978,0.920741,0.920363,-0.00583614,-0.00336394,-0.00173578,-4.4878e-09,30,4,22.081,8.65273,-2.26629,6.94311,2.116
3.09574,3.09977,0.920734,0.920363,-0.00585699,-0.00345184,-0.00174198,-2.99186e-09,30,4,22.1298,8.41802,-2.22456,6.96792,2.12
3.09572,3.09975,0.920727,0.920363,-0.00587787,-0.00356803,-0.00174819,-1.99458e-09,30,4,22.1753,8.08446,-2.18268,6.99277,2.124
3.0957,3.09974,0.92072,0.920363,-0.00589879,-0.0036167,-0.00175441,-2.87923e-05,30,4,22.2231,7.98732,-2.14272,6.90248,2.128
3.09567,3.09972,0.920713,0.920363,-0.00591973,-0.00353398,-0.00176064,-1.91948e-05,30,4,22.279,8.35015,-2.10054,6.96579,2.132
3.09565,3.09971,0.920706,0.920363,-0.00594071,-0.00353641,-0.00176688,-1.27966e-05,30,4,22.3315,8.41505,-2.05821,7.01634,2.136
3.09563,3.0997,0.920699,0.920363,-0.00596172,-0.00345166,-0.00177313,-8.53104e-06,31,5,22.3903,8.78521,-2.01573,7.0584,2.14
3.0956,3.09968,0.920692,0.920363,-0.00598277,-0.00351033,-0.00177939,-5.68736e-06,31,5,22.4418,8.65353,-1.9731,7.09481,2.144
3.09558,3.09967,0.920685,0.920363,-0.00600384,-0.00352065,-0.00178566,-3.79157e-06,31,5,22.4958,8.69118,-1.93032,7.12747,2.148
3.09555,3.09965,0.920678,0.920363,-0.00602495,-0.00344115,-0.00179194,2.62632e-05,31,5,22.5559,9.04329,-1.88531,7.2728,2.152
3.09553,3.09964,0.92067,0.920363,-0.00604609,-0.00327299,-0.00179822,-1.12821e-05,32,5,22.6241,9.70584,-1.84431,7.14777,2.156
3.09551,3.09963,0.920663,0.920363,-0.00606726,-0.00287298,-0.00180452,-7.52141e-06,33,5,22.7117,11.18,-1.80107,7.188,2.16
3.09548,3.09963,0.920656,0.920363,-0.00608847,-0.00254872,-0.00181083,-5.01427e-06,35,5,22.8036,12.3891,-1.75769,7.22325,2.164
3.09546,3.09962,0.920649,0.920363,-0.0061097,-0.00213101,-0.00181714,-3.34285e-06,36,5,22.9093,13.9254,-1.71415,7.25521,2.168
3.09543,3.09962,0.920641,0.920363,-0.00613097,-0.00176616,-0.00182347,-2.22857e-06,38,5,23.0211,15.2768,-1.67046,7.28497,2.172
3.09541,3.09962,0.920634,0.920363,-0.00615227,-0.00135019,-0.00182981,-1.48571e-06,39,5,23.1449,16.8073,-1.62663,7.31328,2.176
3.09538,3.09961,0.920627,0.920363,-0.00617361,-0.00107287,-0.00183615,-9.90474e-07,41,5,23.269,17.8526,-1.58263,7.34064,2.18
3.09536,3.09961,0.920619,0.920363,-0.00619497,-0.000744038,-0.0018425,-6.60316e-07,42,5,23.4032,19.0783,-1.53849,7.36738,2.184
3.09533,3.09961,0.920612,0.920363,-0.00621637,-0.000496026,-0.00184887,-4.40211e-07,43,5,23.5397,20.0212,-1.49419,7.39372,2.188
3.09531,3.09961,0.920605,0.920363,-0.0062378,-0.000388266,-0.00185524,-2.93474e-07,44,5,23.6729,20.4734,-1.44974,7.4198,2.192
3.09528,3.09961,0.920597,0.920363,-0.00625926,-0.000230053,-0.00186163,-1.95649e-07,44,6,23.8123,21.1022,-1.40514,7.44572,2.196
3.09526,3.09961,0.92059,0.920363,-0.00628076,-0.000153369,-0.00186802,-1.30433e-07,45,6,23.9502,21.4459,-1.36039,7.47155,2.2
3.09523,3.09961,0.920582,0.920363,-0.00630228,-0.000159828,-0.00187442,-8.69552e-08,45,6,24.0848,21.4986,-1.31548,7.49734,2.204
3.09521,3.09961,0.920575,0.920363,-0.00632384,-0.000135343,-0.00188083,-5.79701e-08,45,6,24.2218,21.6597,-1.27041,7.5231,2.208
3.09518,3.09961,0.920567,0.920363,-0.00634543,-0.000205392,-0.00188725,-3.86468e-08,45,6,24.3536,21.4901,-1.2252,7.54886,2.212
3.09516,3.09961,0.92056,0.920363,-0.00636705,-0.000165719,-0.00189368,-2.57645e-08,46,6,24.4915,21.7047,-1.17983,7.57463,2.216
3.09513,3.09961,0.920552,0.920363,-0.00638871,-0.000225643,-0.00190012,-1.71763e-08,46,6,24.6242,21.5707,-1.1343,7.60043,2.22
3.09511,3.09961,0.920544,0.920363,-0.00641039,-0.00017922,-0.00190657,-1.14509e-08,46,6,24.7631,21.8091,-1.08862,7.62625,2.224
3.09508,3.09961,0.920537,0.920363,-0.00643211,-0.000263434,-0.00191303,-7.63393e-09,46,6,24.8949,21.5904,-1.04278,7.6521,2.228
3.09505,3.09961,0.920529,0.920363,-0.00645386,-0.000204414,-0.0019195,-5.08928e-09,46,6,25.0347,21.8731,-0.996794,7.67799,2.232
3.09503,3.09961,0.920522,0.920363,-0.00647564,-0.000193858,-0.00192598,-3.39286e-09,47,6,25.1732,21.9862,-0.950648,7.70391,2.236
3.095,3.09961,0.920514,0.920363,-0.00649745,-0.00018682,-0.00193247,-2.2619e-09,47,6,25.3121,22.0872,-0.904347,7.72986,2.24
3.09498,3.0996,0.920506,0.920363,-0.0065193,-0.00021092,-0.00193896,-1.50794e-09,47,6,25.4495,22.0793,-0.85789,7.75585,2.244
3.09495,3.0996,0.920498,0.920363,-0.00654117,-0.000226986,-0.00194547,-1.00529e-09,47,6,25.5875,22.0996,-0.811277,7.78188,2.248
3.09492,3.0996,0.92049,0.920363,-0.00656308,-0.000266488,-0.00195199,-6.70194e-10,47,7,25.7241,22.0381,-0.764507,7.80794,2.252
3.0949,3.0996,0.920483,0.920363,-0.00658502,-0.000292822,-0.00195851,-4.46796e-10,47,7,25.8611,22.0227,-0.717581,7.83405,2.256
3.09487,3.0996,0.920475,0.920363,-0.00660699,-0.000339169,-0.00196505,-2.97864e-10,47,7,25.9967,21.9374,-0.670499,7.86019,2.26
3.09485,3.0996,0.920467,0.920363,-0.00662899,-0.000254904,-0.00197159,-1.98576e-10,48,7,26.1404,22.3093,-0.623259,7.88636,2.264
3.09482,3.0996,0.920459,0.920363,-0.00665103,-0.000227518,-0.00197814,-1.32384e-10,48,7,26.2827,22.4823,-0.575862,7.91258,2.268
3.09479,3.0996,0.920451,0.920363,-0.00667309,-0.00020926,-0.00198471,-2.8791e-05,49,7,26.4254,22.6234,-0.530381,7.82366,2.272
3.09477,3.0996,0.920443,0.920363,-0.00669519,-0.000168298,-0.00199128,-1.9194e-05,49,7,26.5706,22.8441,-0.482669,7.88834,2.276
3.09474,3.0996,0.920435,0.920363,-0.00671732,-0.00016978,-0.00199786,-1.2796e-05,49,7,26.7143,22.9164,-0.434799,7.94026,2.28
3.09471,3.0996,0.920427,0.920363,-0.00673948,-0.000141978,-0.00200445,-8.53067e-06,49,7,26.8605,23.0913,-0.386772,7.98369,2.284
3.09468,3.09959,0.920419,0.920363,-0.00676167,-0.000152234,-0.00201105,-5.68711e-06,50,7,27.0052,23.133,-0.338586,8.02146,2.288
3.09466,3.09959,0.920411,0.920363,-0.0067839,-0.00013028,-0.00201766,-3.79141e-06,50,7,27.1523,23.2877,-0.290241,8.05548,2.292
3.09463,3.09959,0.920403,0.920363,-0.00680615,-0.000115644,-0.00202428,-2.52761e-06,50,7,27.2999,23.4168,-0.241738,8.08701,2.296
3.0946,3.09959,0.920395,0.920363,-0.00682844,-0.000105887,-0.00203091,-1.68507e-06,50,7,27.4479,23.5289,-0.193075,8.1169,2.3
3.09458,3.09959,0.920387,0.920363,-0.00685076,-9.93824e-05,-0.00203755,-1.12338e-06,51,8,27.5965,23.6298,-0.144254,8.1457,2.304
3.09455,3.09959,0.920379,0.920363,-0.0068731,-0.000123837,-0.00204419,-7.4892e-07,51,8,27.7437,23.6224,-0.0952731,8.17378,2.308
3.09452,3.09959,0.92037,0.920363,-0.00689549,-0.00014014,-0.00205085,-4.9928e-07,51,8,27.8913,23.6437,-0.0461326,8.20141,2.312
3.09449,3.09959,0.920362,0.920363,-0.0069179,-0.000237381,-0.00205752,-3.32853e-07,51,8,28.0338,23.3818,0.00316777,8.22873,2.316
3.09447,3.09959,0.920354,0.920363,-0.00694034,-0.000244627,-0.00206419,-2.21902e-07,51,8,28.1805,23.435,0.0526282,8.25588,2.32
3.09444,3.09959,0.920346,0.920363,-0.00696281,-0.000249457,-0.00207088,-1.47935e-07,51,8,28.3277,23.4967,0.102249,8.28291,2.324
3.09441,3.09959,0.920337,0.920362,-0.00698532,-0.000223887,-0.00207757,-2.88895e-05,52,8,28.4774,23.665,0.149957,8.19472,2.328
3.09438,3.09959,0.920329,0.920362,-0.00700786,-0.00020684,-0.00208427,-1.92597e-05,52,8,28.6275,23.8036,0.199899,8.26005,2.332
3.09435,3.09959,0.920321,0.920362,-0.00703042,-0.000224266,-0.00209098,-1.28398e-05,52,8,28.7762,23.8216,0.250003,8.31258,2.336
3.09433,3.09958,0.920312,0.920363,-0.00705302,-0.000235883,-0.00209771,2.02311e-05,52,8,28.9254,23.86,0.30234,8.47175,2.34
3.0943,3.09958,0.920304,0.920362,-0.00707565,-0.000243628,-0.00210444,-1.53036e-05,52,8,29.0751,23.9121,0.350693,8.35653,2.344
3.09427,3.09958,0.920295,0.920362,-0.00709832,-0.000220001,-0.00211118,-1.02024e-05,53,8,29.2273,24.0741,0.40128,8.4039,2.348
3.09424,3.09958,0.920287,0.920362,-0.00712101,-0.000204249,-0.00211793,-6.80158e-06,53,8,29.3799,24.2087,0.452029,8.4445,2.352
3.09421,3.09958,0.920279,0.920362,-0.00714373,-0.000164957,-0.00212468,-4.53439e-06,53,8,29.5349,24.4257,0.50294,8.4806,2.356
3.09418,3.09958,0.92027,0.920362,-0.00716649,-0.000138762,-0.00213145,-3.02292e-06,54,9,29.6904,24.597,0.554014,8.51371,2.36
3.09415,3.09958,0.920261,0.920362,-0.00718927,-0.00015009,-0.00213823,-2.01528e-06,54,9,29.8445,24.6371,0.60525,8.54485,2.364
3.09413,3.09958,0.920253,0.920362,-0.00721209,-0.000128851,-0.00214501,-1.34352e-06,54,9,30.001,24.7913,0.656649,8.57468,2.368
3.0941,3.09958,0.920244,0.920362,-0.00723493,-0.000172273,-0.00215181,-8.95681e-07,54,9,30.1542,24.7193,0.708211,8.60366,2.372
3.09407,3.09958,0.920236,0.920362,-0.00725781,-0.000114849,-0.00215861,-5.97121e-07,55,9,30.3137,25.0004,0.759936,8.63207,2.376
3.09404,3.09958,0.920227,0.920362,-0.00728072,-0.000162939,-0.00216543,-3.98081e-07,55,9,30.4679,24.9122,0.811824,8.66012,2.38
3.09401,3.09958,0.920218,0.920362,-0.00730366,-0.000108626,-0.00217225,-2.65387e-07,55,9,30.6283,25.1826,0.863877,8.68794,2.384
3.09398,3.09958,0.92021,0.920362,-0.00732663,-0.00015879,-0.00217908,-1.76925e-07,55,9,30.7835,25.0875,0.916093,8.71562,2.388
3.09395,3.09958,0.920201,0.920362,-0.00734964,-0.00010586,-0.00218592,-1.1795e-07,56,9,30.945,25.3532,0.968473,8.74322,2.392
3.09392,3.09958,0.920192,0.920362,-0.00737267,-0.000128155,-0.00219277,-7.86332e-08,56,9,31.1031,25.3558,1.02102,8.77078,2.396
3.09389,3.09958,0.920183,0.920362,-0.00739573,-8.54368e-05,-0.00219963,-5.24221e-08,56,9,31.2656,25.586,1.07373,8.79833,2.4
3.09386,3.09958,0.920175,0.920362,-0.00741883,-5.69579e-05,-0.0022065,-3.49481e-08,57,9,31.4285,25.7665,1.1266,8.82587,2.404
3.09383,3.09958,0.920166,0.920362,-0.00744195,-9.18098e-06,-0.00221338,-2.32987e-08,57,10,31.5939,26.0147,1.17964,8.85343,2.408
3.0938,3.09958,0.920157,0.920362,-0.00746511,-6.37025e-05,-0.00222027,-1.55325e-08,57,10,31.7541,25.9049,1.23284,8.88101,2.412
3.09377,3.09958,0.920148,0.920362,-0.00748829,-4.24683e-05,-0.00222716,-1.0355e-08,57,10,31.9186,26.0604,1.28621,8.90861,2.416
3.09374,3.09958,0.920139,0.920362,-0.00751151,-5.71031e-05,-0.00223407,-2.87978e-05,58,10,32.0817,26.0904,1.33767,8.82108,2.42
3.09371,3.09958,0.92013,0.920362,-0.00753476,-6.68597e-05,-0.00224098,-1.91986e-05,58,10,32.2453,26.1376,1.39137,8.88714,2.424
3.09368,3.09958,0.920121,0.920362,-0.00755804,-1.57822e-05,-0.00224791,-1.2799e-05,58,10,32.4132,26.3979,1.44524,8.94043,2.428
3.09365,3.09958,0.920112,0.920362,-0.00758135,-1.05215e-05,-0.00225484,-8.53269e-06,59,10,32.5797,26.4979,1.49927,8.98522,2.432
3.09362,3.09958,0.920103,0.920362,-0.00760468,-7.01431e-06,-0.00226178,-5.68846e-06,59,10,32.7468,26.5918,1.55347,9.02437,2.436
3.09359,3.09958,0.920094,0.920362,-0.00762805,-4.67621e-06,-0.00226873,-3.79231e-06,59,10,32.9143,26.6818,1.60784,9.05976,2.44
3.09356,3.09958,0.920085,0.920362,-0.00765146,-3.19084e-05,-0.00227569,-2.5282e-06,59,10,33.0805,26.6684,1.66237,9.09265,2.444
3.09353,3.09958,0.920076,0.920362,-0.00767489,-2.12723e-05,-0.00228266,-1.68547e-06,60,10,33.2491,26.7876,1.71707,9.1239,2.448
3.0935,3.09958,0.920067,0.920362,-0.00769835,-4.29724e-05,-0.00228964,-1.12365e-06,60,10,33.4163,26.7938,1.77194,9.15406,2.452
3.09347,3.09958,0.920058,0.920362,-0.00772184,1.42635e-07,-0.00229662,-7.49098e-07,60,11,33.5878,27.0269,1.82697,9.1835,2.456
3.09344,3.09958,0.920048,0.920362,-0.00774536,-5.74868e-05,-0.00230362,-4.99398e-07,60,11,33.7542,26.9076,1.88218,9.21249,2.46
3.09341,3.09957,0.920039,0.920362,-0.00776892,-6.71154e-05,-0.00231063,-3.32932e-07,60,11,33.9229,26.9563,1.93755,9.24117,2.464
3.09338,3.09957,0.92003,0.920362,-0.0077925,-7.35345e-05,-0.00231764,-2.21955e-07,61,11,34.0922,27.0164,1.99309,9.26967,2.468
3.09334,3.09957,0.920021,0.920362,-0.00781611,-2.02321e-05,-0.00232466,-2.89389e-05,61,11,34.2658,27.2856,2.04672,9.1829,2.472
3.09331,3.09957,0.920011,0.920362,-0.00783976,-7.10699e-05,-0.0023317,-1.92926e-05,61,11,34.4342,27.1904,2.1026,9.24961,2.476
3.09328,3.09957,0.920002,0.920362,-0.00786343,-7.61709e-05,-0.00233874,-1.28617e-05,61,11,34.605,27.2554,2.15864,9.3035,2.48
3.09325,3.09957,0.919993,0.920362,-0.00788713,-5.07806e-05,-0.00234579,-8.57449e-06,62,11,34.7783,27.4272,2.21486,9.34885,2.484
3.09322,3.09957,0.919983,0.920362,-0.00791087,-6.26446e-05,-0.00235285,-5.71632e-06,62,11,34.9502,27.4688,2.27124,9.38852,2.488
3.09319,3.09957,0.919974,0.920362,-0.00793463,-9.93449e-05,-0.00235991,-3.81088e-06,62,11,35.1207,27.4235,2.32779,9.42441,2.492
3.09316,3.09957,0.919964,0.920362,-0.00795843,-6.623e-05,-0.00236699,-2.54059e-06,62,11,35.2955,27.6227,2.38452,9.4578,2.496
3.09312,3.09957,0.919955,0.920362,-0.00798225,-7.29442e-05,-0.00237408,-1.69373e-06,63,11,35.469,27.6826,2.44141,9.48953,2.5
3.09309,3.09957,0.919945,0.920362,-0.00800611,-7.74204e-05,-0.00238117,-1.12915e-06,63,12,35.6429,27.7504,2.49847,9.52017,2.504
3.09306,3.09957,0.919936,0.920362,-0.00802999,-0.000109195,-0.00238828,-7.52767e-07,63,12,35.8155,27.7228,2.55571,9.55009,2.508
3.09303,3.09957,0.919926,0.920362,-0.00805391,-0.000101588,-0.00239539,-5.01845e-07,63,12,35.9905,27.8331,2.61311,9.57955,2.512
3.09299,3.09957,0.919917,0.920362,-0.00807786,-9.65162e-05,-0.00240251,-3.34563e-07,64,12,36.1661,27.9347,2.67069,9.60871,2.516
3.09296,3.09957,0.919907,0.920361,-0.00810183,-9.31351e-05,-0.00240964,-2.9014e-05,64,12,36.3422,28.0304,2.72636,9.52251,2.52
3.09293,3.09957,0.919897,0.920361,-0.00812584,-6.209e-05,-0.00241678,-1.93426e-05,64,12,36.5207,28.2231,2.78428,9.58976,2.524
3.0929,3.09957,0.919888,0.920361,-0.00814987,-7.01843e-05,-0.00242393,-1.28951e-05,64,12,36.6978,28.2789,2.84236,9.64414,2.528
3.09286,3.09957,0.919878,0.920361,-0.00817394,-7.55804e-05,-0.00243109,-8.59673e-06,65,12,36.8755,28.3443,2.90062,9.68996,2.532
3.09283,3.09957,0.919868,0.920361,-0.00819804,-5.0387e-05,-0.00243825,-5.73115e-06,65,12,37.0556,28.5168,2.95906,9.73009,2.536
3.0928,3.09957,0.919858,0.920361,-0.00822216,-6.23822e-05,-0.00244543,-3.82077e-06,65,12,37.2343,28.5592,3.01766,9.76644,2.54
3.09277,3.09957,0.919849,0.920361,-0.00824632,-4.15882e-05,-0.00245261,-2.54718e-06,66,12,37.4154,28.7165,3.07644,9.80027,2.544
3.09273,3.09957,0.919839,0.920361,-0.0082705,-5.65164e-05,-0.00245981,-1.69812e-06,66,12,37.5952,28.7489,3.13539,9.83244,2.548
3.0927,3.09957,0.919829,0.920361,-0.00829472,-6.64685e-05,-0.00246701,-1.13208e-06,66,13,37.7755,28.7989,3.19451,9.86351,2.552
3.09267,3.09957,0.919819,0.920361,-0.00831896,-7.31033e-05,-0.00247422,-7.5472e-07,66,13,37.9564,28.8605,3.2538,9.89386,2.556
3.09263,3.09957,0.919809,0.920361,-0.00834324,-0.000106317,-0.00248144,-5.03147e-07,66,13,38.1359,28.8292,3.31327,9.92375,2.56
3.0926,3.09957,0.919799,0.920361,-0.00836754,-4.20873e-05,-0.00248867,-3.35431e-07,67,13,38.3216,29.1391,3.37291,9.95333,2.564
3.09257,3.09957,0.919789,0.920361,-0.00839188,-5.68491e-05,-0.00249591,-2.23621e-07,67,13,38.504,29.1726,3.43273,9.98273,2.568
3.09253,3.09957,0.919779,0.920361,-0.00841624,-3.78994e-05,-0.00250315,-1.4908e-07,68,13,38.6889,29.3242,3.49271,10.012,2.572
3.0925,3.09957,0.919769,0.920361,-0.00844063,-5.40572e-05,-0.00251041,-9.9387e-08,68,13,38.8725,29.353,3.55288,10.0412,2.576
3.09247,3.09957,0.919759,0.920361,-0.00846506,-3.60381e-05,-0.00251767,-6.6258e-08,68,13,39.0584,29.5016,3.61321,10.0704,2.58
3.09243,3.09957,0.919749,0.920361,-0.00848951,-5.28163e-05,-0.00252495,-4.4172e-08,68,13,39.243,29.5284,3.67373,10.0996,2.584
3.0924,3.09957,0.919739,0.920361,-0.00851399,-3.52109e-05,-0.00253223,-2.9448e-08,69,13,39.4301,29.6757,3.73441,10.1288,2.588
3.09236,3.09957,0.919729,0.920361,-0.00853851,-5.22649e-05,-0.00253952,-1.9632e-08,69,13,39.6157,29.7018,3.79527,10.158,2.592
3.09233,3.09957,0.919719,0.920361,-0.00856305,-6.36342e-05,-0.00254682,-1.3088e-08,69,14,39.802,29.748,3.85631,10.1872,2.596
3.0923,3.09957,0.919708,0.920361,-0.00858762,-7.12137e-05,-0.00255412,-8.72533e-09,69,14,39.9887,29.8074,3.91752,10.2165,2.6
3.09226,3.09957,0.919698,0.920361,-0.00861222,-7.62667e-05,-0.00256144,-5.81689e-09,70,14,40.176,29.8758,3.97891,10.2457,2.604
3.09223,3.09957,0.919688,0.920361,-0.00863685,-7.96354e-05,-0.00256877,-2.87948e-05,70,14,40.3638,29.9503,4.0384,10.1599,2.608
3.09219,3.09957,0.919678,0.920361,-0.00866151,-5.30903e-05,-0.0025761,-1.91965e-05,70,14,40.5541,30.1295,4.10013,10.2276,2.612
3.09216,3.09957,0.919667,0.920361,-0.0086862,-3.53935e-05,-0.00258345,-1.27977e-05,71,14,40.745,30.2778,4.16205,10.2826,2.616
3.09212,3.09956,0.919657,0.920361,-0.00871092,-5.23866e-05,-0.0025908,-8.53179e-06,71,14,40.9344,30.3049,4.22414,10.3291,2.62
3.09209,3.09956,0.919647,0.920361,-0.00873567,-6.37153e-05,-0.00259816,-5.68786e-06,71,14,41.1244,30.3518,4.28641,10.3699,2.624
3.09205,3.09956,0.919636,0.920361,-0.00876045,-7.12678e-05,-0.00260553,-3.79191e-06,71,14,41.315,30.4121,4.34885,10.4069,2.628
3.09202,3.09956,0.919626,0.920361,-0.00878526,-7.63028e-05,-0.00261291,-2.52794e-06,71,14,41.5061,30.4813,4.41147,10.4415,2.632
3.09198,3.09956,0.919615,0.920361,-0.00881009,-7.96595e-05,-0.00262029,-1.68529e-06,72,14,41.6977,30.5565,4.47427,10.4744,2.636
3.09195,3.09956,0.919605,0.920361,-0.00883496,-8.18972e-05,-0.00262769,-1.12353e-06,72,15,41.8899,30.6357,4.53725,10.5063,2.64
3.09191,3.09956,0.919594,0.920361,-0.00885986,-8.33891e-05,-0.00263509,-7.49019e-07,72,15,42.0827,30.7176,4.6004,10.5374,2.644
3.09188,3.09956,0.919584,0.920361,-0.00888478,-8.43836e-05,-0.00264251,-4.99346e-07,73,15,42.276,30.8014,4.66373,10.568,2.648
3.09184,3.09956,0.919573,0.920361,-0.00890973,-8.50467e-05,-0.00264993,-2.91238e-05,73,15,42.4698,30.8864,4.72517,10.4832,2.652
3.0918,3.09956,0.919562,0.920361,-0.00893472,-8.54887e-05,-0.00265736,-1.94159e-05,73,15,42.6642,30.9723,4.78886,10.5518,2.656
3.09177,3.09956,0.919552,0.920361,-0.00895973,-8.57834e-05,-0.0026648,-1.29439e-05,73,15,42.8591,31.0588,4.85272,10.6074,2.66
3.09173,3.09956,0.919541,0.920361,-0.00898477,-8.59799e-05,-0.00267224,-8.62928e-06,74,15,43.0546,31.1458,4.91677,10.6545,2.664
3.0917,3.09956,0.91953,0.920361,-0.00900984,-8.61108e-05,-0.0026797,-5.75285e-06,74,15,43.2507,31.2331,4.98099,10.6958,2.668
3.09166,3.09956,0.91952,0.92036,-0.00903494,-8.61981e-05,-0.00268717,-6.14171e-05,74,15,43.4473,31.3206,5.04125,10.503,2.672
3.09162,3.09956,0.919509,0.920361,-0.00906007,-8.62564e-05,-0.00269464,1.66371e-05,75,15,43.6444,31.4083,5.10997,10.8451,2.676
3.09159,3.09956,0.919498,0.92036,-0.00908523,-8.62952e-05,-0.00270212,-1.76995e-05,75,15,43.8421,31.4963,5.17266,10.7377,2.68
3.09155,3.09956,0.919487,0.92036,-0.00911042,-5.75301e-05,-0.00270961,-1.17997e-05,75,16,44.0423,31.6851,5.2376,10.7913,2.684
3.09152,3.09956,0.919477,0.920361,-0.00913563,-6.71443e-05,-0.00271711,2.09245e-05,75,16,44.2411,31.7397,5.3048,10.9522,2.688
3.09148,3.09956,0.919466,0.92036,-0.00916088,-4.47629e-05,-0.00272462,-4.36322e-05,76,16,44.4423,31.9064,5.36595,10.724,2.692
3.09144,3.09956,0.919455,0.92036,-0.00918615,-5.86328e-05,-0.00273214,-2.90881e-05,76,16,44.6422,31.9463,5.43143,10.8122,2.696
3.09141,3.09956,0.919444,0.92036,-0.00921145,-3.90886e-05,-0.00273966,-1.93921e-05,76,16,44.8446,32.1033,5.49709,10.8811,2.7
3.09137,3.09956,0.919433,0.92036,-0.00923679,-5.485e-05,-0.0027472,-1.29281e-05,77,16,45.0456,32.1368,5.56294,10.9371,2.704
3.09133,3.09956,0.919422,0.92036,-0.00926215,-3.65666e-05,-0.00275474,-8.61871e-06,77,16,45.2491,32.2895,5.62896,10.9845,2.708
3.09129,3.09956,0.919411,0.92036,-0.00928754,-5.31687e-05,-0.00276229,-5.7458e-06,77,16,45.4513,32.3203,5.69516,11.0262,2.712
3.09126,3.09956,0.9194,0.92036,-0.00931296,-6.42367e-05,-0.00276985,-3.83054e-06,78,16,45.654,32.3705,5.76155,11.0641,2.716
3.09122,3.09956,0.919389,0.92036,-0.0093384,-7.16154e-05,-0.00277742,-2.55369e-06,78,16,45.8572,32.4338,5.82812,11.0995,2.72
3.09118,3.09956,0.919377,0.92036,-0.00936388,-7.65345e-05,-0.002785,-1.70246e-06,78,17,46.0611,32.5057,5.89487,11.1332,2.724
3.09114,3.09956,0.919366,0.92036,-0.00938938,-7.98139e-05,-0.00279258,-2.99259e-05,78,17,46.2655,32.5835,5.95972,11.0506,2.728
3.09111,3.09956,0.919355,0.920359,-0.00941492,-8.20002e-05,-0.00280018,-4.87415e-05,79,17,46.4704,32.6652,6.02476,11.0057,2.732
3.09107,3.09956,0.919344,0.92036,-0.00944048,-8.34577e-05,-0.00280778,-3.70342e-06,79,17,46.6759,32.7496,6.09413,11.2163,2.736
3.09103,3.09956,0.919333,0.92036,-0.00946607,-0.00011322,-0.00281539,2.6322e-05,79,17,46.8801,32.735,6.16368,11.3669,2.74
3.09099,3.09956,0.919321,0.92036,-0.00949169,-0.000104271,-0.00282301,-1.12429e-05,79,17,47.0867,32.856,6.22927,11.2471,2.744
3.09096,3.09955,0.91931,0.92036,-0.00951734,-9.8305e-05,-0.00283064,-7.49529e-06,80,17,47.2939,32.9666,6.29712,11.2926,2.748
3.09092,3.09955,0.919299,0.92036,-0.00954302,-9.43276e-05,-0.00283828,-4.99686e-06,80,17,47.5017,33.0704,6.36514,11.3331,2.752
3.09088,3.09955,0.919287,0.92036,-0.00956872,-9.1676e-05,-0.00284592,-3.33124e-06,80,17,47.71,33.1697,6.43335,11.3704,2.756
3.09084,3.09955,0.919276,0.92036,-0.00959446,-8.99083e-05,-0.00285358,-2.22083e-06,81,17,47.9189,33.2659,6.50175,11.4054,2.76
3.0908,3.09955,0.919265,0.920359,-0.00962022,-0.000117521,-0.00286124,-5.90624e-05,81,17,48.1265,33.2595,6.56618,11.2087,2.764
3.09076,3.09955,0.919253,0.92036,-0.00964601,-0.000107138,-0.00286891,1.82069e-05,81,18,48.3365,33.3861,6.63909,11.5485,2.768
3.09073,3.09955,0.919242,0.92036,-0.00967183,-0.000100216,-0.00287659,1.21379e-05,82,18,48.5471,33.5007,6.70803,11.5549,2.772
3.09069,3.09955,0.91923,0.92036,-0.00969768,-0.000124393,-0.00288428,3.68829e-05,82,18,48.7564,33.5065,6.77924,11.6846,2.776
3.09065,3.09955,0.919219,0.920359,-0.00972356,-0.000111719,-0.00289198,-3.29933e-05,82,18,48.9681,33.6414,6.8444,11.4359,2.78
3.09061,3.09955,0.919207,0.920359,-0.00974947,-0.000103271,-0.00289968,-7.95774e-05,82,18,49.1804,33.7617,6.90976,11.2804,2.784
3.09057,3.09955,0.919195,0.920359,-0.0097754,-6.8847e-05,-0.00290739,-2.42606e-05,83,18,49.3952,33.9729,6.98152,11.5325,2.788
3.09053,3.09955,0.919184,0.920359,-0.00980136,-7.46889e-05,-0.00291512,-1.61738e-05,83,18,49.6086,34.0434,7.05139,11.5958,2.792
3.09049,3.09955,0.919172,0.920359,-0.00982735,-4.97926e-05,-0.00292285,-1.07825e-05,84,18,49.8245,34.2215,7.12144,11.6483,2.796
3.09045,3.09955,0.91916,0.920359,-0.00985337,-6.1986e-05,-0.00293058,-7.18834e-06,84,18,50.0391,34.2699,7.19168,11.6936,2.8
3.09041,3.09955,0.919149,0.920358,-0.00987942,-9.89059e-05,-0.00293833,-6.23741e-05,84,18,50.2524,34.2318,7.25796,11.5038,2.804
3.09037,3.09955,0.919137,0.920359,-0.0099055,-9.47282e-05,-0.00294609,-1.27918e-05,84,19,50.4681,34.3377,7.33065,11.7332,2.808
3.09033,3.09955,0.919125,0.920359,-0.0099316,-0.000120734,-0.00295385,-8.52786e-06,85,19,50.6825,34.338,7.40145,11.7813,2.812
3.09029,3.09955,0.919113,0.920359,-0.00995773,-0.00010928,-0.00296162,2.31057e-05,85,19,50.8994,34.4696,7.47451,11.9389,2.816
3.09025,3.09955,0.919101,0.920358,-0.00998389,-0.000130435,-0.0029694,-4.21781e-05,85,19,51.115,34.4871,7.54153,11.7089,2.82
3.09021,3.09955,0.919089,0.920358,-0.0100101,-0.000115748,-0.00297719,-2.81187e-05,85,19,51.333,34.6302,7.61289,11.7963,2.824
3.09017,3.09955,0.919077,0.920358,-0.0100363,-0.000105956,-0.00298499,-1.87458e-05,86,19,51.5516,34.7562,7.68444,11.865,2.828
3.09013,3.09955,0.919066,0.920358,-0.0100625,-9.94283e-05,-0.0029928,-4.12881e-05,86,19,51.7708,34.8709,7.7541,11.806,2.832
3.09009,3.09955,0.919054,0.920358,-0.0100888,-9.50765e-05,-0.00300061,-2.75254e-05,86,19,51.9906,34.9781,7.82602,11.8923,2.836
3.09005,3.09955,0.919042,0.920358,-0.0101151,-9.21753e-05,-0.00300843,-4.71412e-05,87,19,52.2109,35.0803,7.89606,11.8452,2.84
3.09001,3.09955,0.919029,0.920358,-0.0101415,-6.14502e-05,-0.00301626,-3.14275e-05,87,19,52.4337,35.28,7.96835,11.9393,2.844
3.08997,3.09955,0.919017,0.920358,-0.0101678,-6.97577e-05,-0.0030241,-2.09516e-05,87,20,52.6552,35.3432,8.04084,12.0126,2.848
3.08993,3.09955,0.919005,0.920358,-0.0101942,-4.65051e-05,-0.00303195,-1.39678e-05,88,20,52.8792,35.5169,8.11351,12.0719,2.852
3.08989,3.09955,0.918993,0.920358,-0.0102206,-5.97943e-05,-0.00303981,-9.31184e-06,88,20,53.1019,35.5628,8.18637,12.122,2.856
3.08985,3.09954,0.918981,0.920358,-0.0102471,-6.86538e-05,-0.00304767,-6.2079e-06,88,20,53.3251,35.6244,8.25942,12.1659,2.86
3.08981,3.09954,0.918969,0.920358,-0.0102735,-4.57692e-05,-0.00305554,-4.1386e-06,89,20,53.5508,35.7971,8.33266,12.2056,2.864
3.08977,3.09954,0.918957,0.920358,-0.0103,-5.93037e-05,-0.00306342,-2.75906e-06,89,20,53.7752,35.8425,8.40609,12.2427,2.868
3.08973,3.09954,0.918944,0.920357,-0.0103265,-3.95358e-05,-0.00307131,-5.94212e-05,90,20,54.0021,36.0045,8.47556,12.0476,2.872
3.08968,3.09954,0.918932,0.920357,-0.0103531,-5.51481e-05,-0.00307921,-1.08232e-05,90,20,54.2277,36.0428,8.55144,12.2736,2.876
3.08964,3.09954,0.91892,0.920357,-0.0103797,-6.55564e-05,-0.00308712,-7.21548e-06,90,20,54.4539,36.0994,8.62543,12.3196,2.88
3.0896,3.09954,0.918907,0.920357,-0.0104063,-4.37042e-05,-0.00309503,-4.81032e-06,90,21,54.6825,36.269,8.69962,12.3609,2.884
3.08956,3.09954,0.918895,0.920357,-0.0104329,-5.79271e-05,-0.00310295,-3.20688e-06,91,21,54.9098,36.3125,8.77399,12.399,2.888
3.08952,3.09954,0.918882,0.920357,-0.0104596,-3.86181e-05,-0.00311088,-2.13792e-06,91,21,55.1397,36.4734,8.84856,12.435,2.892
3.08948,3.09954,0.91887,0.920357,-0.0104863,-5.45363e-05,-0.00311882,-1.42528e-06,91,21,55.3682,36.5111,8.92332,12.4696,2.896
3.08943,3.09954,0.918857,0.920357,-0.010513,-3.63575e-05,-0.00312677,-9.50187e-07,92,21,55.5992,36.6683,8.99826,12.5033,2.9
3.08939,3.09954,0.918845,0.920357,-0.0105398,-5.30293e-05,-0.00313473,-2.94244e-05,92,21,55.8288,36.7035,9.07133,12.4212,2.904
3.08935,3.09954,0.918832,0.920357,-0.0105665,-6.41438e-05,-0.00314269,-1.96163e-05,92,21,56.0591,36.7583,9.14666,12.4923,2.908
3.08931,3.09954,0.91882,0.920357,-0.0105933,-7.15534e-05,-0.00315066,-1.30775e-05,93,21,56.29,36.8262,9.22218,12.5503,2.912
3.08926,3.09954,0.918807,0.920357,-0.0106202,-7.64932e-05,-0.00315864,-8.71834e-06,93,21,56.5214,36.9028,9.29789,12.5997,2.916
3.08922,3.09954,0.918795,0.920357,-0.010647,-7.97864e-05,-0.00316663,-5.81222e-06,93,22,56.7535,36.9853,9.37379,12.6433,2.92
3.08918,3.09954,0.918782,0.920357,-0.0106739,-8.19819e-05,-0.00317463,-3.87482e-06,94,22,56.9861,37.0717,9.44989,12.683,2.924
3.08914,3.09954,0.918769,0.920357,-0.0107008,-8.34455e-05,-0.00318263,-2.58321e-06,94,22,57.2193,37.1608,9.52618,12.7202,2.928
3.08909,3.09954,0.918756,0.920356,-0.0107278,-5.56303e-05,-0.00319064,-3.05131e-05,94,22,57.455,37.3525,9.60058,12.6405,2.932
3.08905,3.09954,0.918744,0.920356,-0.0107547,-6.58778e-05,-0.00319867,-2.0342e-05,95,22,57.6894,37.411,9.67725,12.7133,2.936
3.08901,3.09954,0.918731,0.920355,-0.0107817,-7.27095e-05,-0.0032067,-9.99341e-05,95,22,57.9244,37.4816,9.7479,12.427,2.94
3.08896,3.09954,0.918718,0.920356,-0.0108088,-7.72639e-05,-0.00321473,-3.78318e-05,95,22,58.16,37.5602,9.82703,12.7076,2.944
3.08892,3.09954,0.918705,0.920355,-0.0108358,-8.03002e-05,-0.00322278,-5.40121e-05,96,22,58.3962,37.6443,9.90221,12.6751,2.948
3.08888,3.09954,0.918692,0.920355,-0.0108629,-8.23244e-05,-0.00323083,-3.60081e-05,96,22,58.633,37.732,9.97965,12.7793,2.952
3.08883,3.09954,0.918679,0.920355,-0.01089,-0.000112465,-0.00323889,-5.27963e-05,96,22,58.8685,37.7213,10.0552,12.7444,2.956
3.08879,3.09954,0.918666,0.920355,-0.0109171,-0.000103767,-0.00324696,-3.51975e-05,96,22,59.1065,37.8468,10.133,12.8471,2.96
3.08875,3.09954,0.918653,0.920355,-0.0109443,-6.91783e-05,-0.00325504,-2.3465e-05,97,23,59.3469,38.0629,10.2111,12.9263,2.964
3.0887,3.09954,0.91864,0.920355,-0.0109715,-7.49098e-05,-0.00326313,-1.56434e-05,97,23,59.5861,38.138,10.2893,12.9899,2.968
3.08866,3.09954,0.918627,0.920354,-0.0109987,-7.87308e-05,-0.00327122,-6.80108e-05,98,23,59.8259,38.2199,10.3636,12.8129,2.972
3.08862,3.09954,0.918614,0.920355,-0.0110259,-0.000110069,-0.00327933,-1.65496e-05,98,23,60.0644,38.2055,10.4442,13.0511,2.976
3.08857,3.09954,0.918601,0.920355,-0.0110532,-0.00010217,-0.00328744,-1.10331e-05,98,23,60.3053,38.3286,10.523,13.1056,2.98
3.08853,3.09954,0.918588,0.920355,-0.0110805,-9.69044e-05,-0.00329556,-7.35537e-06,98,23,60.5469,38.4426,10.602,13.1528,2.984
3.08848,3.09954,0.918575,0.920354,-0.0111078,-9.33939e-05,-0.00330368,-3.36945e-05,99,23,60.7891,38.5505,10.6791,13.08,2.988
3.08844,3.09954,0.918561,0.920354,-0.0111352,-9.10535e-05,-0.00331182,-2.2463e-05,99,23,61.0318,38.6545,10.7585,13.1574,2.992
3.08839,3.09953,0.918548,0.920354,-0.0111626,-8.94933e-05,-0.00331996,-1.49753e-05,100,24,61.2752,38.7557,10.8381,13.2199,2.996
3.08835,3.09953,0.918535,0.920354,-0.01119,-0.000117244,-0.00332811,-9.98356e-06,100,24,61.5173,38.7545,10.9179,13.2725,3
3.0883,3.09953,0.918521,0.920354,-0.0112174,-0.000106954,-0.00333627,-6.6557e-06,100,24,61.7619,38.8866,10.9979,13.3185,3.004
3.08826,3.09953,0.918508,0.920354,-0.0112449,-0.000157675,-0.00334444,-6.2019e-05,100,24,62.0033,38.8052,11.0739,13.1297,3.008
3.08821,3.09953,0.918495,0.920354,-0.0112724,-0.000162699,-0.00335262,-1.25551e-05,101,24,62.2471,38.8838,11.1563,13.3602,3.012
3.08817,3.09953,0.918481,0.920354,-0.0112999,-0.000166048,-0.0033608,-8.37004e-06,101,24,62.4916,38.9684,11.2369,13.4097,3.016
3.08812,3.09953,0.918468,0.920354,-0.0113274,-0.000197071,-0.00336899,-5.58003e-06,101,24,62.7348,38.9562,11.3176,13.4536,3.02
3.08808,3.09953,0.918454,0.920354,-0.011355,-0.000188963,-0.00337719,-3.72002e-06,102,24,62.9805,39.0811,11.3986,13.4939,3.024
3.08803,3.09953,0.918441,0.920354,-0.0113826,-0.000212348,-0.0033854,-3.12709e-05,102,24,63.225,39.0958,11.4777,13.4165,3.028
3.08799,3.09953,0.918427,0.920354,-0.0114102,-0.000199147,-0.00339361,-2.08473e-05,102,25,63.4719,39.2387,11.559,13.4911,3.032
3.08794,3.09953,0.918414,0.920353,-0.0114379,-0.000219138,-0.00340184,-7.148e-05,102,24,63.7175,39.2655,11.6364,13.3214,3.036
3.0879,3.09953,0.9184,0.920353,-0.0114655,-0.000203674,-0.00341007,-1.88624e-05,103,25,63.9656,39.4165,11.7202,13.5648,3.04
3.08785,3.09953,0.918386,0.920353,-0.0114932,-0.000222155,-0.00341831,-7.01568e-05,103,25,64.2125,39.4488,11.798,13.3926,3.044
3.0878,3.09952,0.918373,0.920353,-0.011521,-0.000234476,-0.00342656,-1.79803e-05,103,25,64.4599,39.5027,11.8822,13.6343,3.048
3.08776,3.09952,0.918359,0.920353,-0.0115487,-0.00024269,-0.00343481,-4.07778e-05,104,25,64.708,39.5711,11.9625,13.5761,3.052
3.08771,3.09952,0.918345,0.920352,-0.0115765,-0.000219375,-0.00344308,-5.59761e-05,104,25,64.9586,39.75,12.043,13.5484,3.056
3.08767,3.09952,0.918331,0.920352,-0.0116043,-0.000232623,-0.00345135,-6.61083e-05,105,25,65.2079,39.8009,12.1236,13.541,3.06
3.08762,3.09952,0.918318,0.920352,-0.0116322,-0.000241455,-0.00345963,-7.28631e-05,105,25,65.4578,39.8675,12.2045,13.5471,3.064
3.08757,3.09952,0.918304,0.920351,-0.01166,-0.000218552,-0.00346792,-0.000106157,105,25,65.7102,40.0451,12.2835,13.447,3.068
3.08753,3.09952,0.91829,0.920351,-0.0116879,-0.000203283,-0.00347621,-7.07715e-05,106,25,65.9632,40.1962,12.3668,13.6218,3.072
3.08748,3.09952,0.918276,0.920351,-0.0117158,-0.000221895,-0.00348452,-7.59719e-05,106,26,66.215,40.2288,12.4483,13.6342,3.076
3.08743,3.09952,0.918262,0.920351,-0.0117438,-0.000205512,-0.00349283,-5.0648e-05,106,26,66.4692,40.3839,12.532,13.7687,3.08
3.08738,3.09952,0.918248,0.92035,-0.0117717,-0.00019459,-0.00350115,-6.25562e-05,107,26,66.7241,40.5201,12.6138,13.7544,3.084
3.08734,3.09952,0.918234,0.92035,-0.0117997,-0.000187308,-0.00350947,-4.17042e-05,107,26,66.9796,40.6435,12.698,13.8711,3.088
3.08729,3.09952,0.91822,0.92035,-0.0118278,-0.000153663,-0.00351781,-8.53846e-05,108,26,67.2376,40.8594,12.7781,13.7297,3.092
3.08724,3.09951,0.918206,0.92035,-0.0118558,-0.000160024,-0.00352615,-2.81322e-05,108,26,67.4943,40.9353,12.8648,13.9921,3.096
3.0872,3.09951,0.918192,0.92035,-0.0118839,-0.000135474,-0.0035345,-1.87548e-05,108,27,67.7535,41.1195,12.9495,14.063,3.1
3.08715,3.09951,0.918178,0.92035,-0.011912,-0.000147898,-0.00354286,-4.12941e-05,109,27,68.0115,41.1744,13.0323,14.0063,3.104
3.0871,3.09951,0.918163,0.920349,-0.0119401,-0.000184971,-0.00355123,-8.51113e-05,109,26,68.2682,41.1431,13.1133,13.8645,3.108
3.08705,3.09951,0.918149,0.920349,-0.0119683,-0.000180896,-0.0035596,-8.55318e-05,109,27,68.5273,41.2559,13.1966,13.8963,3.112
3.087,3.09951,0.918135,0.920348,-0.0119965,-0.00020697,-0.00356799,-8.58121e-05,110,27,68.7853,41.2633,13.28,13.9287,3.116
3.08696,3.09951,0.918121,0.920348,-0.0120247,-0.000224353,-0.00357638,-8.5999e-05,110,27,69.0438,41.3012,13.3637,13.9615,3.12
3.08691,3.09951,0.918106,0.920347,-0.0120529,-0.00020715,-0.00358477,-0.000114915,110,27,69.3048,41.4602,13.4455,13.8794,3.124
3.08686,3.09951,0.918092,0.920346,-0.0120812,-0.000195682,-0.00359318,-0.000134192,111,27,69.5665,41.5993,13.5275,13.836,3.128
3.08681,3.09951,0.918078,0.920346,-0.0121095,-0.000159246,-0.0036016,-0.000118252,111,27,69.8307,41.8258,13.6117,13.9334,3.132
