peachynonah/Fire_monitor_KIRO_CDSL/csv_datas/trial13/cdsl_data_t14_1_FL_u.csv
joint1_pos_desired, joint1_pos, joint2_pos_desired, joint2_pos, joint1_vel_desired, joint1_vel_filtered, joint2_vel_desired, joint2_vel_filtered, target_torque_joint1, target_torque_joint2, nonlinear_term_torque_joint1, PD_term_torque_joint1, nonlinear_term_torque_joint2, PD_term_torque_joint2, current_time
3.13953e-11,-0.000919352,1.03984e-11,-0.00116327,2.35453e-08,0,7.79844e-09,0,-10,-111,-0,-10,-98.3494,-12.6506,0.004
2.51125e-10,-0.000919006,8.3175e-11,-0.00116327,9.41623e-08,2.87909e-05,3.11875e-08,0,-9,-111,-0,-9,-98.3494,-12.6506,0.008
8.47419e-10,-0.000919006,2.80674e-10,-0.00116327,2.11823e-07,1.91939e-05,7.01579e-08,0,-9,-111,-0,-9,-98.3494,-12.6506,0.012
2.00839e-09,-0.000919006,6.65201e-10,-0.00115774,3.76499e-07,1.2796e-05,1.247e-07,0.000460655,-10,-106,-3.74061e-11,-10,-98.3494,-7.65063,0.016
3.92206e-09,-0.000919006,1.29903e-09,-0.00114358,5.88161e-07,8.53064e-06,1.94805e-07,0.00148753,-10,-96,-7.95418e-11,-10,-98.3494,2.34937,0.02
6.7763e-09,-0.000919006,2.24438e-09,-0.0011225,8.46783e-07,5.6871e-06,2.80463e-07,0.00274793,-10,-84,-9.61537e-11,-10,-98.3494,14.3494,0.024
1.07589e-08,-0.000918315,3.56346e-09,-0.00109486,1.15234e-06,6.13732e-05,3.81665e-07,0.00413523,-9,-70,-1.52307e-09,-9,-98.3494,28.3494,0.028
1.60575e-08,-0.000917624,5.31841e-09,-0.00106273,1.50479e-06,9.84973e-05,4.98402e-07,0.00543438,-9,-57,-3.11803e-09,-9,-98.3494,41.3494,0.032
2.28597e-08,-0.000917279,7.57137e-09,-0.00102611,1.90412e-06,9.44558e-05,6.30663e-07,0.00667476,-9,-45,-3.54601e-09,-9,-98.3494,53.3494,0.036
3.13529e-08,-0.000917279,1.03844e-08,-0.000987068,2.35029e-06,6.29705e-05,7.78441e-07,0.00770321,-9,-35,-2.62446e-09,-9,-98.3494,63.3494,0.04
4.17245e-08,-0.000917624,1.38196e-08,-0.000947337,2.84328e-06,1.31894e-05,9.41725e-07,0.00844643,-10,-27,-5.78478e-10,-10,-98.3494,71.3494,0.044
5.41616e-08,-0.00091797,1.79389e-08,-0.000908296,3.38307e-06,-1.9998e-05,1.12051e-06,0.00888433,-10,-23,8.84547e-10,-10,-98.3494,75.3494,0.048
6.88513e-08,-0.000917624,2.28043e-08,-0.000869601,3.96961e-06,1.54589e-05,1.31477e-06,0.00914747,-10,-20,-6.74037e-10,-10,-98.3494,78.3494,0.052
8.59808e-08,-0.000917624,2.84777e-08,-0.00083367,4.60288e-06,1.0306e-05,1.52452e-06,0.00909257,-10,-20,-4.28206e-10,-10,-98.3494,78.3494,0.056
1.05737e-07,-0.000917624,3.50211e-08,-0.00079843,5.28287e-06,6.87064e-06,1.74974e-06,0.00899839,-10,-20,-2.70571e-10,-10,-98.3494,78.3494,0.06
1.28306e-07,-0.000917624,4.24962e-08,-0.000764226,6.00952e-06,4.58043e-06,1.99042e-06,0.00884923,-10,-21,-1.69792e-10,-10,-98.3494,77.3494,0.064
1.53875e-07,-0.000917624,5.0965e-08,-0.000732096,6.78283e-06,3.05362e-06,2.24654e-06,0.00857704,-10,-24,-1.051e-10,-10,-98.3494,74.3494,0.068
1.82631e-07,-0.000917624,6.04892e-08,-0.000701001,7.60276e-06,2.03575e-06,2.51811e-06,0.00830921,-10,-26,-6.49958e-11,-10,-98.3494,72.3494,0.072
2.14759e-07,-0.000917624,7.11305e-08,-0.000671635,8.46927e-06,1.35716e-06,2.80511e-06,0.0079867,-10,-29,-3.9904e-11,-10,-98.3494,69.3494,0.076
2.50447e-07,-0.000917624,8.29506e-08,-0.000642959,9.38236e-06,9.04776e-07,3.10753e-06,0.00771411,-10,-31,-2.45976e-11,-10,-98.3494,67.3494,0.08
2.8988e-07,-0.000917624,9.60113e-08,-0.000614629,1.0342e-05,6.03184e-07,3.42537e-06,0.0075036,-10,-33,-1.52481e-11,-10,-98.3494,65.3494,0.084
3.33245e-07,-0.000917624,1.10374e-07,-0.000587335,1.13481e-05,4.02123e-07,3.75861e-06,0.00727688,-10,-35,-9.42048e-12,-10,-98.3494,63.3494,0.088
3.80727e-07,-0.000917624,1.26101e-07,-0.000559696,1.24007e-05,2.68082e-07,4.10724e-06,0.00715453,-10,-35,-5.88414e-12,-10,-98.3494,63.3494,0.092
4.32512e-07,-0.000917624,1.43253e-07,-0.000533438,1.34998e-05,1.78721e-07,4.47126e-06,0.0069578,-10,-37,-3.63593e-12,-10,-98.3494,61.3494,0.096
4.88787e-07,-0.000917624,1.61891e-07,-0.000507526,1.46452e-05,1.19147e-07,4.85066e-06,0.00679785,-10,-38,-2.25319e-12,-10,-98.3494,60.3494,0.1
5.49736e-07,-0.000917624,1.82078e-07,-0.000481615,1.58371e-05,7.94317e-08,5.24542e-06,0.00669122,-10,-39,-1.40308e-12,-10,-98.3494,59.3494,0.104
6.15546e-07,-0.000917624,2.03875e-07,-0.000455703,1.70754e-05,5.29544e-08,5.65554e-06,0.00662013,-10,-39,-8.75656e-13,-10,-98.3494,59.3494,0.108
6.86401e-07,-0.000917624,2.27343e-07,-0.000429791,1.836e-05,3.5303e-08,6.081e-06,0.00657274,-10,-40,-5.46636e-13,-10,-98.3494,58.3494,0.112
7.62487e-07,-0.000917624,2.52544e-07,-0.00040457,1.96908e-05,2.35353e-08,6.52181e-06,0.00648356,-10,-40,-3.38385e-13,-10,-98.3494,58.3494,0.116
8.43989e-07,-0.000917624,2.79538e-07,-0.000377967,2.1068e-05,1.56902e-08,6.97794e-06,0.00653928,-10,-39,-2.12567e-13,-10,-98.3494,59.3494,0.12
9.31093e-07,-0.000917624,3.08387e-07,-0.000352055,2.24915e-05,1.04601e-08,7.4494e-06,0.00651884,-10,-39,-1.31584e-13,-10,-98.3494,59.3494,0.124
1.02398e-06,-0.000917624,3.39154e-07,-0.000326144,2.39611e-05,6.97342e-09,7.93616e-06,0.00650521,-10,-39,-8.1096e-14,-10,-98.3494,59.3494,0.128
1.12284e-06,-0.000917624,3.71897e-07,-0.000301268,2.5477e-05,4.64895e-09,8.43823e-06,0.00640975,-10,-40,-4.92076e-14,-10,-98.3494,58.3494,0.132
1.22786e-06,-0.000917624,4.0668e-07,-0.000275702,2.7039e-05,3.0993e-09,8.95559e-06,0.0064037,-10,-40,-2.99928e-14,-10,-98.3494,58.3494,0.136
1.33922e-06,-0.000917624,4.43562e-07,-0.00024979,2.86472e-05,2.0662e-09,9.48823e-06,0.00642845,-10,-39,-1.8186e-14,-10,-98.3494,59.3494,0.14
1.4571e-06,-0.000917624,4.82606e-07,-0.000225606,3.03014e-05,1.37747e-09,1.00361e-05,0.006301,-10,-40,-1.07331e-14,-10,-98.3494,58.3494,0.144
1.58169e-06,-0.000917624,5.23872e-07,-0.000201076,3.20018e-05,9.18311e-10,1.05993e-05,0.00624482,-10,-40,-6.32052e-15,-10,-98.3494,58.3494,0.148
1.71317e-06,-0.000917624,5.67421e-07,-0.000176546,3.37482e-05,6.12207e-10,1.11778e-05,0.00620737,-10,-40,-3.67745e-15,-10,-98.3494,58.3494,0.152
1.85174e-06,-0.000917624,6.13314e-07,-0.000152016,3.55407e-05,4.08138e-10,1.17714e-05,0.0061824,-10,-40,-2.10251e-15,-10,-98.3494,58.3494,0.156
1.99756e-06,-0.000917624,6.61613e-07,-0.000128868,3.73792e-05,2.72092e-10,1.23804e-05,0.00605059,-10,-41,-1.1629e-15,-10,-98.3494,57.3494,0.16
2.15083e-06,-0.000917624,7.12377e-07,-0.000106066,3.92636e-05,1.81395e-10,1.30045e-05,0.00593393,-10,-42,-6.25786e-16,-10,-98.3494,56.3494,0.164
2.31173e-06,-0.000917624,7.65669e-07,-8.53363e-05,4.1194e-05,1.2093e-10,1.36439e-05,0.00568341,-10,-44,-3.21484e-16,-10,-98.3494,54.3494,0.168
2.48044e-06,-0.000917624,8.21549e-07,-6.59888e-05,4.31703e-05,8.06199e-11,1.42984e-05,0.00540123,-10,-47,-1.57503e-16,-10,-98.3494,51.3494,0.172
2.65716e-06,-0.000917624,8.80077e-07,-4.94052e-05,4.51925e-05,5.37466e-11,1.49682e-05,0.00498279,-10,-51,-7.25236e-17,-10,-98.3494,47.3494,0.176
2.84205e-06,-0.000917624,9.41315e-07,-3.42036e-05,4.72605e-05,3.58311e-11,1.56532e-05,0.00458866,-10,-54,-3.08248e-17,-10,-98.3494,44.3494,0.18
3.0353e-06,-0.000917624,1.00532e-06,-2.1075e-05,4.93744e-05,2.38874e-11,1.63533e-05,0.00415316,-10,-58,-1.14603e-17,-10,-98.3494,40.3494,0.184
3.2371e-06,-0.000917624,1.07216e-06,-1.07102e-05,5.15341e-05,1.59249e-11,1.70686e-05,0.0036325,-10,-63,-3.39598e-18,-10,-98.3494,35.3494,0.188
3.44763e-06,-0.000917624,1.14189e-06,-1.72746e-06,5.37396e-05,1.06166e-11,1.77991e-05,0.00317023,-10,-68,-3.18689e-19,-10,-98.3494,30.3494,0.192
3.66708e-06,-0.000917624,1.21457e-06,5.18237e-06,5.59908e-05,7.07774e-12,1.85447e-05,0.00268931,-10,-72,5.40687e-19,-10,-98.3494,26.3494,0.196
3.89562e-06,-0.000917624,1.29027e-06,1.10557e-05,5.82877e-05,4.71849e-12,1.93055e-05,0.00228232,-10,-76,6.52603e-19,-10,-98.3494,22.3494,0.2
4.13344e-06,-0.000917624,1.36904e-06,1.52016e-05,6.06304e-05,3.14566e-12,2.00814e-05,0.00186704,-10,-80,4.8937e-19,-10,-98.3494,18.3494,0.204
4.38073e-06,-0.000917624,1.45094e-06,1.9002e-05,6.30187e-05,2.09711e-12,2.08724e-05,0.00156139,-10,-83,3.41048e-19,-10,-98.3494,15.3494,0.208
4.63765e-06,-0.000917624,1.53604e-06,2.21114e-05,6.54526e-05,1.39807e-12,2.16786e-05,0.00130005,-10,-85,2.20287e-19,-10,-98.3494,13.3494,0.212
4.90441e-06,-0.000917624,1.62439e-06,2.45299e-05,6.79321e-05,9.32048e-13,2.24998e-05,0.00106823,-10,-88,1.3387e-19,-10,-98.3494,10.3494,0.216
5.18117e-06,-0.000917279,1.71606e-06,2.66028e-05,7.04573e-05,2.87909e-05,2.33362e-05,0.000884901,-10,-89,3.71502e-12,-10,-98.3494,9.34943,0.22
5.46813e-06,-0.000917624,1.8111e-06,2.86758e-05,7.3028e-05,-9.59697e-06,2.41876e-05,0.00076268,-11,-90,-1.15047e-12,-11,-98.3494,8.34943,0.224
5.76545e-06,-0.000917624,1.90958e-06,3.07487e-05,7.56442e-05,-6.39798e-06,2.50541e-05,0.000681199,-11,-91,-7.34559e-13,-11,-98.3494,7.34943,0.228
6.07334e-06,-0.000917624,2.01155e-06,3.21307e-05,7.83059e-05,-4.26532e-06,2.59357e-05,0.000569296,-11,-92,-4.27654e-13,-11,-98.3494,6.34943,0.232
6.39196e-06,-0.000917279,2.11708e-06,3.31671e-05,8.10131e-05,2.59474e-05,2.68324e-05,0.000465904,-10,-93,2.19776e-12,-10,-98.3494,5.34943,0.236
6.7215e-06,-0.000917624,2.22623e-06,3.38581e-05,8.37657e-05,-1.14927e-05,2.77441e-05,0.000368184,-11,-94,-7.85294e-13,-11,-98.3494,4.34943,0.24
7.06215e-06,-0.000917624,2.33906e-06,3.45491e-05,8.65637e-05,-7.66178e-06,2.86708e-05,0.000303038,-11,-95,-4.3969e-13,-11,-98.3494,3.34943,0.244
7.41408e-06,-0.000917279,2.45562e-06,3.42036e-05,8.94072e-05,2.36831e-05,2.96126e-05,0.000173234,-10,-96,7.69179e-13,-10,-98.3494,2.34943,0.248
7.77747e-06,-0.000917624,2.57598e-06,3.48946e-05,9.22959e-05,-1.30022e-05,3.05694e-05,0.000173071,-11,-96,-4.30412e-13,-11,-98.3494,2.34943,0.252
8.1525e-06,-0.000917279,2.70019e-06,3.59311e-05,9.52301e-05,2.01228e-05,3.15412e-05,0.000201754,-10,-96,7.99582e-13,-10,-98.3494,2.34943,0.256
8.53937e-06,-0.000917279,2.82833e-06,3.69675e-05,9.82095e-05,1.34152e-05,3.2528e-05,0.000220875,-11,-96,6.0041e-13,-11,-98.3494,2.34943,0.26
8.93824e-06,-0.000917624,2.96044e-06,3.76585e-05,0.000101234,-1.98475e-05,3.35298e-05,0.000204832,-11,-96,-8.39169e-13,-11,-98.3494,2.34943,0.264
9.3493e-06,-0.000917624,3.09658e-06,3.83495e-05,0.000104304,-1.32316e-05,3.45466e-05,0.000194137,-11,-96,-5.39963e-13,-11,-98.3494,2.34943,0.268
9.77273e-06,-0.000917279,3.23683e-06,3.8695e-05,0.000107419,1.99698e-05,3.55784e-05,0.000158215,-11,-96,6.70133e-13,-11,-98.3494,2.34943,0.272
1.02087e-05,-0.000917624,3.38123e-06,3.8695e-05,0.00011058,-1.54777e-05,3.66251e-05,0.000105477,-11,-97,-3.4626e-13,-11,-98.3494,1.34943,0.276
1.06574e-05,-0.000917624,3.52985e-06,3.8695e-05,0.000113785,-1.03185e-05,3.76868e-05,7.03179e-05,-11,-97,-1.53893e-13,-11,-98.3494,1.34943,0.28
1.11191e-05,-0.000917624,3.68274e-06,3.8695e-05,0.000117036,-6.87898e-06,3.87634e-05,4.68786e-05,-11,-97,-6.8397e-14,-11,-98.3494,1.34943,0.284
1.15938e-05,-0.000917624,3.83998e-06,3.90405e-05,0.000120332,-4.58599e-06,3.9855e-05,6.00433e-05,-11,-97,-5.89245e-14,-11,-98.3494,1.34943,0.288
1.20818e-05,-0.000917624,4.0016e-06,3.90405e-05,0.000123672,-3.05732e-06,4.09615e-05,4.00289e-05,-11,-97,-2.61887e-14,-11,-98.3494,1.34943,0.292
1.25832e-05,-0.000917624,4.16769e-06,3.90405e-05,0.000127058,-2.03822e-06,4.2083e-05,2.66859e-05,-11,-98,-1.16394e-14,-11,-98.3494,0.349431,0.296
1.30983e-05,-0.000917624,4.33829e-06,3.90405e-05,0.000130489,-1.35881e-06,4.32193e-05,1.77906e-05,-11,-98,-5.17307e-15,-11,-98.3494,0.349431,0.3
1.36272e-05,-0.000917279,4.51346e-06,3.90405e-05,0.000133965,2.78851e-05,4.43706e-05,1.18604e-05,-11,-98,7.07733e-14,-11,-98.3494,0.349431,0.304
1.41701e-05,-0.000917624,4.69327e-06,3.90405e-05,0.000137486,-1.02009e-05,4.55368e-05,7.90694e-06,-11,-98,-1.72602e-14,-11,-98.3494,0.349431,0.308
1.47271e-05,-0.000917624,4.87778e-06,3.90405e-05,0.000141052,-6.80059e-06,4.67178e-05,5.27129e-06,-11,-98,-7.67119e-15,-11,-98.3494,0.349431,0.312
1.52985e-05,-0.000917624,5.06704e-06,3.90405e-05,0.000144663,-4.53373e-06,4.79137e-05,3.5142e-06,-11,-98,-3.40942e-15,-11,-98.3494,0.349431,0.316
1.58845e-05,-0.000917279,5.26111e-06,3.9386e-05,0.000148318,2.57684e-05,4.91245e-05,3.11337e-05,-11,-98,1.73198e-13,-11,-98.3494,0.349431,0.32
1.64852e-05,-0.000917279,5.46005e-06,3.9386e-05,0.000152019,1.7179e-05,5.03501e-05,2.07558e-05,-11,-98,7.69771e-14,-11,-98.3494,0.349431,0.324
1.71007e-05,-0.000917279,5.66393e-06,3.9386e-05,0.000155764,1.14526e-05,5.15906e-05,1.38372e-05,-11,-98,3.4212e-14,-11,-98.3494,0.349431,0.328
1.77313e-05,-0.000917279,5.8728e-06,3.9386e-05,0.000159554,7.63509e-06,5.28459e-05,9.22481e-06,-11,-98,1.52054e-14,-11,-98.3494,0.349431,0.332
1.83772e-05,-0.000917624,6.08671e-06,3.9386e-05,0.000163389,-2.37009e-05,5.41161e-05,6.14987e-06,-12,-98,-3.1467e-14,-12,-98.3494,0.349431,0.336
1.90385e-05,-0.000917624,6.30574e-06,3.9386e-05,0.000167269,-1.58006e-05,5.5401e-05,4.09991e-06,-12,-98,-1.39853e-14,-12,-98.3494,0.349431,0.34
1.97154e-05,-0.000917624,6.52994e-06,3.9386e-05,0.000171193,-1.05337e-05,5.67008e-05,2.73328e-06,-12,-98,-6.2157e-15,-12,-98.3494,0.349431,0.344
2.04081e-05,-0.000917624,6.75937e-06,3.9386e-05,0.000175162,-7.02248e-06,5.80154e-05,1.82218e-06,-12,-98,-2.76253e-15,-12,-98.3494,0.349431,0.348
2.11168e-05,-0.000917279,6.99409e-06,3.97315e-05,0.000179176,2.41093e-05,5.93448e-05,3.00057e-05,-11,-98,1.57545e-13,-11,-98.3494,0.349431,0.352
2.18416e-05,-0.000917279,7.23415e-06,3.97315e-05,0.000183234,1.60728e-05,6.06889e-05,2.00038e-05,-11,-98,7.00202e-14,-11,-98.3494,0.349431,0.356
2.25827e-05,-0.000917279,7.47962e-06,3.97315e-05,0.000187337,1.07152e-05,6.20479e-05,1.33359e-05,-12,-98,3.11201e-14,-12,-98.3494,0.349431,0.36
2.33403e-05,-0.000917279,7.73055e-06,3.97315e-05,0.000191484,7.14349e-06,6.34216e-05,8.89058e-06,-12,-98,1.38312e-14,-12,-98.3494,0.349431,0.364
2.41146e-05,-0.000917279,7.98701e-06,3.97315e-05,0.000195676,4.76233e-06,6.481e-05,5.92705e-06,-12,-98,6.14718e-15,-12,-98.3494,0.349431,0.368
2.49058e-05,-0.000917279,8.24905e-06,4.0077e-05,0.000199913,3.17488e-06,6.62132e-05,3.27423e-05,-12,-98,2.28357e-14,-12,-98.3494,0.349431,0.372
2.5714e-05,-0.000917279,8.51673e-06,4.0077e-05,0.000204194,2.11659e-06,6.76312e-05,2.18282e-05,-12,-98,1.01492e-14,-12,-98.3494,0.349431,0.376
2.65394e-05,-0.000917279,8.79012e-06,4.0077e-05,0.00020852,1.41106e-06,6.90638e-05,1.45521e-05,-12,-98,4.51076e-15,-12,-98.3494,0.349431,0.38
2.73822e-05,-0.000917279,9.06927e-06,4.0077e-05,0.00021289,9.40706e-07,7.05112e-05,9.70142e-06,-12,-98,2.00478e-15,-12,-98.3494,0.349431,0.384
2.82426e-05,-0.000917279,9.35423e-06,4.0077e-05,0.000217304,6.27138e-07,7.19733e-05,6.46761e-06,-12,-98,8.91015e-16,-12,-98.3494,0.349431,0.388
2.91207e-05,-0.000917279,9.64507e-06,4.0077e-05,0.000221763,4.18092e-07,7.34501e-05,4.31174e-06,-12,-98,3.96007e-16,-12,-98.3494,0.349431,0.392
3.00167e-05,-0.000917279,9.94185e-06,4.0077e-05,0.000226266,2.78728e-07,7.49416e-05,2.87449e-06,-12,-98,1.76003e-16,-12,-98.3494,0.349431,0.396
3.09309e-05,-0.000917279,1.02446e-05,4.0077e-05,0.000230814,1.85819e-07,7.64478e-05,1.91633e-06,-12,-98,7.82235e-17,-12,-98.3494,0.349431,0.4
3.18633e-05,-0.000917279,1.05535e-05,4.0077e-05,0.000235405,1.23879e-07,7.79686e-05,1.27755e-06,-12,-98,3.4766e-17,-12,-98.3494,0.349431,0.404
3.28142e-05,-0.000917279,1.08684e-05,4.04225e-05,0.000240041,8.2586e-08,7.95042e-05,2.96426e-05,-12,-98,5.42412e-16,-12,-98.3494,0.349431,0.408
3.37837e-05,-0.000917279,1.11895e-05,4.04225e-05,0.000244722,5.50573e-08,8.10543e-05,1.97618e-05,-12,-98,2.41072e-16,-12,-98.3494,0.349431,0.412
3.4772e-05,-0.000917279,1.15168e-05,4.04225e-05,0.000249446,3.67049e-08,8.26191e-05,1.31745e-05,-12,-98,1.07143e-16,-12,-98.3494,0.349431,0.416
3.57793e-05,-0.000917279,1.18505e-05,4.04225e-05,0.000254215,2.44699e-08,8.41986e-05,8.783e-06,-12,-98,4.76191e-17,-12,-98.3494,0.349431,0.42
3.68058e-05,-0.000917279,1.21905e-05,4.04225e-05,0.000259028,1.63133e-08,8.57927e-05,5.85533e-06,-13,-98,2.11641e-17,-13,-98.3494,0.349431,0.424
3.78516e-05,-0.000917279,1.25368e-05,4.07679e-05,0.000263885,1.08755e-08,8.74014e-05,3.26945e-05,-13,-98,7.9456e-17,-13,-98.3494,0.349431,0.428
3.89169e-05,-0.000917279,1.28897e-05,4.04225e-05,0.000268786,7.25035e-09,8.90247e-05,-6.9946e-06,-13,-98,-1.12364e-17,-13,-98.3494,0.349431,0.432
4.0002e-05,-0.000917279,1.32491e-05,4.07679e-05,0.000273731,4.83357e-09,9.06626e-05,2.41279e-05,-13,-98,2.60608e-17,-13,-98.3494,0.349431,0.436
4.11068e-05,-0.000917279,1.3615e-05,4.07679e-05,0.00027872,3.22238e-09,9.23151e-05,1.60852e-05,-13,-98,1.15826e-17,-13,-98.3494,0.349431,0.44
4.22318e-05,-0.000917279,1.39876e-05,4.07679e-05,0.000283754,2.14825e-09,9.39821e-05,1.07235e-05,-13,-98,5.14782e-18,-13,-98.3494,0.349431,0.444
4.33769e-05,-0.000917279,1.43669e-05,4.07679e-05,0.000288831,1.43217e-09,9.56638e-05,7.14899e-06,-13,-98,2.28792e-18,-13,-98.3494,0.349431,0.448
4.45425e-05,-0.000917279,1.47529e-05,4.07679e-05,0.000293952,9.54779e-10,9.736e-05,4.766e-06,-13,-98,1.01685e-18,-13,-98.3494,0.349431,0.452
4.57286e-05,-0.000917279,1.51458e-05,4.07679e-05,0.000299118,6.36519e-10,9.90708e-05,3.17733e-06,-13,-98,4.51935e-19,-13,-98.3494,0.349431,0.456
4.69355e-05,-0.000917279,1.55455e-05,4.07679e-05,0.000304327,4.24346e-10,0.000100796,2.11822e-06,-13,-99,2.0086e-19,-13,-98.3494,-0.650569,0.46
4.81633e-05,-0.000917279,1.59522e-05,4.07679e-05,0.00030958,2.82897e-10,0.000102536,1.41215e-06,-13,-99,8.92711e-20,-13,-98.3494,-0.650569,0.464
4.94122e-05,-0.000917279,1.63658e-05,4.11134e-05,0.000314876,1.88598e-10,0.00010429,2.97324e-05,-13,-98,1.26367e-18,-13,-98.3494,0.349431,0.468
5.06824e-05,-0.000917279,1.67865e-05,4.11134e-05,0.000320217,1.25732e-10,0.000106059,1.98216e-05,-13,-98,5.61631e-19,-13,-98.3494,0.349431,0.472
5.1974e-05,-0.000917279,1.72143e-05,4.07679e-05,0.000325602,8.38214e-11,0.000107843,-1.55765e-05,-13,-99,-2.91762e-19,-13,-98.3494,-0.650569,0.476
5.32872e-05,-0.000917279,1.76493e-05,4.11134e-05,0.00033103,5.5881e-11,0.00010964,1.84066e-05,-13,-98,2.31795e-19,-13,-98.3494,0.349431,0.48
5.46223e-05,-0.000917279,1.80915e-05,4.11134e-05,0.000336502,3.7254e-11,0.000111453,1.2271e-05,-14,-99,1.0302e-19,-14,-98.3494,-0.650569,0.484
5.59793e-05,-0.000917279,1.85409e-05,4.11134e-05,0.000342018,2.4836e-11,0.00011328,8.18069e-06,-14,-99,4.57866e-20,-14,-98.3494,-0.650569,0.488
5.73585e-05,-0.000917279,1.89977e-05,4.11134e-05,0.000347577,1.65573e-11,0.000115121,5.4538e-06,-14,-99,2.03496e-20,-14,-98.3494,-0.650569,0.492
5.876e-05,-0.000917279,1.94619e-05,4.11134e-05,0.00035318,1.10382e-11,0.000116977,3.63586e-06,-14,-99,9.04427e-21,-14,-98.3494,-0.650569,0.496
6.0184e-05,-0.000917279,1.99335e-05,4.11134e-05,0.000358827,7.35881e-12,0.000118847,2.42391e-06,-14,-99,4.01967e-21,-14,-98.3494,-0.650569,0.5
6.16306e-05,-0.000917279,2.04127e-05,4.11134e-05,0.000364517,4.90587e-12,0.000120732,1.61594e-06,-14,-99,1.78652e-21,-14,-98.3494,-0.650569,0.504
6.31002e-05,-0.000917279,2.08994e-05,4.14589e-05,0.000370251,3.27058e-12,0.000122631,2.98682e-05,-14,-99,2.21991e-20,-14,-98.3494,-0.650569,0.508
6.45927e-05,-0.000917279,2.13938e-05,4.14589e-05,0.000376029,2.18039e-12,0.000124545,1.99121e-05,-14,-99,9.86627e-21,-14,-98.3494,-0.650569,0.512
6.61085e-05,-0.000917279,2.18958e-05,4.14589e-05,0.00038185,1.45359e-12,0.000126473,1.32748e-05,-14,-99,4.38501e-21,-14,-98.3494,-0.650569,0.516
6.76476e-05,-0.000917279,2.24056e-05,4.14589e-05,0.000387714,9.69061e-13,0.000128415,8.84984e-06,-14,-99,1.94889e-21,-14,-98.3494,-0.650569,0.52
6.92102e-05,-0.000917279,2.29231e-05,4.14589e-05,0.000393622,6.46041e-13,0.000130372,5.89989e-06,-14,-99,8.66175e-22,-14,-98.3494,-0.650569,0.524
7.07966e-05,-0.000916933,2.34486e-05,4.14589e-05,0.000399574,2.87909e-05,0.000132343,3.93326e-06,-14,-99,2.57342e-14,-14,-98.3494,-0.650569,0.528
7.24069e-05,-0.000917279,2.39819e-05,4.14589e-05,0.000405569,-9.59697e-06,0.000134328,2.62218e-06,-14,-99,-5.7187e-15,-14,-98.3494,-0.650569,0.532
7.40412e-05,-0.000917279,2.45232e-05,4.14589e-05,0.000411607,-6.39798e-06,0.000136328,1.74812e-06,-15,-99,-2.54164e-15,-15,-98.3494,-0.650569,0.536
7.56998e-05,-0.000916933,2.50725e-05,4.14589e-05,0.000417689,2.45256e-05,0.000138343,1.16541e-06,-14,-99,6.49531e-15,-14,-98.3494,-0.650569,0.54
7.73828e-05,-0.000916933,2.563e-05,4.14589e-05,0.000423814,1.63504e-05,0.000140371,7.76941e-07,-14,-99,2.88681e-15,-14,-98.3494,-0.650569,0.544
7.90904e-05,-0.000916933,2.61955e-05,4.14589e-05,0.000429982,1.09003e-05,0.000142414,5.17961e-07,-15,-99,1.28303e-15,-15,-98.3494,-0.650569,0.548
8.08227e-05,-0.000916588,2.67693e-05,4.14589e-05,0.000436193,3.60578e-05,0.000144472,3.45307e-07,-14,-99,2.82947e-15,-14,-98.3494,-0.650569,0.552
8.258e-05,-0.000916588,2.73513e-05,4.14589e-05,0.000442448,2.40385e-05,0.000146543,2.30205e-07,-15,-99,1.25754e-15,-15,-98.3494,-0.650569,0.556
8.43623e-05,-0.000916588,2.79417e-05,4.14589e-05,0.000448746,1.60257e-05,0.000148629,1.5347e-07,-15,-99,5.58908e-16,-15,-98.3494,-0.650569,0.56
8.617e-05,-0.000916933,2.85404e-05,4.14589e-05,0.000455087,-1.81071e-05,0.00015073,1.02313e-07,-15,-99,-4.21001e-16,-15,-98.3494,-0.650569,0.564
8.80031e-05,-0.000916588,2.91475e-05,4.14589e-05,0.000461472,1.67195e-05,0.000152844,6.82088e-08,-15,-99,2.59158e-16,-15,-98.3494,-0.650569,0.568
8.98618e-05,-0.000916588,2.97632e-05,4.18044e-05,0.000467899,1.11463e-05,0.000154973,2.88364e-05,-15,-99,7.36509e-14,-15,-98.3494,-0.650569,0.572
9.17463e-05,-0.000916588,3.03873e-05,4.18044e-05,0.00047437,7.43089e-06,0.000157116,1.92243e-05,-15,-99,3.27338e-14,-15,-98.3494,-0.650569,0.576
9.36568e-05,-0.000916588,3.10201e-05,4.18044e-05,0.000480884,4.95393e-06,0.000159274,1.28162e-05,-15,-99,1.45483e-14,-15,-98.3494,-0.650569,0.58
9.55935e-05,-0.000916588,3.16615e-05,4.18044e-05,0.000487441,3.30262e-06,0.000161445,8.54412e-06,-15,-99,6.46593e-15,-15,-98.3494,-0.650569,0.584
9.75564e-05,-0.000916588,3.23117e-05,4.18044e-05,0.00049404,2.20174e-06,0.000163631,5.69608e-06,-15,-99,2.87375e-15,-15,-98.3494,-0.650569,0.588
9.95459e-05,-0.000916588,3.29706e-05,4.18044e-05,0.000500683,1.46783e-06,0.000165831,3.79739e-06,-16,-99,1.27722e-15,-16,-98.3494,-0.650569,0.592
0.000101562,-0.000916588,3.36384e-05,4.18044e-05,0.000507369,9.78553e-07,0.000168046,2.53159e-06,-16,-99,5.67653e-16,-16,-98.3494,-0.650569,0.596
0.000103605,-0.000916588,3.4315e-05,4.18044e-05,0.000514098,6.52369e-07,0.000170274,1.68773e-06,-16,-99,2.5229e-16,-16,-98.3494,-0.650569,0.6
0.000105675,-0.000916588,3.50006e-05,4.21499e-05,0.00052087,4.34912e-07,0.000172517,2.99161e-05,-16,-99,3.00598e-15,-16,-98.3494,-0.650569,0.604
0.000107772,-0.000916588,3.56951e-05,4.18044e-05,0.000527684,2.89942e-07,0.000174774,-8.84687e-06,-16,-100,-5.87768e-16,-16,-98.3494,-1.65057,0.608
0.000109896,-0.000916588,3.63988e-05,4.21499e-05,0.000534542,1.93294e-07,0.000177046,2.2893e-05,-16,-99,1.02236e-15,-16,-98.3494,-0.650569,0.612
0.000112048,-0.000916588,3.71115e-05,4.21499e-05,0.000541442,1.28863e-07,0.000179331,1.5262e-05,-16,-99,4.5438e-16,-16,-98.3494,-0.650569,0.616
0.000114228,-0.000916588,3.78334e-05,4.24954e-05,0.000548385,8.59086e-08,0.000181631,3.89656e-05,-16,-99,7.79728e-16,-16,-98.3494,-0.650569,0.62
0.000116435,-0.000916588,3.85646e-05,4.24954e-05,0.000555371,5.72724e-08,0.000183945,2.59771e-05,-16,-99,3.46546e-16,-16,-98.3494,-0.650569,0.624
0.000118671,-0.000916588,3.9305e-05,4.24954e-05,0.0005624,3.81816e-08,0.000186273,1.7318e-05,-16,-99,1.5402e-16,-16,-98.3494,-0.650569,0.628
0.000120935,-0.000916242,4.00548e-05,4.24954e-05,0.000569471,2.88164e-05,0.000188615,1.15454e-05,-16,-100,7.74947e-14,-16,-98.3494,-1.65057,0.632
0.000123227,-0.000916242,4.0814e-05,4.24954e-05,0.000576585,1.92109e-05,0.000190971,7.69691e-06,-16,-100,3.44421e-14,-16,-98.3494,-1.65057,0.636
0.000125547,-0.000916242,4.15826e-05,4.24954e-05,0.000583742,1.28073e-05,0.000193341,5.13127e-06,-17,-100,1.53076e-14,-17,-98.3494,-1.65057,0.64
0.000127897,-0.000915897,4.23607e-05,4.28409e-05,0.000590942,3.73291e-05,0.000195726,3.22118e-05,-16,-99,2.82361e-13,-16,-98.3494,-0.650569,0.644
0.000130275,-0.000915897,4.31484e-05,4.28409e-05,0.000598184,2.48861e-05,0.000198125,2.14745e-05,-17,-100,1.25494e-13,-17,-98.3494,-1.65057,0.648
0.000132682,-0.000915897,4.39457e-05,4.28409e-05,0.000605468,1.65907e-05,0.000200537,1.43163e-05,-17,-100,5.57749e-14,-17,-98.3494,-1.65057,0.652
0.000135119,-0.000915897,4.47527e-05,4.28409e-05,0.000612796,1.10605e-05,0.000202964,9.54423e-06,-17,-100,2.47889e-14,-17,-98.3494,-1.65057,0.656
0.000137585,-0.000915897,4.55695e-05,4.31864e-05,0.000620165,7.37365e-06,0.000205405,3.51537e-05,-17,-100,6.13598e-14,-17,-98.3494,-1.65057,0.66
0.00014008,-0.000915551,4.6396e-05,4.31864e-05,0.000627578,3.37067e-05,0.00020786,2.34358e-05,-17,-100,1.86993e-13,-17,-98.3494,-1.65057,0.664
0.000142605,-0.000915206,4.72324e-05,4.31864e-05,0.000635032,5.12621e-05,0.000210329,1.56239e-05,-17,-100,1.8959e-13,-17,-98.3494,-1.65057,0.668
0.00014516,-0.000915551,4.80786e-05,4.31864e-05,0.00064253,5.38378e-06,0.000212812,1.04159e-05,-17,-100,1.32744e-14,-17,-98.3494,-1.65057,0.672
0.000147746,-0.000915206,4.89349e-05,4.35319e-05,0.000650069,3.23801e-05,0.00021531,3.57349e-05,-17,-100,2.76097e-13,-17,-98.3494,-1.65057,0.676
0.000150361,-0.000915206,4.98011e-05,4.35319e-05,0.000657651,2.15867e-05,0.000217821,2.38232e-05,-17,-100,1.2271e-13,-17,-98.3494,-1.65057,0.68
0.000153007,-0.000915206,5.06775e-05,4.35319e-05,0.000665276,1.43912e-05,0.000220346,1.58822e-05,-18,-100,5.45376e-14,-18,-98.3494,-1.65057,0.684
0.000155683,-0.000915206,5.15639e-05,4.38774e-05,0.000672943,9.59411e-06,0.000222885,3.9379e-05,-18,-100,9.08643e-14,-18,-98.3494,-1.65057,0.688
0.000158391,-0.000915206,5.24606e-05,4.42229e-05,0.000680652,6.39607e-06,0.000225439,5.50436e-05,-18,-100,8.53395e-14,-18,-98.3494,-1.65057,0.692
0.000161129,-0.000915206,5.33674e-05,4.45684e-05,0.000688403,4.26405e-06,0.000228006,6.54867e-05,-18,-100,6.82157e-14,-18,-98.3494,-1.65057,0.696
0.000163898,-0.00091486,5.42846e-05,4.45684e-05,0.000696197,3.16336e-05,0.000230588,4.36578e-05,-18,-100,3.37381e-13,-18,-98.3494,-1.65057,0.7
0.000166698,-0.00091486,5.52122e-05,4.45684e-05,0.000704033,2.10891e-05,0.000233183,2.91052e-05,-18,-100,1.49947e-13,-18,-98.3494,-1.65057,0.704
0.00016953,-0.00091486,5.61501e-05,4.45684e-05,0.000711911,1.40594e-05,0.000235792,1.94035e-05,-18,-100,6.66431e-14,-18,-98.3494,-1.65057,0.708
0.000172394,-0.00091486,5.70985e-05,4.49138e-05,0.000719831,9.37293e-06,0.000238415,4.17266e-05,-18,-100,9.62833e-14,-18,-98.3494,-1.65057,0.712
0.000175289,-0.00091486,5.80575e-05,4.49138e-05,0.000727794,6.24862e-06,0.000241053,2.78177e-05,-19,-100,4.27926e-14,-19,-98.3494,-1.65057,0.716
0.000178216,-0.00091486,5.9027e-05,4.49138e-05,0.000735798,4.16574e-06,0.000243704,1.85451e-05,-19,-100,1.90189e-14,-19,-98.3494,-1.65057,0.72
0.000181175,-0.000914515,6.00071e-05,4.49138e-05,0.000743845,3.15681e-05,0.000246369,1.23634e-05,-19,-100,9.60839e-14,-19,-98.3494,-1.65057,0.724
0.000184167,-0.000914169,6.09979e-05,4.49138e-05,0.000751934,4.98363e-05,0.000249048,8.24228e-06,-18,-100,1.01125e-13,-18,-98.3494,-1.65057,0.728
0.000187191,-0.000914169,6.19995e-05,4.49138e-05,0.000760065,3.32242e-05,0.000251741,5.49486e-06,-19,-100,4.49443e-14,-19,-98.3494,-1.65057,0.732
0.000190247,-0.000914169,6.30119e-05,4.49138e-05,0.000768238,2.21495e-05,0.000254448,3.66324e-06,-19,-100,1.99752e-14,-19,-98.3494,-1.65057,0.736
0.000193337,-0.000913824,6.40351e-05,4.49138e-05,0.000776453,4.35572e-05,0.000257169,2.44216e-06,-19,-101,2.61877e-14,-19,-98.3494,-2.65057,0.74
0.000196459,-0.000913824,6.50693e-05,4.52593e-05,0.000784709,2.90382e-05,0.000259904,3.0419e-05,-19,-100,2.19132e-13,-19,-98.3494,-1.65057,0.744
0.000199615,-0.000913824,6.61144e-05,4.52593e-05,0.000793008,1.93588e-05,0.000262652,2.02794e-05,-19,-100,9.7392e-14,-19,-98.3494,-1.65057,0.748
0.000202803,-0.000913478,6.71705e-05,4.52593e-05,0.000801349,4.16968e-05,0.000265415,1.35196e-05,-19,-101,1.39848e-13,-19,-98.3494,-2.65057,0.752
0.000206025,-0.000913133,6.82377e-05,4.52593e-05,0.000809732,5.65888e-05,0.000268191,9.01305e-06,-19,-101,1.2653e-13,-19,-98.3494,-2.65057,0.756
0.000209281,-0.000913133,6.9316e-05,4.52593e-05,0.000818156,3.77258e-05,0.000270982,6.0087e-06,-19,-101,5.62355e-14,-19,-98.3494,-2.65057,0.76
0.000212571,-0.000913133,7.04056e-05,4.56048e-05,0.000826622,2.51506e-05,0.000273786,3.27967e-05,-20,-100,2.06192e-13,-20,-98.3494,-1.65057,0.764
0.000215894,-0.000913133,7.15063e-05,4.56048e-05,0.00083513,1.6767e-05,0.000276604,2.18645e-05,-20,-101,9.1641e-14,-20,-98.3494,-2.65057,0.768
0.000219252,-0.000913133,7.26184e-05,4.56048e-05,0.00084368,1.1178e-05,0.000279435,1.45763e-05,-20,-101,4.07293e-14,-20,-98.3494,-2.65057,0.772
0.000222644,-0.000912787,7.37418e-05,4.59503e-05,0.000852272,3.62429e-05,0.000282281,3.85085e-05,-20,-100,3.51521e-13,-20,-98.3494,-1.65057,0.776
0.00022607,-0.000913133,7.48767e-05,4.59503e-05,0.000860905,-4.62896e-06,0.000285141,2.56723e-05,-20,-101,-2.99309e-14,-20,-98.3494,-2.65057,0.78
0.000229531,-0.000912787,7.6023e-05,4.59503e-05,0.00086958,2.5705e-05,0.000288014,1.71149e-05,-20,-101,1.10806e-13,-20,-98.3494,-2.65057,0.784
0.000233027,-0.000912787,7.71808e-05,4.62958e-05,0.000878297,1.71366e-05,0.000290901,4.02008e-05,-20,-101,1.74818e-13,-20,-98.3494,-2.65057,0.788
0.000236557,-0.000912442,7.83502e-05,4.62958e-05,0.000887055,4.02153e-05,0.000293802,2.68006e-05,-20,-101,2.73502e-13,-20,-98.3494,-2.65057,0.792
0.000240123,-0.000912442,7.95313e-05,4.62958e-05,0.000895855,2.68102e-05,0.000296716,1.7867e-05,-21,-101,1.21556e-13,-21,-98.3494,-2.65057,0.796
0.000243724,-0.000911751,8.0724e-05,4.62958e-05,0.000904697,7.54553e-05,0.000299645,1.19114e-05,-20,-101,2.28074e-13,-20,-98.3494,-2.65057,0.8
0.000247361,-0.00091106,8.19284e-05,4.62958e-05,0.00091358,0.000107885,0.000302587,7.94091e-06,-20,-101,2.17399e-13,-20,-98.3494,-2.65057,0.804
0.000251033,-0.000910369,8.31447e-05,4.62958e-05,0.000922505,0.000129505,0.000305543,5.29394e-06,-20,-101,1.73977e-13,-20,-98.3494,-2.65057,0.808
0.000254741,-0.000909678,8.43728e-05,4.62958e-05,0.000931471,0.000143919,0.000308513,3.52929e-06,-20,-101,1.28893e-13,-20,-98.3494,-2.65057,0.812
0.000258485,-0.000908642,8.56128e-05,4.62958e-05,0.000940478,0.000182319,0.000311496,2.35286e-06,-20,-101,1.08856e-13,-20,-98.3494,-2.65057,0.816
0.000262265,-0.000907951,8.68648e-05,4.62958e-05,0.000949527,0.000179128,0.000314493,1.56857e-06,-20,-101,7.13005e-14,-20,-98.3494,-2.65057,0.82
0.000266081,-0.000906914,8.81288e-05,4.62958e-05,0.000958618,0.000205791,0.000317504,1.04572e-06,-20,-101,5.46091e-14,-20,-98.3494,-2.65057,0.824
0.000269934,-0.000906223,8.94048e-05,4.66413e-05,0.00096775,0.000194776,0.000320529,2.94881e-05,-20,-101,1.46837e-12,-20,-98.3494,-2.65057,0.828
0.000273823,-0.000905878,9.0693e-05,4.66413e-05,0.000976923,0.000158642,0.000323567,1.96587e-05,-20,-101,7.97308e-13,-20,-98.3494,-2.65057,0.832
0.000277749,-0.000905532,9.19934e-05,4.66413e-05,0.000986138,0.000134552,0.000326619,1.31058e-05,-21,-101,4.50825e-13,-21,-98.3494,-2.65057,0.836
0.000281712,-0.000905187,9.3306e-05,4.66413e-05,0.000995394,0.000118492,0.000329685,8.73721e-06,-21,-101,2.64677e-13,-21,-98.3494,-2.65057,0.84
0.000285712,-0.000905187,9.46309e-05,4.66413e-05,0.00100469,7.89948e-05,0.000332764,5.8248e-06,-22,-102,1.17634e-13,-22,-98.3494,-3.65057,0.844
0.00028975,-0.000904841,9.59681e-05,4.66413e-05,0.00101403,8.14541e-05,0.000335857,3.8832e-06,-22,-102,8.08643e-14,-22,-98.3494,-3.65057,0.848
0.000293825,-0.000904496,9.73177e-05,4.66413e-05,0.00102341,8.30937e-05,0.000338964,2.5888e-06,-22,-102,5.49947e-14,-22,-98.3494,-3.65057,0.852
0.000297937,-0.00090415,9.86798e-05,4.66413e-05,0.00103283,8.41867e-05,0.000342084,1.72587e-06,-22,-102,3.71454e-14,-22,-98.3494,-3.65057,0.856
0.000302087,-0.000903459,0.000100054,4.66413e-05,0.00104229,0.000113706,0.000345218,1.15058e-06,-22,-102,3.34468e-14,-22,-98.3494,-3.65057,0.86
0.000306276,-0.000903114,0.000101442,4.66413e-05,0.0010518,0.000104595,0.000348365,7.67052e-07,-22,-102,2.05112e-14,-22,-98.3494,-3.65057,0.864
0.000310502,-0.000902423,0.000102841,4.66413e-05,0.00106134,0.000127312,0.000351527,5.11368e-07,-22,-102,1.6644e-14,-22,-98.3494,-3.65057,0.868
0.000314766,-0.000902077,0.000104254,4.69868e-05,0.00107093,0.000113666,0.000354701,2.91318e-05,-22,-102,8.52817e-13,-22,-98.3494,-3.65057,0.872
0.000319069,-0.000901732,0.000105679,4.69868e-05,0.00108055,0.000104568,0.00035789,1.94212e-05,-22,-102,5.23039e-13,-22,-98.3494,-3.65057,0.876
0.000323411,-0.000901732,0.000107117,4.69868e-05,0.00109022,6.9712e-05,0.000361092,1.29475e-05,-23,-102,2.32462e-13,-23,-98.3494,-3.65057,0.88
0.000327791,-0.000901386,0.000108568,4.69868e-05,0.00109993,7.52656e-05,0.000364307,8.63166e-06,-23,-102,1.67321e-13,-23,-98.3494,-3.65057,0.884
0.00033221,-0.000901041,0.000110031,4.69868e-05,0.00110968,7.8968e-05,0.000367537,5.75444e-06,-23,-102,1.17034e-13,-23,-98.3494,-3.65057,0.888
0.000336669,-0.000900695,0.000111508,4.69868e-05,0.00111947,8.14362e-05,0.000370779,3.83629e-06,-23,-102,8.04615e-14,-23,-98.3494,-3.65057,0.892
0.000341166,-0.00090035,0.000112998,4.69868e-05,0.0011293,8.30818e-05,0.000374036,2.55753e-06,-23,-102,5.47249e-14,-23,-98.3494,-3.65057,0.896
0.000345703,-0.000900004,0.0001145,4.73323e-05,0.00113917,8.41788e-05,0.000377306,3.04959e-05,-23,-102,6.66017e-13,-23,-98.3494,-3.65057,0.9
0.00035028,-0.000899659,0.000116016,4.69868e-05,0.00114909,8.49101e-05,0.000380589,-8.4603e-06,-24,-102,-1.85014e-13,-24,-98.3494,-3.65057,0.904
0.000354896,-0.000899313,0.000117545,4.73323e-05,0.00115904,8.53977e-05,0.000383886,2.31507e-05,-24,-102,5.12922e-13,-24,-98.3494,-3.65057,0.908
0.000359552,-0.000898968,0.000119087,4.73323e-05,0.00116904,8.57227e-05,0.000387196,1.54338e-05,-24,-102,3.43249e-13,-24,-98.3494,-3.65057,0.912
0.000364248,-0.000898277,0.000120643,4.73323e-05,0.00117907,0.00011473,0.00039052,1.02892e-05,-24,-102,3.06267e-13,-24,-98.3494,-3.65057,0.916
0.000368985,-0.000896895,0.000122211,4.73323e-05,0.00118915,0.000191651,0.000393858,6.85947e-06,-23,-102,3.41068e-13,-23,-98.3494,-3.65057,0.92
0.000373761,-0.000896549,0.000123794,4.73323e-05,0.00119926,0.000156558,0.000397209,4.57298e-06,-24,-102,1.85744e-13,-24,-98.3494,-3.65057,0.924
0.000378579,-0.000895858,0.000125389,4.73323e-05,0.00120942,0.000161954,0.000400573,3.04866e-06,-24,-103,1.28097e-13,-24,-98.3494,-4.65057,0.928
0.000383437,-0.000894822,0.000126998,4.73323e-05,0.00121962,0.000194342,0.000403951,2.03244e-06,-24,-103,1.02477e-13,-24,-98.3494,-4.65057,0.932
0.000388336,-0.000894822,0.000128621,4.76778e-05,0.00122986,0.000129561,0.000407343,3.01459e-05,-24,-102,1.02071e-12,-24,-98.3494,-3.65057,0.936
0.000393276,-0.000894476,0.000130257,4.76778e-05,0.00124014,0.000115165,0.000410747,2.00973e-05,-25,-103,6.04863e-13,-25,-98.3494,-4.65057,0.94
0.000398257,-0.000894476,0.000131907,4.76778e-05,0.00125046,7.67768e-05,0.000414166,1.33982e-05,-25,-103,2.68828e-13,-25,-98.3494,-4.65057,0.944
0.000403279,-0.000894131,0.00013357,4.80233e-05,0.00126082,7.99754e-05,0.000417597,3.7723e-05,-25,-102,7.94142e-13,-25,-98.3494,-3.65057,0.948
0.000408344,-0.00089344,0.000135248,4.76778e-05,0.00127123,0.000110899,0.000421043,-3.64223e-06,-25,-103,-1.05559e-13,-25,-98.3494,-4.65057,0.952
0.000413449,-0.000893785,0.000136939,4.80233e-05,0.00128167,4.51416e-05,0.000424501,2.63628e-05,-26,-103,3.13259e-13,-26,-98.3494,-4.65057,0.956
0.000418597,-0.000893785,0.000138644,4.80233e-05,0.00129215,3.00944e-05,0.000427973,1.75752e-05,-26,-103,1.39226e-13,-26,-98.3494,-4.65057,0.96
0.000423787,-0.000893785,0.000140362,4.80233e-05,0.00130267,2.00629e-05,0.000431459,1.17168e-05,-26,-103,6.18782e-14,-26,-98.3494,-4.65057,0.964
0.000429018,-0.000892749,0.000142095,4.80233e-05,0.00131324,9.97481e-05,0.000434958,7.81119e-06,-26,-103,2.05096e-13,-26,-98.3494,-4.65057,0.968
0.000434293,-0.000892749,0.000143842,4.83688e-05,0.00132384,6.64987e-05,0.00043847,3.39984e-05,-26,-103,5.99404e-13,-26,-98.3494,-4.65057,0.972
0.000439609,-0.000892404,0.000145603,4.83688e-05,0.00133449,7.31234e-05,0.000441995,2.26656e-05,-26,-103,4.39412e-13,-26,-98.3494,-4.65057,0.976
0.000444968,-0.000892058,0.000147378,4.87142e-05,0.00134517,7.75399e-05,0.000445534,4.39013e-05,-27,-103,9.08954e-13,-27,-98.3494,-4.65057,0.98
0.000450371,-0.000891022,0.000149167,4.87142e-05,0.0013559,0.000138066,0.000449087,2.92675e-05,-26,-103,1.07898e-12,-26,-98.3494,-4.65057,0.984
0.000455816,-0.000890331,0.000150971,4.87142e-05,0.00136666,0.000149626,0.000452653,1.95117e-05,-26,-103,7.79544e-13,-26,-98.3494,-4.65057,0.988
0.000461304,-0.000889985,0.000152789,4.87142e-05,0.00137747,0.000128541,0.000456232,1.30078e-05,-27,-103,4.46464e-13,-27,-98.3494,-4.65057,0.992
0.000466836,-0.000889294,0.000154621,4.90597e-05,0.00138831,0.000143276,0.000459824,3.74628e-05,-27,-103,1.44339e-12,-27,-98.3494,-4.65057,0.996
0.000472411,-0.000888258,0.000156467,4.90597e-05,0.0013992,0.00018189,0.00046343,2.49752e-05,-26,-103,1.22159e-12,-26,-98.3494,-4.65057,1
0.000478029,-0.000887221,0.000158328,4.90597e-05,0.00141013,0.000207633,0.000467049,1.66501e-05,-26,-103,9.29656e-13,-26,-98.3494,-4.65057,1.004
0.000483692,-0.00088653,0.000160204,4.90597e-05,0.00142109,0.000196004,0.000470681,1.11001e-05,-26,-103,5.85058e-13,-26,-98.3494,-4.65057,1.008
0.000489398,-0.000885494,0.000162094,4.90597e-05,0.0014321,0.000217042,0.000474327,7.40006e-06,-26,-104,4.31904e-13,-26,-98.3494,-5.65057,1.012
0.000495148,-0.000885494,0.000163998,4.94052e-05,0.00144315,0.000144695,0.000477986,3.37243e-05,-27,-103,1.32145e-12,-27,-98.3494,-4.65057,1.016
0.000500943,-0.000885494,0.000165918,4.94052e-05,0.00145424,9.64631e-05,0.000481658,2.24829e-05,-28,-104,5.87312e-13,-28,-98.3494,-5.65057,1.02
0.000506782,-0.000885148,0.000167852,4.94052e-05,0.00146536,9.30997e-05,0.000485343,1.49886e-05,-28,-104,3.77889e-13,-28,-98.3494,-5.65057,1.024
0.000512666,-0.000884803,0.0001698,4.97507e-05,0.00147653,9.08574e-05,0.000489042,3.87833e-05,-28,-103,9.60921e-13,-28,-98.3494,-4.65057,1.028
0.000518595,-0.000883766,0.000171764,4.97507e-05,0.00148774,0.000146944,0.000492754,2.58555e-05,-28,-104,1.03607e-12,-28,-98.3494,-5.65057,1.032
0.000524568,-0.000883766,0.000173742,4.97507e-05,0.00149899,9.79629e-05,0.000496479,1.7237e-05,-29,-104,4.60475e-13,-29,-98.3494,-5.65057,1.036
0.000530587,-0.000883421,0.000175736,4.97507e-05,0.00151027,9.40995e-05,0.000500218,1.14914e-05,-29,-104,2.94877e-13,-29,-98.3494,-5.65057,1.04
0.00053665,-0.000883075,0.000177744,5.00962e-05,0.0015216,9.15239e-05,0.00050397,3.64518e-05,-29,-104,9.16098e-13,-29,-98.3494,-5.65057,1.044
0.00054276,-0.000882384,0.000179767,5.00962e-05,0.00153297,0.000118598,0.000507735,2.43012e-05,-29,-104,7.91394e-13,-29,-98.3494,-5.65057,1.048
0.000548914,-0.000881002,0.000181806,5.00962e-05,0.00154437,0.000194229,0.000511513,1.62008e-05,-28,-104,8.6405e-13,-28,-98.3494,-5.65057,1.052
0.000555115,-0.000881002,0.00018386,5.00962e-05,0.00155582,0.000129486,0.000515304,1.08005e-05,-29,-104,3.84022e-13,-29,-98.3494,-5.65057,1.056
0.000561361,-0.000880311,0.000185928,5.00962e-05,0.00156731,0.000143906,0.000519109,7.20036e-06,-29,-104,2.84525e-13,-29,-98.3494,-5.65057,1.06
0.000567653,-0.000879966,0.000188012,5.04417e-05,0.00157884,0.000124728,0.000522926,3.35912e-05,-30,-104,1.15841e-12,-30,-98.3494,-5.65057,1.064
0.000573992,-0.00087962,0.000190112,5.04417e-05,0.0015904,0.000111943,0.000526757,2.23941e-05,-30,-104,6.93112e-13,-30,-98.3494,-5.65057,1.068
0.000580376,-0.000878929,0.000192227,5.04417e-05,0.00160201,0.000132211,0.000530601,1.49294e-05,-30,-104,5.45735e-13,-30,-98.3494,-5.65057,1.072
0.000586808,-0.000878238,0.000194357,5.04417e-05,0.00161365,0.000145722,0.000534459,9.95294e-06,-30,-104,4.01005e-13,-30,-98.3494,-5.65057,1.076
0.000593286,-0.000877547,0.000196502,5.04417e-05,0.00162534,0.00015473,0.000538329,6.63529e-06,-30,-105,2.83862e-13,-30,-98.3494,-6.65057,1.08
0.00059981,-0.000876165,0.000198663,5.07872e-05,0.00163706,0.000218317,0.000542213,3.32145e-05,-30,-104,2.01861e-12,-30,-98.3494,-5.65057,1.084
0.000606382,-0.000875474,0.00020084,5.07872e-05,0.00164883,0.000203127,0.000546109,2.2143e-05,-30,-105,1.2521e-12,-30,-98.3494,-6.65057,1.088
0.000613001,-0.000874438,0.000203032,5.07872e-05,0.00166063,0.00022179,0.000550019,1.4762e-05,-30,-105,9.11433e-13,-30,-98.3494,-6.65057,1.092
0.000619667,-0.000873056,0.00020524,5.11327e-05,0.00167248,0.000263024,0.000553942,3.86322e-05,-30,-104,2.84792e-12,-30,-98.3494,-5.65057,1.096
0.000626381,-0.000870983,0.000207464,5.14782e-05,0.00168436,0.000348095,0.000557878,5.45458e-05,-29,-104,5.35753e-12,-29,-98.3494,-5.65057,1.1
0.000633142,-0.000869947,0.000209703,5.14782e-05,0.00169629,0.000318436,0.000561827,3.63638e-05,-29,-105,3.26737e-12,-29,-98.3494,-6.65057,1.104
0.000639951,-0.000868219,0.000211958,5.18237e-05,0.00170825,0.000356245,0.000565789,5.30335e-05,-29,-105,5.36674e-12,-29,-98.3494,-6.65057,1.108
0.000646808,-0.000866146,0.00021423,5.18237e-05,0.00172025,0.000410242,0.000569765,3.53557e-05,-29,-105,4.12013e-12,-29,-98.3494,-6.65057,1.112
0.000653713,-0.000864764,0.000216517,5.21692e-05,0.00173229,0.000388659,0.000573753,5.23614e-05,-29,-105,5.81937e-12,-29,-98.3494,-6.65057,1.116
0.000660667,-0.000863728,0.00021882,5.21692e-05,0.00174437,0.000345479,0.000577754,3.49076e-05,-30,-105,3.44856e-12,-30,-98.3494,-6.65057,1.12
0.000667668,-0.000862346,0.000221139,5.21692e-05,0.00175649,0.000345483,0.000581769,2.32717e-05,-30,-105,2.29907e-12,-30,-98.3494,-6.65057,1.124
0.000674719,-0.000860273,0.000223474,5.25146e-05,0.00176865,0.000403067,0.000585796,4.43054e-05,-30,-105,5.14041e-12,-30,-98.3494,-6.65057,1.128
0.000681818,-0.000858891,0.000225825,5.25146e-05,0.00178085,0.000383875,0.000589837,2.95369e-05,-30,-105,3.26377e-12,-30,-98.3494,-6.65057,1.132
0.000688966,-0.000857854,0.000228192,5.25146e-05,0.00179309,0.00034229,0.00059389,1.96913e-05,-31,-105,1.94013e-12,-31,-98.3494,-6.65057,1.136
0.000696163,-0.000856127,0.000230576,5.25146e-05,0.00180537,0.000372148,0.000597957,1.31275e-05,-31,-105,1.40625e-12,-31,-98.3494,-6.65057,1.14
0.000703409,-0.000854399,0.000232976,5.25146e-05,0.00181769,0.000392053,0.000602037,8.75168e-06,-31,-106,9.87643e-13,-31,-98.3494,-7.65057,1.144
0.000710704,-0.000851636,0.000235392,5.25146e-05,0.00183004,0.000491696,0.000606129,5.83446e-06,-30,-106,8.25773e-13,-30,-98.3494,-7.65057,1.148
0.000718049,-0.000849217,0.000237825,5.28601e-05,0.00184244,0.000529334,0.000610235,3.26806e-05,-30,-105,5.01223e-12,-30,-98.3494,-6.65057,1.152
0.000725444,-0.000846108,0.000240274,5.35511e-05,0.00185487,0.000612008,0.000614353,7.93689e-05,-29,-105,1.4258e-11,-29,-98.3494,-6.65057,1.156
0.000732888,-0.000842998,0.00024274,5.32056e-05,0.00186735,0.000667123,0.000618485,2.41217e-05,-29,-106,4.69304e-12,-29,-98.3494,-7.65057,1.16
0.000740383,-0.000838852,0.000245222,5.35511e-05,0.00187986,0.00079024,0.000622629,4.4872e-05,-28,-105,1.04085e-11,-28,-98.3494,-6.65057,1.164
0.000747927,-0.000835052,0.000247721,5.35511e-05,0.00189241,0.000843527,0.000626787,2.99147e-05,-27,-106,7.40688e-12,-27,-98.3494,-7.65057,1.168
0.000755522,-0.000830906,0.000250237,5.42421e-05,0.00190501,0.000907842,0.000630957,7.7525e-05,-27,-105,2.09253e-11,-27,-98.3494,-6.65057,1.172
0.000763167,-0.000825724,0.000252769,5.38966e-05,0.00191764,0.00103709,0.000635141,2.28924e-05,-26,-106,7.0138e-12,-26,-98.3494,-7.65057,1.176
0.000770863,-0.000820196,0.000255318,5.38966e-05,0.00193031,0.00115205,0.000639337,1.52616e-05,-25,-106,5.19416e-12,-25,-98.3494,-7.65057,1.18
0.00077861,-0.000813632,0.000257883,5.38966e-05,0.00194301,0.00131506,0.000643546,1.01744e-05,-23,-106,3.95275e-12,-23,-98.3494,-7.65057,1.184
0.000786407,-0.000806722,0.000260466,5.35511e-05,0.00195576,0.00145253,0.000647768,-2.2008e-05,-22,-107,-9.38331e-12,-22,-98.3494,-8.65057,1.188
0.000794256,-0.000799466,0.000263066,5.42421e-05,0.00196855,0.00157296,0.000652003,4.29099e-05,-21,-106,2.00675e-11,-21,-98.3494,-7.65057,1.192
0.000802156,-0.000792211,0.000265682,5.42421e-05,0.00198137,0.00165325,0.000656251,2.86066e-05,-20,-106,1.40612e-11,-20,-98.3494,-7.65057,1.196
0.000810107,-0.000784956,0.000268316,5.45876e-05,0.00199424,0.00170678,0.000660512,4.7862e-05,-20,-106,2.44424e-11,-20,-98.3494,-7.65057,1.2
0.00081811,-0.000777355,0.000270966,5.45876e-05,0.00200714,0.00177125,0.000664785,3.1908e-05,-19,-106,1.69105e-11,-19,-98.3494,-7.65057,1.204
0.000826164,-0.000770791,0.000273634,5.52786e-05,0.00202008,0.00172786,0.000669072,7.88538e-05,-20,-106,4.1283e-11,-20,-98.3494,-7.65057,1.208
0.00083427,-0.000765263,0.000276319,5.49331e-05,0.00203306,0.00161256,0.000673371,2.37783e-05,-21,-107,1.15455e-11,-21,-98.3494,-8.65057,1.212
0.000842429,-0.000761117,0.000279021,5.49331e-05,0.00204608,0.00142053,0.000677684,1.58522e-05,-23,-107,6.78044e-12,-23,-98.3494,-8.65057,1.216
0.000850639,-0.000758353,0.00028174,5.52786e-05,0.00205914,0.00117735,0.000682009,3.93591e-05,-26,-106,1.40407e-11,-26,-98.3494,-7.65057,1.22
0.000858902,-0.000756971,0.000284477,5.56241e-05,0.00207224,0.000900063,0.000686347,5.50303e-05,-29,-106,1.51015e-11,-29,-98.3494,-7.65057,1.224
0.000867217,-0.000755935,0.000287231,5.56241e-05,0.00208537,0.000686415,0.000690697,3.66869e-05,-31,-107,7.67791e-12,-31,-98.3494,-8.65057,1.228
0.000875585,-0.000755244,0.000290003,5.56241e-05,0.00209855,0.000515192,0.000695061,2.44579e-05,-33,-107,3.84179e-12,-33,-98.3494,-8.65057,1.232
0.000884005,-0.000754553,0.000292792,5.59696e-05,0.00211176,0.000401043,0.000699437,4.50962e-05,-34,-107,5.54838e-12,-34,-98.3494,-8.65057,1.236
0.000892479,-0.000753862,0.000295598,5.66605e-05,0.00212501,0.000324944,0.000703826,8.7646e-05,-35,-106,8.84513e-12,-35,-98.3494,-7.65057,1.24
0.000901006,-0.000752825,0.000298422,5.6315e-05,0.0021383,0.000303002,0.000708228,2.96397e-05,-36,-107,2.77222e-12,-36,-98.3494,-8.65057,1.244
0.000909585,-0.000751443,0.000301264,5.7006e-05,0.00215163,0.000317165,0.000712643,7.73417e-05,-36,-107,7.66484e-12,-36,-98.3494,-8.65057,1.248
0.000918219,-0.00074937,0.000304123,5.66605e-05,0.002165,0.000384189,0.000717071,2.27702e-05,-35,-107,2.71691e-12,-35,-98.3494,-8.65057,1.252
0.000926905,-0.000747297,0.000307001,5.7006e-05,0.00217841,0.000428871,0.000721511,4.39711e-05,-35,-107,5.89248e-12,-35,-98.3494,-8.65057,1.256
0.000935646,-0.000744879,0.000309895,5.73515e-05,0.00219185,0.000487451,0.000725964,5.8105e-05,-35,-107,8.90373e-12,-35,-98.3494,-8.65057,1.26
0.00094444,-0.000742115,0.000312808,5.7006e-05,0.00220534,0.000555295,0.00073043,9.94571e-06,-34,-108,1.72569e-12,-34,-98.3494,-9.65057,1.264
0.000953289,-0.00073866,0.000315739,5.7697e-05,0.00221886,0.000658106,0.000734908,6.42123e-05,-33,-107,1.33644e-11,-33,-98.3494,-8.65057,1.268
0.000962191,-0.00073486,0.000318688,5.7697e-05,0.00223242,0.000755437,0.000739399,4.28082e-05,-33,-107,1.02273e-11,-33,-98.3494,-8.65057,1.272
0.000971148,-0.000730714,0.000321654,5.7697e-05,0.00224602,0.000849116,0.000743903,2.85388e-05,-32,-108,7.66372e-12,-32,-98.3494,-9.65057,1.276
0.000980159,-0.000725877,0.000324639,5.7697e-05,0.00225965,0.00096915,0.00074842,1.90259e-05,-31,-108,5.83139e-12,-31,-98.3494,-9.65057,1.28
0.000989225,-0.000720349,0.000327642,5.80425e-05,0.00227333,0.00110675,0.000752949,4.14748e-05,-30,-108,1.46038e-11,-30,-98.3494,-9.65057,1.284
0.000998346,-0.000713785,0.000330662,5.80425e-05,0.00228704,0.00128486,0.000757491,2.76499e-05,-28,-108,1.13026e-11,-28,-98.3494,-9.65057,1.288
0.00100752,-0.000705493,0.000333701,5.80425e-05,0.00230079,0.00154756,0.000762046,1.84333e-05,-26,-108,9.07567e-12,-26,-98.3494,-9.65057,1.292
0.00101675,-0.000697547,0.000336759,5.80425e-05,0.00231458,0.0016939,0.000766613,1.22888e-05,-24,-108,6.62258e-12,-24,-98.3494,-9.65057,1.296
0.00102604,-0.000688909,0.000339834,5.8388e-05,0.00232841,0.00184904,0.000771193,3.69835e-05,-23,-108,2.18857e-11,-23,-98.3494,-9.65057,1.3
0.00103538,-0.000680272,0.000342928,5.8388e-05,0.00234228,0.00195246,0.000775786,2.46557e-05,-22,-108,1.54066e-11,-22,-98.3494,-9.65057,1.304
0.00104478,-0.00067198,0.000346041,5.8388e-05,0.00235618,0.00199263,0.000780391,1.64371e-05,-22,-108,1.04823e-11,-22,-98.3494,-9.65057,1.308
0.00105423,-0.000664034,0.000349172,5.80425e-05,0.00237012,0.00199061,0.000785009,-1.78329e-05,-22,-109,-1.12937e-11,-22,-98.3494,-10.6506,1.312
0.00106374,-0.000656088,0.000352321,5.87335e-05,0.00238411,0.00198926,0.00078964,4.56933e-05,-22,-108,2.92626e-11,-22,-98.3494,-9.65057,1.316
0.0010733,-0.000649178,0.000355489,5.87335e-05,0.00239812,0.00190199,0.000794283,3.04622e-05,-23,-108,1.86526e-11,-23,-98.3494,-9.65057,1.32
0.00108292,-0.000641922,0.000358675,5.87335e-05,0.00241218,0.00187261,0.000798939,2.03081e-05,-24,-109,1.22429e-11,-24,-98.3494,-10.6506,1.324
0.0010926,-0.000635013,0.00036188,5.87335e-05,0.00242628,0.00182422,0.000803608,1.35387e-05,-24,-109,7.95106e-12,-24,-98.3494,-10.6506,1.328
0.00110233,-0.000628448,0.000365104,5.87335e-05,0.00244041,0.00176318,0.000808289,9.02583e-06,-25,-109,5.12332e-12,-25,-98.3494,-10.6506,1.332
0.00111212,-0.000622575,0.000368346,5.9079e-05,0.00245458,0.0016649,0.000812982,3.48081e-05,-26,-109,1.87665e-11,-26,-98.3494,-10.6506,1.336
0.00112197,-0.000615665,0.000371608,5.9079e-05,0.00246879,0.00168575,0.000817689,2.32054e-05,-26,-109,1.26677e-11,-26,-98.3494,-10.6506,1.34
0.00113187,-0.000608755,0.000374888,5.9079e-05,0.00248304,0.00169965,0.000822407,1.54703e-05,-26,-109,8.5148e-12,-26,-98.3494,-10.6506,1.344
0.00114183,-0.0006015,0.000378187,5.9079e-05,0.00249732,0.00173771,0.000827139,1.03135e-05,-26,-109,5.80364e-12,-26,-98.3494,-10.6506,1.348
0.00115185,-0.000593554,0.000381505,5.9079e-05,0.00251165,0.00182066,0.000831883,6.87568e-06,-25,-109,4.0538e-12,-25,-98.3494,-10.6506,1.352
0.00116193,-0.000584571,0.000384842,5.9079e-05,0.00252601,0.00196234,0.000836639,4.58379e-06,-24,-109,2.91283e-12,-24,-98.3494,-10.6506,1.356
0.00117206,-0.000575243,0.000388198,5.9079e-05,0.00254041,0.00208558,0.000841408,3.05586e-06,-23,-110,2.06384e-12,-23,-98.3494,-11.6506,1.36
0.00118225,-0.000565223,0.000391573,5.977e-05,0.00255484,0.00222532,0.00084619,5.96191e-05,-22,-109,4.34655e-11,-22,-98.3494,-10.6506,1.364
0.0011925,-0.000556241,0.000394968,5.94245e-05,0.00256932,0.00223211,0.000850984,1.09551e-05,-22,-110,7.96494e-12,-22,-98.3494,-11.6506,1.368
0.00120281,-0.000547603,0.000398381,5.94245e-05,0.00258383,0.00220785,0.00085579,7.30342e-06,-22,-110,5.25224e-12,-22,-98.3494,-11.6506,1.372
0.00121317,-0.000539657,0.000401814,6.01155e-05,0.00259838,0.00213409,0.000860609,6.24508e-05,-23,-109,4.39157e-11,-23,-98.3494,-10.6506,1.376
0.00122359,-0.000532402,0.000405266,5.977e-05,0.00261297,0.00202734,0.000865441,1.28429e-05,-25,-110,8.53015e-12,-25,-98.3494,-11.6506,1.38
0.00123407,-0.000525146,0.000408738,6.01155e-05,0.00262759,0.00195617,0.000870285,3.73529e-05,-25,-110,2.40768e-11,-25,-98.3494,-11.6506,1.384
0.00124461,-0.000518237,0.000412229,6.08064e-05,0.00264225,0.00187993,0.000875141,8.24838e-05,-26,-109,5.16824e-11,-26,-98.3494,-10.6506,1.388
0.00125521,-0.000511672,0.000415739,6.04609e-05,0.00265695,0.00180031,0.00088001,2.61983e-05,-27,-110,1.56307e-11,-27,-98.3494,-11.6506,1.392
0.00126587,-0.000504072,0.000419269,6.11519e-05,0.00267169,0.00183361,0.000884892,7.50474e-05,-27,-110,4.61249e-11,-27,-98.3494,-11.6506,1.396
0.00127659,-0.000496816,0.000422818,6.08064e-05,0.00268647,0.00182702,0.000889785,2.12406e-05,-27,-110,1.29343e-11,-27,-98.3494,-11.6506,1.4
0.00128736,-0.000489561,0.000426387,6.11519e-05,0.00270128,0.00182262,0.000894692,4.29514e-05,-28,-110,2.62401e-11,-28,-98.3494,-11.6506,1.404
0.0012982,-0.000482306,0.000429976,6.18429e-05,0.00271613,0.00181969,0.000899611,8.62161e-05,-28,-110,5.31813e-11,-28,-98.3494,-11.6506,1.408
0.00130909,-0.000474705,0.000433584,6.32249e-05,0.00273102,0.00184653,0.000904542,0.000172641,-28,-109,1.10477e-10,-28,-98.3494,-10.6506,1.412
0.00132004,-0.000467795,0.000437212,6.35704e-05,0.00274595,0.00180684,0.000909485,0.000143885,-28,-109,9.05883e-11,-28,-98.3494,-10.6506,1.416
0.00133106,-0.000459158,0.00044086,6.42613e-05,0.00276091,0.00192433,0.000914441,0.000153505,-27,-109,1.04048e-10,-27,-98.3494,-10.6506,1.42
0.00134213,-0.000451211,0.000444527,6.46068e-05,0.00277591,0.00194508,0.00091941,0.000131128,-27,-110,9.03219e-11,-27,-98.3494,-11.6506,1.424
0.00135326,-0.000441192,0.000448215,6.56433e-05,0.00279095,0.00213166,0.00092439,0.000173791,-26,-109,1.33296e-10,-26,-98.3494,-10.6506,1.428
0.00136446,-0.000431518,0.000451923,6.52978e-05,0.00280602,0.00222725,0.000929383,8.70699e-05,-25,-110,6.94095e-11,-25,-98.3494,-11.6506,1.432
0.00137571,-0.000421845,0.00045565,6.52978e-05,0.00282114,0.00229098,0.000934389,5.80466e-05,-25,-111,4.7597e-11,-25,-98.3494,-12.6506,1.436
0.00138703,-0.000411825,0.000459398,6.56433e-05,0.00283629,0.00236226,0.000939407,6.74887e-05,-24,-111,5.73629e-11,-24,-98.3494,-12.6506,1.44
0.0013984,-0.000401806,0.000463165,6.59888e-05,0.00285147,0.00240977,0.000944437,7.37834e-05,-24,-111,6.43114e-11,-24,-98.3494,-12.6506,1.444
0.00140984,-0.000392132,0.000466953,6.66798e-05,0.0028667,0.00241266,0.000949479,0.000106771,-24,-110,9.41513e-11,-24,-98.3494,-11.6506,1.448
0.00142134,-0.000382459,0.000470761,6.77163e-05,0.00288196,0.00241459,0.000954534,0.000157553,-24,-110,1.41204e-10,-24,-98.3494,-11.6506,1.452
0.0014329,-0.000373476,0.00047459,6.84072e-05,0.00289726,0.00235829,0.000959602,0.000162617,-25,-110,1.43797e-10,-25,-98.3494,-11.6506,1.456
0.00144451,-0.000364148,0.000478438,6.94437e-05,0.00291259,0.00234955,0.000964681,0.000194784,-25,-110,1.74203e-10,-25,-98.3494,-11.6506,1.46
0.0014562,-0.000355856,0.000482307,7.01347e-05,0.00292797,0.00225735,0.000969773,0.000187438,-26,-110,1.62657e-10,-26,-98.3494,-11.6506,1.464
0.00146794,-0.000348255,0.000486196,7.08257e-05,0.00294338,0.0021383,0.000974877,0.000182541,-27,-110,1.51531e-10,-27,-98.3494,-11.6506,1.468
0.00147974,-0.000340309,0.000490106,7.22076e-05,0.00295883,0.00208772,0.000979993,0.000236857,-28,-110,1.95716e-10,-28,-98.3494,-11.6506,1.472
0.00149161,-0.000332017,0.000494036,7.25531e-05,0.00297431,0.0020828,0.000985122,0.000186696,-28,-110,1.5464e-10,-28,-98.3494,-11.6506,1.476
0.00150354,-0.000323725,0.000497987,7.32441e-05,0.00298983,0.00207951,0.000990263,0.000182046,-29,-110,1.51984e-10,-29,-98.3494,-11.6506,1.48
0.00151553,-0.000314051,0.000501958,7.35896e-05,0.00300539,0.00219249,0.000995416,0.000150155,-28,-111,1.32793e-10,-28,-98.3494,-12.6506,1.484
0.00152758,-0.000303341,0.00050595,7.35896e-05,0.00302099,0.00235418,0.00100058,0.000100103,-26,-111,9.50576e-11,-26,-98.3494,-12.6506,1.488
0.0015397,-0.000293322,0.000509963,7.35896e-05,0.00303662,0.00240439,0.00100576,6.67355e-05,-26,-112,6.47233e-11,-26,-98.3494,-13.6506,1.492
0.00155187,-0.000283303,0.000513996,7.35896e-05,0.00305229,0.00243786,0.00101095,4.44903e-05,-26,-112,4.37496e-11,-26,-98.3494,-13.6506,1.496
0.00156411,-0.000273629,0.000518051,7.39351e-05,0.003068,0.00243139,0.00101615,5.84511e-05,-26,-112,5.75945e-11,-26,-98.3494,-13.6506,1.5
0.00157642,-0.000265337,0.000522126,7.46261e-05,0.00308374,0.00231191,0.00102137,9.65493e-05,-27,-112,9.13047e-11,-27,-98.3494,-13.6506,1.504
0.00158878,-0.000257045,0.000526222,7.42806e-05,0.00309952,0.00223225,0.00102659,3.55753e-05,-28,-112,3.23333e-11,-28,-98.3494,-13.6506,1.508
0.00160121,-0.000248754,0.000530338,7.46261e-05,0.00311534,0.00217915,0.00103183,5.25078e-05,-29,-112,4.68042e-11,-29,-98.3494,-13.6506,1.512
0.00161371,-0.000241153,0.000534476,7.46261e-05,0.00313119,0.00208617,0.00103708,3.50052e-05,-30,-113,2.98714e-11,-30,-98.3494,-14.6506,1.516
0.00162626,-0.000231825,0.000538635,7.42806e-05,0.00314708,0.00216813,0.00104235,-5.45414e-06,-30,-113,-4.81472e-12,-30,-98.3494,-14.6506,1.52
0.00163888,-0.000222496,0.000542815,7.53171e-05,0.00316301,0.00222278,0.00104762,8.27367e-05,-29,-112,7.59225e-11,-29,-98.3494,-13.6506,1.524
0.00165157,-0.000212132,0.000547016,7.6008e-05,0.00317898,0.00234558,0.00105291,0.00011274,-28,-112,1.10172e-10,-28,-98.3494,-13.6506,1.528
0.00166432,-0.00020073,0.000551238,7.6699e-05,0.00319498,0.00251382,0.00105821,0.000132742,-27,-112,1.40286e-10,-27,-98.3494,-13.6506,1.532
0.00167713,-0.000188293,0.000555482,7.739e-05,0.00321101,0.00271235,0.00106352,0.000146076,-25,-112,1.68071e-10,-25,-98.3494,-13.6506,1.536
0.00169,-0.000176546,0.000559747,7.77355e-05,0.00322709,0.00278713,0.00106884,0.000126175,-24,-112,1.49842e-10,-24,-98.3494,-13.6506,1.54
0.00170294,-0.000164108,0.000564033,7.8081e-05,0.0032432,0.00289456,0.00107418,0.000112908,-24,-112,1.39873e-10,-24,-98.3494,-13.6506,1.544
0.00171595,-0.000152707,0.00056834,7.84265e-05,0.00325935,0.00287981,0.00107953,0.000104063,-24,-113,1.28826e-10,-24,-98.3494,-14.6506,1.548
0.00172902,-0.000143033,0.000572669,7.8772e-05,0.00327553,0.00272602,0.00108489,9.81661e-05,-26,-113,1.15543e-10,-26,-98.3494,-14.6506,1.552
0.00174215,-0.00013336,0.000577019,7.91175e-05,0.00329175,0.00262349,0.00109026,9.4235e-05,-27,-113,1.07213e-10,-27,-98.3494,-14.6506,1.556
0.00175535,-0.000124031,0.000581391,7.9463e-05,0.00330801,0.00252635,0.00109565,9.16142e-05,-28,-113,1.0081e-10,-28,-98.3494,-14.6506,1.56
0.00176862,-0.000114703,0.000585784,7.98084e-05,0.0033243,0.00246159,0.00110104,8.98671e-05,-29,-113,9.67716e-11,-29,-98.3494,-14.6506,1.564
0.00178195,-0.000104338,0.000590199,7.98084e-05,0.00334064,0.00250479,0.00110645,5.99114e-05,-28,-113,6.56466e-11,-28,-98.3494,-14.6506,1.568
0.00179534,-9.22461e-05,0.000594636,7.98084e-05,0.003357,0.00267754,0.00111187,3.99409e-05,-27,-114,4.67828e-11,-27,-98.3494,-15.6506,1.572
0.0018088,-8.04994e-05,0.000599094,8.01539e-05,0.00337341,0.00276392,0.00111731,5.54182e-05,-26,-114,6.72954e-11,-26,-98.3494,-15.6506,1.576
0.00182233,-6.94437e-05,0.000603574,8.01539e-05,0.00338985,0.00276392,0.00112275,3.69455e-05,-26,-114,4.48637e-11,-26,-98.3494,-15.6506,1.58
0.00183592,-5.80425e-05,0.000608076,8.01539e-05,0.00340632,0.00279271,0.00112821,2.46303e-05,-26,-114,3.02207e-11,-26,-98.3494,-15.6506,1.584
0.00184958,-4.73323e-05,0.0006126,8.04994e-05,0.00342283,0.00275433,0.00113368,4.52111e-05,-27,-114,5.49461e-11,-27,-98.3494,-15.6506,1.588
0.00186331,-3.69675e-05,0.000617146,8.04994e-05,0.00343938,0.00269995,0.00113916,3.01408e-05,-28,-114,3.59075e-11,-28,-98.3494,-15.6506,1.592
0.0018771,-2.66028e-05,0.000621713,8.04994e-05,0.00345597,0.00266369,0.00114465,2.00938e-05,-28,-115,2.36169e-11,-28,-98.3494,-16.6506,1.596
0.00189095,-1.65836e-05,0.000626303,8.04994e-05,0.00347259,0.00261073,0.00115016,1.33959e-05,-29,-115,1.54316e-11,-29,-98.3494,-16.6506,1.6
0.00190488,-6.56433e-06,0.000630915,8.08449e-05,0.00348925,0.00257542,0.00115567,3.77215e-05,-29,-115,4.30501e-11,-29,-98.3494,-16.6506,1.604
0.00191887,4.49138e-06,0.000635548,8.08449e-05,0.00350594,0.00263826,0.0011612,2.51477e-05,-29,-115,2.94003e-11,-29,-98.3494,-16.6506,1.608
0.00193292,1.62381e-05,0.000640204,8.08449e-05,0.00352267,0.00273773,0.00116674,1.67651e-05,-28,-115,2.03392e-11,-28,-98.3494,-16.6506,1.612
0.00194705,2.90213e-05,0.000644882,8.08449e-05,0.00353944,0.00289042,0.0011723,1.11767e-05,-27,-115,1.43157e-11,-27,-98.3494,-16.6506,1.616
0.00196124,4.21499e-05,0.000649583,8.11904e-05,0.00355624,0.003021,0.00117786,3.62421e-05,-26,-115,4.8725e-11,-26,-98.3494,-16.6506,1.62
0.0019755,5.45876e-05,0.000654305,8.11904e-05,0.00357308,0.00305047,0.00118344,2.41614e-05,-26,-115,3.28002e-11,-26,-98.3494,-16.6506,1.624
0.00198982,6.63343e-05,0.00065905,8.11904e-05,0.00358995,0.00301254,0.00118903,1.61076e-05,-26,-115,2.15949e-11,-26,-98.3494,-16.6506,1.628
0.00200422,7.70445e-05,0.000663818,8.15359e-05,0.00360686,0.00290088,0.00119463,3.95293e-05,-28,-115,5.12485e-11,-28,-98.3494,-16.6506,1.632
0.00201868,8.77547e-05,0.000668607,8.15359e-05,0.00362381,0.00282644,0.00120024,2.63529e-05,-29,-116,3.32889e-11,-29,-98.3494,-17.6506,1.636
0.00203321,9.8465e-05,0.000673419,8.22269e-05,0.00364079,0.00277681,0.00120587,7.51504e-05,-29,-115,9.40535e-11,-29,-98.3494,-16.6506,1.64
0.00204781,0.000109521,0.000678254,8.18814e-05,0.00365781,0.00277252,0.0012115,2.13094e-05,-29,-116,2.65163e-11,-29,-98.3494,-17.6506,1.644
0.00206247,0.000120922,0.000683112,8.22269e-05,0.00367487,0.00279844,0.00121715,4.29972e-05,-29,-116,5.42317e-11,-29,-98.3494,-17.6506,1.648
0.0020772,0.000132669,0.000687991,8.25724e-05,0.00369196,0.00284452,0.00122281,5.74557e-05,-29,-116,7.39708e-11,-29,-98.3494,-17.6506,1.652
0.00209201,0.000144761,0.000692894,8.25724e-05,0.00370908,0.00290403,0.00122849,3.83038e-05,-29,-116,5.03455e-11,-29,-98.3494,-17.6506,1.656
0.00210688,0.000156853,0.000697819,8.29179e-05,0.00372624,0.0029437,0.00123417,5.43268e-05,-29,-116,7.26841e-11,-29,-98.3494,-17.6506,1.66
0.00212182,0.000169636,0.000702767,8.32634e-05,0.00374344,0.00302773,0.00123987,6.50088e-05,-28,-116,8.98311e-11,-28,-98.3494,-17.6506,1.664
0.00213683,0.000182419,0.000707738,8.39543e-05,0.00376068,0.00308375,0.00124557,0.000100921,-28,-116,1.43215e-10,-28,-98.3494,-17.6506,1.668
0.0021519,0.000195202,0.000712732,8.36088e-05,0.00377795,0.0031211,0.00125129,3.84898e-05,-27,-116,5.50539e-11,-27,-98.3494,-17.6506,1.672
0.00216705,0.000207986,0.000717749,8.36088e-05,0.00379525,0.003146,0.00125703,2.56598e-05,-27,-117,3.69954e-11,-27,-98.3494,-18.6506,1.676
0.00218226,0.000221114,0.000722788,8.32634e-05,0.00381259,0.00319139,0.00126277,-1.16844e-05,-27,-117,-1.70185e-11,-27,-98.3494,-18.6506,1.68
0.00219755,0.000233897,0.000727851,8.39543e-05,0.00382997,0.00319286,0.00126853,4.97923e-05,-27,-117,7.3159e-11,-27,-98.3494,-18.6506,1.684
0.0022129,0.000247026,0.000732936,8.46453e-05,0.00384738,0.00322263,0.00127429,9.07767e-05,-27,-116,1.35728e-10,-27,-98.3494,-17.6506,1.688
0.00222833,0.000259809,0.000738045,8.42998e-05,0.00386483,0.00321368,0.00128007,3.17269e-05,-28,-117,4.71129e-11,-28,-98.3494,-18.6506,1.692
0.00224382,0.000272247,0.000743177,8.42998e-05,0.00388232,0.00317893,0.00128586,2.11513e-05,-28,-117,3.10689e-11,-28,-98.3494,-18.6506,1.696
0.00225939,0.000283994,0.000748332,8.42998e-05,0.00389984,0.00309818,0.00129167,1.41008e-05,-29,-117,2.01865e-11,-29,-98.3494,-18.6506,1.7
0.00227502,0.000296431,0.00075351,8.46453e-05,0.00391739,0.00310192,0.00129748,3.81915e-05,-29,-117,5.49647e-11,-29,-98.3494,-18.6506,1.704
0.00229073,0.00030956,0.000758712,8.46453e-05,0.00393498,0.003162,0.00130331,2.5461e-05,-29,-118,3.73529e-11,-29,-98.3494,-19.6506,1.708
0.0023065,0.000321998,0.000763937,8.46453e-05,0.00395261,0.00314448,0.00130914,1.6974e-05,-29,-118,2.47639e-11,-29,-98.3494,-19.6506,1.712
0.00232235,0.00033409,0.000769185,8.42998e-05,0.00397027,0.003104,0.00131499,-1.74749e-05,-30,-118,-2.50638e-11,-30,-98.3494,-19.6506,1.716
0.00233826,0.000346528,0.000774457,8.49908e-05,0.00398797,0.00310581,0.00132086,4.59319e-05,-30,-118,6.64575e-11,-30,-98.3494,-19.6506,1.72
0.00235425,0.000359656,0.000779752,8.56818e-05,0.0040057,0.00316459,0.00132673,8.82031e-05,-30,-117,1.31091e-10,-30,-98.3494,-18.6506,1.724
0.00237031,0.000373821,0.000785071,8.53363e-05,0.00402347,0.00329016,0.00133261,3.00112e-05,-29,-118,4.61866e-11,-29,-98.3494,-19.6506,1.728
0.00238644,0.000388677,0.000790413,8.49908e-05,0.00404127,0.00343145,0.00133851,-8.78349e-06,-27,-119,-1.40411e-11,-27,-98.3494,-20.6506,1.732
0.00240264,0.00040457,0.000795779,8.56818e-05,0.00405911,0.00361201,0.00134442,5.17262e-05,-26,-118,8.77469e-11,-26,-98.3494,-19.6506,1.736
0.00241891,0.000420117,0.000801168,8.63728e-05,0.00407699,0.0037036,0.00135034,9.2066e-05,-25,-118,1.6143e-10,-25,-98.3494,-19.6506,1.74
0.00243526,0.000435664,0.000806582,8.60273e-05,0.0040949,0.00376466,0.00135627,3.25864e-05,-25,-118,5.78471e-11,-25,-98.3494,-19.6506,1.744
0.00245167,0.00045052,0.000812018,8.63728e-05,0.00411284,0.00374778,0.00136222,5.05152e-05,-25,-118,8.96306e-11,-25,-98.3494,-19.6506,1.748
0.00246816,0.000464686,0.000817479,8.63728e-05,0.00413082,0.00367895,0.00136817,3.36768e-05,-26,-119,5.86563e-11,-26,-98.3494,-20.6506,1.752
0.00248472,0.000477469,0.000822964,8.63728e-05,0.00414884,0.0035179,0.00137414,2.24512e-05,-28,-119,3.73923e-11,-28,-98.3494,-20.6506,1.756
0.00250135,0.000489906,0.000828472,8.63728e-05,0.00416689,0.00338174,0.00138012,1.49675e-05,-29,-119,2.39634e-11,-29,-98.3494,-20.6506,1.76
0.00251805,0.000503035,0.000834005,8.63728e-05,0.00418498,0.00334855,0.00138611,9.97831e-06,-30,-119,1.58188e-11,-30,-98.3494,-20.6506,1.764
0.00253483,0.000515818,0.000839561,8.63728e-05,0.0042031,0.00329763,0.00139211,6.65221e-06,-31,-119,1.03855e-11,-31,-98.3494,-20.6506,1.768
0.00255168,0.000528256,0.000845142,8.70638e-05,0.00422125,0.00323489,0.00139812,6.20167e-05,-31,-119,9.5739e-11,-31,-98.3494,-20.6506,1.772
0.0025686,0.000540003,0.000850746,8.67183e-05,0.00423945,0.00313549,0.00140415,1.25535e-05,-33,-120,1.87096e-11,-33,-98.3494,-21.6506,1.776
0.00258559,0.000551404,0.000856375,8.67183e-05,0.00425767,0.00304042,0.00141018,8.36901e-06,-34,-120,1.20949e-11,-34,-98.3494,-21.6506,1.78
0.00260266,0.000561078,0.000862028,8.67183e-05,0.00427594,0.0028331,0.00141623,5.57934e-06,-36,-120,7.51342e-12,-36,-98.3494,-21.6506,1.784
0.0026198,0.000571097,0.000867705,8.67183e-05,0.00429423,0.00272367,0.00142229,3.71956e-06,-37,-120,4.81548e-12,-37,-98.3494,-21.6506,1.788
0.00263701,0.000580771,0.000873406,8.70638e-05,0.00431256,0.00262192,0.00142837,3.12706e-05,-39,-120,3.91271e-11,-39,-98.3494,-21.6506,1.792
0.0026543,0.000589753,0.000879132,8.70638e-05,0.00433093,0.00249651,0.00143445,2.08471e-05,-40,-120,2.4837e-11,-40,-98.3494,-21.6506,1.796
0.00267166,0.000599427,0.000884882,8.74092e-05,0.00434933,0.00247049,0.00144054,4.2689e-05,-41,-120,5.05288e-11,-41,-98.3494,-21.6506,1.8
0.0026891,0.000609446,0.000890656,8.74092e-05,0.00436777,0.00248193,0.00144665,2.84593e-05,-41,-120,3.38419e-11,-41,-98.3494,-21.6506,1.804
0.0027066,0.000619811,0.000896455,8.70638e-05,0.00438624,0.00251835,0.00145277,-9.81804e-06,-41,-121,-1.17994e-11,-41,-98.3494,-22.6506,1.808
0.00272419,0.000629139,0.000902278,8.77547e-05,0.00440475,0.00245625,0.0014589,5.10365e-05,-42,-120,6.02987e-11,-42,-98.3494,-21.6506,1.812
0.00274184,0.000638122,0.000908126,8.84457e-05,0.00442329,0.00238607,0.00146504,9.16062e-05,-42,-120,1.05966e-10,-42,-98.3494,-21.6506,1.816
0.00275957,0.000645032,0.000913999,8.81002e-05,0.00444187,0.00216653,0.00147119,3.22799e-05,-45,-121,3.3772e-11,-45,-98.3494,-22.6506,1.82
0.00277738,0.000649869,0.000919896,8.84457e-05,0.00446048,0.00184743,0.00147736,5.03108e-05,-48,-121,4.50597e-11,-48,-98.3494,-22.6506,1.824
0.00279526,0.000653324,0.000925817,8.91367e-05,0.00447912,0.00151953,0.00148353,9.11224e-05,-52,-120,6.76508e-11,-52,-98.3494,-21.6506,1.828
0.00281321,0.000654706,0.000931764,8.91367e-05,0.00449781,0.00112818,0.00148972,6.07483e-05,-56,-121,3.34852e-11,-56,-98.3494,-22.6506,1.832
0.00283124,0.000655397,0.000937735,8.91367e-05,0.00451652,0.000809703,0.00149592,4.04988e-05,-59,-121,1.60217e-11,-59,-98.3494,-22.6506,1.836
0.00284934,0.000655397,0.000943731,8.94822e-05,0.00453527,0.000539802,0.00150213,5.57902e-05,-62,-121,1.47711e-11,-62,-98.3494,-22.6506,1.84
0.00286752,0.000655397,0.000949752,8.98277e-05,0.00455406,0.000359868,0.00150835,6.59844e-05,-65,-121,1.16917e-11,-65,-98.3494,-22.6506,1.844
0.00288578,0.000655397,0.000955798,8.98277e-05,0.00457288,0.000239912,0.00151458,4.39896e-05,-66,-121,5.19631e-12,-66,-98.3494,-22.6506,1.848
0.0029041,0.000656433,0.000961869,9.01732e-05,0.00459173,0.000246314,0.00152083,5.81173e-05,-66,-121,7.07547e-12,-66,-98.3494,-22.6506,1.852
0.00292251,0.00065747,0.000967965,9.05187e-05,0.00461062,0.000250582,0.00152708,6.75358e-05,-67,-121,8.39664e-12,-67,-98.3494,-22.6506,1.856
0.00294099,0.000658852,0.000974086,9.05187e-05,0.00462954,0.000282218,0.00153335,4.50239e-05,-67,-122,6.30448e-12,-67,-98.3494,-23.6506,1.86
0.00295955,0.000659888,0.000980232,9.08642e-05,0.0046485,0.000274518,0.00153963,5.88068e-05,-67,-122,8.04035e-12,-67,-98.3494,-23.6506,1.864
0.00297818,0.000661615,0.000986403,9.12096e-05,0.00466749,0.000326967,0.00154592,6.79955e-05,-67,-122,1.1115e-11,-67,-98.3494,-23.6506,1.868
0.00299689,0.000663688,0.000992599,9.15551e-05,0.00468652,0.000390723,0.00155222,7.41212e-05,-67,-122,1.45338e-11,-67,-98.3494,-23.6506,1.872
0.00301567,0.000665416,0.00099882,9.19006e-05,0.00470558,0.000404437,0.00155854,7.82051e-05,-67,-122,1.59326e-11,-67,-98.3494,-23.6506,1.876
0.00303453,0.000667489,0.00100507,9.22461e-05,0.00472468,0.00044237,0.00156486,8.09277e-05,-67,-122,1.81015e-11,-67,-98.3494,-23.6506,1.88
0.00305347,0.000669216,0.00101134,9.22461e-05,0.00474381,0.000438868,0.0015712,5.39518e-05,-67,-122,1.19721e-11,-67,-98.3494,-23.6506,1.884
0.00307248,0.000670944,0.00101764,9.25916e-05,0.00476298,0.000436533,0.00157755,6.47588e-05,-68,-123,1.43473e-11,-68,-98.3494,-24.6506,1.888
0.00309157,0.000672671,0.00102396,9.25916e-05,0.00478218,0.000434977,0.00158391,4.31725e-05,-68,-123,9.53078e-12,-68,-98.3494,-24.6506,1.892
0.00311074,0.000674053,0.00103031,9.25916e-05,0.00480141,0.000405148,0.00159028,2.87817e-05,-69,-123,5.91813e-12,-69,-98.3494,-24.6506,1.896
0.00312998,0.000675781,0.00103668,9.29371e-05,0.00482068,0.000414053,0.00159666,4.79787e-05,-69,-123,1.01199e-11,-69,-98.3494,-24.6506,1.9
0.0031493,0.000677508,0.00104308,9.29371e-05,0.00483998,0.00041999,0.00160305,3.19858e-05,-70,-123,6.84335e-12,-70,-98.3494,-24.6506,1.904
0.0031687,0.00067889,0.00104951,9.29371e-05,0.00485932,0.000395157,0.00160946,2.13239e-05,-70,-124,4.29248e-12,-70,-98.3494,-25.6506,1.908
0.00318818,0.000680963,0.00105596,9.29371e-05,0.00487869,0.000436184,0.00161587,1.42159e-05,-70,-124,3.15876e-12,-70,-98.3494,-25.6506,1.912
0.00320773,0.000682345,0.00106243,9.32826e-05,0.00489809,0.000405953,0.0016223,3.82682e-05,-71,-124,7.94323e-12,-71,-98.3494,-25.6506,1.916
0.00322736,0.000684418,0.00106894,9.32826e-05,0.00491753,0.000443381,0.00162874,2.55121e-05,-71,-124,5.78372e-12,-71,-98.3494,-25.6506,1.92
0.00324707,0.000686836,0.00107546,9.36281e-05,0.00493701,0.000497124,0.00163519,4.5799e-05,-71,-124,1.16845e-11,-71,-98.3494,-25.6506,1.924
0.00326686,0.000689255,0.00108202,9.39736e-05,0.00495651,0.000532952,0.00164165,5.93236e-05,-71,-124,1.62856e-11,-71,-98.3494,-25.6506,1.928
0.00328672,0.000692019,0.0010886,9.39736e-05,0.00497606,0.000585629,0.00164812,3.95491e-05,-71,-124,1.19302e-11,-71,-98.3494,-25.6506,1.932
0.00330667,0.000694783,0.0010952,9.39736e-05,0.00499563,0.000620747,0.0016546,2.6366e-05,-71,-124,8.4304e-12,-71,-98.3494,-25.6506,1.936
0.00332669,0.000697547,0.00110183,9.43191e-05,0.00501524,0.000644159,0.0016611,4.63683e-05,-71,-124,1.54417e-11,-71,-98.3494,-25.6506,1.94
0.00334679,0.00070031,0.00110849,9.43191e-05,0.00503489,0.000659766,0.00166761,3.09122e-05,-71,-125,1.05439e-11,-71,-98.3494,-26.6506,1.944
0.00336697,0.00070342,0.00111517,9.43191e-05,0.00505457,0.000698963,0.00167412,2.06081e-05,-71,-125,7.44689e-12,-71,-98.3494,-26.6506,1.948
0.00338723,0.000705493,0.00112188,9.46646e-05,0.00507428,0.000638721,0.00168065,4.25297e-05,-72,-125,1.40953e-11,-72,-98.3494,-26.6506,1.952
0.00340756,0.00070722,0.00112862,9.46646e-05,0.00509402,0.000569768,0.00168719,2.83531e-05,-73,-125,8.38243e-12,-73,-98.3494,-26.6506,1.956
0.00342798,0.000708602,0.00113538,9.50101e-05,0.0051138,0.000495009,0.00169374,4.7693e-05,-74,-125,1.22948e-11,-74,-98.3494,-26.6506,1.96
0.00344847,0.000709984,0.00114217,9.53555e-05,0.00513362,0.00044517,0.00170031,6.05863e-05,-75,-125,1.40971e-11,-75,-98.3494,-26.6506,1.964
0.00346905,0.000711021,0.00114898,9.5701e-05,0.00515347,0.000383153,0.00170688,6.91818e-05,-76,-125,1.39048e-11,-76,-98.3494,-26.6506,1.968
0.0034897,0.000712403,0.00115582,9.60465e-05,0.00517335,0.000370599,0.00171347,7.49121e-05,-77,-125,1.46157e-11,-77,-98.3494,-26.6506,1.972
0.00351043,0.000713439,0.00116269,9.6392e-05,0.00519326,0.000333439,0.00172006,7.87323e-05,-77,-125,1.38705e-11,-77,-98.3494,-26.6506,1.976
0.00353125,0.00071413,0.00116959,9.67375e-05,0.00521321,0.000279874,0.00172667,8.12791e-05,-78,-125,1.2062e-11,-78,-98.3494,-26.6506,1.98
0.00355214,0.000714821,0.0011765,9.7083e-05,0.0052332,0.000244165,0.00173329,8.2977e-05,-79,-126,1.07812e-11,-79,-98.3494,-27.6506,1.984
0.00357311,0.000716203,0.00118345,9.7083e-05,0.00525321,0.00027794,0.00173992,5.5318e-05,-79,-126,8.18171e-12,-79,-98.3494,-27.6506,1.988
0.00359417,0.00071724,0.00119042,9.74285e-05,0.00527327,0.000271666,0.00174656,6.56696e-05,-80,-126,9.52728e-12,-80,-98.3494,-27.6506,1.992
0.0036153,0.000718276,0.00119742,9.7774e-05,0.00529335,0.000267484,0.00175321,7.25707e-05,-80,-126,1.04031e-11,-80,-98.3494,-27.6506,1.996
0.00363651,0.000719658,0.00120445,9.7774e-05,0.00531347,0.000293486,0.00175988,4.83804e-05,-80,-126,7.60963e-12,-80,-98.3494,-27.6506,2
0.00365781,0.000720694,0.0012115,9.81195e-05,0.00533362,0.00028203,0.00176655,6.10446e-05,-81,-126,9.25936e-12,-81,-98.3494,-27.6506,2.004
0.00367918,0.000722076,0.00121858,9.81195e-05,0.00535381,0.000303184,0.00177324,4.06964e-05,-81,-127,6.6359e-12,-81,-98.3494,-28.6506,2.008
0.00370064,0.000723458,0.00122569,9.8465e-05,0.00537403,0.000317286,0.00177993,5.59218e-05,-81,-127,9.5763e-12,-81,-98.3494,-28.6506,2.012
0.00372217,0.00072484,0.00123282,9.88105e-05,0.00539428,0.000326688,0.00178664,6.60721e-05,-82,-127,1.16906e-11,-82,-98.3494,-28.6506,2.016
0.00374379,0.000726222,0.00123998,9.91559e-05,0.00541457,0.000332956,0.00179336,7.2839e-05,-82,-127,1.31811e-11,-82,-98.3494,-28.6506,2.02
0.00376549,0.000727604,0.00124717,9.95014e-05,0.00543489,0.000337134,0.00180009,7.73503e-05,-82,-127,1.42225e-11,-82,-98.3494,-28.6506,2.024
0.00378727,0.000729332,0.00125438,9.98469e-05,0.00545524,0.000368711,0.00180683,8.03578e-05,-83,-127,1.62155e-11,-83,-98.3494,-28.6506,2.028
0.00380913,0.000730714,0.00126162,0.000100192,0.00547563,0.000360971,0.00181358,8.23628e-05,-83,-127,1.63276e-11,-83,-98.3494,-28.6506,2.032
0.00383108,0.00073175,0.00126889,0.000100538,0.00549605,0.00032702,0.00182035,8.36994e-05,-84,-127,1.50838e-11,-84,-98.3494,-28.6506,2.036
0.0038531,0.000732441,0.00127619,0.000100883,0.0055165,0.000275595,0.00182712,8.45906e-05,-85,-127,1.28913e-11,-85,-98.3494,-28.6506,2.04
0.00387521,0.000732787,0.00128351,0.000101229,0.00553699,0.000212521,0.00183391,8.51846e-05,-86,-128,1.0045e-11,-86,-98.3494,-29.6506,2.044
0.0038974,0.000733478,0.00129086,0.00010192,0.00555751,0.000199263,0.0018407,0.000114372,-86,-127,1.27317e-11,-86,-98.3494,-28.6506,2.048
0.00391967,0.000733823,0.00129823,0.000102265,0.00557806,0.000161633,0.00184751,0.000105039,-87,-128,9.51678e-12,-87,-98.3494,-29.6506,2.052
0.00394202,0.000734514,0.00130564,0.000102956,0.00559865,0.000165337,0.00185433,0.000127608,-88,-128,1.19065e-11,-88,-98.3494,-29.6506,2.056
0.00396446,0.00073486,0.00131307,0.000103302,0.00561927,0.000139016,0.00186116,0.000113863,-88,-128,8.96264e-12,-88,-98.3494,-29.6506,2.06
0.00398698,0.000735551,0.00132053,0.000103647,0.00563993,0.000150259,0.001868,0.000104699,-89,-128,8.93769e-12,-89,-98.3494,-29.6506,2.064
0.00400958,0.000736242,0.00132801,0.000103993,0.00566061,0.000157754,0.00187485,9.85905e-05,-89,-128,8.8655e-12,-89,-98.3494,-29.6506,2.068
0.00403226,0.000736587,0.00133553,0.000103993,0.00568133,0.000133961,0.00188172,6.5727e-05,-90,-129,5.01889e-12,-90,-98.3494,-30.6506,2.072
0.00405503,0.000737278,0.00134307,0.000104338,0.00570209,0.000146889,0.00188859,7.26089e-05,-90,-129,6.09966e-12,-90,-98.3494,-30.6506,2.076
0.00407788,0.000737969,0.00135063,0.000104684,0.00572288,0.000155508,0.00189547,7.71969e-05,-90,-129,6.88834e-12,-90,-98.3494,-30.6506,2.08
0.00410081,0.00073866,0.00135823,0.000105029,0.0057437,0.000161254,0.00190237,8.02555e-05,-91,-129,7.45038e-12,-91,-98.3494,-30.6506,2.084
0.00412383,0.000739005,0.00136585,0.000105375,0.00576455,0.000136293,0.00190928,8.22946e-05,-91,-129,6.47837e-12,-91,-98.3494,-30.6506,2.088
0.00414693,0.000739696,0.0013735,0.00010572,0.00578544,0.000148444,0.0019162,8.3654e-05,-92,-129,7.196e-12,-92,-98.3494,-30.6506,2.092
0.00417011,0.000740042,0.00138118,0.000106411,0.00580636,0.000127754,0.00192312,0.000113351,-92,-129,8.44637e-12,-92,-98.3494,-30.6506,2.096
0.00419338,0.000741078,0.00138889,0.000106757,0.00582731,0.000171542,0.00193006,0.000104358,-92,-129,1.04755e-11,-92,-98.3494,-30.6506,2.1
0.00421673,0.000741769,0.00139662,0.000107102,0.00584829,0.000171943,0.00193701,9.83632e-05,-93,-130,9.92885e-12,-93,-98.3494,-31.6506,2.104
0.00424016,0.00074246,0.00140439,0.000107102,0.00586931,0.000172211,0.00194398,6.55754e-05,-93,-130,6.62953e-12,-93,-98.3494,-31.6506,2.108
0.00426368,0.000743151,0.00141218,0.000107448,0.00589036,0.000172389,0.00195095,7.25079e-05,-94,-130,7.36165e-12,-94,-98.3494,-31.6506,2.112
0.00428729,0.000744188,0.00141999,0.000107793,0.00591145,0.000201299,0.00195793,7.71295e-05,-94,-130,9.17352e-12,-94,-98.3494,-31.6506,2.116
0.00431097,0.000744879,0.00142784,0.000107793,0.00593257,0.000191781,0.00196493,5.14197e-05,-94,-131,5.82652e-12,-94,-98.3494,-32.6506,2.12
0.00433475,0.000745224,0.00143571,0.000107793,0.00595372,0.000156645,0.00197193,3.42798e-05,-95,-131,3.1727e-12,-95,-98.3494,-32.6506,2.124
0.0043586,0.000745915,0.00144361,0.000108139,0.0059749,0.000162012,0.00197895,5.16441e-05,-96,-131,4.95943e-12,-96,-98.3494,-32.6506,2.128
0.00438255,0.000746261,0.00145154,0.000108484,0.00599612,0.000136799,0.00198597,6.32203e-05,-96,-131,5.14267e-12,-96,-98.3494,-32.6506,2.132
0.00440657,0.000746952,0.0014595,0.00010883,0.00601737,0.000148781,0.00199301,7.09378e-05,-97,-131,6.29587e-12,-97,-98.3494,-32.6506,2.136
0.00443069,0.000747643,0.00146749,0.00010883,0.00603865,0.000156769,0.00200006,4.72919e-05,-97,-131,4.4226e-12,-97,-98.3494,-32.6506,2.14
0.00445488,0.000748679,0.0014755,0.000109175,0.00605996,0.000190886,0.00200712,6.03188e-05,-97,-132,6.89022e-12,-97,-98.3494,-33.6506,2.144
0.00447917,0.000750061,0.00148355,0.000109175,0.00608131,0.000242421,0.00201419,4.02126e-05,-97,-132,5.83363e-12,-97,-98.3494,-33.6506,2.148
0.00450353,0.000751443,0.00149162,0.000109521,0.00610269,0.000276778,0.00202127,5.55993e-05,-97,-132,9.23803e-12,-97,-98.3494,-33.6506,2.152
0.00452799,0.000752825,0.00149972,0.000109521,0.0061241,0.000299682,0.00202837,3.70662e-05,-98,-132,6.66835e-12,-98,-98.3494,-33.6506,2.156
0.00455253,0.000753516,0.00150784,0.000109521,0.00614555,0.00025737,0.00203547,2.47108e-05,-98,-132,3.81789e-12,-98,-98.3494,-33.6506,2.16
0.00457715,0.000754207,0.001516,0.000109866,0.00616703,0.000229162,0.00204258,4.52648e-05,-99,-132,6.24669e-12,-99,-98.3494,-33.6506,2.164
0.00460186,0.000754553,0.00152418,0.000109866,0.00618854,0.000181565,0.00204971,3.01765e-05,-100,-133,3.29951e-12,-100,-98.3494,-34.6506,2.168
0.00462666,0.000754898,0.0015324,0.000109866,0.00621008,0.000149835,0.00205684,2.01177e-05,-101,-133,1.81525e-12,-101,-98.3494,-34.6506,2.172
0.00465154,0.000754898,0.00154064,0.000110212,0.00623166,9.98897e-05,0.00206399,4.22027e-05,-102,-133,2.54666e-12,-102,-98.3494,-34.6506,2.176
0.00467651,0.000755589,0.00154891,0.000110212,0.00625327,0.000124175,0.00207115,2.81351e-05,-102,-133,2.11054e-12,-102,-98.3494,-34.6506,2.18
0.00470157,0.00075628,0.00155721,0.000110212,0.00627491,0.000140365,0.00207831,1.87568e-05,-102,-133,1.59048e-12,-102,-98.3494,-34.6506,2.184
0.00472671,0.000756626,0.00156554,0.000110212,0.00629658,0.000122368,0.00208549,1.25045e-05,-103,-134,9.24366e-13,-103,-98.3494,-35.6506,2.188
0.00475194,0.000757316,0.00157389,0.000110212,0.00631829,0.00013916,0.00209268,8.33634e-06,-103,-134,7.00812e-13,-103,-98.3494,-35.6506,2.192
0.00477726,0.000758353,0.00158228,0.000110557,0.00634003,0.000179146,0.00209988,3.43485e-05,-104,-134,3.72894e-12,-104,-98.3494,-35.6506,2.196
0.00480266,0.000759389,0.00159069,0.000110557,0.0063618,0.000205804,0.00210709,2.2899e-05,-104,-134,2.85588e-12,-104,-98.3494,-35.6506,2.2
0.00482815,0.000761117,0.00159913,0.000110557,0.0063836,0.000281157,0.00211431,1.5266e-05,-103,-134,2.60102e-12,-103,-98.3494,-35.6506,2.204
0.00485373,0.000762844,0.00160761,0.000110903,0.00640544,0.000331393,0.00212155,3.89683e-05,-103,-134,7.85017e-12,-103,-98.3494,-35.6506,2.208
0.0048794,0.000764572,0.00161611,0.000110903,0.00642731,0.000364883,0.00212879,2.59788e-05,-104,-135,5.76233e-12,-104,-98.3494,-36.6506,2.212
0.00490515,0.000766645,0.00162464,0.000111248,0.00644921,0.000416001,0.00213604,4.61101e-05,-104,-134,1.16968e-11,-104,-98.3494,-35.6506,2.216
0.00493099,0.000768372,0.00163319,0.000111248,0.00647114,0.000421289,0.00214331,3.07401e-05,-104,-135,7.89698e-12,-104,-98.3494,-36.6506,2.22
0.00495692,0.000769754,0.00164178,0.000111248,0.00649311,0.000396023,0.00215058,2.04934e-05,-105,-135,4.94892e-12,-105,-98.3494,-36.6506,2.224
0.00498294,0.000770791,0.0016504,0.000111594,0.0065151,0.000350388,0.00215787,4.24532e-05,-106,-135,9.09876e-12,-106,-98.3494,-36.6506,2.228
0.00500904,0.000771827,0.00165905,0.000111594,0.00653713,0.000319965,0.00216516,2.83021e-05,-106,-135,5.53916e-12,-106,-98.3494,-36.6506,2.232
0.00503523,0.000772864,0.00166772,0.000111939,0.00655919,0.000299683,0.00217247,4.7659e-05,-107,-135,8.76338e-12,-107,-98.3494,-36.6506,2.236
0.00506151,0.0007739,0.00167642,0.000112285,0.00658129,0.000286161,0.00217979,6.05636e-05,-108,-135,1.06666e-11,-108,-98.3494,-36.6506,2.24
0.00508788,0.000774937,0.00168516,0.000112285,0.00660342,0.000277147,0.00218712,4.03757e-05,-108,-136,6.88706e-12,-108,-98.3494,-37.6506,2.244
0.00511434,0.000776318,0.00169392,0.00011263,0.00662557,0.000299928,0.00219446,5.57081e-05,-109,-136,1.03151e-11,-109,-98.3494,-37.6506,2.248
0.00514089,0.0007777,0.00170271,0.00011263,0.00664776,0.000315116,0.00220181,3.71387e-05,-109,-136,7.22495e-12,-109,-98.3494,-37.6506,2.252
0.00516752,0.000779773,0.00171154,0.000112976,0.00666999,0.000382823,0.00220917,5.35501e-05,-109,-136,1.26948e-11,-109,-98.3494,-37.6506,2.256
0.00519425,0.000781155,0.00172039,0.000112976,0.00669224,0.000370379,0.00221654,3.57e-05,-109,-136,8.18809e-12,-109,-98.3494,-37.6506,2.26
0.00522106,0.000782537,0.00172927,0.000113321,0.00671453,0.000362083,0.00222392,5.2591e-05,-110,-136,1.1828e-11,-110,-98.3494,-37.6506,2.264
0.00524796,0.000783919,0.00173818,0.000113667,0.00673685,0.000356552,0.00223131,6.38516e-05,-111,-136,1.41844e-11,-111,-98.3494,-37.6506,2.268
0.00527496,0.000785301,0.00174712,0.000113667,0.0067592,0.000352865,0.00223872,4.25677e-05,-111,-137,9.35848e-12,-111,-98.3494,-38.6506,2.272
0.00530204,0.000785992,0.00175609,0.000114012,0.00678158,0.000292825,0.00224613,5.71694e-05,-112,-137,1.04618e-11,-112,-98.3494,-38.6506,2.276
0.00532921,0.000786683,0.00176509,0.000114358,0.006804,0.000252799,0.00225355,6.69039e-05,-113,-137,1.06017e-11,-113,-98.3494,-38.6506,2.28
0.00535647,0.000787374,0.00177412,0.000114358,0.00682644,0.000226114,0.00226099,4.46026e-05,-114,-137,6.32173e-12,-114,-98.3494,-38.6506,2.284
0.00538382,0.000788411,0.00178318,0.000114703,0.00684892,0.000237116,0.00226843,5.8526e-05,-114,-137,8.72503e-12,-114,-98.3494,-38.6506,2.288
0.00541126,0.000789793,0.00179226,0.000115049,0.00687143,0.000273241,0.00227589,6.78082e-05,-114,-137,1.1684e-11,-114,-98.3494,-38.6506,2.292
0.00543879,0.000791175,0.00180138,0.000115394,0.00689397,0.000297324,0.00228335,7.39964e-05,-115,-138,1.39158e-11,-115,-98.3494,-39.6506,2.296
0.00546641,0.000792557,0.00181053,0.00011574,0.00691655,0.00031338,0.00229083,7.81219e-05,-115,-138,1.55313e-11,-115,-98.3494,-39.6506,2.3
0.00549412,0.000793939,0.00181971,0.00011574,0.00693915,0.000324084,0.00229832,5.20812e-05,-115,-138,1.07079e-11,-115,-98.3494,-39.6506,2.304
0.00552193,0.000795666,0.00182892,0.000116085,0.00696179,0.00036001,0.00230582,6.35118e-05,-116,-138,1.45488e-11,-116,-98.3494,-39.6506,2.308
0.00554982,0.000797393,0.00183816,0.00011643,0.00698446,0.000383962,0.00231332,7.11321e-05,-116,-138,1.74302e-11,-116,-98.3494,-39.6506,2.312
0.0055778,0.000798775,0.00184742,0.000116776,0.00700716,0.000371138,0.00232084,7.62123e-05,-117,-138,1.8105e-11,-117,-98.3494,-39.6506,2.316
0.00560588,0.000800503,0.00185672,0.000116776,0.00702989,0.00039138,0.00232837,5.08082e-05,-117,-139,1.27283e-11,-117,-98.3494,-40.6506,2.32
0.00563404,0.000802576,0.00186605,0.000117121,0.00705266,0.000433666,0.00233591,6.26631e-05,-117,-139,1.74456e-11,-117,-98.3494,-40.6506,2.324
0.0056623,0.000804303,0.00187541,0.000117467,0.00707545,0.000433065,0.00234346,7.05663e-05,-117,-139,1.96766e-11,-117,-98.3494,-40.6506,2.328
0.00569064,0.000806376,0.0018848,0.000117812,0.00709828,0.000461456,0.00235102,7.58351e-05,-118,-139,2.25982e-11,-118,-98.3494,-40.6506,2.332
0.00571908,0.000808104,0.00189422,0.000117812,0.00712114,0.000451592,0.00235859,5.05568e-05,-118,-139,1.47435e-11,-118,-98.3494,-40.6506,2.336
0.00574761,0.000809831,0.00190367,0.000117812,0.00714403,0.000445016,0.00236618,3.37045e-05,-119,-140,9.68585e-12,-119,-98.3494,-41.6506,2.34
0.00577624,0.000811559,0.00191315,0.000118158,0.00716695,0.000440632,0.00237377,5.12606e-05,-119,-140,1.46287e-11,-119,-98.3494,-41.6506,2.344
0.00580495,0.000813286,0.00192266,0.000118158,0.00718991,0.000437709,0.00238137,3.41737e-05,-120,-140,9.68778e-12,-120,-98.3494,-41.6506,2.348
0.00583375,0.000814668,0.0019322,0.000118503,0.00721289,0.00040697,0.00238898,5.15734e-05,-121,-140,1.36333e-11,-121,-98.3494,-41.6506,2.352
0.00586265,0.00081605,0.00194177,0.000118503,0.00723591,0.000386477,0.00239661,3.43823e-05,-122,-141,8.63122e-12,-122,-98.3494,-42.6506,2.356
0.00589164,0.000817086,0.00195137,0.000118849,0.00725896,0.000344024,0.00240424,5.17124e-05,-122,-141,1.15894e-11,-122,-98.3494,-42.6506,2.36
0.00592072,0.000818468,0.001961,0.000119194,0.00728204,0.000344513,0.00241188,6.32659e-05,-123,-141,1.42401e-11,-123,-98.3494,-42.6506,2.364
0.0059499,0.00081985,0.00197067,0.00011954,0.00730515,0.000344839,0.00241954,7.09682e-05,-124,-141,1.60353e-11,-124,-98.3494,-42.6506,2.368
0.00597917,0.000821578,0.00198036,0.00011954,0.00732829,0.000373847,0.0024272,4.73121e-05,-124,-141,1.15894e-11,-124,-98.3494,-42.6506,2.372
0.00600852,0.000823305,0.00199008,0.000119885,0.00735146,0.000393186,0.00243488,6.03323e-05,-124,-141,1.55883e-11,-124,-98.3494,-42.6506,2.376
0.00603798,0.000824687,0.00199984,0.000120576,0.00737467,0.000377288,0.00244257,9.78034e-05,-125,-141,2.43878e-11,-125,-98.3494,-42.6506,2.38
0.00606752,0.000826069,0.00200963,0.000121267,0.0073979,0.000366689,0.00245026,0.000122784,-125,-141,2.99273e-11,-125,-98.3494,-42.6506,2.384
0.00609716,0.000827451,0.00201944,0.000121613,0.00742117,0.000359623,0.00245797,0.000110647,-126,-141,2.65247e-11,-126,-98.3494,-42.6506,2.388
0.00612689,0.000828488,0.00202929,0.000122304,0.00744447,0.000326121,0.00246568,0.000131347,-127,-141,2.87158e-11,-127,-98.3494,-42.6506,2.392
0.00615672,0.000829524,0.00203917,0.000122649,0.0074678,0.000303787,0.00247341,0.000116355,-128,-141,2.37631e-11,-128,-98.3494,-42.6506,2.396
0.00618663,0.000830561,0.00204908,0.000123686,0.00749116,0.000288897,0.00248115,0.000163943,-128,-141,3.21099e-11,-128,-98.3494,-42.6506,2.4
0.00621665,0.000831252,0.00205902,0.000124377,0.00751455,0.00025018,0.0024889,0.000166877,-129,-141,2.84624e-11,-129,-98.3494,-42.6506,2.404
0.00624675,0.000831597,0.00206899,0.000124722,0.00753798,0.000195578,0.00249665,0.000140042,-130,-142,1.87243e-11,-130,-98.3494,-43.6506,2.408
0.00627695,0.000832288,0.00207899,0.000125413,0.00756143,0.000187967,0.00250442,0.000150943,-131,-142,1.95039e-11,-131,-98.3494,-43.6506,2.412
0.00630724,0.000832288,0.00208902,0.000125759,0.00758492,0.000125311,0.0025122,0.00012942,-132,-142,1.11793e-11,-132,-98.3494,-43.6506,2.416
0.00633763,0.000832634,0.00209909,0.00012645,0.00760843,0.000112332,0.00251999,0.000143862,-133,-142,1.12008e-11,-133,-98.3494,-43.6506,2.42
0.00636811,0.000832979,0.00210918,0.000126795,0.00763198,0.000103679,0.00252779,0.000124699,-133,-143,8.98542e-12,-133,-98.3494,-44.6506,2.424
0.00639868,0.00083367,0.00211931,0.000127141,0.00765556,0.000126701,0.0025356,0.000111923,-134,-143,9.88255e-12,-134,-98.3494,-44.6506,2.428
0.00642935,0.000834016,0.00212947,0.000127486,0.00767917,0.000113258,0.00254342,0.000103407,-135,-143,8.18398e-12,-135,-98.3494,-44.6506,2.432
0.00646012,0.000834706,0.00213966,0.000127832,0.00770281,0.000133087,0.00255125,9.77286e-05,-135,-143,9.1134e-12,-135,-98.3494,-44.6506,2.436
0.00649098,0.000835052,0.00214988,0.000128177,0.00772648,0.000117516,0.00255909,9.39433e-05,-136,-144,7.75633e-12,-136,-98.3494,-45.6506,2.44
0.00652193,0.000836088,0.00216013,0.000128177,0.00775018,0.000164717,0.00256694,6.26289e-05,-136,-144,7.2478e-12,-136,-98.3494,-45.6506,2.444
0.00655298,0.000836434,0.00217041,0.000128523,0.00777392,0.000138602,0.0025748,7.05435e-05,-137,-144,6.88795e-12,-137,-98.3494,-45.6506,2.448
0.00658412,0.000837125,0.00218073,0.000128868,0.00779768,0.000149983,0.00258267,7.58199e-05,-137,-144,8.03258e-12,-137,-98.3494,-45.6506,2.452
0.00661536,0.00083747,0.00219107,0.000129214,0.00782148,0.00012878,0.00259055,7.93376e-05,-138,-145,7.23632e-12,-138,-98.3494,-46.6506,2.456
0.00664669,0.000838161,0.00220145,0.000129559,0.0078453,0.000143435,0.00259844,8.16826e-05,-138,-145,8.32024e-12,-138,-98.3494,-46.6506,2.46
0.00667812,0.000838161,0.00221186,0.000129905,0.00786916,9.56233e-05,0.00260635,8.3246e-05,-139,-145,5.66807e-12,-139,-98.3494,-46.6506,2.464
0.00670965,0.000838161,0.0022223,0.00013025,0.00789305,6.37489e-05,0.00261426,8.42883e-05,-140,-145,3.8362e-12,-140,-98.3494,-46.6506,2.468
0.00674127,0.000838507,0.00223278,0.000130596,0.00791696,7.12902e-05,0.00262218,8.49831e-05,-141,-145,4.33685e-12,-141,-98.3494,-46.6506,2.472
0.00677298,0.000838852,0.00224328,0.000130596,0.00794091,7.63177e-05,0.00263011,5.66554e-05,-141,-146,3.09513e-12,-141,-98.3494,-47.6506,2.476
0.00680479,0.000838852,0.00225382,0.000130596,0.00796489,5.08785e-05,0.00263805,3.77703e-05,-142,-146,1.37561e-12,-142,-98.3494,-47.6506,2.48
0.0068367,0.000839198,0.00226439,0.000130596,0.0079889,6.27099e-05,0.00264601,2.51802e-05,-142,-146,1.13033e-12,-142,-98.3494,-47.6506,2.484
0.0068687,0.000839543,0.00227499,0.000131287,0.00801294,7.05975e-05,0.00265397,7.43686e-05,-143,-146,3.77818e-12,-143,-98.3494,-47.6506,2.488
0.0069008,0.000839889,0.00228562,0.000131632,0.00803702,7.58559e-05,0.00266194,7.837e-05,-143,-146,4.28928e-12,-143,-98.3494,-47.6506,2.492
0.006933,0.00084058,0.00229628,0.000131978,0.00806112,0.000108152,0.00266992,8.10376e-05,-144,-146,6.34025e-12,-144,-98.3494,-47.6506,2.496
0.00696529,0.000840925,0.00230698,0.000132669,0.00808525,0.000100893,0.00267792,0.000111607,-144,-146,8.18845e-12,-144,-98.3494,-47.6506,2.5
0.00699768,0.000841271,0.0023177,0.000133014,0.00810941,9.60526e-05,0.00268592,0.000103196,-145,-147,7.22688e-12,-145,-98.3494,-48.6506,2.504
0.00703017,0.000841962,0.00232846,0.000133014,0.00813361,0.000121617,0.00269393,6.8797e-05,-145,-147,6.10021e-12,-145,-98.3494,-48.6506,2.508
0.00706275,0.000843344,0.00233926,0.00013336,0.00815783,0.000196242,0.00270196,7.46556e-05,-145,-147,1.07093e-11,-145,-98.3494,-48.6506,2.512
0.00709543,0.000843689,0.00235008,0.000133705,0.00818209,0.000159619,0.00270999,7.85613e-05,-146,-147,9.19017e-12,-146,-98.3494,-48.6506,2.516
0.00712821,0.000845071,0.00236094,0.000134051,0.00820637,0.000221576,0.00271803,8.11651e-05,-146,-148,1.32143e-11,-146,-98.3494,-49.6506,2.52
0.00716108,0.000846799,0.00237182,0.000134396,0.00823069,0.000291672,0.00272609,8.2901e-05,-146,-148,1.78125e-11,-146,-98.3494,-49.6506,2.524
0.00719405,0.000848526,0.00238274,0.000135087,0.00825503,0.000338403,0.00273415,0.000112849,-146,-148,2.82767e-11,-146,-98.3494,-49.6506,2.528
0.00722712,0.000850945,0.0023937,0.000135087,0.00827941,0.000427138,0.00274222,7.52328e-05,-146,-148,2.37943e-11,-146,-98.3494,-49.6506,2.532
0.00726029,0.000852672,0.00240468,0.000136123,0.00830382,0.000428713,0.00275031,0.000136528,-146,-148,4.36722e-11,-146,-98.3494,-49.6506,2.536
0.00729355,0.000854054,0.0024157,0.000136123,0.00832825,0.000400973,0.0027584,9.10186e-05,-147,-148,2.72309e-11,-147,-98.3494,-49.6506,2.54
0.00732692,0.000854745,0.00242675,0.000136469,0.00835272,0.000324897,0.00276651,8.947e-05,-149,-149,2.1744e-11,-149,-98.3494,-50.6506,2.544
0.00736038,0.000855781,0.00243783,0.000136814,0.00837722,0.000302971,0.00277462,8.84376e-05,-149,-149,2.00934e-11,-149,-98.3494,-50.6506,2.548
0.00739393,0.000856472,0.00244895,0.00013716,0.00840175,0.000259562,0.00278274,8.77493e-05,-151,-149,1.71236e-11,-151,-98.3494,-50.6506,2.552
0.00742759,0.000856818,0.00246009,0.000137505,0.0084263,0.000201832,0.00279088,8.72905e-05,-152,-149,1.32789e-11,-152,-98.3494,-50.6506,2.556
0.00746134,0.000856818,0.00247127,0.000137851,0.00845089,0.000134555,0.00279902,8.69846e-05,-153,-149,8.84372e-12,-153,-98.3494,-50.6506,2.56
0.0074952,0.000857854,0.00248249,0.000138196,0.00847551,0.000176076,0.00280718,8.67806e-05,-153,-150,1.15745e-11,-153,-98.3494,-51.6506,2.564
0.00752915,0.0008582,0.00249373,0.000138542,0.00850016,0.000146175,0.00281534,8.66447e-05,-154,-150,9.61788e-12,-154,-98.3494,-51.6506,2.568
0.0075632,0.000858545,0.00250501,0.000138887,0.00852484,0.000126241,0.00282351,8.6554e-05,-155,-150,8.31828e-12,-155,-98.3494,-51.6506,2.572
0.00759735,0.000858545,0.00251632,0.000139578,0.00854955,8.41606e-05,0.0028317,0.000115285,-156,-150,7.42303e-12,-156,-98.3494,-51.6506,2.576
0.00763159,0.000858891,0.00252766,0.000139924,0.00857429,8.4898e-05,0.00283989,0.000105647,-156,-150,6.87909e-12,-156,-98.3494,-51.6506,2.58
0.00766594,0.000859582,0.00253904,0.000140615,0.00859905,0.000114181,0.00284809,0.000128013,-157,-150,1.12658e-11,-157,-98.3494,-51.6506,2.584
0.00770039,0.000860273,0.00255045,0.00014096,0.00862385,0.000133702,0.00285631,0.000114133,-157,-151,1.17905e-11,-157,-98.3494,-52.6506,2.588
0.00773493,0.000860964,0.00256189,0.000141651,0.00864868,0.000146717,0.00286453,0.000133671,-158,-151,1.52272e-11,-158,-98.3494,-52.6506,2.592
0.00776958,0.000861655,0.00257336,0.000141997,0.00867354,0.000155393,0.00287277,0.000117905,-158,-151,1.42602e-11,-158,-98.3494,-52.6506,2.596
0.00780432,0.000863037,0.00258487,0.000142688,0.00869843,0.000218759,0.00288101,0.000136185,-158,-151,2.33005e-11,-158,-98.3494,-52.6506,2.6
0.00783916,0.000863382,0.00259641,0.000142688,0.00872335,0.00017463,0.00288926,9.079e-05,-159,-152,1.24002e-11,-159,-98.3494,-53.6506,2.604
0.00787411,0.000864073,0.00260798,0.000143033,0.0087483,0.000174002,0.00289753,8.93176e-05,-160,-152,1.21846e-11,-160,-98.3494,-53.6506,2.608
0.00790915,0.000864764,0.00261959,0.000143033,0.00877328,0.000173583,0.0029058,5.95451e-05,-161,-152,8.10352e-12,-161,-98.3494,-53.6506,2.612
0.00794429,0.000866146,0.00263123,0.000143033,0.00879828,0.000230886,0.00291408,3.96967e-05,-161,-153,7.18575e-12,-161,-98.3494,-54.6506,2.616
0.00797954,0.000867183,0.0026429,0.000143379,0.00882332,0.000240297,0.00292237,5.52554e-05,-161,-153,1.0435e-11,-161,-98.3494,-54.6506,2.62
0.00801488,0.000867874,0.00265461,0.000143379,0.00884839,0.00021778,0.00293068,3.68369e-05,-162,-153,6.30476e-12,-162,-98.3494,-54.6506,2.624
0.00805032,0.000869256,0.00266635,0.000143379,0.00887349,0.00026035,0.00293899,2.4558e-05,-162,-153,5.02479e-12,-162,-98.3494,-54.6506,2.628
0.00808587,0.000870638,0.00267812,0.000143724,0.00889862,0.00028873,0.00294731,4.51629e-05,-163,-153,1.02728e-11,-163,-98.3494,-54.6506,2.632
0.00812151,0.00087202,0.00268993,0.000143724,0.00892377,0.000307651,0.00295564,3.01086e-05,-163,-154,7.29729e-12,-163,-98.3494,-55.6506,2.636
0.00815726,0.000873056,0.00270177,0.000143724,0.00894896,0.000291473,0.00296399,2.00724e-05,-164,-154,4.60905e-12,-164,-98.3494,-55.6506,2.64
0.0081931,0.000874092,0.00271364,0.00014407,0.00897418,0.000280688,0.00297234,4.21725e-05,-164,-154,9.34781e-12,-164,-98.3494,-55.6506,2.644
0.00822905,0.000874783,0.00272555,0.000144415,0.00899942,0.000244707,0.0029807,5.69059e-05,-165,-154,1.1023e-11,-165,-98.3494,-55.6506,2.648
0.0082651,0.000875474,0.00273749,0.000144761,0.0090247,0.00022072,0.00298907,6.67282e-05,-166,-154,1.16865e-11,-166,-98.3494,-55.6506,2.652
0.00830125,0.000876165,0.00274946,0.000145452,0.00905,0.000204729,0.00299745,0.000102067,-167,-154,1.66597e-11,-167,-98.3494,-55.6506,2.656
0.0083375,0.000876856,0.00276146,0.000146488,0.00907534,0.000194068,0.00300584,0.000154418,-168,-154,2.40622e-11,-168,-98.3494,-55.6506,2.66
0.00837385,0.000877547,0.00277351,0.000146834,0.0091007,0.00018696,0.00301425,0.000131736,-169,-154,1.98227e-11,-169,-98.3494,-55.6506,2.664
0.00841031,0.000878929,0.00278558,0.000147525,0.0091261,0.000239804,0.00302266,0.000145406,-169,-154,2.81959e-11,-169,-98.3494,-55.6506,2.668
0.00844686,0.00087962,0.00279769,0.00014787,0.00915152,0.000217451,0.00303108,0.000125728,-170,-155,2.21594e-11,-170,-98.3494,-56.6506,2.672
0.00848352,0.000881348,0.00280983,0.000148216,0.00917697,0.000288922,0.00303951,0.00011261,-169,-155,2.64322e-11,-169,-98.3494,-56.6506,2.676
0.00852028,0.00088273,0.002822,0.000148561,0.00920246,0.000307778,0.00304795,0.000103864,-170,-155,2.60311e-11,-170,-98.3494,-56.6506,2.68
0.00855714,0.000885494,0.00283421,0.000149252,0.00922797,0.000435513,0.0030564,0.000126825,-169,-155,4.51864e-11,-169,-98.3494,-56.6506,2.684
0.0085941,0.000887567,0.00284645,0.000149598,0.00925351,0.000463088,0.00306486,0.000113341,-170,-156,4.30384e-11,-170,-98.3494,-57.6506,2.688
0.00863117,0.00088964,0.00285873,0.000150289,0.00927908,0.000481471,0.00307333,0.000133142,-170,-156,5.28074e-11,-170,-98.3494,-57.6506,2.692
0.00866833,0.000892749,0.00287104,0.000150634,0.00930468,0.000580099,0.00308181,0.000117552,-170,-156,5.63041e-11,-170,-98.3494,-57.6506,2.696
0.0087056,0.000895858,0.00288338,0.000150634,0.00933031,0.000645851,0.00309029,7.83683e-05,-170,-157,4.17906e-11,-170,-98.3494,-58.6506,2.7
0.00874298,0.000898968,0.00289576,0.000150634,0.00935597,0.000689686,0.00309879,5.22455e-05,-170,-157,2.97514e-11,-170,-98.3494,-58.6506,2.704
0.00878045,0.000901732,0.00290817,0.00015098,0.00938166,0.000690118,0.0031073,6.36213e-05,-171,-157,3.63352e-11,-171,-98.3494,-58.6506,2.708
0.00881803,0.00090415,0.00292062,0.000151325,0.00940738,0.000661615,0.00311582,7.12051e-05,-172,-157,3.9076e-11,-172,-98.3494,-58.6506,2.712
0.00885571,0.000906569,0.0029331,0.000151325,0.00943312,0.000642613,0.00312435,4.74701e-05,-172,-158,2.53025e-11,-172,-98.3494,-59.6506,2.716
0.00889349,0.000908642,0.00294562,0.000151325,0.0094589,0.000601154,0.00313288,3.16467e-05,-173,-158,1.57801e-11,-173,-98.3494,-59.6506,2.72
0.00893138,0.000910024,0.00295816,0.000151325,0.0094847,0.000515933,0.00314143,2.10978e-05,-175,-159,9.0287e-12,-175,-98.3494,-60.6506,2.724
0.00896937,0.000912787,0.00297075,0.000151325,0.00951054,0.000574283,0.00314999,1.40652e-05,-175,-159,6.69987e-12,-175,-98.3494,-60.6506,2.728
0.00900747,0.000914515,0.00298336,0.00015098,0.0095364,0.00052681,0.00315855,-1.94141e-05,-176,-159,-8.46395e-12,-176,-98.3494,-60.6506,2.732
0.00904566,0.000917624,0.00299602,0.000151671,0.00956229,0.000610325,0.00316713,4.46391e-05,-176,-159,2.26496e-11,-176,-98.3494,-60.6506,2.736
0.00908396,0.000920043,0.0030087,0.000151671,0.00958822,0.00060842,0.00317571,2.97594e-05,-177,-159,1.50526e-11,-177,-98.3494,-60.6506,2.74
0.00912237,0.000922807,0.00302142,0.000152016,0.00961417,0.000635941,0.00318431,4.86305e-05,-177,-159,2.5769e-11,-177,-98.3494,-60.6506,2.744
0.00916088,0.000925571,0.00303418,0.000152016,0.00964015,0.000654288,0.00319291,3.24204e-05,-177,-160,1.7675e-11,-177,-98.3494,-61.6506,2.748
0.00919949,0.000929026,0.00304696,0.000152016,0.00966615,0.000724101,0.00320153,2.16136e-05,-177,-160,1.30406e-11,-177,-98.3494,-61.6506,2.752
0.00923821,0.00093248,0.00305979,0.000152016,0.00969219,0.000770643,0.00321015,1.4409e-05,-178,-160,9.25255e-12,-178,-98.3494,-61.6506,2.756
0.00927703,0.000936281,0.00307265,0.000152362,0.00971826,0.000830462,0.00321879,3.8397e-05,-178,-160,2.66303e-11,-178,-98.3494,-61.6506,2.76
0.00931595,0.000940772,0.00308554,0.000152362,0.00974435,0.000927924,0.00322743,2.5598e-05,-177,-161,1.9837e-11,-177,-98.3494,-62.6506,2.764
0.00935498,0.000945609,0.00309847,0.000152362,0.00977048,0.00102169,0.00323608,1.70653e-05,-177,-161,1.4561e-11,-177,-98.3494,-62.6506,2.768
0.00939412,0.000950446,0.00311143,0.000152707,0.00979663,0.0010842,0.00324474,4.01678e-05,-177,-161,3.64527e-11,-177,-98.3494,-62.6506,2.772
0.00943336,0.000955628,0.00312442,0.000152707,0.00982281,0.00115466,0.00325342,2.67785e-05,-177,-161,2.58812e-11,-177,-98.3494,-62.6506,2.776
0.0094727,0.000960465,0.00313745,0.000152707,0.00984903,0.00117285,0.0032621,1.78524e-05,-178,-162,1.75259e-11,-178,-98.3494,-63.6506,2.78
0.00951215,0.000965302,0.00315052,0.000153053,0.00987527,0.00118497,0.00327079,4.06925e-05,-178,-162,4.04526e-11,-178,-98.3494,-63.6506,2.784
0.0095517,0.000969794,0.00316362,0.000153744,0.00990153,0.00116426,0.00327949,8.47102e-05,-179,-161,8.31126e-11,-179,-98.3494,-62.6506,2.788
0.00959136,0.00097463,0.00317676,0.000153398,0.00992783,0.00117925,0.0032882,2.76825e-05,-179,-162,2.74482e-11,-179,-98.3494,-63.6506,2.792
0.00963112,0.000978776,0.00318993,0.000153744,0.00995416,0.00113166,0.00329692,4.72459e-05,-180,-162,4.50567e-11,-180,-98.3494,-63.6506,2.796
0.00967099,0.000982577,0.00320313,0.000154089,0.00998051,0.00107114,0.00330565,6.02882e-05,-182,-162,5.45422e-11,-182,-98.3494,-63.6506,2.8
