peachynonah/Fire_monitor_KIRO_CDSL/csv_datas/trial13/cdsl_data_t13_1_FL_u.csv
joint1_pos_desired, joint1_pos, joint2_pos_desired, joint2_pos, joint1_vel_desired, joint1_vel_filtered, joint2_vel_desired, joint2_vel_filtered, target_torque_joint1, target_torque_joint2, nonlinear_term_torque_joint1, PD_term_torque_joint1, nonlinear_term_torque_joint2, PD_term_torque_joint2, current_time
0.0069,0.00843897,8.3175e-11,0.000586644,9.41623e-08,0,6.2375e-08,0,17,-91,0,17,-98.3494,7.34941,0.004
0.0069,0.00844,6.65201e-10,0.000586644,3.76499e-07,8.63728e-05,2.494e-07,0,17,-91,0,17,-98.3494,7.34941,0.008
0.0069,0.00843827,2.24438e-09,0.000586989,8.46783e-07,-8.63728e-05,5.60926e-07,2.87909e-05,16,-91,-8.00103e-12,16,-98.3494,7.34941,0.012
0.00690001,0.00843724,5.31841e-09,0.000592172,1.50479e-06,-0.000143955,9.96803e-07,0.000451058,15,-87,-2.1076e-10,15,-98.3494,11.3494,0.016
0.00690002,0.00843482,1.03844e-08,0.000603573,2.35029e-06,-0.000297506,1.55688e-06,0.00125081,14,-79,-1.23112e-09,14,-98.3494,19.3494,0.02
0.00690003,0.00843136,1.79389e-08,0.000621193,3.38307e-06,-0.000486247,2.24101e-06,0.00230221,12,-69,-3.81163e-09,12,-98.3494,29.3494,0.024
0.00690004,0.00842756,2.84777e-08,0.00064365,4.60288e-06,-0.000640865,3.04904e-06,0.00340622,10,-58,-7.70143e-09,10,-98.3494,40.3494,0.028
0.00690006,0.00842411,4.24962e-08,0.000670253,6.00952e-06,-0.000715152,3.98083e-06,0.00448771,9,-47,-1.17908e-08,9,-98.3494,51.3494,0.032
0.00690009,0.00842204,6.04892e-08,0.000699619,7.60276e-06,-0.000649514,5.03622e-06,0.00543904,10,-38,-1.35474e-08,10,-98.3494,60.3494,0.036
0.00690013,0.00842135,8.29506e-08,0.000730714,9.38236e-06,-0.000490591,6.21506e-06,0.00621721,11,-30,-1.22165e-08,11,-98.3494,68.3494,0.04
0.00690017,0.00842204,1.10374e-07,0.00076319,1.13481e-05,-0.000269479,7.51721e-06,0.00685115,14,-24,-7.72332e-09,14,-98.3494,74.3494,0.044
0.00690022,0.00842238,1.43253e-07,0.000795321,1.34998e-05,-0.000150862,8.94252e-06,0.00724499,15,-20,-4.76477e-09,15,-98.3494,78.3494,0.048
0.00690027,0.00842204,1.82078e-07,0.000826069,1.58371e-05,-0.000129365,1.04908e-05,0.00739239,15,-18,-4.33014e-09,15,-98.3494,80.3494,0.052
0.00690034,0.00842204,2.27343e-07,0.000855436,1.836e-05,-8.62436e-05,1.2162e-05,0.00737549,15,-18,-2.98255e-09,15,-98.3494,80.3494,0.056
0.00690042,0.00842204,2.79538e-07,0.000883075,2.1068e-05,-5.74957e-05,1.39559e-05,0.00722026,16,-19,-2.00941e-09,16,-98.3494,79.3494,0.06
0.00690051,0.00842204,3.39154e-07,0.000909678,2.39611e-05,-3.83305e-05,1.58723e-05,0.00703041,16,-21,-1.34368e-09,16,-98.3494,77.3494,0.064
0.00690061,0.00842169,4.0668e-07,0.000934553,2.7039e-05,-5.43446e-05,1.79112e-05,0.00675989,16,-23,-1.88184e-09,16,-98.3494,75.3494,0.068
0.00690073,0.00842169,4.82606e-07,0.000958047,3.03014e-05,-3.62297e-05,2.00723e-05,0.00646437,16,-26,-1.22988e-09,16,-98.3494,72.3494,0.072
0.00690086,0.00842135,5.67421e-07,0.000978431,3.37482e-05,-5.29441e-05,2.23555e-05,0.00600825,15,-30,-1.706e-09,15,-98.3494,68.3494,0.076
0.006901,0.00842169,6.61613e-07,0.000997778,3.73792e-05,-6.50512e-06,2.47607e-05,0.00561779,16,-33,-1.99865e-10,16,-98.3494,65.3494,0.08
0.00690116,0.00842135,7.65669e-07,0.00101713,4.1194e-05,-3.31277e-05,2.72877e-05,0.00535749,16,-36,-9.89485e-10,16,-98.3494,62.3494,0.084
0.00690133,0.00842169,8.80077e-07,0.00103578,4.51925e-05,6.70581e-06,2.99364e-05,0.00512637,16,-38,1.9517e-10,16,-98.3494,60.3494,0.088
0.00690152,0.00842169,1.00532e-06,0.00105513,4.93744e-05,4.47054e-06,3.27066e-05,0.00502987,16,-38,1.30049e-10,16,-98.3494,60.3494,0.092
0.00690172,0.00842169,1.14189e-06,0.00107413,5.37396e-05,2.98036e-06,3.55982e-05,0.00493675,16,-39,8.66264e-11,16,-98.3494,59.3494,0.096
0.00690195,0.00842135,1.29027e-06,0.00109348,5.82877e-05,-2.6804e-05,3.8611e-05,0.00490346,15,-39,-7.87763e-10,15,-98.3494,59.3494,0.1
0.00690219,0.00842169,1.45094e-06,0.00111421,6.30187e-05,1.09216e-05,4.17448e-05,0.00499643,16,-38,3.33269e-10,16,-98.3494,60.3494,0.104
0.00690245,0.00842169,1.62439e-06,0.00113494,6.79321e-05,7.28105e-06,4.49996e-05,0.00505841,16,-37,2.2912e-10,16,-98.3494,61.3494,0.108
0.00690273,0.00842169,1.8111e-06,0.0011567,7.3028e-05,4.85404e-06,4.83752e-05,0.0051861,16,-36,1.59606e-10,16,-98.3494,62.3494,0.112
0.00690304,0.00842169,2.01155e-06,0.00117743,7.83059e-05,3.23602e-06,5.18714e-05,0.00518485,16,-36,1.08285e-10,16,-98.3494,62.3494,0.116
0.00690336,0.00842169,2.22623e-06,0.00119816,8.37657e-05,2.15735e-06,5.54881e-05,0.00518403,15,-36,7.34491e-11,15,-98.3494,62.3494,0.12
0.00690371,0.00842135,2.45562e-06,0.00121786,8.94072e-05,-2.73527e-05,5.92251e-05,0.0050971,15,-36,-9.30683e-10,15,-98.3494,62.3494,0.124
0.00690408,0.00842135,2.70019e-06,0.00123789,9.52301e-05,-1.82351e-05,6.30823e-05,0.00506794,15,-36,-6.27057e-10,15,-98.3494,62.3494,0.128
0.00690447,0.00842169,2.96044e-06,0.00125793,0.000101234,1.66342e-05,6.70596e-05,0.0050485,15,-36,5.79034e-10,15,-98.3494,62.3494,0.132
0.00690489,0.00842169,3.23683e-06,0.00127832,0.000107419,1.10894e-05,7.11567e-05,0.00506433,15,-36,3.93508e-10,15,-98.3494,62.3494,0.136
0.00690533,0.00842169,3.52985e-06,0.00129766,0.000113785,7.39297e-06,7.53736e-05,0.00498851,15,-37,2.62322e-10,15,-98.3493,61.3493,0.14
0.0069058,0.00842169,3.83998e-06,0.00131736,0.000120332,4.92864e-06,7.97101e-05,0.00496676,15,-37,1.76761e-10,15,-98.3493,61.3493,0.144
0.00690629,0.00842169,4.16769e-06,0.00133671,0.000127058,3.28576e-06,8.4166e-05,0.00492346,15,-37,1.18529e-10,15,-98.3493,61.3493,0.148
0.00690681,0.00842169,4.51346e-06,0.00135536,0.000133965,2.19051e-06,8.87412e-05,0.00483702,15,-37,7.87155e-11,15,-98.3493,61.3493,0.152
0.00690736,0.00842169,4.87778e-06,0.00137333,0.000141052,1.46034e-06,9.34356e-05,0.00472181,15,-38,5.19061e-11,15,-98.3493,60.3493,0.156
0.00690794,0.00842169,5.26111e-06,0.0013906,0.000148318,9.73559e-07,9.82489e-05,0.00458742,15,-40,3.40421e-11,15,-98.3493,58.3493,0.16
0.00690855,0.00842169,5.66393e-06,0.00140719,0.000155764,6.4904e-07,0.000103181,0.00444024,15,-41,2.22286e-11,15,-98.3493,57.3493,0.164
0.00690919,0.00842169,6.08671e-06,0.00142342,0.000163389,4.32693e-07,0.000108232,0.00431334,15,-42,1.45616e-11,15,-98.3493,56.3493,0.168
0.00690986,0.00842169,6.52994e-06,0.00144001,0.000171193,2.88462e-07,0.000113402,0.00425752,15,-42,9.69377e-12,15,-98.3493,56.3493,0.172
0.00691056,0.00842169,6.99409e-06,0.00145659,0.000179176,1.92308e-07,0.00011869,0.00422031,14,-43,6.4798e-12,14,-98.3493,55.3493,0.176
0.00691129,0.00842169,7.47962e-06,0.00147352,0.000187337,1.28205e-07,0.000124096,0.0042243,14,-42,4.3742e-12,14,-98.3493,56.3493,0.18
0.00691206,0.00842169,7.98701e-06,0.00149149,0.000195676,8.54702e-08,0.00012962,0.00431333,14,-41,3.0139e-12,14,-98.3493,57.3493,0.184
0.00691286,0.00842169,8.51673e-06,0.00151083,0.000204194,5.69801e-08,0.000135262,0.00448784,14,-40,2.11768e-12,14,-98.3493,58.3493,0.188
0.00691369,0.00842169,9.06927e-06,0.00153087,0.00021289,3.79868e-08,0.000141022,0.00466177,14,-38,1.48595e-12,14,-98.3493,60.3493,0.192
0.00691456,0.00842169,9.64507e-06,0.00154987,0.000221763,2.53245e-08,0.0001469,0.00469135,14,-37,1.00929e-12,14,-98.3493,61.3493,0.196
0.00691547,0.00842169,1.02446e-05,0.00156749,0.000230814,1.6883e-08,0.000152896,0.0045959,14,-38,6.66666e-13,14,-98.3493,60.3493,0.2
0.00691641,0.00842169,1.08684e-05,0.00158408,0.000240041,1.12553e-08,0.000159008,0.0044459,14,-39,4.34487e-13,14,-98.3493,59.3493,0.204
0.00691739,0.00842169,1.15168e-05,0.00159962,0.000249446,7.50356e-09,0.000165238,0.00425952,14,-41,2.80239e-13,14,-98.3493,57.3493,0.208
0.0069184,0.00842169,1.21905e-05,0.00161483,0.000259028,5.00237e-09,0.000171585,0.00410648,14,-43,1.81825e-13,14,-98.3493,55.3493,0.212
0.00691946,0.00842169,1.28897e-05,0.00162692,0.000268786,3.33491e-09,0.000178049,0.00374534,13,-46,1.11384e-13,13,-98.3493,52.3493,0.216
0.00692055,0.00842169,1.3615e-05,0.00163866,0.00027872,2.22328e-09,0.00018463,0.00347578,13,-48,6.94094e-14,13,-98.3493,50.3493,0.22
0.00692169,0.00842169,1.43669e-05,0.00164972,0.000288831,1.48218e-09,0.000191328,0.0032385,13,-51,4.34049e-14,13,-98.3493,47.3493,0.224
0.00692286,0.00842169,1.51458e-05,0.00165939,0.000299118,9.88123e-10,0.000198142,0.00296514,13,-53,2.66495e-14,13,-98.3493,45.3493,0.228
0.00692408,0.00842169,1.59522e-05,0.00166769,0.00030958,6.58749e-10,0.000205072,0.00266775,13,-56,1.60643e-14,13,-98.3493,42.3493,0.232
0.00692534,0.00842204,1.67865e-05,0.0016746,0.000320217,2.87914e-05,0.000212118,0.00235432,13,-59,6.22184e-10,13,-98.3493,39.3493,0.236
0.00692664,0.00842169,1.76493e-05,0.00168081,0.00033103,-9.59668e-06,0.000219281,0.00208778,13,-62,-1.8459e-10,13,-98.3493,36.3493,0.24
0.00692799,0.00842169,1.85409e-05,0.001686,0.000342018,-6.39779e-06,0.00022656,0.00182372,13,-64,-1.07827e-10,13,-98.3493,34.3493,0.244
0.00692938,0.00842169,1.94619e-05,0.00169083,0.00035318,-4.26519e-06,0.000233954,0.00161888,13,-66,-6.39938e-11,13,-98.3493,32.3493,0.248
0.00693082,0.00842169,2.04127e-05,0.00169532,0.000364517,-2.84346e-06,0.000241464,0.00145354,12,-68,-3.84069e-11,12,-98.3493,30.3493,0.252
0.0069323,0.00842169,2.13938e-05,0.00169982,0.000376029,-1.89564e-06,0.000249089,0.00134331,12,-69,-2.37255e-11,12,-98.3493,29.3493,0.256
0.00693382,0.00842169,2.24056e-05,0.00170465,0.000387714,-1.26376e-06,0.00025683,0.00129861,12,-69,-1.53342e-11,12,-98.3493,29.3493,0.26
0.0069354,0.00842169,2.34486e-05,0.00170949,0.000399574,-8.42507e-07,0.000264686,0.00126881,12,-70,-1.00166e-11,12,-98.3493,28.3493,0.264
0.00693702,0.00842169,2.45232e-05,0.00171467,0.000411607,-5.61671e-07,0.000272657,0.00127774,12,-70,-6.7451e-12,12,-98.3493,28.3493,0.268
0.00693869,0.00842169,2.563e-05,0.00171951,0.000423814,-3.74448e-07,0.000280743,0.0012549,12,-70,-4.42881e-12,12,-98.3493,28.3493,0.272
0.00694041,0.00842169,2.67693e-05,0.00172331,0.000436193,-2.49632e-07,0.000288943,0.0011533,12,-71,-2.71949e-12,12,-98.3493,27.3493,0.276
0.00694218,0.00842169,2.79417e-05,0.00172607,0.000448746,-1.66421e-07,0.000297259,0.000999194,12,-73,-1.57326e-12,12,-98.3493,25.3493,0.28
0.006944,0.00842169,2.91475e-05,0.00172815,0.000461472,-1.10947e-07,0.000305688,0.000838875,11,-74,-8.81612e-13,11,-98.3493,24.3493,0.284
0.00694587,0.00842169,3.03873e-05,0.00172987,0.00047437,-7.3965e-08,0.000314232,0.000703205,11,-75,-4.93179e-13,11,-98.3493,23.3493,0.288
0.0069478,0.00842169,3.16615e-05,0.00173056,0.000487441,-4.931e-08,0.000322891,0.000526385,11,-77,-2.46211e-13,11,-98.3493,21.3493,0.292
0.00694977,0.00842169,3.29706e-05,0.00173091,0.000500683,-3.28733e-08,0.000331663,0.000379714,11,-79,-1.18429e-13,11,-98.3493,19.3493,0.296
0.0069518,0.00842169,3.4315e-05,0.00173126,0.000514098,-2.19155e-08,0.000340549,0.000281934,11,-80,-5.86331e-14,11,-98.3493,18.3493,0.3
0.00695389,0.00842169,3.56951e-05,0.00173126,0.000527684,-1.46104e-08,0.000349549,0.000187956,11,-81,-2.60592e-14,11,-98.3493,17.3493,0.304
0.00695602,0.00842169,3.71115e-05,0.0017316,0.000541442,-9.74024e-09,0.000358662,0.000154095,10,-81,-1.42458e-14,10,-98.3493,17.3493,0.308
0.00695822,0.00842169,3.85646e-05,0.00173195,0.000555371,-6.49349e-09,0.000367889,0.000131521,10,-82,-8.10755e-15,10,-98.3493,16.3493,0.312
0.00696047,0.00842169,4.00548e-05,0.00173264,0.000569471,-4.329e-09,0.000377229,0.000145262,10,-82,-5.97215e-15,10,-98.3493,16.3493,0.316
0.00696277,0.00842169,4.15826e-05,0.00173298,0.000583742,-2.886e-09,0.000386683,0.000125633,10,-82,-3.44409e-15,10,-98.3493,16.3493,0.32
0.00696514,0.00842204,4.31484e-05,0.00173333,0.000598184,2.8789e-05,0.000396249,0.000112546,10,-82,3.07836e-11,10,-98.3493,16.3493,0.324
0.00696756,0.00842204,4.47527e-05,0.00173367,0.000612796,1.91927e-05,0.000405928,0.000103822,10,-82,1.89353e-11,10,-98.3493,16.3493,0.328
0.00697004,0.00842204,4.6396e-05,0.00173402,0.000627578,1.27951e-05,0.00041572,9.80053e-05,10,-82,1.19187e-11,10,-98.3493,16.3493,0.332
0.00697258,0.00842204,4.80786e-05,0.00173437,0.00064253,8.53007e-06,0.000425625,9.41278e-05,9,-83,7.63297e-12,9,-98.3493,15.3493,0.336
0.00697518,0.00842204,4.98011e-05,0.00173437,0.000657651,5.68672e-06,0.000435642,6.27519e-05,9,-83,3.39243e-12,9,-98.3493,15.3493,0.34
0.00697784,0.00842204,5.15639e-05,0.00173471,0.000672943,3.79114e-06,0.000445771,7.06255e-05,9,-83,2.5459e-12,9,-98.3493,15.3493,0.344
0.00698056,0.00842204,5.33674e-05,0.00173471,0.000688403,2.52743e-06,0.000456012,4.70837e-05,9,-83,1.13151e-12,9,-98.3493,15.3493,0.348
0.00698335,0.00842204,5.52122e-05,0.00173471,0.000704033,1.68495e-06,0.000466366,3.13891e-05,9,-84,5.02894e-13,9,-98.3493,14.3493,0.352
0.0069862,0.00842204,5.70985e-05,0.00173506,0.000719831,1.1233e-06,0.000476831,4.9717e-05,8,-84,5.31126e-13,8,-98.3493,14.3493,0.356
0.00698911,0.00842204,5.9027e-05,0.0017354,0.000735798,7.48868e-07,0.000487408,6.19356e-05,8,-84,4.41192e-13,8,-98.3493,14.3493,0.36
0.00699208,0.00842204,6.09979e-05,0.0017354,0.000751934,4.99245e-07,0.000498096,4.12904e-05,8,-84,1.96085e-13,8,-98.3493,14.3493,0.364
0.00699512,0.00842204,6.30119e-05,0.00173609,0.000768238,3.3283e-07,0.000508896,8.51088e-05,8,-84,2.69558e-13,8,-98.3493,14.3493,0.368
0.00699823,0.00842204,6.50693e-05,0.00173609,0.000784709,2.21887e-07,0.000519808,5.67392e-05,8,-84,1.19804e-13,8,-98.3493,14.3493,0.372
0.0070014,0.00842204,6.71705e-05,0.00173644,0.000801349,1.47925e-07,0.00053083,6.6617e-05,7,-84,9.37923e-14,7,-98.3493,14.3493,0.376
0.00700464,0.00842204,6.9316e-05,0.00173644,0.000818156,9.86164e-08,0.000541963,4.44114e-05,7,-84,4.16855e-14,7,-98.3493,14.3493,0.38
0.00700795,0.00842204,7.15063e-05,0.00173644,0.00083513,6.57442e-08,0.000553207,2.96076e-05,7,-85,1.85269e-14,7,-98.3493,13.3493,0.384
0.00701132,0.00842204,7.37418e-05,0.00173678,0.000852272,4.38295e-08,0.000564562,4.85293e-05,7,-85,2.02488e-14,7,-98.3493,13.3493,0.388
0.00701477,0.00842204,7.6023e-05,0.00173713,0.00086958,2.92197e-08,0.000576028,6.11438e-05,7,-85,1.70115e-14,7,-98.3493,13.3493,0.392
0.00701828,0.00842204,7.83502e-05,0.00173747,0.000887055,1.94798e-08,0.000587604,6.95535e-05,6,-85,1.29034e-14,6,-98.3493,13.3493,0.396
0.00702186,0.00842204,8.0724e-05,0.00173782,0.000904697,1.29865e-08,0.00059929,7.51599e-05,6,-85,9.2975e-15,6,-98.3493,13.3493,0.4
0.00702552,0.00842204,8.31447e-05,0.00173817,0.000922505,8.65768e-09,0.000611086,7.88975e-05,6,-85,6.50786e-15,6,-98.3493,13.3493,0.404
0.00702924,0.00842204,8.56128e-05,0.00173851,0.000940478,5.77179e-09,0.000622992,8.13893e-05,6,-85,4.47648e-15,6,-98.3493,13.3493,0.408
0.00703304,0.00842238,8.81288e-05,0.00173851,0.000958618,2.87948e-05,0.000635008,5.42595e-05,6,-85,1.48884e-11,6,-98.3493,13.3493,0.412
0.00703691,0.00842204,9.0693e-05,0.00173886,0.000976923,-9.59441e-06,0.000647134,6.49639e-05,5,-85,-5.94069e-12,5,-98.3493,13.3493,0.416
0.00704086,0.00842238,9.3306e-05,0.00173886,0.000995394,2.23947e-05,0.000659369,4.33093e-05,5,-86,9.24425e-12,5,-98.3493,12.3493,0.42
0.00704487,0.00842238,9.59681e-05,0.0017392,0.00101403,1.49298e-05,0.000671714,5.76638e-05,5,-86,8.20708e-12,5,-98.3493,12.3493,0.424
0.00704897,0.00842238,9.86798e-05,0.0017392,0.00103283,9.95318e-06,0.000684168,3.84425e-05,5,-86,3.64759e-12,5,-98.3493,12.3493,0.428
0.00705314,0.00842238,0.000101442,0.00173955,0.0010518,6.63545e-06,0.000696731,5.44193e-05,5,-86,3.44304e-12,5,-98.3493,12.3493,0.432
0.00705738,0.00842238,0.000104254,0.00173989,0.00107093,4.42363e-06,0.000709403,6.50704e-05,4,-86,2.74516e-12,4,-98.3493,12.3493,0.436
0.00706171,0.00842238,0.000107117,0.00173989,0.00109022,2.94909e-06,0.000722184,4.33803e-05,4,-86,1.22007e-12,4,-98.3493,12.3493,0.44
0.00706611,0.00842238,0.000110031,0.00174024,0.00110968,1.96606e-06,0.000735073,5.77111e-05,4,-86,1.0823e-12,4,-98.3493,12.3493,0.444
0.00707058,0.00842238,0.000112998,0.00174024,0.0011293,1.31071e-06,0.000748071,3.84741e-05,4,-87,4.81022e-13,4,-98.3493,11.3493,0.448
0.00707514,0.00842238,0.000116016,0.00174058,0.00114909,8.73804e-07,0.000761178,5.44403e-05,3,-87,4.5385e-13,3,-98.3493,11.3493,0.452
0.00707978,0.00842238,0.000119087,0.00174093,0.00116904,5.82536e-07,0.000774393,6.50845e-05,3,-87,3.61796e-13,3,-98.3493,11.3493,0.456
0.00708449,0.00842238,0.000122211,0.00174093,0.00118915,3.88358e-07,0.000787716,4.33896e-05,3,-87,1.60798e-13,3,-98.3493,11.3493,0.46
0.00708929,0.00842238,0.000125389,0.00174128,0.00120942,2.58905e-07,0.000801146,5.77174e-05,3,-87,1.42625e-13,3,-98.3493,11.3493,0.464
0.00709417,0.00842273,0.000128621,0.00174162,0.00122986,2.89635e-05,0.000814685,6.72692e-05,3,-87,1.85996e-11,3,-98.3493,11.3493,0.468
0.00709913,0.00842238,0.000131907,0.00174162,0.00125046,-9.48191e-06,0.000828331,4.48461e-05,2,-88,-4.05935e-12,2,-98.3493,10.3493,0.472
0.00710417,0.00842273,0.000135248,0.00174162,0.00127123,2.24697e-05,0.000842085,2.98974e-05,2,-88,6.41307e-12,2,-98.3493,10.3493,0.476
0.0071093,0.00842273,0.000138644,0.00174197,0.00129215,1.49798e-05,0.000855947,4.87225e-05,2,-88,6.96878e-12,2,-98.3493,10.3493,0.48
0.00711451,0.00842273,0.000142095,0.00174197,0.00131324,9.98651e-06,0.000869915,3.24817e-05,1,-88,3.09724e-12,1,-98.3493,10.3493,0.484
0.0071198,0.00842273,0.000145603,0.00174231,0.00133449,6.65768e-06,0.000883991,5.04454e-05,1,-88,3.20739e-12,1,-98.3493,10.3493,0.488
0.00712519,0.00842273,0.000149167,0.00174231,0.0013559,4.43845e-06,0.000898174,3.36303e-05,1,-89,1.42551e-12,1,-98.3493,9.34928,0.492
0.00713065,0.00842273,0.000152789,0.00174231,0.00137747,2.95897e-06,0.000912463,2.24202e-05,0,-89,6.33559e-13,-6.33559e-13,-98.3493,9.34928,0.496
0.00713621,0.00842273,0.000156467,0.00174266,0.0013992,1.97264e-06,0.000926859,4.37377e-05,0,-89,8.24136e-13,-8.24136e-13,-98.3493,9.34928,0.5
0.00714185,0.00842273,0.000160204,0.001743,0.00142109,1.3151e-06,0.000941362,5.79494e-05,0,-89,7.28093e-13,-7.28093e-13,-98.3493,9.34928,0.504
0.00714757,0.00842273,0.000163998,0.001743,0.00144315,8.76731e-07,0.000955971,3.86329e-05,0,-89,3.23597e-13,-3.23597e-13,-98.3493,9.34928,0.508
0.00715339,0.00842273,0.000167852,0.00174335,0.00146536,5.84487e-07,0.000970687,5.45462e-05,0,-89,3.04653e-13,-3.04653e-13,-98.3493,9.34928,0.512
0.0071593,0.00842273,0.000171764,0.00174369,0.00148774,3.89658e-07,0.000985508,6.51551e-05,0,-89,2.42652e-13,-2.42652e-13,-98.3493,9.34928,0.516
0.00716529,0.00842273,0.000175736,0.00174404,0.00151027,2.59772e-07,0.00100044,7.22276e-05,0,-90,1.79364e-13,-1.79364e-13,-98.3493,8.34928,0.52
0.00717138,0.00842273,0.000179767,0.00174404,0.00153297,1.73181e-07,0.00101547,4.81518e-05,-1,-90,7.97172e-14,-1,-98.3493,8.34928,0.524
0.00717756,0.00842273,0.00018386,0.00174438,0.00155582,1.15454e-07,0.00103061,6.08921e-05,-1,-90,6.72195e-14,-1,-98.3493,8.34928,0.528
0.00718383,0.00842273,0.000188012,0.00174438,0.00157884,7.69695e-08,0.00104585,4.05947e-05,-1,-90,2.98753e-14,-1,-98.3493,8.34928,0.532
0.00719019,0.00842273,0.000192227,0.00174473,0.00160201,5.1313e-08,0.0010612,5.58541e-05,-1,-90,2.7409e-14,-1,-98.3493,8.34928,0.536
0.00719664,0.00842273,0.000196502,0.00174473,0.00162534,3.42087e-08,0.00107666,3.72361e-05,-2,-91,1.21818e-14,-2,-98.3493,7.34928,0.54
0.00720319,0.00842273,0.00020084,0.00174508,0.00164883,2.28058e-08,0.00109222,5.3615e-05,-2,-91,1.16957e-14,-2,-98.3493,7.34928,0.544
0.00720983,0.00842273,0.00020524,0.00174542,0.00167248,1.52039e-08,0.00110788,6.45342e-05,-2,-91,9.38699e-15,-2,-98.3493,7.34928,0.548
0.00721657,0.00842273,0.000209703,0.00174542,0.00169629,1.01359e-08,0.00112365,4.30228e-05,-3,-91,4.172e-15,-3,-98.3493,7.34928,0.552
0.0072234,0.00842273,0.00021423,0.00174542,0.00172025,6.75727e-09,0.00113953,2.86819e-05,-3,-92,1.85422e-15,-3,-98.3493,6.34928,0.556
0.00723033,0.00842307,0.00021882,0.00174577,0.00174437,2.87954e-05,0.00115551,4.79122e-05,-3,-92,1.32019e-11,-3,-98.3493,6.34928,0.56
0.00723736,0.00842342,0.000223474,0.00174577,0.00176865,4.79879e-05,0.00117159,3.19415e-05,-3,-92,1.46675e-11,-3,-98.3493,6.34928,0.564
0.00724448,0.00842376,0.000228192,0.00174611,0.00179309,6.07828e-05,0.00118778,5.00852e-05,-3,-92,2.9137e-11,-3,-98.3493,6.34928,0.568
0.0072517,0.00842376,0.000232976,0.00174646,0.00181769,4.05219e-05,0.00120407,6.21811e-05,-4,-92,2.41206e-11,-4,-98.3493,6.34928,0.572
0.00725902,0.00842376,0.000237825,0.00174715,0.00184244,2.70146e-05,0.00122047,9.90359e-05,-4,-92,2.56214e-11,-4,-98.3493,6.34928,0.576
0.00726644,0.00842376,0.00024274,0.00174749,0.00186735,1.80097e-05,0.00123697,9.48149e-05,-5,-92,1.63562e-11,-5,-98.3493,6.34928,0.58
0.00727396,0.00842411,0.000247721,0.00174818,0.00189241,4.07974e-05,0.00125357,0.000120792,-5,-92,4.72215e-11,-5,-98.3493,6.34928,0.584
0.00728158,0.00842411,0.000252769,0.00174853,0.00191764,2.71983e-05,0.00127028,0.000109319,-5,-93,2.84965e-11,-5,-98.3493,5.34928,0.588
0.0072893,0.00842411,0.000257883,0.00174888,0.00194301,1.81322e-05,0.00128709,0.00010167,-6,-93,1.7672e-11,-6,-98.3493,5.34928,0.592
0.00729713,0.00842411,0.000263066,0.00174922,0.00196855,1.20881e-05,0.00130401,9.6571e-05,-6,-93,1.11926e-11,-6,-98.3493,5.34928,0.596
0.00730505,0.00842411,0.000268316,0.00174957,0.00199424,8.05875e-06,0.00132102,9.31716e-05,-6,-93,7.20052e-12,-6,-98.3493,5.34928,0.6
0.00731308,0.00842411,0.000273634,0.00174957,0.00202008,5.3725e-06,0.00133814,6.21144e-05,-7,-94,3.20023e-12,-7,-98.3493,4.34928,0.604
0.00732121,0.00842445,0.000279021,0.00174991,0.00204608,3.23726e-05,0.00135537,7.02005e-05,-7,-94,2.1798e-11,-7,-98.3493,4.34928,0.608
0.00732945,0.00842445,0.000284477,0.00175026,0.00207224,2.15817e-05,0.00137269,7.55913e-05,-7,-94,1.5651e-11,-7,-98.3493,4.34928,0.612
0.00733779,0.0084248,0.000290003,0.00175026,0.00209855,4.31787e-05,0.00139012,5.03942e-05,-7,-95,2.08754e-11,-7,-98.3493,3.34928,0.616
0.00734624,0.0084248,0.000295598,0.0017506,0.00212501,2.87858e-05,0.00140765,6.2387e-05,-8,-95,1.72323e-11,-8,-98.3493,3.34928,0.62
0.00735479,0.0084248,0.000301264,0.00175095,0.00215163,1.91906e-05,0.00142529,7.03823e-05,-8,-95,1.2963e-11,-8,-98.3493,3.34928,0.624
0.00736345,0.0084248,0.000307001,0.00175095,0.00217841,1.27937e-05,0.00144302,4.69215e-05,-9,-95,5.76135e-12,-9,-98.3493,3.34928,0.628
0.00737222,0.0084248,0.000312808,0.00175129,0.00220534,8.52913e-06,0.00146086,6.00719e-05,-9,-96,4.91833e-12,-9,-98.3493,2.34928,0.632
0.0073811,0.0084248,0.000318688,0.00175164,0.00223242,5.68609e-06,0.0014788,6.88389e-05,-10,-96,3.75815e-12,-10,-98.3493,2.34928,0.636
0.00739008,0.0084248,0.000324639,0.00175199,0.00225965,3.79073e-06,0.00149684,7.46835e-05,-10,-96,2.71869e-12,-10,-98.3493,2.34928,0.64
0.00739917,0.00842515,0.000330662,0.00175233,0.00228704,3.13181e-05,0.00151498,7.85799e-05,-10,-96,2.36377e-11,-10,-98.3493,2.34928,0.644
0.00740838,0.00842549,0.000336759,0.00175268,0.00231458,4.96696e-05,0.00153323,8.11775e-05,-10,-96,3.87357e-11,-10,-98.3493,2.34928,0.648
0.00741769,0.00842584,0.000342928,0.00175302,0.00234228,6.1904e-05,0.00155157,8.29093e-05,-10,-96,4.93164e-11,-10,-98.3493,2.34928,0.652
0.00742711,0.00842584,0.000349172,0.00175302,0.00237012,4.12693e-05,0.00157002,5.52729e-05,-11,-97,2.19184e-11,-11,-98.3493,1.34928,0.656
0.00743665,0.00842584,0.000355489,0.00175337,0.00239812,2.75129e-05,0.00158857,6.56395e-05,-12,-97,1.73563e-11,-12,-98.3493,1.34928,0.66
0.0074463,0.00842584,0.00036188,0.00175337,0.00242628,1.83419e-05,0.00160722,4.37597e-05,-12,-98,7.7139e-12,-12,-98.3493,0.34928,0.664
0.00745606,0.00842618,0.000368346,0.00175371,0.00245458,4.10189e-05,0.00162596,5.7964e-05,-12,-98,2.28551e-11,-12,-98.3493,0.34928,0.668
0.00746594,0.00842618,0.000374888,0.00175406,0.00248304,2.73459e-05,0.00164481,6.74336e-05,-13,-98,1.77294e-11,-13,-98.3493,0.34928,0.672
0.00747593,0.00842618,0.000381505,0.0017544,0.00251165,1.82306e-05,0.00166377,7.37467e-05,-13,-98,1.29287e-11,-13,-98.3493,0.34928,0.676
0.00748603,0.00842653,0.000388198,0.00175475,0.00254041,4.09447e-05,0.00168282,7.79554e-05,-13,-98,3.07002e-11,-13,-98.3493,0.34928,0.68
0.00749625,0.00842687,0.000394968,0.00175544,0.00256932,5.60874e-05,0.00170197,0.000109552,-14,-98,5.91227e-11,-14,-98.3493,0.34928,0.684
0.00750658,0.00842722,0.000401814,0.00175579,0.00259838,6.61825e-05,0.00172122,0.000101826,-14,-99,6.48566e-11,-14,-98.3493,-0.65072,0.688
0.00751704,0.00842722,0.000408738,0.00175613,0.00262759,4.41217e-05,0.00174057,9.66747e-05,-14,-99,4.10586e-11,-14,-98.3493,-0.65072,0.692
0.00752761,0.00842722,0.000415739,0.00175648,0.00265695,2.94144e-05,0.00176002,9.32407e-05,-15,-99,2.64053e-11,-15,-98.3493,-0.650721,0.696
0.00753829,0.00842722,0.000422818,0.00175717,0.00268647,1.96096e-05,0.00177957,0.000119742,-15,-99,2.26158e-11,-15,-98.3493,-0.650721,0.7
0.0075491,0.00842722,0.000429976,0.00175751,0.00271613,1.30731e-05,0.00179922,0.000108619,-16,-100,1.36793e-11,-16,-98.3493,-1.65072,0.704
0.00756002,0.00842756,0.000437212,0.00175786,0.00274595,3.75063e-05,0.00181897,0.000101204,-16,-100,3.65735e-11,-16,-98.3493,-1.65072,0.708
0.00757107,0.00842791,0.000444527,0.0017582,0.00277591,5.37951e-05,0.00183882,9.62601e-05,-16,-100,4.99046e-11,-16,-98.3493,-1.65072,0.712
0.00758223,0.00842826,0.000451923,0.00175855,0.00280602,6.46543e-05,0.00185877,9.29643e-05,-17,-100,5.79363e-11,-17,-98.3493,-1.65072,0.716
0.00759351,0.0084286,0.000459398,0.0017589,0.00283629,7.18938e-05,0.00187881,9.07671e-05,-17,-101,6.29133e-11,-17,-98.3493,-2.65072,0.72
0.00760492,0.00842895,0.000466953,0.00175924,0.0028667,7.67201e-05,0.00189896,8.93023e-05,-17,-101,6.60663e-11,-17,-98.3493,-2.65072,0.724
0.00761645,0.00842929,0.00047459,0.00175993,0.00289726,7.99377e-05,0.0019192,0.000117117,-18,-101,9.03127e-11,-18,-98.3493,-2.65072,0.728
0.0076281,0.00842964,0.000482307,0.00176028,0.00292797,8.20827e-05,0.00193955,0.000106869,-18,-101,8.46381e-11,-18,-98.3493,-2.65072,0.732
0.00763987,0.00843033,0.000490106,0.00176097,0.00295883,0.000112304,0.00195999,0.000128828,-18,-101,1.39649e-10,-18,-98.3493,-2.65072,0.736
0.00765177,0.00843067,0.000497987,0.00176166,0.00298983,0.00010366,0.00198053,0.000143467,-19,-102,1.43604e-10,-19,-98.3493,-3.65072,0.74
0.00766379,0.00843102,0.00050595,0.00176235,0.00302099,9.78976e-05,0.00200116,0.000153226,-19,-102,1.44904e-10,-19,-98.3493,-3.65072,0.744
0.00767594,0.00843136,0.000513996,0.00176373,0.00305229,9.4056e-05,0.0020219,0.000217315,-20,-101,1.97602e-10,-20,-98.3493,-2.65072,0.748
0.00768821,0.00843136,0.000522126,0.00176373,0.00308374,6.2704e-05,0.00204273,0.000144876,-21,-102,8.78229e-11,-21,-98.3493,-3.65072,0.752
0.00770061,0.00843136,0.000530338,0.00176442,0.00311534,4.18027e-05,0.00206366,0.000154166,-21,-103,6.23273e-11,-21,-98.3493,-4.65072,0.756
0.00771313,0.00843171,0.000538635,0.00176511,0.00314708,5.66594e-05,0.00208469,0.000160359,-21,-103,8.79065e-11,-21,-98.3493,-4.65072,0.76
0.00772578,0.00843206,0.000547016,0.0017658,0.00317898,6.65638e-05,0.00210582,0.000164488,-22,-103,1.05974e-10,-22,-98.3493,-4.65072,0.764
0.00773856,0.0084324,0.000555482,0.0017665,0.00321101,7.31668e-05,0.00212704,0.000167241,-22,-103,1.18482e-10,-22,-98.3493,-4.65072,0.768
0.00775147,0.00843275,0.000564033,0.00176684,0.0032432,7.75688e-05,0.00214836,0.000140285,-23,-104,1.05385e-10,-23,-98.3493,-5.65072,0.772
0.00776451,0.00843309,0.000572669,0.00176788,0.00327553,8.05035e-05,0.00216978,0.000179896,-23,-104,1.40336e-10,-23,-98.3493,-5.65072,0.776
0.00777768,0.00843344,0.000581391,0.00176822,0.00330801,8.24599e-05,0.00219129,0.000148721,-23,-104,1.1886e-10,-23,-98.3493,-5.65072,0.78
0.00779097,0.00843413,0.000590199,0.00176857,0.00334064,0.000112555,0.0022129,0.000127939,-24,-105,1.39595e-10,-24,-98.3493,-6.65072,0.784
0.0078044,0.00843447,0.000599094,0.00176891,0.00337341,0.000103828,0.00223461,0.000114083,-24,-105,1.14848e-10,-24,-98.3493,-6.65072,0.788
0.00781796,0.00843551,0.000608076,0.00176926,0.00340632,0.000155591,0.00225642,0.000104846,-24,-106,1.58202e-10,-24,-98.3493,-7.65072,0.792
0.00783165,0.00843586,0.000617146,0.00176995,0.00343938,0.000132518,0.00227832,0.000127479,-25,-106,1.63893e-10,-25,-98.3493,-7.65072,0.796
0.00784548,0.00843655,0.000626303,0.00177064,0.00347259,0.000145927,0.00230031,0.000142568,-25,-106,2.01917e-10,-25,-98.3493,-7.65072,0.8
0.00785943,0.00843689,0.000635548,0.00177133,0.00350594,0.000126076,0.00232241,0.000152627,-26,-106,1.8683e-10,-26,-98.3493,-7.65072,0.804
0.00787352,0.00843724,0.000644882,0.00177202,0.00353944,0.000112842,0.00234459,0.000159333,-26,-106,1.74633e-10,-26,-98.3493,-7.65072,0.808
0.00788775,0.00843793,0.000654305,0.00177341,0.00357308,0.00013281,0.00236688,0.000221386,-27,-106,2.85805e-10,-27,-98.3493,-7.65072,0.812
0.00790211,0.00843827,0.000663818,0.00177375,0.00360686,0.000117331,0.00238926,0.000176382,-27,-107,2.01205e-10,-27,-98.3493,-8.65072,0.816
0.0079166,0.00843862,0.000673419,0.00177513,0.00364079,0.000107011,0.00241173,0.000232751,-28,-107,2.42346e-10,-28,-98.3493,-8.65072,0.82
0.00793124,0.00843897,0.000683112,0.00177582,0.00367487,0.000100132,0.00243431,0.000212749,-28,-107,2.07359e-10,-28,-98.3493,-8.65072,0.824
0.007946,0.00843966,0.000692894,0.00177617,0.00370908,0.000124336,0.00245697,0.000170624,-29,-108,2.0654e-10,-29,-98.3493,-9.65072,0.828
0.00796091,0.00844,0.000702767,0.0017779,0.00374344,0.000111682,0.00247973,0.000257704,-29,-107,2.80474e-10,-29,-98.3493,-8.65072,0.832
0.00797595,0.00844069,0.000712732,0.00177859,0.00377795,0.000132036,0.00250259,0.000229384,-30,-108,2.95267e-10,-30,-98.3493,-9.65072,0.836
0.00799113,0.00844173,0.000722788,0.00177962,0.00381259,0.000174397,0.00252554,0.000239296,-30,-108,4.07085e-10,-30,-98.3493,-9.65072,0.84
0.00800645,0.00844277,0.000732936,0.00178066,0.00384738,0.000202637,0.00254859,0.000245903,-30,-108,4.86348e-10,-30,-98.3493,-9.65072,0.844
0.00802191,0.00844449,0.000743177,0.0017817,0.00388232,0.000279046,0.00257173,0.000250308,-30,-109,6.82131e-10,-30,-98.3493,-10.6507,0.848
0.00803751,0.00844657,0.00075351,0.00178273,0.00391739,0.000358776,0.00259496,0.000253245,-29,-109,8.87837e-10,-29,-98.3493,-10.6507,0.852
0.00805325,0.00844968,0.000763937,0.00178446,0.00395261,0.000498303,0.00261829,0.000312785,-29,-109,1.5245e-09,-29,-98.3493,-10.6507,0.856
0.00806913,0.00845279,0.000774457,0.0017855,0.00398797,0.00059132,0.00264171,0.000294896,-28,-109,1.7066e-09,-28,-98.3493,-10.6507,0.86
0.00808515,0.00845589,0.000785071,0.00178584,0.00402347,0.000653332,0.00266523,0.000225388,-28,-110,1.44142e-09,-28,-98.3493,-11.6507,0.864
0.00810132,0.00845969,0.000795779,0.00178653,0.00405911,0.000752255,0.00268884,0.000207841,-28,-111,1.53105e-09,-28,-98.3493,-12.6507,0.868
0.00811763,0.0084628,0.000806582,0.00178757,0.0040949,0.000760621,0.00271254,0.000224933,-28,-111,1.67636e-09,-28,-98.3493,-12.6507,0.872
0.00813408,0.00846626,0.000817479,0.00178964,0.00413082,0.00079499,0.00273634,0.000322701,-28,-110,2.51658e-09,-28,-98.3493,-11.6507,0.876
0.00815067,0.00847006,0.000828472,0.00179137,0.00416689,0.000846694,0.00276023,0.000359089,-28,-110,2.98535e-09,-28,-98.3493,-11.6507,0.88
0.00816741,0.00847421,0.000839561,0.0017931,0.0042031,0.000909954,0.00278422,0.000383347,-28,-110,3.42845e-09,-28,-98.3493,-11.6507,0.884
0.0081843,0.00847904,0.000850746,0.00179517,0.00423945,0.00100971,0.0028083,0.00042831,-28,-110,4.25542e-09,-28,-98.3493,-11.6507,0.888
0.00820133,0.00848388,0.000862028,0.00179655,0.00427594,0.00107621,0.00283247,0.000400704,-27,-111,4.24662e-09,-27,-98.3493,-12.6507,0.892
0.00821851,0.0084901,0.000873406,0.00179863,0.00431256,0.00123571,0.00285673,0.000439881,-26,-111,5.3589e-09,-26,-98.3493,-12.6507,0.896
0.00823583,0.00849632,0.000884882,0.00180001,0.00434933,0.00134204,0.00288109,0.000408418,-26,-112,5.4079e-09,-26,-98.3493,-13.6507,0.9
0.0082533,0.00850288,0.000896455,0.0018007,0.00438624,0.00144172,0.00290554,0.000329861,-25,-113,4.69392e-09,-25,-98.3493,-14.6507,0.904
0.00827092,0.00850979,0.000908126,0.00180243,0.00442329,0.00153697,0.00293008,0.000363862,-25,-113,5.52511e-09,-25,-98.3493,-14.6507,0.908
0.00828869,0.00851705,0.000919896,0.00180346,0.00446048,0.00162925,0.00295471,0.000328947,-24,-113,5.29791e-09,-24,-98.3493,-14.6507,0.912
0.00830661,0.00852361,0.000931764,0.00180415,0.00449781,0.0016332,0.00297944,0.00027688,-25,-114,4.47184e-09,-25,-98.3493,-15.6507,0.916
0.00832467,0.00852983,0.000943731,0.00180588,0.00453527,0.00160703,0.00300426,0.000328541,-26,-114,5.22621e-09,-26,-98.3493,-15.6507,0.92
0.00834289,0.00853501,0.000955798,0.00180726,0.00457288,0.00150322,0.00302917,0.000334191,-27,-114,4.97647e-09,-27,-98.3493,-15.6507,0.924
0.00836125,0.00853916,0.000967965,0.00180865,0.00461062,0.00134764,0.00305417,0.000337958,-29,-115,4.51514e-09,-29,-98.3493,-16.6507,0.928
0.00837977,0.00854227,0.000980232,0.00181003,0.0046485,0.00115754,0.00307926,0.000340469,-31,-115,3.91005e-09,-31,-98.3493,-16.6507,0.932
0.00839844,0.00854434,0.000992599,0.00181106,0.00468652,0.000944441,0.00310445,0.000313352,-34,-116,2.93781e-09,-34,-98.3493,-17.6507,0.936
0.00841727,0.00854641,0.00100507,0.00181279,0.00472468,0.000802373,0.00312972,0.000352856,-36,-116,2.81322e-09,-36,-98.3493,-17.6507,0.94
0.00843624,0.0085478,0.00101764,0.00181521,0.00476298,0.000650079,0.00315509,0.000436774,-38,-115,2.82509e-09,-38,-98.3493,-16.6507,0.944
0.00845537,0.00855021,0.00103031,0.00181763,0.00480141,0.000634923,0.00318055,0.000492719,-39,-115,3.11679e-09,-39,-98.3493,-16.6507,0.948
0.00847465,0.00855229,0.00104308,0.0018197,0.00483998,0.000596027,0.0032061,0.000501225,-40,-115,2.97976e-09,-40,-98.3493,-16.6507,0.952
0.00849409,0.00855401,0.00105596,0.00182177,0.00487869,0.000541306,0.00323174,0.000506895,-41,-116,2.73992e-09,-41,-98.3493,-17.6507,0.956
0.00851368,0.00855747,0.00106894,0.00182385,0.00491753,0.00064878,0.00325747,0.000510676,-40,-116,3.31218e-09,-40,-98.3493,-17.6507,0.96
0.00853343,0.00856058,0.00108202,0.00182523,0.00495651,0.000691638,0.0032833,0.000455614,-40,-117,3.15265e-09,-40,-98.3493,-18.6507,0.964
0.00855333,0.00856403,0.0010952,0.00182627,0.00499563,0.000749001,0.00330921,0.000390116,-40,-118,2.92498e-09,-40,-98.3493,-19.6507,0.968
0.00857339,0.00856887,0.00110849,0.0018273,0.00503489,0.000902407,0.00333521,0.00034645,-40,-119,3.13138e-09,-40,-98.3493,-20.6507,0.972
0.00859361,0.00857405,0.00112188,0.00182834,0.00507428,0.00103347,0.00336131,0.000317339,-39,-119,3.2867e-09,-39,-98.3493,-20.6507,0.976
0.00861399,0.00858027,0.00113538,0.00182868,0.0051138,0.00120722,0.00338749,0.00024035,-38,-120,2.90838e-09,-38,-98.3493,-21.6507,0.98
0.00863452,0.00858787,0.00114898,0.00182972,0.00515347,0.00143821,0.00341376,0.000246606,-36,-121,3.55708e-09,-36,-98.3493,-22.6507,0.984
0.00865522,0.00859755,0.00116269,0.00183041,0.00519326,0.00176495,0.00344012,0.000221986,-33,-121,3.93088e-09,-33,-98.3493,-22.6507,0.988
0.00867607,0.00860757,0.0011765,0.0018311,0.0052332,0.00201157,0.00346658,0.000205573,-31,-122,4.15046e-09,-31,-98.3493,-23.6507,0.992
0.00869708,0.00861931,0.00119042,0.00183214,0.00527327,0.00231994,0.00349312,0.000223421,-29,-122,5.20525e-09,-29,-98.3493,-23.6507,0.996
0.00871826,0.0086314,0.00120445,0.00183214,0.00531347,0.00255431,0.00351975,0.000148947,-27,-123,3.82074e-09,-27,-98.3493,-24.6507,1
0.00873959,0.00864488,0.00121858,0.00183283,0.00535381,0.00282572,0.00354647,0.00015688,-25,-124,4.4535e-09,-25,-98.3493,-25.6507,1.004
0.00876109,0.00865801,0.00123282,0.00183352,0.00539428,0.00297787,0.00357328,0.000162169,-24,-124,4.85334e-09,-24,-98.3493,-25.6507,1.008
0.00878275,0.00867114,0.00124717,0.00183456,0.00543489,0.0030793,0.00360018,0.000194485,-24,-124,6.02216e-09,-24,-98.3493,-25.6507,1.012
0.00880457,0.00868392,0.00126162,0.00183456,0.00547563,0.00311813,0.00362717,0.000129657,-24,-125,4.0654e-09,-24,-98.3493,-26.6507,1.016
0.00882655,0.00869601,0.00127619,0.0018349,0.0055165,0.00308644,0.00365424,0.000115229,-24,-126,3.57696e-09,-24,-98.3493,-27.6507,1.02
0.0088487,0.00870776,0.00129086,0.00183525,0.00555751,0.00303652,0.00368141,0.00010561,-25,-126,3.22595e-09,-25,-98.3493,-27.6507,1.024
0.00887101,0.00871881,0.00130564,0.00183559,0.00559865,0.00294565,0.00370866,9.91977e-05,-27,-127,2.93996e-09,-27,-98.3493,-28.6507,1.028
0.00889349,0.00873021,0.00132053,0.00183594,0.00563993,0.00291387,0.003736,9.49227e-05,-28,-127,2.78343e-09,-28,-98.3493,-28.6507,1.032
0.00891613,0.00874058,0.00133553,0.00183663,0.00568133,0.00280631,0.00376343,0.000120864,-29,-127,3.41456e-09,-29,-98.3493,-28.6507,1.036
0.00893894,0.00874991,0.00135063,0.00183732,0.00572288,0.00264823,0.00379095,0.000138158,-31,-128,3.68466e-09,-31,-98.3493,-29.6507,1.04
0.00896191,0.00875924,0.00136585,0.00183801,0.00576455,0.00254284,0.00381855,0.000149687,-33,-128,3.83472e-09,-33,-98.3493,-29.6507,1.044
0.00898506,0.00876856,0.00138118,0.0018387,0.00580636,0.00247258,0.00384625,0.000157373,-34,-128,3.92171e-09,-34,-98.3493,-29.6507,1.048
0.00900836,0.00877824,0.00139662,0.00184009,0.00584829,0.00245453,0.00387403,0.000220079,-35,-128,5.44839e-09,-35,-98.3493,-29.6507,1.052
0.00903184,0.00878791,0.00141218,0.00184078,0.00589036,0.0024425,0.0039019,0.000204301,-36,-129,5.03488e-09,-36,-98.3493,-30.6507,1.056
0.00905549,0.00879862,0.00142784,0.00184181,0.00593257,0.00252085,0.00392985,0.000222574,-35,-129,5.66433e-09,-35,-98.3493,-30.6507,1.06
0.0090793,0.00880933,0.00144361,0.00184354,0.0059749,0.00257309,0.0039579,0.000292337,-35,-129,7.60104e-09,-35,-98.3493,-30.6507,1.064
0.00910329,0.00882073,0.0014595,0.00184527,0.00601737,0.00266549,0.00398603,0.000338846,-35,-129,9.13527e-09,-35,-98.3493,-30.6507,1.068
0.00912744,0.00883248,0.0014755,0.00184734,0.00605996,0.00275589,0.00401424,0.000398643,-35,-128,1.11243e-08,-35,-98.3493,-29.6507,1.072
0.00915177,0.00884595,0.00149162,0.0018501,0.00610269,0.0029601,0.00404255,0.000496089,-33,-128,1.48917e-08,-33,-98.3493,-29.6507,1.076
0.00917626,0.00886081,0.00150784,0.00185218,0.00614555,0.00321141,0.00407094,0.000503472,-31,-128,1.64148e-08,-31,-98.3493,-29.6507,1.08
0.00920093,0.00887601,0.00152418,0.00185356,0.00618854,0.00340774,0.00409941,0.000450812,-30,-129,1.56081e-08,-30,-98.3493,-30.6507,1.084
0.00922577,0.00889225,0.00154064,0.00185425,0.00623166,0.003625,0.00412798,0.000358123,-28,-131,1.31944e-08,-28,-98.3493,-32.6507,1.088
0.00925078,0.00890883,0.00155721,0.00185563,0.00627491,0.00379863,0.00415663,0.000353912,-27,-131,1.3674e-08,-27,-98.3493,-32.6507,1.092
0.00927597,0.00892507,0.00157389,0.00185736,0.00631829,0.00388559,0.00418536,0.000379896,-27,-131,1.5028e-08,-27,-98.3493,-32.6507,1.096
0.00930133,0.00894027,0.00159069,0.00185771,0.0063618,0.0038572,0.00421418,0.000282055,-28,-133,1.10781e-08,-28,-98.3493,-34.6507,1.1
0.00932687,0.00895409,0.00160761,0.0018584,0.00640544,0.0037231,0.00424309,0.000245619,-30,-133,9.31508e-09,-30,-98.3493,-34.6507,1.104
0.00935257,0.00896722,0.00162464,0.00185909,0.00644921,0.00357612,0.00427209,0.000221328,-32,-134,8.06547e-09,-32,-98.3493,-35.6507,1.108
0.00937846,0.00897966,0.00164178,0.00186047,0.00649311,0.00342056,0.00430117,0.000262715,-34,-134,9.16404e-09,-34,-98.3493,-35.6507,1.112
0.00940452,0.00899382,0.00165905,0.00186047,0.00653713,0.0034608,0.00433033,0.000175144,-34,-136,6.18123e-09,-34,-98.3493,-37.6507,1.116
0.00943076,0.00900868,0.00167642,0.00186151,0.00658129,0.00354521,0.00435958,0.000203135,-34,-136,7.34807e-09,-34,-98.3493,-37.6507,1.12
0.00945717,0.00902388,0.00169392,0.00186151,0.00662557,0.00363027,0.00438892,0.000135423,-33,-137,5.01626e-09,-33,-98.3493,-38.6507,1.124
0.00948376,0.00903943,0.00171154,0.00186185,0.00666999,0.00371577,0.00441834,0.000119073,-33,-137,4.51534e-09,-33,-98.3493,-38.6507,1.128
0.00951053,0.00905532,0.00172927,0.0018622,0.00671453,0.00380156,0.00444784,0.000108173,-33,-138,4.19749e-09,-33,-98.3493,-39.6507,1.132
0.00953748,0.00907156,0.00174712,0.00186289,0.0067592,0.00388755,0.00447743,0.000129697,-32,-138,5.14844e-09,-32,-98.3493,-39.6507,1.136
0.0095646,0.00908918,0.00176509,0.00186358,0.006804,0.00406004,0.00450711,0.000144047,-31,-139,5.97397e-09,-31,-98.3493,-40.6507,1.14
0.00959191,0.0091068,0.00178318,0.00186392,0.00684892,0.00417503,0.00453686,0.000124822,-31,-139,5.32428e-09,-31,-98.3493,-40.6507,1.144
0.0096194,0.00912546,0.00180138,0.00186496,0.00689397,0.00433806,0.00456671,0.000169587,-30,-139,7.52041e-09,-30,-98.3493,-40.6507,1.148
0.00964706,0.00914377,0.00181971,0.001866,0.00693915,0.00441796,0.00459664,0.000199431,-29,-140,9.01172e-09,-29,-98.3493,-41.6507,1.152
0.00967491,0.00916104,0.00183816,0.00186772,0.00698446,0.00438485,0.00462665,0.000276909,-30,-139,1.24304e-08,-30,-98.3493,-40.6507,1.156
0.00970294,0.00917624,0.00185672,0.00186945,0.00702989,0.00419004,0.00465674,0.00032856,-33,-139,1.41068e-08,-33,-98.3493,-40.6507,1.16
0.00973115,0.00919248,0.00187541,0.00187049,0.00707545,0.00414653,0.00468692,0.000305413,-34,-140,1.2984e-08,-34,-98.3493,-41.6507,1.164
0.00975954,0.00920837,0.00189422,0.00187153,0.00712114,0.00408874,0.00471719,0.000289981,-35,-141,1.21629e-08,-35,-98.3493,-42.6507,1.168
0.00978812,0.00922565,0.00191315,0.00187291,0.00716695,0.00416537,0.00474754,0.000308485,-35,-141,1.31912e-08,-35,-98.3493,-42.6507,1.172
0.00981688,0.00924361,0.0019322,0.00187498,0.00721289,0.00427404,0.00477797,0.000378402,-34,-141,1.66215e-08,-34,-98.3493,-42.6507,1.176
0.00984582,0.00926193,0.00195137,0.00187567,0.00725896,0.00437528,0.00480848,0.00030985,-34,-142,1.39379e-08,-34,-98.3493,-43.6507,1.18
0.00987495,0.00928093,0.00197067,0.00187705,0.00730515,0.00450035,0.00483908,0.00032173,-33,-142,1.48969e-08,-33,-98.3493,-43.6507,1.184
0.00990426,0.00930027,0.00199008,0.00187913,0.00735146,0.00461253,0.00486976,0.000387232,-33,-142,1.83971e-08,-33,-98.3493,-43.6507,1.188
0.00993376,0.00931893,0.00200963,0.00188016,0.0073979,0.00462973,0.00490052,0.000344528,-33,-143,1.64383e-08,-33,-98.3493,-44.6507,1.192
0.00996345,0.00933862,0.00202929,0.00188154,0.00744447,0.00472757,0.00493137,0.000344849,-33,-143,1.68137e-08,-33,-98.3493,-44.6507,1.196
0.00999332,0.00935694,0.00204908,0.00188362,0.00749116,0.00467763,0.0049623,0.000402645,-34,-143,1.94457e-08,-34,-98.3493,-44.6507,1.2
0.0100234,0.00937283,0.00206899,0.00188465,0.00753798,0.0044428,0.00499331,0.000354803,-37,-144,1.62839e-08,-37,-98.3493,-45.6507,1.204
0.0100536,0.00938768,0.00208902,0.00188569,0.00758492,0.00419988,0.0050244,0.000322908,-40,-145,1.40174e-08,-40,-98.3493,-46.6507,1.208
0.0100841,0.00940116,0.00210918,0.00188742,0.00763198,0.00392277,0.00505558,0.000359227,-43,-145,1.45784e-08,-43,-98.3493,-46.6507,1.212
0.0101147,0.0094129,0.00212947,0.00188845,0.00767917,0.00359407,0.00508684,0.000325857,-47,-146,1.21228e-08,-47,-98.3493,-47.6507,1.216
0.0101455,0.00942431,0.00214988,0.00188984,0.00772648,0.00334615,0.00511818,0.000332402,-50,-147,1.15216e-08,-50,-98.3493,-48.6507,1.22
0.0101765,0.00943398,0.00217041,0.00189122,0.00777392,0.00303691,0.0051496,0.000336765,-54,-147,1.06019e-08,-54,-98.3493,-48.6507,1.224
0.0102077,0.00944365,0.00219107,0.0018926,0.00782148,0.00283075,0.00518111,0.000339674,-56,-148,9.97481e-09,-56,-98.3493,-49.6507,1.228
0.0102391,0.00945298,0.00221186,0.00189433,0.00786916,0.00266452,0.00521269,0.000370404,-59,-148,1.02478e-08,-59,-98.3493,-49.6507,1.232
0.0102706,0.00946162,0.00223278,0.00189606,0.00791696,0.00249612,0.00524436,0.00039089,-61,-148,1.01404e-08,-61,-98.3493,-49.6507,1.236
0.0103024,0.0094706,0.00225382,0.00189813,0.00796489,0.00241265,0.00527611,0.000433339,-62,-148,1.08775e-08,-62,-98.3493,-49.6507,1.24
0.0103344,0.00947751,0.00227499,0.00190124,0.00801294,0.00218425,0.00530794,0.000548011,-65,-148,1.24741e-08,-65,-98.3493,-49.6507,1.244
0.0103665,0.00948408,0.00229628,0.001904,0.00806112,0.00200319,0.00533985,0.000595668,-68,-148,1.24531e-08,-68,-98.3493,-49.6507,1.248
0.0103988,0.0094896,0.0023177,0.00190677,0.00810941,0.00179612,0.00537184,0.000627439,-71,-148,1.17784e-08,-71,-98.3493,-49.6507,1.252
0.0104314,0.0094941,0.00233926,0.00190918,0.00815783,0.00157169,0.00540391,0.000619829,-74,-148,1.01946e-08,-74,-98.3493,-49.6507,1.256
0.0104641,0.00949824,0.00236094,0.00191195,0.00820637,0.00139329,0.00543607,0.000643547,-76,-149,9.39678e-09,-76,-98.3493,-50.6507,1.26
0.010497,0.00950239,0.00238274,0.00191402,0.00825503,0.00127435,0.0054683,0.000601777,-78,-150,8.04549e-09,-78,-98.3493,-51.6507,1.264
0.0105301,0.0095055,0.00240468,0.00191609,0.00830382,0.00110868,0.00550062,0.00057393,-80,-150,6.68291e-09,-80,-98.3493,-51.6507,1.268
0.0105635,0.00950791,0.00242675,0.00191782,0.00835272,0.000940659,0.00553301,0.000526575,-83,-151,5.20694e-09,-83,-98.3493,-52.6507,1.272
0.010597,0.00951068,0.00244895,0.00191851,0.00840175,0.000857434,0.00556549,0.000408632,-85,-153,3.6845e-09,-85,-98.3493,-54.6507,1.276
0.0106307,0.00951344,0.00247127,0.0019192,0.00845089,0.00080195,0.00559804,0.000330003,-86,-154,2.78399e-09,-86,-98.3493,-55.6507,1.28
0.0106646,0.00951621,0.00249373,0.00192024,0.00850016,0.000764961,0.00563068,0.000306375,-87,-155,2.46677e-09,-87,-98.3492,-56.6508,1.284
0.0106987,0.00951828,0.00251632,0.00192024,0.00854955,0.000682719,0.00566339,0.00020425,-89,-157,1.46771e-09,-89,-98.3492,-58.6508,1.288
0.010733,0.0095207,0.00253904,0.00192024,0.00859905,0.000656683,0.00569619,0.000136167,-90,-158,9.4116e-10,-90,-98.3492,-59.6508,1.292
0.0107675,0.00952346,0.00256189,0.00192128,0.00864868,0.000668116,0.00572906,0.00017715,-90,-158,1.24642e-09,-90,-98.3492,-59.6508,1.296
0.0108022,0.00952588,0.00258487,0.00192266,0.00869843,0.000646947,0.00576202,0.000233264,-92,-158,1.59038e-09,-92,-98.3492,-59.6508,1.3
0.0108371,0.00952761,0.00260798,0.001923,0.0087483,0.000575253,0.00579505,0.0001843,-93,-159,1.1175e-09,-93,-98.3492,-60.6508,1.304
0.0108721,0.00952934,0.00263123,0.00192369,0.00879828,0.000527456,0.00582816,0.000180449,-94,-160,1.00359e-09,-94,-98.3492,-61.6508,1.308
0.0109074,0.00953003,0.00265461,0.00192473,0.00884839,0.000409219,0.00586135,0.000206672,-96,-160,8.92257e-10,-96,-98.3492,-61.6508,1.312
0.0109429,0.00953106,0.00267812,0.00192611,0.00889862,0.000359186,0.00589462,0.000252945,-98,-160,9.59199e-10,-98,-98.3492,-61.6508,1.316
0.0109786,0.00953175,0.00270177,0.00192749,0.00894896,0.000297039,0.00592797,0.000283794,-99,-161,8.90618e-10,-99,-98.3492,-62.6508,1.32
0.0110145,0.00953244,0.00272555,0.00192888,0.00899942,0.000255608,0.0059614,0.000304359,-100,-161,8.22522e-10,-100,-98.3492,-62.6508,1.324
0.0110506,0.00953348,0.00274946,0.00192991,0.00905,0.000256778,0.00599491,0.000289279,-101,-162,7.85769e-10,-101,-98.3492,-63.6508,1.328
0.0110869,0.00953521,0.00277351,0.0019313,0.0091007,0.00031514,0.00602849,0.000308016,-102,-162,1.02756e-09,-102,-98.3492,-63.6508,1.332
0.0111234,0.00953625,0.00279769,0.00193164,0.00915152,0.000296466,0.00606215,0.000234135,-103,-163,7.34937e-10,-103,-98.3492,-64.6508,1.336
0.0111601,0.00953832,0.002822,0.00193233,0.00920246,0.00037039,0.0060959,0.000213672,-103,-164,8.38243e-10,-103,-98.3492,-65.6508,1.34
0.0111971,0.00954108,0.00284645,0.00193337,0.00925351,0.000477254,0.00612971,0.000228821,-103,-164,1.15729e-09,-103,-98.3492,-65.6508,1.344
0.0112342,0.00954454,0.00287104,0.0019344,0.00930468,0.000606078,0.00616361,0.00023892,-102,-165,1.53536e-09,-102,-98.3492,-66.6508,1.348
0.0112715,0.0095473,0.00289576,0.00193544,0.00935597,0.00063438,0.00619759,0.000245653,-103,-165,1.65323e-09,-103,-98.3492,-66.6508,1.352
0.011309,0.00954972,0.00292062,0.00193682,0.00940738,0.000624456,0.00623164,0.000278932,-104,-166,1.84915e-09,-104,-98.3492,-67.6508,1.356
0.0113467,0.00955283,0.00294562,0.00193821,0.0094589,0.000675423,0.00626577,0.000301118,-104,-166,2.1607e-09,-104,-98.3492,-67.6508,1.36
0.0113847,0.00955559,0.00297075,0.00193959,0.00951054,0.000680609,0.00629997,0.000315909,-105,-167,2.28587e-09,-105,-98.3492,-68.6508,1.364
0.0114228,0.00955836,0.00299602,0.00194097,0.00956229,0.000684067,0.00633426,0.00032577,-106,-167,2.37088e-09,-106,-98.3492,-68.6508,1.368
0.0114612,0.00956078,0.00302142,0.0019427,0.00961417,0.000657581,0.00636862,0.000361135,-107,-167,2.52875e-09,-107,-98.3492,-68.6508,1.372
0.0114997,0.00956354,0.00304696,0.00194442,0.00966615,0.000668715,0.00640306,0.000384711,-108,-168,2.74188e-09,-108,-98.3492,-69.6508,1.376
0.0115385,0.00956596,0.00307265,0.0019465,0.00971826,0.000647346,0.00643757,0.00042922,-109,-168,2.9645e-09,-109,-98.3492,-69.6508,1.38
0.0115775,0.00956872,0.00309847,0.00194684,0.00977048,0.000661892,0.00647216,0.000314937,-110,-170,2.22446e-09,-110,-98.3492,-71.6508,1.384
0.0116167,0.00957114,0.00312442,0.00194788,0.00982281,0.000642798,0.00650683,0.000296331,-111,-170,2.03374e-09,-111,-98.3492,-71.6508,1.388
0.0116561,0.00957321,0.00315052,0.00194822,0.00987527,0.000601277,0.00654158,0.000226345,-112,-172,1.45334e-09,-112,-98.3492,-73.6508,1.392
0.0116957,0.00957632,0.00317676,0.00194822,0.00992783,0.00065997,0.0065764,0.000150897,-113,-173,1.06347e-09,-113,-98.3492,-74.6508,1.396
0.0117355,0.00957909,0.00320313,0.00194892,0.00998051,0.000670307,0.0066113,0.00015818,-113,-174,1.13266e-09,-113,-98.3492,-75.6508,1.4
0.0117755,0.0095815,0.00322965,0.00194926,0.0100333,0.000648408,0.00664627,0.000134244,-115,-174,9.30026e-10,-115,-98.3492,-75.6508,1.404
0.0118158,0.0095853,0.0032563,0.00195099,0.0100862,0.000748972,0.00668132,0.000233451,-114,-174,1.86981e-09,-114,-98.3492,-75.6508,1.408
0.0118562,0.00958841,0.0032831,0.00195202,0.0101392,0.000758433,0.00671644,0.000242007,-115,-175,1.96387e-09,-115,-98.3492,-76.6508,1.412
0.0118969,0.00959256,0.00331003,0.00195237,0.0101924,0.000851113,0.00675164,0.000190129,-115,-176,1.73173e-09,-115,-98.3492,-77.6508,1.416
0.0119378,0.00959532,0.00333711,0.00195375,0.0102456,0.000797736,0.00678692,0.000241916,-117,-176,2.06669e-09,-117,-98.3492,-77.6508,1.42
0.0119788,0.00959843,0.00336433,0.00195513,0.010299,0.000790942,0.00682227,0.000276441,-118,-176,2.34318e-09,-118,-98.3492,-77.6508,1.424
0.0120201,0.00960085,0.00339169,0.00195617,0.0103525,0.000728831,0.0068577,0.000270667,-119,-177,2.1152e-09,-119,-98.3492,-78.6508,1.428
0.0120617,0.00960362,0.00341919,0.00195686,0.0104061,0.000716215,0.0068932,0.000238026,-120,-178,1.82857e-09,-120,-98.3492,-79.6508,1.432
0.0121034,0.00960638,0.00344683,0.00195686,0.0104598,0.000707804,0.00692878,0.000158684,-121,-179,1.20473e-09,-121,-98.3492,-80.6508,1.436
0.0121453,0.00960949,0.00347462,0.00195721,0.0105136,0.000730988,0.00696443,0.00013458,-122,-180,1.05538e-09,-122,-98.3492,-81.6508,1.44
0.0121875,0.0096126,0.00350255,0.00195721,0.0105675,0.000746443,0.00700016,8.97203e-05,-123,-181,7.18466e-10,-123,-98.3492,-82.6508,1.444
0.0122299,0.00961605,0.00353062,0.00195721,0.0106216,0.000785538,0.00703596,5.98135e-05,-124,-182,5.04064e-10,-124,-98.3492,-83.6508,1.448
0.0122725,0.0096202,0.00355884,0.00195755,0.0106757,0.000869183,0.00707183,6.86666e-05,-124,-183,6.40402e-10,-124,-98.3492,-84.6508,1.452
0.0123153,0.00962469,0.0035872,0.00195755,0.01073,0.000953738,0.00710778,4.57777e-05,-124,-183,4.68467e-10,-124,-98.3492,-84.6508,1.456
0.0123583,0.00962849,0.0036157,0.00195755,0.0107844,0.000952525,0.00714381,3.05185e-05,-125,-184,3.11914e-10,-125,-98.3492,-85.6508,1.46
0.0124016,0.00963264,0.00364435,0.0019579,0.0108389,0.000980508,0.00717991,4.91366e-05,-125,-185,5.17045e-10,-125,-98.3492,-86.6508,1.464
0.012445,0.00963678,0.00367314,0.00195824,0.0108935,0.000999163,0.00721608,6.15486e-05,-126,-185,6.60091e-10,-126,-98.3492,-86.6508,1.468
0.0124887,0.00964093,0.00370208,0.00195859,0.0109482,0.0010116,0.00725233,6.98234e-05,-127,-186,7.58289e-10,-127,-98.3492,-87.6508,1.472
0.0125326,0.00964507,0.00373116,0.00195893,0.0110031,0.00101989,0.00728865,7.53398e-05,-128,-186,8.2505e-10,-128,-98.3492,-87.6508,1.476
0.0125767,0.00964818,0.00376039,0.00195928,0.011058,0.000939046,0.00732504,7.90175e-05,-130,-187,7.96872e-10,-130,-98.3492,-88.6508,1.48
0.0126211,0.00965198,0.00378976,0.00195963,0.011113,0.000942731,0.00736151,8.14692e-05,-131,-188,8.24967e-10,-131,-98.3492,-89.6508,1.484
0.0126656,0.00965544,0.00381928,0.00195928,0.0111682,0.000916396,0.00739805,2.55219e-05,-132,-189,2.51174e-10,-132,-98.3492,-90.6508,1.488
0.0127104,0.00965924,0.00384894,0.00195997,0.0112235,0.000927631,0.00743466,7.45965e-05,-133,-189,7.43404e-10,-133,-98.3492,-90.6508,1.492
0.0127554,0.00966304,0.00387876,0.00196032,0.0112789,0.000935121,0.00747135,7.85219e-05,-134,-190,7.88981e-10,-134,-98.3492,-91.6508,1.496
0.0128007,0.00966684,0.00390871,0.00196101,0.0113344,0.000940114,0.00750811,0.00010993,-135,-190,1.11085e-09,-135,-98.3492,-91.6508,1.5
0.0128461,0.00967064,0.00393882,0.00196204,0.01139,0.000943443,0.00754494,0.000159659,-136,-190,1.61995e-09,-136,-98.3492,-91.6508,1.504
0.0128918,0.00967444,0.00396907,0.00196377,0.0114457,0.000945662,0.00758185,0.000250394,-137,-190,2.54878e-09,-137,-98.3492,-91.6508,1.508
0.0129377,0.00967893,0.00399948,0.0019655,0.0115015,0.00100472,0.00761883,0.000310884,-137,-190,3.36511e-09,-137,-98.3492,-91.6508,1.512
0.0129838,0.00968239,0.00403002,0.00196757,0.0115574,0.000957725,0.00765588,0.000380002,-139,-190,3.92499e-09,-139,-98.3492,-91.6508,1.516
0.0130301,0.00968619,0.00406072,0.00196964,0.0116135,0.000955183,0.007693,0.00042608,-140,-191,4.39388e-09,-140,-98.3492,-92.6508,1.52
0.0130767,0.00968861,0.00409157,0.00197241,0.0116696,0.000838325,0.0077302,0.000514381,-142,-190,4.66204e-09,-142,-98.3492,-91.6508,1.524
0.0131235,0.00969206,0.00412256,0.00197517,0.0117259,0.000846793,0.00776746,0.000573248,-143,-190,5.25541e-09,-143,-98.3492,-91.6508,1.528
0.0131705,0.00969379,0.00415371,0.00197863,0.0117822,0.000708483,0.0078048,0.000670074,-145,-190,5.14871e-09,-145,-98.3492,-91.6508,1.532
0.0132177,0.00969586,0.004185,0.0019807,0.0118387,0.000645068,0.00784221,0.000619462,-147,-191,4.33831e-09,-147,-98.3492,-92.6508,1.536
0.0132652,0.00969828,0.00421645,0.00198346,0.0118953,0.000631582,0.0078797,0.000643302,-148,-192,4.41724e-09,-148,-98.3492,-93.6508,1.54
0.0133129,0.00969966,0.00424804,0.00198588,0.011952,0.000536218,0.00791725,0.000630404,-150,-193,3.67956e-09,-150,-98.3492,-94.6508,1.544
0.0133608,0.00970139,0.00427978,0.0019883,0.0120088,0.000501433,0.00795488,0.000621806,-151,-193,3.39807e-09,-151,-98.3492,-94.6508,1.548
0.013409,0.00970277,0.00431168,0.00199072,0.0120657,0.000449453,0.00799257,0.000616074,-153,-194,3.0214e-09,-153,-98.3492,-95.6508,1.552
0.0134574,0.00970484,0.00434372,0.00199279,0.0121227,0.000472381,0.00803034,0.000583461,-154,-195,3.01057e-09,-154,-98.3492,-96.6508,1.556
0.013506,0.00970657,0.00437592,0.00199556,0.0121799,0.000458875,0.00806818,0.000619302,-155,-195,3.10844e-09,-155,-98.3492,-96.6508,1.56
0.0135548,0.0097083,0.00440827,0.00199798,0.0122371,0.000449871,0.00810609,0.000614404,-156,-196,3.02702e-09,-156,-98.3492,-97.6508,1.564
0.0136039,0.00971003,0.00444077,0.00200074,0.0122944,0.000443869,0.00814407,0.00063993,-157,-197,3.11501e-09,-157,-98.3492,-98.6508,1.568
0.0136531,0.00971141,0.00447342,0.00200281,0.0123519,0.000411076,0.00818212,0.000599366,-159,-198,2.70481e-09,-159,-98.3492,-99.6508,1.572
0.0137027,0.00971245,0.00450623,0.00200558,0.0124094,0.000360424,0.00822025,0.000629905,-160,-198,2.4958e-09,-160,-98.3492,-99.6508,1.576
0.0137524,0.00971417,0.00453919,0.0020073,0.0124671,0.000384237,0.00825844,0.000563891,-161,-199,2.38391e-09,-161,-98.3492,-100.651,1.58
0.0138024,0.00971452,0.0045723,0.00201041,0.0125248,0.000284949,0.0082967,0.000635046,-163,-199,1.99406e-09,-163,-98.3492,-100.651,1.584
0.0138526,0.0097159,0.00460556,0.00201249,0.0125827,0.00030513,0.00833504,0.000596109,-164,-201,2.00644e-09,-164,-98.3492,-102.651,1.588
0.0139031,0.00971659,0.00463898,0.00201525,0.0126407,0.000261002,0.00837344,0.000627734,-166,-201,1.8098e-09,-166,-98.3492,-102.651,1.592
0.0139537,0.00971763,0.00467255,0.00201732,0.0126988,0.000260374,0.00841191,0.000591235,-167,-202,1.70222e-09,-167,-98.3492,-103.651,1.596
0.0140047,0.00971866,0.00470627,0.00202009,0.0127569,0.000259955,0.00845046,0.000624484,-168,-202,1.79751e-09,-168,-98.3492,-103.651,1.6
0.0140558,0.00972039,0.00474015,0.0020225,0.0128152,0.000317258,0.00848907,0.000617859,-168,-203,2.17307e-09,-168,-98.3492,-104.651,1.604
0.0141072,0.00972143,0.00477418,0.00202458,0.0128736,0.000297878,0.00852775,0.000584652,-170,-204,1.93265e-09,-170,-98.3492,-105.651,1.608
0.0141588,0.00972281,0.00480837,0.002027,0.0129321,0.000313749,0.00856651,0.000591304,-171,-205,2.06124e-09,-171,-98.3492,-106.651,1.612
0.0142106,0.00972454,0.00484272,0.00202907,0.0129907,0.000353121,0.00860533,0.000566948,-171,-206,2.22662e-09,-171,-98.3492,-107.651,1.616
0.0142627,0.00972557,0.00487722,0.00203114,0.0130494,0.000321787,0.00864422,0.000550711,-173,-207,1.97294e-09,-173,-98.3492,-108.651,1.62
0.014315,0.0097273,0.00491187,0.00203322,0.0131083,0.000358479,0.00868318,0.000539886,-174,-208,2.15691e-09,-174,-98.3492,-109.651,1.624
0.0143676,0.00972903,0.00494668,0.00203494,0.0131672,0.000382941,0.00872221,0.000503879,-174,-209,2.15224e-09,-174,-98.3492,-110.651,1.628
0.0144204,0.00973041,0.00498165,0.00203736,0.0132262,0.000370457,0.0087613,0.000537456,-176,-209,2.22347e-09,-176,-98.3492,-110.651,1.632
0.0144734,0.00973179,0.00501677,0.00203943,0.0132853,0.000362135,0.00880047,0.000531049,-177,-210,2.1498e-09,-177,-98.3492,-111.651,1.636
0.0145267,0.00973283,0.00505205,0.00204151,0.0133446,0.000327796,0.0088397,0.000526778,-178,-211,1.93226e-09,-178,-98.3492,-112.651,1.64
0.0145802,0.00973387,0.00508749,0.00204358,0.0134039,0.000304904,0.00887901,0.000523931,-180,-211,1.78941e-09,-180,-98.3492,-112.651,1.644
0.0146339,0.00973525,0.00512308,0.00204565,0.0134633,0.000318433,0.00891838,0.000522033,-181,-212,1.86393e-09,-181,-98.3492,-113.651,1.648
0.0146879,0.00973628,0.00515884,0.00204773,0.0135229,0.000298661,0.00895782,0.000520768,-182,-213,1.74573e-09,-182,-98.3492,-114.651,1.652
0.0147421,0.00973836,0.00519475,0.00205049,0.0135825,0.000371853,0.00899732,0.000577506,-183,-213,2.41361e-09,-183,-98.3492,-114.651,1.656
0.0147965,0.00974043,0.00523081,0.00205291,0.0136422,0.000420648,0.0090369,0.00058654,-183,-214,2.77631e-09,-183,-98.3492,-115.651,1.66
0.0148512,0.00974216,0.00526704,0.00205567,0.0137021,0.000424386,0.00907654,0.000621354,-184,-214,2.97123e-09,-184,-98.3492,-115.651,1.664
0.0149061,0.00974389,0.00530343,0.00205878,0.013762,0.000426879,0.00911625,0.000673355,-186,-214,3.2437e-09,-186,-98.3492,-115.651,1.668
0.0149613,0.00974561,0.00533997,0.00206224,0.0138221,0.000428541,0.00915603,0.000736812,-187,-215,3.56919e-09,-187,-98.3492,-116.651,1.672
0.0150167,0.00974734,0.00537668,0.00206604,0.0138822,0.000429648,0.00919588,0.000807908,-188,-215,3.93093e-09,-188,-98.3492,-116.651,1.676
0.0150724,0.00974907,0.00541354,0.00206915,0.0139425,0.000430387,0.00923579,0.000797724,-189,-215,3.8939e-09,-189,-98.3492,-116.651,1.68
0.0151283,0.0097508,0.00545056,0.00207191,0.0140028,0.000430879,0.00927577,0.000762143,-190,-217,3.72945e-09,-190,-98.3492,-118.651,1.684
0.0151844,0.00975287,0.00548774,0.00207364,0.0140633,0.000459998,0.00931582,0.00065205,-191,-218,3.4092e-09,-191,-98.3492,-119.651,1.688
0.0152408,0.00975494,0.00552509,0.00207467,0.0141239,0.000479411,0.00935593,0.000521073,-192,-220,2.84078e-09,-192,-98.3492,-121.651,1.692
0.0152974,0.00975736,0.00556259,0.00207502,0.0141845,0.000521144,0.00939612,0.000376173,-193,-223,2.22971e-09,-193,-98.3492,-124.651,1.696
0.0153542,0.00975978,0.00560026,0.00207502,0.0142453,0.000548966,0.00943636,0.000250782,-194,-225,1.56583e-09,-194,-98.3492,-126.651,1.7
0.0154113,0.00976254,0.00563808,0.00207537,0.0143061,0.000596305,0.00947668,0.000195979,-195,-226,1.32939e-09,-195,-98.3492,-127.651,1.704
0.0154687,0.00976496,0.00567607,0.00207571,0.0143671,0.000599073,0.00951706,0.000159443,-196,-227,1.08676e-09,-196,-98.3492,-128.651,1.708
0.0155263,0.00976807,0.00571422,0.00207606,0.0144282,0.0006585,0.00955751,0.000135087,-196,-228,1.01225e-09,-196,-98.3492,-129.651,1.712
0.0155841,0.00977118,0.00575253,0.00207675,0.0144893,0.000698118,0.00959802,0.00014764,-197,-229,1.17327e-09,-197,-98.3492,-130.651,1.716
0.0156422,0.00977429,0.005791,0.00207778,0.0145506,0.000724531,0.0096386,0.000184799,-198,-229,1.52489e-09,-198,-98.3492,-130.651,1.72
0.0157005,0.00977705,0.00582964,0.00207917,0.0146119,0.000713348,0.00967924,0.000238363,-199,-230,1.93781e-09,-199,-98.3492,-131.651,1.724
0.0157591,0.00978051,0.00586844,0.00208124,0.0146734,0.000763474,0.00971996,0.000331654,-200,-229,2.88858e-09,-200,-98.3492,-130.651,1.728
0.0158179,0.00978431,0.0059074,0.00208435,0.014735,0.000825683,0.00976073,0.000480221,-201,-229,4.53009e-09,-201,-98.3492,-130.651,1.732
0.015877,0.00978811,0.00594652,0.00208815,0.0147966,0.000867156,0.00980157,0.000636848,-202,-228,6.32085e-09,-202,-98.3492,-129.651,1.736
0.0159363,0.00979295,0.00598581,0.00209264,0.0148584,0.000981177,0.00984248,0.000798847,-202,-227,8.99057e-09,-202,-98.3492,-128.651,1.74
0.0159958,0.00979778,0.00602526,0.00209748,0.0149202,0.00105719,0.00988346,0.000935638,-202,-227,1.13721e-08,-202,-98.3492,-128.651,1.744
0.0160556,0.00980331,0.00606488,0.00210266,0.0149822,0.00116545,0.00992449,0.00105562,-202,-226,1.41792e-08,-202,-98.3492,-127.651,1.748
0.0161157,0.00980884,0.00610466,0.00210784,0.0150442,0.00123762,0.0099656,0.00113561,-203,-226,1.62382e-08,-203,-98.3492,-127.651,1.752
0.016176,0.00981437,0.0061446,0.00211233,0.0151064,0.00128574,0.0100068,0.00113136,-204,-227,1.68421e-08,-204,-98.3492,-128.651,1.756
0.0162365,0.00981955,0.00618471,0.00211682,0.0151686,0.00128902,0.010048,0.00112852,-205,-228,1.68786e-08,-205,-98.3492,-129.651,1.76
0.0162973,0.00982438,0.00622499,0.00212028,0.015231,0.00126242,0.0100893,0.00104026,-206,-230,1.52623e-08,-206,-98.3492,-131.651,1.764
0.0163584,0.00982819,0.00626543,0.00212304,0.0152934,0.00115831,0.0101307,0.000923831,-208,-232,1.24526e-08,-208,-98.3492,-133.651,1.768
0.0164197,0.00983095,0.00630603,0.00212477,0.0153559,0.00100254,0.0101721,0.000759842,-211,-234,8.87191e-09,-211,-98.3492,-135.651,1.772
0.0164812,0.00983337,0.00634681,0.00212615,0.0154186,0.000869894,0.0102136,0.000621725,-214,-236,6.30291e-09,-214,-98.3492,-137.651,1.776
0.016543,0.00983475,0.00638774,0.00212753,0.0154813,0.000695093,0.0102551,0.000529647,-217,-238,4.29327e-09,-217,-98.3492,-139.651,1.78
0.0166051,0.00983579,0.00642885,0.00212892,0.0155441,0.000549768,0.0102968,0.000468262,-219,-239,3.00406e-09,-219,-98.3492,-140.651,1.784
0.0166674,0.00983682,0.00647012,0.00213064,0.0156071,0.000452885,0.0103384,0.000456129,-222,-240,2.41251e-09,-222,-98.3492,-141.651,1.788
0.0167299,0.0098382,0.00651155,0.00213306,0.0156701,0.000417087,0.0103802,0.000505623,-223,-241,2.46569e-09,-223,-98.3492,-142.651,1.792
0.0167927,0.00983959,0.00655316,0.00213479,0.0157332,0.000393222,0.010422,0.000481036,-225,-242,2.21336e-09,-225,-98.3492,-143.651,1.796
0.0168558,0.00984131,0.00659493,0.00213686,0.0157964,0.000406102,0.0104639,0.000493436,-226,-242,2.34707e-09,-226,-98.3492,-143.651,1.8
0.0169191,0.00984339,0.00663687,0.00213928,0.0158597,0.00044348,0.0105058,0.000530494,-227,-243,2.7587e-09,-227,-98.3492,-144.651,1.804
0.0169827,0.00984615,0.00667898,0.0021417,0.0159231,0.000525981,0.0105478,0.000555199,-227,-243,3.42815e-09,-227,-98.3492,-144.651,1.808
0.0170465,0.00984926,0.00672125,0.00214412,0.0159866,0.000609772,0.0105899,0.000571669,-228,-244,4.09678e-09,-228,-98.3492,-145.651,1.812
0.0171106,0.00985237,0.0067637,0.00214585,0.0160502,0.000665633,0.010632,0.000525067,-229,-245,4.11084e-09,-229,-98.3492,-146.651,1.816
0.0171749,0.00985582,0.00680631,0.00214757,0.0161139,0.000731665,0.0106742,0.000494,-229,-247,4.25469e-09,-229,-98.3492,-148.651,1.82
0.0172395,0.00985928,0.00684909,0.00214861,0.0161777,0.000775686,0.0107164,0.000415706,-230,-248,3.79762e-09,-230,-98.3492,-149.651,1.824
0.0173043,0.00986308,0.00689204,0.00214895,0.0162416,0.000833824,0.0107588,0.000305928,-231,-250,3.00471e-09,-231,-98.3492,-151.651,1.828
0.0173694,0.00986653,0.00693516,0.0021493,0.0163056,0.000843792,0.0108011,0.000232743,-232,-252,2.31361e-09,-232,-98.3492,-153.651,1.832
0.0174348,0.00986999,0.00697845,0.0021493,0.0163696,0.000850437,0.0108436,0.000155162,-233,-253,1.55456e-09,-233,-98.3492,-154.651,1.836
0.0175004,0.00987344,0.00702191,0.00214965,0.0164338,0.000854867,0.0108861,0.000132232,-235,-254,1.33194e-09,-235,-98.3492,-155.651,1.84
0.0175662,0.00987724,0.00706554,0.00215034,0.0164981,0.000886612,0.0109287,0.000145737,-236,-255,1.52297e-09,-236,-98.3492,-156.651,1.844
0.0176324,0.00988139,0.00710934,0.00215103,0.0165624,0.000936566,0.0109713,0.00015474,-236,-256,1.70871e-09,-236,-98.3492,-157.651,1.848
0.0176987,0.00988519,0.00715331,0.00215172,0.0166269,0.000941077,0.011014,0.000160742,-238,-257,1.78411e-09,-238,-98.3492,-158.651,1.852
0.0177654,0.00989003,0.00719745,0.0021531,0.0166914,0.00103046,0.0110567,0.000222325,-238,-257,2.70374e-09,-238,-98.3492,-158.651,1.856
0.0178323,0.00989452,0.00724176,0.00215379,0.016756,0.00106125,0.0110995,0.000205798,-239,-258,2.57838e-09,-239,-98.3492,-159.651,1.86
0.0178994,0.00989901,0.00728625,0.00215414,0.0168208,0.00108178,0.0111424,0.00016599,-240,-259,2.1202e-09,-240,-98.3492,-160.651,1.864
0.0179668,0.00990385,0.0073309,0.00215448,0.0168856,0.00112426,0.0111854,0.000139451,-241,-261,1.85146e-09,-241,-98.3492,-162.651,1.868
0.0180345,0.00990868,0.00737573,0.00215448,0.0169505,0.00115258,0.0112284,9.29672e-05,-242,-262,1.2654e-09,-242,-98.3492,-163.651,1.872
0.0181024,0.00991318,0.00742073,0.00215517,0.0170155,0.00114267,0.0112714,0.00011956,-244,-263,1.61388e-09,-244,-98.3492,-164.651,1.876
0.0181706,0.00991767,0.0074659,0.00215552,0.0170806,0.00113606,0.0113145,0.000108498,-245,-264,1.45632e-09,-245,-98.3492,-165.651,1.88
0.0182391,0.00992147,0.00751125,0.00215621,0.0171458,0.00107407,0.0113577,0.000129914,-247,-264,1.64916e-09,-247,-98.3492,-165.651,1.884
0.0183078,0.00992458,0.00755676,0.0021569,0.0172111,0.000975168,0.011401,0.000144191,-249,-265,1.66238e-09,-249,-98.3492,-166.651,1.888
0.0183768,0.009927,0.00760245,0.00215794,0.0172764,0.000851649,0.0114443,0.0001825,-252,-266,1.83842e-09,-252,-98.3492,-167.651,1.892
0.018446,0.00992872,0.00764832,0.00215897,0.0173419,0.00071172,0.0114876,0.000208039,-255,-266,1.7522e-09,-255,-98.3492,-167.651,1.896
0.0185155,0.00992976,0.00769435,0.00216036,0.0174075,0.000560853,0.0115311,0.000253857,-257,-267,1.68595e-09,-257,-98.3492,-168.651,1.9
0.0185853,0.0099308,0.00774057,0.00216174,0.0174731,0.000460275,0.0115745,0.000284401,-260,-267,1.55108e-09,-260,-98.3492,-168.651,1.904
0.0186553,0.00993218,0.00778695,0.00216277,0.0175388,0.000422014,0.0116181,0.000275974,-261,-268,1.38066e-09,-261,-98.3492,-169.651,1.908
0.0187256,0.00993356,0.00783351,0.00216381,0.0176047,0.000396506,0.0116617,0.000270355,-263,-269,1.27141e-09,-263,-98.3492,-170.651,1.912
0.0187961,0.00993529,0.00788024,0.00216519,0.0176706,0.000408292,0.0117054,0.000295401,-264,-270,1.4314e-09,-264,-98.3492,-171.651,1.916
0.018867,0.00993736,0.00792715,0.00216623,0.0177366,0.00044494,0.0117491,0.000283306,-265,-271,1.49673e-09,-265,-98.3492,-172.651,1.92
0.018938,0.00993978,0.00797424,0.00216727,0.0178027,0.000498163,0.0117929,0.000275244,-266,-272,1.62886e-09,-266,-98.3492,-173.651,1.924
0.0190094,0.0099422,0.0080215,0.0021683,0.0178689,0.000533645,0.0118367,0.000269869,-267,-273,1.71162e-09,-267,-98.3492,-174.651,1.928
0.019081,0.00994462,0.00806893,0.00216968,0.0179352,0.0005573,0.0118806,0.000295076,-269,-274,1.9557e-09,-269,-98.3492,-175.651,1.932
0.0191529,0.00994669,0.00811654,0.00217107,0.0180015,0.000544279,0.0119246,0.000311881,-270,-274,2.02007e-09,-270,-98.3492,-175.651,1.936
0.019225,0.00994876,0.00816433,0.00217245,0.018068,0.000535598,0.0119686,0.000323084,-272,-275,2.06056e-09,-272,-98.3492,-176.651,1.94
0.0192974,0.00995049,0.00821229,0.00217383,0.0181345,0.00050102,0.0120127,0.000330553,-273,-276,1.97335e-09,-273,-98.3492,-177.651,1.944
0.0193701,0.00995187,0.00826043,0.00217556,0.0182012,0.000449177,0.0120568,0.000364324,-275,-277,1.95145e-09,-275,-98.3492,-178.651,1.948
0.019443,0.00995325,0.00830874,0.00217763,0.0182679,0.000414615,0.012101,0.000415628,-277,-277,2.05691e-09,-277,-98.3492,-178.651,1.952
0.0195162,0.00995498,0.00835724,0.00218005,0.0183347,0.000420365,0.0121453,0.000478622,-278,-278,2.40418e-09,-278,-98.3492,-179.651,1.956
0.0195897,0.00995705,0.00840591,0.00218316,0.0184016,0.000452989,0.0121896,0.000578199,-280,-277,3.13424e-09,-280,-98.3492,-178.651,1.96
0.0196634,0.00995947,0.00845475,0.00218592,0.0184686,0.000503529,0.012234,0.000615794,-281,-278,3.71515e-09,-281,-98.3492,-179.651,1.964
0.0197374,0.00996258,0.00850378,0.00218834,0.0185357,0.000594804,0.0122784,0.000612066,-281,-279,4.36685e-09,-281,-98.3492,-180.651,1.968
0.0198117,0.00996569,0.00855298,0.00219007,0.0186029,0.000655655,0.0123229,0.000551998,-282,-281,4.34462e-09,-282,-98.3492,-182.651,1.972
0.0198863,0.00996984,0.00860236,0.00219145,0.0186701,0.000782594,0.0123675,0.000483163,-282,-282,4.54196e-09,-282,-98.3492,-183.651,1.976
0.0199611,0.00997364,0.00865192,0.00219214,0.0187375,0.00083843,0.0124121,0.00037969,-283,-284,3.82513e-09,-283,-98.3492,-185.651,1.98
0.0200362,0.00997813,0.00870166,0.00219283,0.0188049,0.000933235,0.0124567,0.000310709,-284,-286,3.48523e-09,-284,-98.3492,-187.651,1.984
0.0201115,0.00998331,0.00875158,0.00219318,0.0188724,0.00105402,0.0125015,0.00023593,-284,-287,2.98943e-09,-284,-98.3492,-188.651,1.988
0.0201871,0.00998884,0.00880167,0.00219352,0.01894,0.00116334,0.0125463,0.000186078,-284,-289,2.60269e-09,-284,-98.3492,-190.651,1.992
0.020263,0.00999506,0.00885195,0.00219387,0.0190077,0.00129379,0.0125911,0.000152843,-284,-290,2.37795e-09,-284,-98.3492,-191.651,1.996
0.0203392,0.0100023,0.0089024,0.00219456,0.0190755,0.00146714,0.012636,0.000159477,-284,-291,2.81448e-09,-284,-98.3492,-192.651,2
0.0204156,0.010011,0.00895303,0.0021956,0.0191434,0.00169787,0.012681,0.000192691,-283,-292,3.9373e-09,-283,-98.3492,-193.651,2.004
0.0204923,0.0100192,0.00900385,0.00219698,0.0192113,0.00182289,0.012726,0.000243624,-283,-292,5.34797e-09,-283,-98.3492,-193.651,2.008
0.0205693,0.0100296,0.00905484,0.00219871,0.0192794,0.00207899,0.012771,0.000306371,-282,-293,7.67624e-09,-282,-98.3492,-194.651,2.012
0.0206466,0.0100396,0.00910602,0.00220112,0.0193475,0.00222093,0.0128162,0.000405784,-282,-293,1.08732e-08,-282,-98.3492,-194.651,2.016
0.0207241,0.0100493,0.00915737,0.00220389,0.0194157,0.00228677,0.0128614,0.00050085,-283,-293,1.38357e-08,-283,-98.3492,-194.651,2.02
0.0208019,0.0100572,0.00920891,0.00220734,0.019484,0.0021867,0.0129066,0.000621809,-286,-292,1.64512e-08,-286,-98.3492,-193.651,2.024
0.02088,0.0100645,0.00926062,0.00221183,0.0195524,0.00206241,0.0129519,0.000788821,-288,-292,1.97237e-08,-288,-98.3492,-193.651,2.028
0.0209583,0.0100704,0.00931252,0.00221633,0.0196208,0.00186439,0.0129973,0.000900163,-292,-292,2.03879e-08,-292,-98.3492,-193.651,2.032
0.0210369,0.0100749,0.0093646,0.00222047,0.0196894,0.00161721,0.0130427,0.0009456,-295,-292,1.86123e-08,-295,-98.3492,-193.651,2.036
0.0211158,0.0100783,0.00941686,0.00222462,0.019758,0.00136605,0.0130881,0.000975891,-299,-293,1.62556e-08,-299,-98.3492,-194.651,2.04
0.021195,0.0100811,0.00946931,0.00222842,0.0198268,0.00114103,0.0131337,0.000967294,-303,-294,1.34813e-08,-303,-98.3492,-195.651,2.044
0.0212745,0.0100838,0.00952193,0.00223222,0.0198956,0.000991011,0.0131792,0.000961563,-306,-295,1.16594e-08,-306,-98.3492,-196.651,2.048
0.0213542,0.0100866,0.00957474,0.00223567,0.0199645,0.000891001,0.0132249,0.000928951,-309,-296,1.01429e-08,-309,-98.3492,-197.651,2.052
0.0214342,0.0100904,0.00962773,0.00223913,0.0200334,0.000910701,0.0132706,0.00090721,-310,-297,1.01401e-08,-310,-98.3492,-198.651,2.056
0.0215144,0.0100946,0.00968091,0.00224189,0.0201025,0.000952625,0.0133163,0.000835134,-311,-299,9.7763e-09,-311,-98.3492,-200.651,2.06
0.021595,0.0100997,0.00973426,0.00224535,0.0201717,0.00106695,0.0133621,0.000844665,-311,-300,1.10916e-08,-311,-98.3492,-201.651,2.064
0.0216758,0.0101049,0.0097878,0.0022488,0.0202409,0.00114316,0.013408,0.000851019,-312,-301,1.19917e-08,-312,-98.3492,-202.651,2.068
0.0217569,0.0101105,0.00984153,0.00225226,0.0203102,0.00122276,0.0134539,0.000855256,-313,-302,1.29103e-08,-313,-98.3492,-203.651,2.072
0.0218383,0.0101163,0.00989543,0.00225571,0.0203796,0.00130462,0.0134999,0.00085808,-314,-303,1.38413e-08,-314,-98.3492,-204.651,2.076
0.02192,0.0101225,0.00994953,0.00225848,0.0204491,0.00138798,0.0135459,0.00080238,-314,-304,1.37867e-08,-314,-98.3492,-205.651,2.08
0.0220019,0.0101295,0.0100038,0.00226124,0.0205186,0.00150114,0.013592,0.000765248,-315,-306,1.42381e-08,-315,-98.3492,-207.651,2.084
0.0220841,0.0101371,0.0100583,0.00226331,0.0205883,0.00163416,0.0136381,0.000682911,-315,-308,1.38447e-08,-315,-98.3492,-209.651,2.088
0.0221666,0.010145,0.0101129,0.00226608,0.020658,0.00175163,0.0136843,0.000685601,-315,-309,1.49166e-08,-315,-98.3492,-210.651,2.092
0.0222494,0.0101523,0.0101677,0.0022678,0.0207278,0.00177236,0.0137305,0.000601022,-317,-310,1.32413e-08,-317,-98.3492,-211.651,2.096
0.0223324,0.0101616,0.0102228,0.00226919,0.0207977,0.00195893,0.0137768,0.000515845,-316,-312,1.25687e-08,-316,-98.3492,-213.651,2.1
0.0224158,0.0101706,0.010278,0.00227057,0.0208677,0.00205452,0.0138232,0.00045906,-317,-314,1.1738e-08,-317,-98.3492,-215.651,2.104
0.0224994,0.0101806,0.0103333,0.00227195,0.0209377,0.00220462,0.0138696,0.000421204,-317,-315,1.15639e-08,-317,-98.3492,-216.651,2.108
0.0225833,0.0101913,0.0103889,0.00227264,0.0210079,0.00236226,0.0139161,0.000338385,-317,-317,9.95752e-09,-317,-98.3492,-218.651,2.112
0.0226674,0.010203,0.0104447,0.00227368,0.0210781,0.00255373,0.0139626,0.000311962,-316,-318,9.9286e-09,-316,-98.3492,-219.651,2.116
0.0227519,0.0102169,0.0105006,0.00227471,0.0211484,0.00285413,0.0140091,0.000294348,-315,-320,1.04747e-08,-315,-98.3492,-221.651,2.12
0.0228366,0.0102328,0.0105567,0.00227575,0.0212188,0.00322713,0.0140558,0.000282605,-313,-321,1.13763e-08,-313,-98.3492,-222.651,2.124
0.0229216,0.0102521,0.0106131,0.00227713,0.0212893,0.00376371,0.0141024,0.000303567,-309,-322,1.42607e-08,-309,-98.3492,-223.651,2.128
0.0230069,0.0102766,0.0106696,0.00227886,0.0213598,0.0045533,0.0141492,0.000346332,-303,-322,1.96978e-08,-303,-98.3492,-223.651,2.132
0.0230925,0.010305,0.0107262,0.00228059,0.0214304,0.00539639,0.014196,0.000374843,-296,-323,2.5286e-08,-296,-98.3492,-224.651,2.136
0.0231784,0.0103385,0.0107831,0.00228266,0.0215011,0.00639031,0.0142428,0.000422641,-288,-324,3.37922e-08,-288,-98.3492,-225.651,2.14
0.0232645,0.0103775,0.0108402,0.00228439,0.0215719,0.00751358,0.0142897,0.000425715,-278,-325,4.00514e-08,-278,-98.3492,-226.651,2.144
0.0233509,0.0104242,0.0108974,0.00228646,0.0216428,0.00889583,0.0143366,0.000456556,-266,-325,5.09009e-08,-266,-98.3492,-226.651,2.148
0.0234377,0.0104784,0.0109549,0.00228853,0.0217137,0.0104507,0.0143836,0.000477116,-252,-326,6.25474e-08,-252,-98.3492,-227.651,2.152
0.0235247,0.0105406,0.0110125,0.00229061,0.0217848,0.0121495,0.0144307,0.000490823,-236,-327,7.48714e-08,-236,-98.3492,-228.651,2.156
0.0236119,0.01061,0.0110703,0.00229372,0.0218559,0.0138867,0.0144778,0.000586334,-220,-327,1.02368e-07,-220,-98.3492,-228.651,2.16
0.0236995,0.0106881,0.0111283,0.00229786,0.0219271,0.0157645,0.0145249,0.00073638,-203,-327,1.46214e-07,-203,-98.3492,-228.651,2.164
0.0237874,0.0107759,0.0111865,0.00230201,0.0219983,0.0178226,0.0145721,0.000836411,-184,-327,1.88096e-07,-184,-98.3492,-228.651,2.168
0.0238755,0.0108723,0.0112449,0.00230719,0.0220697,0.0199144,0.0146194,0.000989471,-164,-327,2.49193e-07,-164,-98.3492,-228.651,2.172
0.0239639,0.0109735,0.0113035,0.00231134,0.0221411,0.021712,0.0146667,0.00100514,-147,-328,2.76484e-07,-147,-98.3492,-229.651,2.176
0.0240526,0.0110816,0.0113622,0.00231444,0.0222126,0.0234862,0.0147141,0.000929211,-131,-329,2.76857e-07,-131,-98.3492,-230.651,2.18
0.0241416,0.0111991,0.0114212,0.00231548,0.0222842,0.0254464,0.0147615,0.000705847,-112,-333,2.2796e-07,-112,-98.3492,-234.651,2.184
0.0242309,0.0113193,0.0114803,0.00231548,0.0223558,0.0269835,0.014809,0.000470564,-98,-336,1.61154e-07,-98,-98.3492,-237.651,2.188
0.0243205,0.0114427,0.0115397,0.00231548,0.0224276,0.0282674,0.0148565,0.00031371,-85,-339,1.12548e-07,-85,-98.3492,-240.651,2.192
0.0244103,0.0115708,0.0115992,0.00231548,0.0224994,0.0295263,0.0149041,0.00020914,-74,-341,7.83735e-08,-74,-98.3492,-242.651,2.196
0.0245005,0.0116994,0.0116589,0.00231583,0.0225713,0.0303945,0.0149517,0.000168217,-65,-342,6.49012e-08,-65,-98.3492,-243.651,2.2
0.0245909,0.0118296,0.0117188,0.00231583,0.0226433,0.0311171,0.0149994,0.000112145,-59,-344,4.42963e-08,-59,-98.3492,-245.651,2.204
0.0246816,0.0119619,0.0117789,0.00231617,0.0227153,0.0317717,0.0150471,0.000103554,-53,-345,4.17696e-08,-53,-98.3492,-246.651,2.208
0.0247726,0.0120887,0.0118392,0.00231652,0.0227874,0.0317474,0.0150949,9.78271e-05,-53,-346,3.94352e-08,-53,-98.3492,-247.651,2.212
0.0248639,0.0122186,0.0118997,0.00231686,0.0228596,0.0319903,0.0151427,9.4009e-05,-51,-347,3.81918e-08,-51,-98.3492,-248.651,2.216
0.0249555,0.0123465,0.0119603,0.00231755,0.0229319,0.0319795,0.0151906,0.000120254,-51,-348,4.88523e-08,-51,-98.3492,-249.651,2.22
0.0250474,0.0124726,0.0120212,0.00231825,0.0230043,0.0318284,0.0152385,0.000137752,-53,-349,5.57124e-08,-53,-98.3492,-250.651,2.224
0.0251395,0.0126021,0.0120822,0.00231859,0.0230767,0.0320155,0.0152865,0.000120625,-52,-350,4.908e-08,-52,-98.3492,-251.651,2.228
0.025232,0.0127286,0.0121435,0.00231928,0.0231492,0.0318812,0.0153345,0.000137999,-53,-351,5.59299e-08,-53,-98.3492,-252.651,2.232
0.0253247,0.012855,0.0122049,0.00232032,0.0232218,0.0317916,0.0153826,0.000178372,-54,-352,7.2122e-08,-54,-98.3492,-253.651,2.236
0.0254177,0.0129839,0.0122665,0.00232101,0.0232945,0.0319334,0.0154307,0.000176496,-53,-353,7.17034e-08,-53,-98.3492,-254.651,2.24
0.0255111,0.0131107,0.0123284,0.00232205,0.0233672,0.0318552,0.0154789,0.000204037,-55,-354,8.2726e-08,-55,-98.3492,-255.651,2.244
0.0256047,0.0132399,0.0123904,0.00232274,0.02344,0.0320046,0.0155272,0.000193607,-53,-355,7.88886e-08,-53,-98.3492,-256.651,2.248
0.0256986,0.0133695,0.0124526,0.00232446,0.0235129,0.032133,0.0155754,0.000273026,-52,-356,1.11779e-07,-52,-98.3492,-257.651,2.252
0.0257928,0.013497,0.012515,0.00232619,0.0235859,0.0320459,0.0156238,0.000325972,-54,-356,1.33192e-07,-54,-98.3492,-257.651,2.256
0.0258873,0.0136279,0.0125776,0.00232826,0.0236589,0.0322757,0.0156722,0.00039006,-52,-357,1.60665e-07,-52,-98.3492,-258.651,2.26
0.0259821,0.0137588,0.0126403,0.00233172,0.023732,0.0324289,0.0157206,0.000547949,-51,-356,2.27107e-07,-51,-98.3492,-257.651,2.264
0.0260771,0.0138884,0.0127033,0.00233552,0.0238052,0.0324158,0.0157691,0.000682,-51,-356,2.83013e-07,-51,-98.3492,-257.651,2.268
0.0261725,0.0140207,0.0127665,0.00233932,0.0238785,0.0326375,0.0158176,0.000771367,-49,-357,3.22811e-07,-49,-98.3492,-258.651,2.272
0.0262682,0.0141524,0.0128299,0.00234381,0.0239518,0.0327277,0.0158662,0.000888526,-49,-357,3.73585e-07,-49,-98.3492,-258.651,2.276
0.0263641,0.0142843,0.0128934,0.00234727,0.0240253,0.0328166,0.0159148,0.00088026,-48,-358,3.71662e-07,-48,-98.3492,-259.651,2.28
0.0264604,0.014417,0.0129572,0.00235038,0.0240987,0.0329334,0.0159635,0.000845958,-47,-359,3.58926e-07,-47,-98.3492,-260.651,2.284
0.0265569,0.014549,0.0130211,0.00235349,0.0241723,0.0329538,0.0160122,0.000823091,-47,-361,3.49901e-07,-47,-98.3492,-262.651,2.288
0.0266537,0.0146827,0.0130853,0.00235556,0.0242459,0.0331113,0.016061,0.000721473,-46,-363,3.0844e-07,-46,-98.3492,-264.651,2.292
0.0267509,0.0148164,0.0131496,0.00235763,0.0243197,0.0332163,0.0161098,0.000653727,-45,-364,2.80611e-07,-45,-98.3492,-265.651,2.296
0.0268483,0.0149484,0.0132142,0.0023597,0.0243934,0.0331423,0.0161587,0.000608564,-46,-366,2.60872e-07,-46,-98.3492,-267.651,2.3
0.026946,0.0150824,0.0132789,0.00236143,0.0244673,0.0332657,0.0162076,0.000549664,-46,-368,2.36674e-07,-46,-98.3492,-269.651,2.304
0.027044,0.0152154,0.0133438,0.0023635,0.0245412,0.0332617,0.0162566,0.000539188,-46,-369,2.32339e-07,-46,-98.3492,-270.651,2.308
0.0271423,0.0153495,0.0134089,0.00236523,0.0246152,0.0333453,0.0163056,0.000503413,-45,-371,2.17628e-07,-45,-98.3492,-272.651,2.312
0.027241,0.0154842,0.0134743,0.00236696,0.0246893,0.0334587,0.0163547,0.000479564,-45,-372,2.08174e-07,-45,-98.3492,-273.651,2.316
0.0273399,0.0156179,0.0135398,0.00236869,0.0247635,0.0334479,0.0164038,0.000463664,-45,-373,2.01354e-07,-45,-98.3492,-274.651,2.32
0.0274391,0.0157523,0.0136055,0.00237041,0.0248377,0.0334983,0.016453,0.000453064,-45,-375,1.97191e-07,-45,-98.3492,-276.651,2.324
0.0275386,0.0158878,0.0136714,0.00237214,0.024912,0.0336182,0.0165022,0.000445997,-44,-376,1.94953e-07,-44,-98.3492,-277.651,2.328
0.0276384,0.0160211,0.0137375,0.00237491,0.0249863,0.0335254,0.0165515,0.000527659,-45,-376,2.3028e-07,-45,-98.3492,-277.651,2.332
0.0277385,0.0161569,0.0138038,0.00237802,0.0250608,0.0336651,0.0166008,0.000610891,-44,-377,2.68065e-07,-44,-98.3492,-278.651,2.336
0.0278388,0.0162906,0.0138703,0.00238112,0.0251353,0.0335855,0.0166501,0.000666379,-45,-377,2.92103e-07,-45,-98.3492,-278.651,2.34
0.0279395,0.0164246,0.013937,0.00238458,0.0252099,0.0335612,0.0166995,0.000732162,-46,-378,3.21172e-07,-46,-98.3492,-279.651,2.344
0.0280405,0.0165601,0.0140039,0.00238769,0.0252845,0.0336602,0.016749,0.000747226,-45,-379,3.29176e-07,-45,-98.3492,-280.651,2.348
0.0281418,0.0166945,0.014071,0.00239114,0.0253593,0.0336398,0.0167985,0.00078606,-46,-380,3.46574e-07,-46,-98.3492,-281.651,2.352
0.0282434,0.0168309,0.0141383,0.0023946,0.0254341,0.0337989,0.016848,0.000811949,-45,-380,3.60202e-07,-45,-98.3492,-281.651,2.356
0.0283453,0.0169667,0.0142058,0.0023984,0.0255089,0.0338475,0.0168976,0.000858,-45,-381,3.81783e-07,-45,-98.3492,-282.651,2.36
0.0284475,0.0170997,0.0142735,0.0024022,0.0255839,0.0336495,0.0169473,0.0008887,-47,-382,3.93753e-07,-47,-98.3492,-283.651,2.364
0.02855,0.0172362,0.0143414,0.002406,0.0256589,0.0338054,0.016997,0.000909167,-46,-383,4.05328e-07,-46,-98.3492,-284.651,2.368
0.0286527,0.0173703,0.0144095,0.00241015,0.0257339,0.0337078,0.0170467,0.000951602,-47,-384,4.23751e-07,-47,-98.3492,-285.651,2.372
0.0287558,0.017506,0.0144777,0.00241498,0.0258091,0.0337867,0.0170965,0.00103747,-47,-384,4.64001e-07,-47,-98.3492,-285.651,2.376
0.0288592,0.0176411,0.0145462,0.00241947,0.0258843,0.0337817,0.0171463,0.00106593,-47,-385,4.77544e-07,-47,-98.3492,-286.651,2.38
0.0289629,0.0177745,0.0146149,0.00242397,0.0259596,0.0336344,0.0171962,0.0010849,-49,-386,4.84823e-07,-49,-98.3491,-287.651,2.384
0.0290669,0.0179113,0.0146838,0.00242777,0.026035,0.0338242,0.0172461,0.00103997,-48,-388,4.68097e-07,-48,-98.3491,-289.651,2.388
0.0291712,0.018045,0.0147529,0.00243191,0.0261104,0.0336915,0.0172961,0.0010388,-49,-389,4.66534e-07,-49,-98.3491,-290.651,2.392
0.0292758,0.0181801,0.0148222,0.00243606,0.0261859,0.0337183,0.0173461,0.00103803,-49,-390,4.67351e-07,-49,-98.3491,-291.651,2.396
0.0293807,0.0183179,0.0148917,0.00243951,0.0262615,0.0339664,0.0173961,0.000979927,-47,-392,4.4507e-07,-47,-98.3491,-293.651,2.4
0.0294859,0.018453,0.0149613,0.00244228,0.0263371,0.0339015,0.0174462,0.000883612,-48,-394,4.01012e-07,-48,-98.3491,-295.651,2.404
0.0295914,0.0185891,0.0150312,0.00244435,0.0264128,0.0339446,0.0174964,0.00076182,-48,-396,3.46472e-07,-48,-98.3491,-297.651,2.408
0.0296972,0.0187253,0.0151013,0.00244746,0.0264886,0.0339734,0.0175466,0.000766999,-48,-398,3.49567e-07,-48,-98.3491,-299.651,2.412
0.0298033,0.0188617,0.0151716,0.00245126,0.0265644,0.0340213,0.0175968,0.000828033,-48,-398,3.78503e-07,-48,-98.3491,-299.651,2.416
0.0299097,0.0190006,0.0152421,0.00245471,0.0266403,0.0342548,0.0176471,0.000839931,-46,-399,3.87122e-07,-46,-98.3491,-300.651,2.42
0.0300164,0.0191368,0.0153128,0.00245851,0.0267163,0.0341802,0.0176974,0.000876654,-48,-400,4.03791e-07,-48,-98.3491,-301.651,2.424
0.0301234,0.0192749,0.0153837,0.00246266,0.0267923,0.0343032,0.0177478,0.000929927,-47,-401,4.30595e-07,-47,-98.3491,-302.651,2.428
0.0302307,0.0194138,0.0154548,0.00246715,0.0268685,0.0344427,0.0177982,0.000994233,-46,-401,4.63088e-07,-46,-98.3491,-302.651,2.432
0.0303384,0.0195507,0.0155261,0.00247268,0.0269446,0.034363,0.0178487,0.00112348,-47,-401,5.23245e-07,-47,-98.3491,-302.651,2.436
0.0304463,0.0196913,0.0155975,0.00247821,0.0270209,0.0346266,0.0178992,0.00120964,-45,-402,5.68964e-07,-45,-98.3491,-303.651,2.44
0.0305545,0.0198298,0.0156692,0.00248477,0.0270972,0.0346296,0.0179497,0.00135345,-45,-402,6.38349e-07,-45,-98.3491,-303.651,2.444
0.0306631,0.019969,0.0157411,0.00249237,0.0271736,0.0346891,0.0180003,0.0015357,-45,-401,7.27771e-07,-45,-98.3491,-302.651,2.448
0.0307719,0.0201083,0.0158132,0.00249997,0.02725,0.0347288,0.018051,0.0016572,-45,-401,7.88646e-07,-45,-98.3491,-302.651,2.452
0.0308811,0.0202472,0.0158856,0.00250827,0.0273266,0.0347265,0.0181017,0.00179578,-46,-401,8.57373e-07,-46,-98.3491,-302.651,2.456
0.0309905,0.0203867,0.0159581,0.00251587,0.0274031,0.0347825,0.0181524,0.00183059,-45,-402,8.78054e-07,-45,-98.3491,-303.651,2.46
0.0311003,0.0205253,0.0160308,0.00252347,0.0274798,0.0347335,0.0182032,0.00185379,-46,-403,8.90613e-07,-46,-98.3491,-304.651,2.464
0.0312104,0.0206645,0.0161037,0.00252934,0.0275565,0.0347584,0.018254,0.00172531,-46,-405,8.3141e-07,-46,-98.3491,-306.651,2.468
0.0313208,0.0208096,0.0161768,0.00253418,0.0276333,0.0352645,0.0183049,0.00155328,-42,-408,7.6086e-07,-42,-98.3491,-309.651,2.472
0.0314314,0.0209423,0.0162501,0.0025366,0.0277101,0.0345654,0.0183558,0.00123706,-49,-412,5.94515e-07,-49,-98.3491,-313.651,2.476
0.0315424,0.0210819,0.0163236,0.00253901,0.0277871,0.0346751,0.0184067,0.00102624,-49,-416,4.95237e-07,-49,-98.3491,-317.651,2.48
0.0316537,0.0212228,0.0163974,0.00254143,0.027864,0.0348634,0.0184577,0.000885696,-47,-418,4.30145e-07,-47,-98.3491,-319.651,2.484
0.0317653,0.0213603,0.0164713,0.00254281,0.0279411,0.0347011,0.0185087,0.000705628,-49,-421,3.41283e-07,-49,-98.3491,-322.651,2.488
0.0318773,0.0215006,0.0165454,0.0025442,0.0280182,0.0348232,0.0185598,0.000585582,-48,-424,2.84373e-07,-48,-98.3491,-325.651,2.492
0.0319895,0.0216402,0.0166198,0.00254558,0.0280954,0.034847,0.0186109,0.000505552,-49,-426,2.4581e-07,-49,-98.3491,-327.651,2.496
0.032102,0.0217818,0.0166943,0.00254731,0.0281726,0.0350356,0.0186621,0.000480989,-47,-427,2.35292e-07,-47,-98.3491,-328.651,2.5
0.0322149,0.0219231,0.0167691,0.00254903,0.0282499,0.0351326,0.0187133,0.000464614,-47,-429,2.28065e-07,-47,-98.3491,-330.651,2.504
0.032328,0.0220641,0.016844,0.00254938,0.0283273,0.0351684,0.0187646,0.000338534,-47,-431,1.66368e-07,-47,-98.3491,-332.651,2.508
0.0324415,0.0222061,0.0169192,0.00255111,0.0284047,0.0352787,0.0188159,0.000369644,-46,-432,1.8235e-07,-46,-98.3491,-333.651,2.512
0.0325553,0.0223453,0.0169946,0.00255145,0.0284822,0.0351219,0.0188672,0.00027522,-48,-435,1.35184e-07,-48,-98.3491,-336.651,2.516
0.0326693,0.022488,0.0170701,0.00255214,0.0285598,0.0353052,0.0189186,0.000241062,-47,-436,1.19057e-07,-47,-98.3491,-337.651,2.52
0.0327837,0.0226297,0.0171459,0.00255283,0.0286374,0.0353411,0.01897,0.00021829,-47,-438,1.07949e-07,-47,-98.3491,-339.651,2.524
0.0328984,0.0227703,0.0172219,0.00255352,0.0287151,0.0352786,0.0190215,0.000203108,-48,-439,1.00291e-07,-48,-98.3491,-340.651,2.528
0.0330135,0.0229133,0.0172981,0.00255422,0.0287929,0.0354385,0.019073,0.000192987,-47,-441,9.57511e-08,-47,-98.3491,-342.651,2.532
0.0331288,0.0230532,0.0173745,0.00255491,0.0288707,0.035286,0.0191245,0.00018624,-49,-442,9.20306e-08,-49,-98.3491,-343.651,2.536
0.0332444,0.0231973,0.0174511,0.00255594,0.0289486,0.0355298,0.0191761,0.000210533,-47,-443,1.04796e-07,-47,-98.3491,-344.651,2.54
0.0333604,0.023339,0.0175279,0.00255698,0.0290265,0.0354908,0.0192277,0.000226728,-48,-444,1.12779e-07,-48,-98.3491,-345.651,2.544
0.0334766,0.023481,0.0176049,0.0025594,0.0291045,0.0354936,0.0192794,0.000352688,-48,-444,1.75615e-07,-48,-98.3491,-345.651,2.548
0.0335932,0.023625,0.0176821,0.00256113,0.0291826,0.0356682,0.0193311,0.00037908,-47,-445,1.89813e-07,-47,-98.3491,-346.651,2.552
0.0337101,0.023766,0.0177596,0.00256493,0.0292607,0.0355255,0.0193829,0.00056942,-49,-445,2.844e-07,-49,-98.3491,-346.651,2.556
0.0338273,0.0239097,0.0178372,0.00256873,0.0293389,0.0356607,0.0194347,0.000696314,-48,-445,3.49618e-07,-48,-98.3491,-346.651,2.56
0.0339448,0.0240534,0.017915,0.00257322,0.0294172,0.0357508,0.0194865,0.000838491,-48,-445,4.22807e-07,-48,-98.3491,-346.651,2.564
0.0340626,0.0241965,0.0179931,0.00257736,0.0294955,0.0357533,0.0195384,0.000904485,-48,-446,4.56851e-07,-48,-98.3491,-347.651,2.568
0.0341808,0.0243405,0.0180713,0.00258185,0.0295739,0.0358414,0.0195903,0.000977272,-48,-446,4.95693e-07,-48,-98.3491,-347.651,2.572
0.0342992,0.0244846,0.0181498,0.00258566,0.0296523,0.0359001,0.0196423,0.000968215,-48,-448,4.92628e-07,-48,-98.3491,-349.651,2.576
0.034418,0.0246301,0.0182285,0.0025898,0.0297308,0.0360544,0.0196943,0.000990968,-47,-449,5.07183e-07,-47,-98.3491,-350.651,2.58
0.0345371,0.0247738,0.0183074,0.00259464,0.0298094,0.0360133,0.0197463,0.00106372,-47,-449,5.44812e-07,-47,-98.3491,-350.651,2.584
0.0346565,0.0249185,0.0183865,0.00260017,0.029888,0.0360722,0.0197984,0.0011698,-47,-450,6.01405e-07,-47,-98.3491,-351.651,2.588
0.0347762,0.025063,0.0184657,0.00260638,0.0299667,0.0360828,0.0198505,0.0012981,-48,-450,6.69158e-07,-48,-98.3491,-351.651,2.592
0.0348962,0.0252063,0.0185453,0.00261364,0.0300454,0.0360034,0.0199027,0.00147001,-49,-449,7.58213e-07,-49,-98.3491,-350.651,2.596
0.0350165,0.0253566,0.018625,0.00262159,0.0301242,0.0365263,0.0199549,0.0016422,-44,-449,8.6194e-07,-44,-98.3491,-350.651,2.6
0.0351372,0.0255021,0.0187049,0.00262884,0.0302031,0.0364719,0.0200072,0.00169941,-45,-450,8.93103e-07,-45,-98.3491,-351.651,2.604
0.0352582,0.0256427,0.018785,0.00263575,0.030282,0.0360325,0.0200594,0.00170876,-50,-451,8.89529e-07,-50,-98.3491,-352.651,2.608
0.0353795,0.0257919,0.0188654,0.00264197,0.030361,0.0364593,0.0201118,0.00165741,-47,-453,8.75079e-07,-47,-98.3491,-354.651,2.612
0.0355011,0.0259336,0.0189459,0.00264681,0.0304401,0.0361105,0.0201641,0.00150801,-50,-456,7.90027e-07,-50,-98.3491,-357.651,2.616
0.035623,0.0260808,0.0190267,0.00265026,0.0305192,0.0363386,0.0202165,0.00129325,-49,-459,6.82686e-07,-49,-98.3491,-360.651,2.62
0.0357452,0.0262269,0.0191077,0.00265234,0.0305984,0.0364043,0.020269,0.00103491,-49,-463,5.47729e-07,-49,-98.3491,-364.651,2.624
0.0358678,0.0263734,0.0191888,0.00265337,0.0306776,0.0364769,0.0203215,0.000776314,-48,-467,4.11846e-07,-48,-98.3491,-368.651,2.628
0.0359906,0.0265209,0.0192702,0.0026551,0.0307569,0.0366116,0.020374,0.000661498,-48,-469,3.5246e-07,-48,-98.3491,-370.651,2.632
0.0361138,0.0266667,0.0193518,0.00265648,0.0308362,0.0365575,0.0204265,0.000556162,-49,-472,2.96051e-07,-49,-98.3491,-373.651,2.636
0.0362373,0.026817,0.0194336,0.00265924,0.0309156,0.0368957,0.0204791,0.000601102,-46,-472,3.23269e-07,-46,-98.3491,-373.651,2.64
0.0363611,0.0269632,0.0195157,0.00266201,0.0309951,0.0367757,0.0205318,0.000631062,-48,-474,3.38629e-07,-48,-98.3491,-375.651,2.644
0.0364853,0.0271114,0.0195979,0.00266546,0.0310746,0.0368685,0.0205845,0.000708617,-47,-474,3.81699e-07,-47,-98.3491,-375.651,2.648
0.0366097,0.0272586,0.0196803,0.00266892,0.0311542,0.0368439,0.0206372,0.000760321,-48,-475,4.09807e-07,-48,-98.3491,-376.651,2.652
0.0367345,0.0274075,0.019763,0.00267237,0.0312339,0.0369715,0.0206899,0.00079479,-47,-476,4.30425e-07,-47,-98.3491,-377.651,2.656
0.0368596,0.0275546,0.0198459,0.00267687,0.0313136,0.0369126,0.0207427,0.000904142,-48,-476,4.89687e-07,-48,-98.3491,-377.651,2.66
0.036985,0.0277022,0.0199289,0.00268205,0.0313933,0.0369021,0.0207956,0.00103463,-49,-477,5.61283e-07,-49,-98.3491,-378.651,2.664
0.0371108,0.0278497,0.0200122,0.00268827,0.0314731,0.0368951,0.0208484,0.00120799,-49,-476,6.56727e-07,-49,-98.3491,-377.651,2.668
0.0372368,0.0279958,0.0200957,0.00269483,0.031553,0.0367753,0.0209014,0.00135235,-51,-476,7.34613e-07,-51,-98.3491,-377.651,2.672
0.0373632,0.028143,0.0201794,0.00270209,0.0316329,0.0367818,0.0209543,0.00150618,-52,-476,8.20521e-07,-52,-98.3491,-377.651,2.676
0.0374899,0.0282909,0.0202634,0.00271107,0.0317129,0.0368437,0.0210073,0.00175268,-52,-475,9.59596e-07,-52,-98.3491,-376.651,2.68
0.0376169,0.0284388,0.0203475,0.00272109,0.031793,0.036885,0.0210603,0.00200339,-52,-474,1.10215e-06,-52,-98.3491,-375.651,2.684
0.0377442,0.0285856,0.0204318,0.00273214,0.0318731,0.0368261,0.0211134,0.0022569,-53,-473,1.24467e-06,-53,-98.3491,-374.651,2.688
0.0378719,0.0287328,0.0205164,0.00274424,0.0319532,0.0368157,0.0211665,0.00251229,-54,-472,1.39125e-06,-54,-98.3491,-373.651,2.692
0.0379998,0.0288817,0.0206012,0.00275667,0.0320335,0.0369527,0.0212196,0.00271133,-53,-471,1.51389e-06,-53,-98.3491,-372.651,2.696
0.0381281,0.0290295,0.0206862,0.00276773,0.0321137,0.0369576,0.0212728,0.00272886,-53,-472,1.53e-06,-53,-98.3491,-373.651,2.7
0.0382568,0.0291778,0.0207714,0.00277637,0.0321941,0.0369897,0.021326,0.00253902,-54,-475,1.42924e-06,-54,-98.3491,-376.651,2.704
0.0383857,0.0293246,0.0208568,0.00278466,0.0322744,0.036896,0.0213792,0.00238366,-55,-478,1.34238e-06,-55,-98.3491,-379.651,2.708
0.0385149,0.0294711,0.0209424,0.00279157,0.0323549,0.0368047,0.0214325,0.00216492,-56,-482,1.2192e-06,-56,-98.3491,-383.651,2.712
0.0386445,0.0296196,0.0210282,0.0027971,0.0324354,0.0369165,0.0214859,0.00190394,-56,-486,1.07761e-06,-56,-98.3491,-387.651,2.716
0.0387744,0.0297668,0.0211143,0.00280331,0.0325159,0.036876,0.0215392,0.00178753,-57,-488,1.01286e-06,-57,-98.3491,-389.651,2.72
0.0389047,0.029914,0.0212005,0.00280953,0.0325965,0.0368489,0.0215926,0.00170992,-58,-490,9.70322e-07,-58,-98.3491,-391.651,2.724
0.0390352,0.0300601,0.021287,0.00281679,0.0326772,0.0367445,0.021646,0.00174456,-59,-491,9.89721e-07,-59,-98.3491,-392.651,2.728
0.0391661,0.0302077,0.0213737,0.00282508,0.0327579,0.0367901,0.0216995,0.00185402,-60,-492,1.05623e-06,-60,-98.349,-393.651,2.732
0.0392973,0.0303559,0.0214606,0.00283441,0.0328387,0.036878,0.021753,0.00201337,-59,-491,1.15354e-06,-59,-98.349,-392.651,2.736
0.0394288,0.030502,0.0215477,0.00284477,0.0329195,0.0367639,0.0218066,0.00220597,-61,-491,1.26459e-06,-61,-98.349,-392.651,2.74
0.0395606,0.0306513,0.0216351,0.00285652,0.0330004,0.0369469,0.0218601,0.00244954,-60,-490,1.41704e-06,-60,-98.349,-391.651,2.744
0.0396928,0.0307995,0.0217226,0.00286827,0.0330814,0.0369826,0.0219138,0.00261192,-60,-490,1.51865e-06,-60,-98.349,-391.651,2.748
0.0398253,0.0309474,0.0218104,0.00287932,0.0331623,0.0369776,0.0219674,0.00266259,-61,-491,1.55387e-06,-61,-98.349,-392.651,2.752
0.0399581,0.0310973,0.0218983,0.00289003,0.0332434,0.037147,0.0220211,0.00266758,-60,-492,1.56973e-06,-60,-98.349,-393.651,2.756
0.0400912,0.0312441,0.0219865,0.00289971,0.0333245,0.0370008,0.0220748,0.00258453,-62,-494,1.51994e-06,-62,-98.349,-395.651,2.76
0.0402247,0.0313924,0.0220749,0.00290834,0.0334057,0.0370185,0.0221286,0.00244279,-62,-497,1.44156e-06,-62,-98.349,-398.651,2.764
0.0403585,0.0315413,0.0221636,0.00291733,0.0334869,0.0370879,0.0221824,0.00237709,-62,-499,1.40976e-06,-62,-98.349,-400.651,2.768
0.0404926,0.0316898,0.0222524,0.00292458,0.0335681,0.0371054,0.0222362,0.00218934,-63,-502,1.30225e-06,-63,-98.349,-403.651,2.772
0.040627,0.031836,0.0223415,0.00293287,0.0336494,0.0369155,0.0222901,0.00215054,-65,-504,1.27623e-06,-65,-98.349,-405.651,2.776
0.0407618,0.0319835,0.0224307,0.00294082,0.0337308,0.036904,0.022344,0.00209589,-66,-506,1.24678e-06,-66,-98.349,-407.651,2.78
0.0408969,0.0321289,0.0225202,0.00295015,0.0338122,0.0367237,0.0223979,0.00217461,-68,-506,1.29137e-06,-68,-98.349,-407.651,2.784
0.0410323,0.0322723,0.0226099,0.00296017,0.0338937,0.0364307,0.0224519,0.00228468,-72,-507,1.35048e-06,-72,-98.349,-408.651,2.788
0.041168,0.0324181,0.0226998,0.00297122,0.0339752,0.0364369,0.0225059,0.00244443,-72,-507,1.45056e-06,-72,-98.349,-408.651,2.792
0.0413041,0.0325625,0.02279,0.00298366,0.0340568,0.0363259,0.0225599,0.00266609,-74,-506,1.58388e-06,-74,-98.349,-407.651,2.796
0.0414405,0.0327049,0.0228803,0.00299644,0.0341385,0.0360791,0.022614,0.00284266,-77,-506,1.68449e-06,-77,-98.349,-407.651,2.8
0.0415772,0.0328479,0.0229709,0.00300992,0.0342201,0.0359722,0.0226681,0.00301795,-79,-505,1.79108e-06,-79,-98.349,-406.651,2.804
0.0417142,0.0329913,0.0230617,0.00302443,0.0343019,0.0359297,0.0227223,0.00322119,-80,-505,1.91864e-06,-80,-98.349,-406.651,2.808
0.0418516,0.0331354,0.0231526,0.00304067,0.0343837,0.0359589,0.0227764,0.00350063,-81,-503,2.09799e-06,-81,-98.349,-404.651,2.812
0.0419893,0.0332787,0.0232439,0.00305829,0.0344655,0.0359209,0.0228307,0.00380209,-82,-502,2.28943e-06,-82,-98.349,-403.651,2.816
0.0421273,0.0334235,0.0233353,0.00307729,0.0345474,0.0360106,0.0228849,0.00411823,-82,-500,2.50144e-06,-82,-98.349,-401.651,2.82
0.0422657,0.0335703,0.0234269,0.00309802,0.0346294,0.0362432,0.0229392,0.00447294,-80,-498,2.75286e-06,-80,-98.349,-399.651,2.824
0.0424044,0.033713,0.0235188,0.00312082,0.0347113,0.0360528,0.0229935,0.00488216,-83,-495,3.01093e-06,-83,-98.349,-396.651,2.828
0.0425434,0.0338595,0.0236109,0.0031457,0.0347934,0.0362426,0.0230479,0.00532772,-82,-492,3.32933e-06,-82,-98.349,-393.651,2.832
0.0426827,0.0340039,0.0237032,0.00317092,0.0348755,0.0361963,0.0231022,0.00565355,-83,-490,3.55673e-06,-83,-98.3489,-391.651,2.836
0.0428224,0.0341487,0.0237957,0.00319545,0.0349576,0.0361943,0.0231567,0.00581319,-83,-490,3.68524e-06,-83,-98.3489,-391.651,2.84
0.0429624,0.0342945,0.0238884,0.00321894,0.0350398,0.0362793,0.0232111,0.00583324,-83,-491,3.73389e-06,-83,-98.3489,-392.651,2.844
0.0431027,0.0344386,0.0239814,0.00324209,0.0351221,0.036192,0.0232656,0.00581782,-85,-493,3.74178e-06,-85,-98.3489,-394.651,2.848
0.0432433,0.0345847,0.0240746,0.00326385,0.0352044,0.0363066,0.0233201,0.00569238,-85,-495,3.69734e-06,-85,-98.3489,-396.651,2.852
0.0433843,0.0347281,0.024168,0.00328182,0.0352867,0.0361526,0.0233747,0.00529204,-87,-500,3.44158e-06,-87,-98.3489,-401.651,2.856
0.0435256,0.0348749,0.0242616,0.00329564,0.0353692,0.0363379,0.0234292,0.00467967,-86,-508,3.07181e-06,-86,-98.3489,-409.651,2.86
0.0436673,0.0350179,0.0243554,0.00330635,0.0354516,0.0361447,0.0234839,0.0040123,-88,-515,2.62825e-06,-88,-98.3489,-416.651,2.864
0.0438092,0.035162,0.0244494,0.00331395,0.0355341,0.0361023,0.0235385,0.00330826,-90,-524,2.16951e-06,-90,-98.3489,-425.651,2.868
0.0439515,0.0353071,0.0245437,0.0033219,0.0356167,0.0361604,0.0235932,0.0028677,-90,-529,1.88813e-06,-90,-98.3489,-430.651,2.872
0.0440942,0.0354498,0.0246382,0.00332984,0.0356993,0.0359976,0.0236479,0.00257399,-92,-534,1.69116e-06,-92,-98.3489,-435.651,2.876
0.0442371,0.0355932,0.0247329,0.00333883,0.0357819,0.0359466,0.0237027,0.00246456,-94,-536,1.62133e-06,-94,-98.3489,-437.651,2.88
0.0443804,0.0357348,0.0248278,0.00334815,0.0358646,0.0357687,0.0237574,0.00242039,-96,-538,1.58882e-06,-96,-98.3489,-439.651,2.884
0.0445241,0.0358775,0.0249229,0.00335817,0.0359473,0.0357364,0.0238123,0.00244853,-97,-539,1.61065e-06,-97,-98.3489,-440.651,2.888
0.044668,0.0360199,0.0250183,0.00336854,0.0360301,0.0356862,0.0238671,0.00249608,-98,-540,1.64468e-06,-98,-98.3489,-441.651,2.892
0.0448123,0.0361598,0.0251139,0.00337821,0.036113,0.0354511,0.023922,0.0024702,-102,-542,1.62154e-06,-102,-98.3489,-443.651,2.896
0.0449569,0.0363007,0.0252097,0.0033865,0.0361959,0.0353808,0.0239769,0.00233778,-103,-545,1.53533e-06,-103,-98.3489,-446.651,2.9
0.0451019,0.0364414,0.0253057,0.00339307,0.0362788,0.0353051,0.0240318,0.00210555,-105,-548,1.38253e-06,-105,-98.3489,-449.651,2.904
0.0452471,0.0365789,0.0254019,0.00339687,0.0363618,0.0349955,0.0240868,0.0017204,-109,-554,1.12099e-06,-109,-98.3489,-455.651,2.908
0.0453928,0.0367205,0.0254984,0.00339998,0.0364448,0.0351346,0.0241418,0.00140605,-108,-558,9.20645e-07,-108,-98.3489,-459.651,2.912
0.0455387,0.036857,0.0255951,0.00340205,0.0365279,0.0347955,0.0241968,0.00111011,-112,-563,7.20296e-07,-112,-98.3489,-464.651,2.916
0.045685,0.0369948,0.025692,0.00340343,0.0366111,0.0346846,0.0242519,0.000855239,-114,-567,5.53377e-07,-114,-98.3489,-468.651,2.92
0.0458316,0.0371303,0.0257891,0.00340585,0.0366942,0.0344091,0.024307,0.000771696,-118,-569,4.95707e-07,-118,-98.3489,-470.651,2.924
0.0459785,0.0372692,0.0258864,0.00340792,0.0367775,0.0345133,0.0243621,0.00068721,-118,-571,4.43043e-07,-118,-98.3489,-472.651,2.928
0.0461258,0.037406,0.025984,0.00341103,0.0368607,0.0344101,0.0244173,0.000717258,-120,-573,4.61453e-07,-120,-98.3489,-474.651,2.932
0.0462734,0.0375359,0.0260818,0.00341483,0.0369441,0.0337655,0.0244725,0.000794872,-127,-573,5.02365e-07,-127,-98.3489,-474.651,2.936
0.0464214,0.037673,0.0261798,0.00342071,0.0370274,0.0339403,0.0245277,0.00101936,-126,-573,6.48693e-07,-126,-98.3489,-474.651,2.94
0.0465696,0.0378054,0.026278,0.00342865,0.0371109,0.0336538,0.024583,0.00134176,-130,-571,8.48621e-07,-130,-98.3489,-472.651,2.944
0.0467183,0.0379384,0.0263764,0.00343936,0.0371943,0.0335204,0.0246383,0.00178703,-132,-569,1.12927e-06,-132,-98.3489,-470.651,2.948
