peachynonah/Fire_monitor_KIRO_CDSL/csv_datas/trial13/cdsl_data_t14_1_PD_u.csv
joint1_pos_desired, joint1_pos, joint2_pos_desired, joint2_pos, joint1_vel_desired, joint1_vel_filtered, joint2_vel_desired, joint2_vel_filtered, target_torque_joint1, target_torque_joint2, propo_term_torque_joint1, deriv_term_torque_joint1, propo_term_torque_joint2, deriv_term_torque_joint2, current_time
0.047,0.0482596,0.029,0.0292648,2.35453e-08,0,7.79844e-09,0,6,1,6.92768,-8.24085e-05,1.58894,-3.11938e-05,0.004
0.047,0.0482585,0.029,0.0292648,9.41623e-08,-8.63728e-05,3.11875e-08,0,6,1,6.92198,-0.302634,1.58894,-0.00012475,0.008
0.047,0.0482592,0.029,0.0292648,2.11823e-07,3.85488e-16,7.01579e-08,0,6,1,6.92578,-0.00074138,1.58894,-0.000280632,0.012
0.047,0.0482589,0.029,0.0292645,3.76499e-07,-2.87909e-05,1.247e-07,-2.87909e-05,6,1,6.92387,-0.102086,1.58686,-0.115662,0.016
0.047,0.0482589,0.029,0.0292648,5.88161e-07,-1.91939e-05,1.94805e-07,9.59697e-06,6,1,6.92386,-0.0692374,1.58893,0.0376087,0.02
0.047,0.0482589,0.029,0.0292648,8.46783e-07,-1.2796e-05,2.80463e-07,6.39798e-06,6,1,6.92384,-0.0477496,1.58893,0.0244701,0.024
0.047,0.0482589,0.029,0.0292648,1.15234e-06,-8.53064e-06,3.81665e-07,4.26532e-06,6,1,6.92382,-0.0338904,1.58892,0.0155346,0.028
0.047,0.0482589,0.029,0.0292648,1.50479e-06,-5.6871e-06,4.98402e-07,2.84355e-06,6,1,6.92379,-0.0251716,1.58891,0.00938059,0.032
0.047,0.0482589,0.029,0.0292645,1.90412e-06,-3.7914e-06,6.30663e-07,-2.68952e-05,6,1,6.92375,-0.0199343,1.58682,-0.110104,0.036
0.047,0.0482589,0.029,0.0292645,2.35029e-06,-2.5276e-06,7.78441e-07,-1.79302e-05,6,1,6.92371,-0.0170726,1.5868,-0.0748344,0.04
0.047,0.0482589,0.029,0.0292648,2.84328e-06,-1.68507e-06,9.41725e-07,1.68375e-05,6,1,6.92365,-0.0158492,1.58886,0.0635831,0.044
0.0470001,0.0482589,0.029,0.0292648,3.38307e-06,-1.12338e-06,1.12051e-06,1.1225e-05,6,1,6.92358,-0.0157726,1.58883,0.040418,0.048
0.0470001,0.0482589,0.029,0.0292648,3.96961e-06,-7.48918e-07,1.31477e-06,7.48333e-06,6,1,6.9235,-0.0165148,1.5888,0.0246742,0.052
0.0470001,0.0482592,0.029,0.0292648,4.60288e-06,2.82916e-05,1.52452e-06,4.98889e-06,7,1,6.92531,0.0829107,1.58877,0.0138575,0.056
0.0470001,0.0482582,0.029,0.0292648,5.28287e-06,-6.75117e-05,1.74974e-06,3.32592e-06,6,1,6.9195,-0.254781,1.58873,0.00630474,0.06
0.0470001,0.0482589,0.029,0.0292648,6.00952e-06,1.25741e-05,1.99042e-06,2.21728e-06,6,1,6.92317,0.0229759,1.58869,0.00090747,0.064
0.0470002,0.0482589,0.0290001,0.0292648,6.78283e-06,8.38271e-06,2.24654e-06,1.47819e-06,6,1,6.92303,0.00559958,1.58863,-0.00307341,0.068
0.0470002,0.0482589,0.0290001,0.0292648,7.60276e-06,5.58847e-06,2.51811e-06,9.85459e-07,6,1,6.92288,-0.00704999,1.58858,-0.00613061,0.072
0.0470002,0.0482589,0.0290001,0.0292645,8.46927e-06,3.72565e-06,2.80511e-06,-2.8134e-05,6,1,6.9227,-0.0166027,1.58644,-0.123756,0.076
0.0470003,0.0482589,0.0290001,0.0292645,9.38236e-06,2.48377e-06,3.10753e-06,-1.8756e-05,6,1,6.9225,-0.0241451,1.58637,-0.087454,0.08
0.0470003,0.0482589,0.0290001,0.0292645,1.0342e-05,1.65584e-06,3.42537e-06,-1.2504e-05,6,1,6.92229,-0.0304015,1.58629,-0.0637174,0.084
0.0470003,0.0482589,0.0290001,0.0292645,1.13481e-05,1.1039e-06,3.75861e-06,-8.33599e-06,6,1,6.92205,-0.0358547,1.5862,-0.0483784,0.088
0.0470004,0.0482589,0.0290001,0.0292645,1.24007e-05,7.35931e-07,4.10724e-06,-5.55732e-06,6,1,6.92179,-0.0408267,1.58611,-0.0386583,0.092
0.0470004,0.0482589,0.0290001,0.0292645,1.34998e-05,4.9062e-07,4.47126e-06,-3.70488e-06,6,1,6.9215,-0.045532,1.58601,-0.0327046,0.096
0.0470005,0.0482589,0.0290002,0.0292645,1.46452e-05,3.2708e-07,4.85066e-06,-2.46992e-06,6,1,6.92119,-0.0501136,1.5859,-0.0292823,0.1
0.0470005,0.0482589,0.0290002,0.0292645,1.58371e-05,2.18054e-07,5.24542e-06,-1.64661e-06,6,1,6.92086,-0.0546667,1.58577,-0.0275681,0.104
0.0470006,0.0482589,0.0290002,0.0292645,1.70754e-05,1.45369e-07,5.65554e-06,-1.09774e-06,6,1,6.92049,-0.059255,1.58564,-0.0270131,0.108
0.0470007,0.0482589,0.0290002,0.0292645,1.836e-05,9.69127e-08,6.081e-06,-7.31829e-07,6,1,6.92011,-0.0639206,1.5855,-0.0272513,0.112
0.0470008,0.0482589,0.0290003,0.0292648,1.96908e-05,6.46085e-08,6.52181e-06,2.8303e-05,6,1,6.91969,-0.0686918,1.58742,0.0871249,0.116
0.0470008,0.0482589,0.0290003,0.0292645,2.1068e-05,4.30723e-08,6.97794e-06,-9.92223e-06,6,1,6.91924,-0.0735873,1.58519,-0.0676007,0.12
0.0470009,0.0482589,0.0290003,0.0292645,2.24915e-05,2.87149e-08,7.4494e-06,-6.61482e-06,6,1,6.91876,-0.0786196,1.58502,-0.0562569,0.124
0.047001,0.0482589,0.0290003,0.0292645,2.39611e-05,1.91432e-08,7.93616e-06,-4.40988e-06,6,1,6.91825,-0.0837969,1.58483,-0.0493842,0.128
0.0470011,0.0482589,0.0290004,0.0292645,2.5477e-05,1.27622e-08,8.43823e-06,-2.93992e-06,6,1,6.9177,-0.0891247,1.58464,-0.0455126,0.132
0.0470012,0.0482589,0.0290004,0.0292645,2.7039e-05,8.50811e-09,8.95559e-06,-1.95995e-06,6,1,6.91713,-0.0946067,1.58443,-0.0436621,0.136
0.0470013,0.0482589,0.0290004,0.0292645,2.86472e-05,5.67207e-09,9.48823e-06,-1.30663e-06,6,1,6.91651,-0.100245,1.58421,-0.0431795,0.14
0.0470015,0.0482589,0.0290005,0.0292648,3.03014e-05,3.78138e-09,1.00361e-05,2.79198e-05,6,1,6.91587,-0.106042,1.58604,0.0715348,0.144
0.0470016,0.0482589,0.0290005,0.0292645,3.20018e-05,2.52092e-09,1.05993e-05,-1.01777e-05,6,1,6.91518,-0.111998,1.58372,-0.0831081,0.148
0.0470017,0.0482589,0.0290006,0.0292645,3.37482e-05,1.68061e-09,1.11778e-05,-6.78513e-06,6,1,6.91446,-0.118113,1.58346,-0.0718516,0.152
0.0470019,0.0482589,0.0290006,0.0292645,3.55407e-05,1.12041e-09,1.17714e-05,-4.52342e-06,6,1,6.9137,-0.124389,1.58319,-0.0651795,0.156
0.047002,0.0482589,0.0290007,0.0292645,3.73792e-05,7.4694e-10,1.23804e-05,-3.01561e-06,6,1,6.91289,-0.130824,1.5829,-0.0615839,0.16
0.0470022,0.0482589,0.0290007,0.0292645,3.92636e-05,4.9796e-10,1.30045e-05,-2.01041e-06,6,1,6.91205,-0.137421,1.58259,-0.0600597,0.164
0.0470023,0.0482589,0.0290008,0.0292645,4.1194e-05,3.31973e-10,1.36439e-05,-1.34027e-06,6,1,6.91117,-0.144178,1.58227,-0.0599366,0.168
0.0470025,0.0482589,0.0290008,0.0292645,4.31703e-05,2.21315e-10,1.42984e-05,-8.93515e-07,6,1,6.91024,-0.151095,1.58194,-0.0607678,0.172
0.0470027,0.0482585,0.0290009,0.0292645,4.51925e-05,-2.87908e-05,1.49682e-05,-5.95677e-07,6,1,6.90737,-0.258941,1.58159,-0.0622555,0.176
0.0470028,0.0482589,0.0290009,0.0292645,4.72605e-05,9.59707e-06,1.56532e-05,-3.97118e-07,6,1,6.90825,-0.131822,1.58122,-0.0642011,0.18
0.047003,0.0482585,0.029001,0.0292645,4.93744e-05,-2.23929e-05,1.63533e-05,-2.64745e-07,6,1,6.90529,-0.251185,1.58084,-0.0664722,0.184
0.0470032,0.0482589,0.0290011,0.0292645,5.15341e-05,1.38623e-05,1.70686e-05,-1.76497e-07,6,1,6.90608,-0.131851,1.58043,-0.0689805,0.188
0.0470034,0.0482589,0.0290011,0.0292645,5.37396e-05,9.24156e-06,1.77991e-05,-1.17665e-07,6,1,6.90492,-0.155743,1.58002,-0.071667,0.192
0.0470037,0.0482589,0.0290012,0.0292645,5.59908e-05,6.16104e-06,1.85447e-05,-7.84431e-08,6,1,6.90371,-0.174404,1.57958,-0.0744926,0.196
0.0470039,0.0482589,0.0290013,0.0292645,5.82877e-05,4.10736e-06,1.93055e-05,-5.22954e-08,6,1,6.90245,-0.189631,1.57913,-0.0774311,0.2
0.0470041,0.0482589,0.0290014,0.0292645,6.06304e-05,2.73824e-06,2.00814e-05,-3.48636e-08,6,1,6.90115,-0.202622,1.57865,-0.080465,0.204
0.0470044,0.0482589,0.0290015,0.0292645,6.30187e-05,1.82549e-06,2.08724e-05,-2.32424e-08,6,1,6.89979,-0.214176,1.57816,-0.0835827,0.208
0.0470046,0.0482589,0.0290015,0.0292645,6.54526e-05,1.217e-06,2.16786e-05,-1.54949e-08,6,1,6.89837,-0.224825,1.57765,-0.0867762,0.212
0.0470049,0.0482589,0.0290016,0.0292645,6.79321e-05,8.1133e-07,2.24998e-05,-1.033e-08,6,1,6.89691,-0.234923,1.57712,-0.0900406,0.216
0.0470052,0.0482589,0.0290017,0.0292648,7.04573e-05,5.40887e-07,2.33362e-05,2.8784e-05,6,1,6.89538,-0.244707,1.57864,0.0217915,0.22
0.0470055,0.0482589,0.0290018,0.0292645,7.3028e-05,3.60591e-07,2.41876e-05,-9.60157e-06,6,1,6.89381,-0.254336,1.576,-0.135157,0.224
0.0470058,0.0482589,0.0290019,0.0292645,7.56442e-05,2.40394e-07,2.50541e-05,-6.40104e-06,6,1,6.89217,-0.263913,1.57541,-0.125821,0.228
0.0470061,0.0482589,0.029002,0.0292645,7.83059e-05,1.60263e-07,2.59357e-05,-4.26736e-06,6,1,6.89048,-0.27351,1.5748,-0.120812,0.232
0.0470064,0.0482589,0.0290021,0.0292645,8.10131e-05,1.06842e-07,2.68324e-05,-2.84491e-06,6,1,6.88872,-0.283172,1.57416,-0.118709,0.236
0.0470067,0.0482589,0.0290022,0.0292645,8.37657e-05,7.12279e-08,2.77441e-05,-1.89661e-06,6,1,6.88691,-0.292931,1.57351,-0.118563,0.24
0.0470071,0.0482589,0.0290023,0.0292645,8.65637e-05,4.74853e-08,2.86708e-05,-1.2644e-06,6,1,6.88504,-0.302807,1.57283,-0.119741,0.244
0.0470074,0.0482589,0.0290025,0.0292645,8.94072e-05,3.16568e-08,2.96126e-05,-8.42936e-07,6,1,6.8831,-0.312814,1.57213,-0.121822,0.248
0.0470078,0.0482589,0.0290026,0.0292645,9.22959e-05,2.11046e-08,3.05694e-05,-5.61957e-07,6,1,6.8811,-0.322962,1.57141,-0.124525,0.252
0.0470082,0.0482589,0.0290027,0.0292645,9.52301e-05,1.40697e-08,3.15412e-05,-3.74638e-07,6,1,6.87904,-0.333256,1.57067,-0.127663,0.256
0.0470085,0.0482589,0.0290028,0.0292645,9.82095e-05,9.37981e-09,3.2528e-05,-2.49759e-07,6,1,6.87691,-0.3437,1.5699,-0.131111,0.26
0.0470089,0.0482589,0.029003,0.0292645,0.000101234,6.2532e-09,3.35298e-05,-1.66506e-07,6,1,6.87472,-0.354298,1.5691,-0.134785,0.264
0.0470093,0.0482589,0.0290031,0.0292645,0.000104304,4.1688e-09,3.45466e-05,-1.11004e-07,6,1,6.87246,-0.36505,1.56829,-0.13863,0.268
0.0470098,0.0482589,0.0290032,0.0292645,0.000107419,2.7792e-09,3.55784e-05,-7.40026e-08,6,1,6.87013,-0.375958,1.56745,-0.142609,0.272
0.0470102,0.0482589,0.0290034,0.0292645,0.00011058,1.8528e-09,3.66251e-05,-4.93351e-08,6,1,6.86773,-0.387022,1.56658,-0.146698,0.276
0.0470107,0.0482589,0.0290035,0.0292645,0.000113785,1.2352e-09,3.76868e-05,-3.289e-08,6,1,6.86526,-0.398244,1.56569,-0.150879,0.28
0.0470111,0.0482589,0.0290037,0.0292645,0.000117036,8.23467e-10,3.87634e-05,-2.19267e-08,6,1,6.86273,-0.409622,1.56477,-0.155141,0.284
0.0470116,0.0482589,0.0290038,0.0292645,0.000120332,5.48978e-10,3.9855e-05,-1.46178e-08,6,1,6.86011,-0.421158,1.56383,-0.159479,0.288
0.0470121,0.0482589,0.029004,0.0292645,0.000123672,3.65985e-10,4.09615e-05,-9.7452e-09,6,1,6.85743,-0.432852,1.56286,-0.163885,0.292
0.0470126,0.0482589,0.0290042,0.0292645,0.000127058,2.4399e-10,4.2083e-05,-6.4968e-09,6,1,6.85467,-0.444703,1.56186,-0.168358,0.296
0.0470131,0.0482589,0.0290043,0.0292645,0.000130489,1.6266e-10,4.32193e-05,-4.3312e-09,6,1,6.85184,-0.456712,1.56084,-0.172895,0.3
0.0470136,0.0482589,0.0290045,0.0292645,0.000133965,1.0844e-10,4.43706e-05,-2.88747e-09,6,1,6.84893,-0.468877,1.55979,-0.177494,0.304
0.0470142,0.0482589,0.0290047,0.0292645,0.000137486,7.22934e-11,4.55368e-05,-1.92498e-09,6,1,6.84595,-0.481201,1.55871,-0.182155,0.308
0.0470147,0.0482589,0.0290049,0.0292645,0.000141052,4.81956e-11,4.67178e-05,-1.28332e-09,6,1,6.84288,-0.493681,1.5576,-0.186876,0.312
0.0470153,0.0482589,0.0290051,0.0292641,0.000144663,3.21304e-11,4.79137e-05,-2.87918e-05,6,1,6.83974,-0.506319,1.55439,-0.306822,0.316
0.0470159,0.0482589,0.0290053,0.0292645,0.000148318,2.14203e-11,4.91245e-05,9.5964e-06,6,1,6.83652,-0.519113,1.5553,-0.158112,0.32
0.0470165,0.0482589,0.0290055,0.0292645,0.000152019,1.42802e-11,5.03501e-05,6.3976e-06,6,1,6.83321,-0.532065,1.55411,-0.17581,0.324
0.0470171,0.0482589,0.0290057,0.0292645,0.000155764,9.52012e-12,5.15906e-05,4.26507e-06,6,1,6.82983,-0.545174,1.55288,-0.189302,0.328
0.0470177,0.0482589,0.0290059,0.0292652,0.000159554,6.34675e-12,5.28459e-05,6.04252e-05,6,1,6.82636,-0.558439,1.55578,0.0303173,0.332
0.0470184,0.0482589,0.0290061,0.0292645,0.000163389,4.23117e-12,5.41161e-05,-1.72984e-05,6,1,6.82281,-0.571861,1.55035,-0.285658,0.336
0.047019,0.0482589,0.0290063,0.0292645,0.000167269,2.82078e-12,5.5401e-05,-1.15322e-05,6,1,6.81917,-0.58544,1.54903,-0.267733,0.34
0.0470197,0.0482589,0.0290065,0.0292652,0.000171193,1.88052e-12,5.67008e-05,4.98937e-05,6,1,6.81545,-0.599175,1.55183,-0.0272285,0.344
0.0470204,0.0482589,0.0290068,0.0292641,0.000175162,1.25368e-12,5.80154e-05,-5.31103e-05,6,1,6.81164,-0.613067,1.54424,-0.444503,0.348
0.0470211,0.0482589,0.029007,0.0292645,0.000179176,8.35786e-13,5.93448e-05,-6.61595e-06,6,1,6.80774,-0.627115,1.5449,-0.263843,0.352
0.0470218,0.0482589,0.0290072,0.0292645,0.000183234,5.5719e-13,6.06889e-05,-4.41063e-06,6,1,6.80375,-0.641319,1.54346,-0.260398,0.356
0.0470226,0.0482589,0.0290075,0.0292645,0.000187337,3.7146e-13,6.20479e-05,-2.94042e-06,6,1,6.79968,-0.655679,1.54199,-0.259953,0.36
0.0470233,0.0482589,0.0290077,0.0292645,0.000191484,2.4764e-13,6.34216e-05,-1.96028e-06,6,1,6.79551,-0.670195,1.54048,-0.261527,0.364
0.0470241,0.0482589,0.029008,0.0292645,0.000195676,1.65093e-13,6.481e-05,-1.30685e-06,6,1,6.79125,-0.684868,1.53895,-0.264468,0.368
0.0470249,0.0482589,0.0290082,0.0292645,0.000199913,1.10062e-13,6.62132e-05,-8.71237e-07,6,1,6.7869,-0.699696,1.53737,-0.268338,0.372
0.0470257,0.0482589,0.0290085,0.0292645,0.000204194,7.33749e-14,6.76312e-05,-5.80824e-07,6,1,6.78245,-0.714679,1.53577,-0.272848,0.376
0.0470265,0.0482589,0.0290088,0.0292645,0.00020852,4.89166e-14,6.90638e-05,-3.87216e-07,6,1,6.77791,-0.729819,1.53413,-0.277804,0.38
0.0470274,0.0482589,0.0290091,0.0292641,0.00021289,3.26111e-14,7.05112e-05,-2.90491e-05,6,1,6.77328,-0.745114,1.53038,-0.398241,0.384
0.0470282,0.0482589,0.0290094,0.0292645,0.000217304,2.17407e-14,7.19733e-05,9.42488e-06,6,1,6.76855,-0.760564,1.53074,-0.250194,0.388
0.0470291,0.0482589,0.0290096,0.0292645,0.000221763,1.44938e-14,7.34501e-05,6.28325e-06,5,1,6.76372,-0.77617,1.529,-0.268668,0.392
0.04703,0.0482589,0.0290099,0.0292641,0.000226266,9.66254e-15,7.49416e-05,-2.46021e-05,5,1,6.75879,-0.791931,1.52514,-0.398175,0.396
0.0470309,0.0482589,0.0290102,0.0292645,0.000230814,6.44169e-15,7.64478e-05,1.23895e-05,5,1,6.75376,-0.807847,1.5254,-0.256233,0.4
0.0470319,0.0482589,0.0290106,0.0292645,0.000235405,4.29446e-15,7.79686e-05,8.25969e-06,5,1,6.74863,-0.823919,1.52355,-0.278836,0.404
0.0470328,0.0482589,0.0290109,0.0292645,0.000240041,2.86297e-15,7.95042e-05,5.50646e-06,5,1,6.7434,-0.840145,1.52166,-0.295991,0.408
0.0470338,0.0482589,0.0290112,0.0292645,0.000244722,1.90865e-15,8.10543e-05,3.67097e-06,5,1,6.73807,-0.856526,1.51973,-0.309533,0.412
0.0470348,0.0482589,0.0290115,0.0292645,0.000249446,1.27243e-15,8.26191e-05,2.44731e-06,5,1,6.73263,-0.873062,1.51777,-0.320687,0.416
0.0470358,0.0482589,0.0290119,0.0292645,0.000254215,8.48288e-16,8.41986e-05,1.63154e-06,5,1,6.72709,-0.889752,1.51576,-0.330268,0.42
0.0470368,0.0482589,0.0290122,0.0292648,0.000259028,5.65526e-16,8.57927e-05,2.98786e-05,5,1,6.72145,-0.906597,1.5158,-0.223656,0.424
0.0470379,0.0482589,0.0290125,0.0292641,0.000263885,3.77017e-16,8.74014e-05,-3.76628e-05,5,1,6.7157,-0.923597,1.50957,-0.500257,0.428
0.0470389,0.0482589,0.0290129,0.0292645,0.000268786,2.51345e-16,8.90247e-05,3.68241e-06,5,1,6.70984,-0.940751,1.50953,-0.341369,0.432
0.04704,0.0482589,0.0290132,0.0292645,0.000273731,1.67563e-16,9.06626e-05,2.45494e-06,5,1,6.70387,-0.958059,1.50737,-0.35283,0.436
0.0470411,0.0482589,0.0290136,0.0292645,0.00027872,1.11709e-16,9.23151e-05,1.63663e-06,5,1,6.69779,-0.975522,1.50518,-0.362714,0.44
0.0470422,0.0482589,0.029014,0.0292645,0.000283754,7.44725e-17,9.39821e-05,1.09108e-06,5,1,6.69161,-0.993138,1.50294,-0.371564,0.444
0.0470434,0.0482589,0.0290144,0.0292645,0.000288831,4.96483e-17,9.56638e-05,7.2739e-07,5,1,6.68531,-1.01091,1.50067,-0.379746,0.448
0.0470445,0.0482589,0.0290148,0.0292645,0.000293952,3.30989e-17,9.736e-05,4.84927e-07,5,1,6.6789,-1.02883,1.49835,-0.3875,0.452
0.0470457,0.0482589,0.0290151,0.0292645,0.000299118,2.20659e-17,9.90708e-05,3.23284e-07,5,1,6.67237,-1.04691,1.49599,-0.39499,0.456
0.0470469,0.0482589,0.0290155,0.0292645,0.000304327,1.47106e-17,0.000100796,2.15523e-07,5,1,6.66574,-1.06514,1.49359,-0.402322,0.46
0.0470482,0.0482589,0.029016,0.0292645,0.00030958,9.80708e-18,0.000102536,1.43682e-07,5,1,6.65898,-1.08353,1.49115,-0.409569,0.464
0.0470494,0.0482589,0.0290164,0.0292645,0.000314876,6.53805e-18,0.00010429,9.5788e-08,5,1,6.65211,-1.10207,1.48867,-0.416778,0.468
0.0470507,0.0482589,0.0290168,0.0292645,0.000320217,4.3587e-18,0.000106059,6.38587e-08,5,1,6.64513,-1.12076,1.48615,-0.423981,0.472
0.047052,0.0482589,0.0290172,0.0292645,0.000325602,2.9058e-18,0.000107843,4.25724e-08,5,1,6.63802,-1.13961,1.48358,-0.4312,0.476
0.0470533,0.0482589,0.0290176,0.0292641,0.00033103,1.9372e-18,0.00010964,-2.87625e-05,5,0,6.6308,-1.1586,1.4789,-0.553612,0.48
0.0470546,0.0482589,0.0290181,0.0292645,0.000336502,1.29147e-18,0.000111453,9.6159e-06,5,1,6.62346,-1.17776,1.47832,-0.407348,0.484
0.047056,0.0482589,0.0290185,0.0292645,0.000342018,8.60978e-19,0.00011328,6.4106e-06,5,1,6.61599,-1.19706,1.47562,-0.427477,0.488
0.0470574,0.0482589,0.029019,0.0292652,0.000347577,5.73985e-19,0.000115121,6.18556e-05,5,1,6.60841,-1.21652,1.47703,-0.213062,0.492
0.0470588,0.0482589,0.0290195,0.0292645,0.00035318,3.82657e-19,0.000116977,-1.63448e-05,5,0,6.6007,-1.23613,1.4701,-0.533287,0.496
0.0470602,0.0482589,0.0290199,0.0292645,0.000358827,2.55105e-19,0.000118847,-1.08965e-05,5,0,6.59287,-1.25589,1.46727,-0.518975,0.5
0.0470616,0.0482589,0.0290204,0.0292645,0.000364517,1.7007e-19,0.000120732,-7.26435e-06,5,0,6.58491,-1.27581,1.46439,-0.511985,0.504
0.0470631,0.0482589,0.0290209,0.0292645,0.000370251,1.1338e-19,0.000122631,-4.8429e-06,5,0,6.57683,-1.29588,1.46147,-0.509896,0.508
0.0470646,0.0482589,0.0290214,0.0292645,0.000376029,7.55866e-20,0.000124545,-3.2286e-06,5,0,6.56862,-1.3161,1.4585,-0.511093,0.512
0.0470661,0.0482589,0.0290219,0.0292652,0.00038185,5.0391e-20,0.000126473,5.54294e-05,5,1,6.56028,-1.33647,1.45964,-0.284172,0.516
0.0470676,0.0482589,0.0290224,0.0292645,0.000387714,3.3594e-20,0.000128415,-2.06289e-05,5,0,6.55182,-1.357,1.45243,-0.596175,0.52
0.0470692,0.0482589,0.0290229,0.0292645,0.000393622,2.2396e-20,0.000130372,-1.37526e-05,5,0,6.54322,-1.37768,1.44933,-0.576497,0.524
0.0470708,0.0482589,0.0290234,0.0292652,0.000399574,1.49307e-20,0.000132343,4.84135e-05,5,1,6.5345,-1.39851,1.45032,-0.335718,0.528
0.0470724,0.0482589,0.029024,0.0292645,0.000405569,9.95379e-21,0.000134328,-2.53062e-05,5,0,6.52564,-1.41949,1.44298,-0.638539,0.532
0.047074,0.0482589,0.0290245,0.0292645,0.000411607,6.63586e-21,0.000136328,-1.68708e-05,5,0,6.51665,-1.44062,1.43973,-0.612797,0.536
0.0470757,0.0482589,0.0290251,0.0292645,0.000417689,4.4239e-21,0.000138343,-1.12472e-05,5,0,6.50753,-1.46191,1.43643,-0.59836,0.54
0.0470774,0.0482589,0.0290256,0.0292652,0.000423814,2.94927e-21,0.000140371,5.00837e-05,5,1,6.49828,-1.48335,1.43723,-0.361151,0.544
0.0470791,0.0482589,0.0290262,0.0292645,0.000429982,1.96618e-21,0.000142414,-2.41927e-05,4,0,6.48888,-1.50494,1.42969,-0.666428,0.548
0.0470808,0.0482589,0.0290268,0.0292652,0.000436193,1.31079e-21,0.000144472,4.14534e-05,4,1,6.47936,-1.52668,1.4304,-0.412073,0.552
0.0470826,0.0482589,0.0290274,0.0292645,0.000442448,8.73858e-22,0.000146543,-2.99463e-05,4,0,6.46969,-1.54857,1.42276,-0.705958,0.556
0.0470844,0.0482589,0.0290279,0.0292645,0.000448746,5.82572e-22,0.000148629,-1.99642e-05,4,0,6.45989,-1.57061,1.41922,-0.674374,0.56
0.0470862,0.0482589,0.0290285,0.0292645,0.000455087,3.88381e-22,0.00015073,-1.33095e-05,4,0,6.44995,-1.59281,1.41562,-0.656156,0.564
0.047088,0.0482589,0.0290291,0.0292645,0.000461472,2.58921e-22,0.000152844,-8.87297e-06,4,0,6.43986,-1.61515,1.41198,-0.646869,0.568
0.0470899,0.0482589,0.0290298,0.0292645,0.000467899,1.72614e-22,0.000154973,-5.91531e-06,4,0,6.42964,-1.63765,1.40829,-0.643553,0.572
0.0470917,0.0482589,0.0290304,0.0292645,0.00047437,1.15076e-22,0.000157116,-3.94354e-06,4,0,6.41928,-1.6603,1.40454,-0.644239,0.576
0.0470937,0.0482589,0.029031,0.0292645,0.000480884,7.67173e-23,0.000159274,-2.62903e-06,4,0,6.40877,-1.68309,1.40075,-0.647611,0.58
0.0470956,0.0482589,0.0290317,0.0292645,0.000487441,5.11449e-23,0.000161445,-1.75268e-06,4,0,6.39812,-1.70604,1.3969,-0.652792,0.584
0.0470976,0.0482589,0.0290323,0.0292645,0.00049404,3.40966e-23,0.000163631,-1.16846e-06,4,0,6.38732,-1.72914,1.393,-0.659199,0.588
0.0470995,0.0482589,0.029033,0.0292645,0.000500683,2.2731e-23,0.000165831,-7.78971e-07,4,0,6.37638,-1.75239,1.38904,-0.666442,0.592
0.0471016,0.0482589,0.0290336,0.0292645,0.000507369,1.5154e-23,0.000168046,-5.19314e-07,4,0,6.36529,-1.77579,1.38504,-0.674261,0.596
0.0471036,0.0482589,0.0290343,0.0292645,0.000514098,1.01027e-23,0.000170274,-3.46209e-07,4,0,6.35405,-1.79934,1.38098,-0.682483,0.6
0.0471057,0.0482589,0.029035,0.0292645,0.00052087,6.73512e-24,0.000172517,-2.30806e-07,4,0,6.34267,-1.82304,1.37686,-0.690993,0.604
0.0471078,0.0482589,0.0290357,0.0292645,0.000527684,4.49008e-24,0.000174774,-1.53871e-07,4,0,6.33114,-1.8469,1.3727,-0.699713,0.608
0.0471099,0.0482589,0.0290364,0.0292645,0.000534542,2.99339e-24,0.000177046,-1.02581e-07,4,0,6.31945,-1.8709,1.36847,-0.708593,0.612
0.047112,0.0482589,0.0290371,0.0292645,0.000541442,1.99559e-24,0.000179331,-6.8387e-08,4,0,6.30761,-1.89505,1.3642,-0.717598,0.616
0.0471142,0.0482589,0.0290378,0.0292645,0.000548385,1.33039e-24,0.000181631,-4.55914e-08,4,0,6.29563,-1.91935,1.35987,-0.726705,0.62
0.0471164,0.0482589,0.0290386,0.0292645,0.000555371,8.8693e-25,0.000183945,-3.03942e-08,4,0,6.28349,-1.9438,1.35548,-0.7359,0.624
0.0471187,0.0482589,0.0290393,0.0292645,0.0005624,5.91287e-25,0.000186273,-2.02628e-08,4,0,6.27119,-1.9684,1.35104,-0.745171,0.628
0.0471209,0.0482589,0.0290401,0.0292645,0.000569471,3.94191e-25,0.000188615,-1.35085e-08,4,0,6.25874,-1.99315,1.34654,-0.754513,0.632
0.0471232,0.0482589,0.0290408,0.0292645,0.000576585,2.62794e-25,0.000190971,-9.0057e-09,4,0,6.24613,-2.01805,1.34198,-0.76392,0.636
0.0471255,0.0482589,0.0290416,0.0292645,0.000583742,1.75196e-25,0.000193341,-6.0038e-09,4,0,6.23337,-2.0431,1.33737,-0.773389,0.64
0.0471279,0.0482589,0.0290424,0.0292645,0.000590942,1.16797e-25,0.000195726,-4.00253e-09,4,0,6.22045,-2.0683,1.3327,-0.78292,0.644
0.0471303,0.0482589,0.0290431,0.0292645,0.000598184,7.78649e-26,0.000198125,-2.66836e-09,4,0,6.20737,-2.09364,1.32798,-0.792509,0.648
0.0471327,0.0482589,0.0290439,0.0292645,0.000605468,5.19099e-26,0.000200537,-1.7789e-09,4,0,6.19413,-2.11914,1.32319,-0.802156,0.652
0.0471351,0.0482589,0.0290448,0.0292652,0.000612796,3.46066e-26,0.000202964,5.75807e-05,4,0,6.18073,-2.14478,1.3225,-0.581534,0.656
0.0471376,0.0482589,0.0290456,0.0292645,0.000620165,2.30711e-26,0.000205405,-1.91947e-05,3,0,6.16716,-2.17058,1.31345,-0.898399,0.66
0.0471401,0.0482589,0.0290464,0.0292645,0.000627578,1.53807e-26,0.00020786,-1.27965e-05,3,0,6.15344,-2.19652,1.30849,-0.882626,0.664
0.0471426,0.0482589,0.0290472,0.0292645,0.000635032,1.02538e-26,0.000210329,-8.531e-06,3,0,6.13955,-2.22261,1.30347,-0.875441,0.668
0.0471452,0.0482589,0.0290481,0.0292645,0.00064253,6.83588e-27,0.000212812,-5.68733e-06,3,0,6.1255,-2.24885,1.2984,-0.873999,0.672
0.0471477,0.0482589,0.0290489,0.0292645,0.000650069,4.55725e-27,0.00021531,-3.79155e-06,3,0,6.11128,-2.27524,1.29326,-0.876405,0.676
0.0471504,0.0482589,0.0290498,0.0292645,0.000657651,3.03817e-27,0.000217821,-2.5277e-06,3,0,6.09689,-2.30178,1.28806,-0.881394,0.68
0.047153,0.0482589,0.0290507,0.0292645,0.000665276,2.02544e-27,0.000220346,-1.68513e-06,3,0,6.08234,-2.32847,1.2828,-0.888125,0.684
0.0471557,0.0482589,0.0290516,0.0292645,0.000672943,1.3503e-27,0.000222885,-1.12342e-06,3,0,6.06762,-2.3553,1.27748,-0.896036,0.688
0.0471584,0.0482592,0.0290525,0.0292645,0.000680652,2.87909e-05,0.000225439,-7.48949e-07,3,0,6.05463,-2.28151,1.2721,-0.904751,0.692
0.0471611,0.0482589,0.0290534,0.0292641,0.000688403,-9.59697e-06,0.000228006,-2.92902e-05,3,0,6.03767,-2.443,1.26459,-1.02919,0.696
0.0471639,0.0482589,0.0290543,0.0292648,0.000696197,-6.39798e-06,0.000230588,3.8055e-05,3,0,6.02244,-2.45908,1.26323,-0.77013,0.7
0.0471667,0.0482589,0.0290552,0.0292641,0.000704033,-4.26532e-06,0.000233183,-3.22118e-05,3,0,6.00704,-2.47904,1.25352,-1.06158,0.704
0.0471695,0.0482589,0.0290562,0.0292645,0.000711911,-2.84355e-06,0.000235792,7.31637e-06,3,0,5.99146,-2.50164,1.24997,-0.913903,0.708
0.0471724,0.0482589,0.0290571,0.0292645,0.000719831,-1.8957e-06,0.000238415,4.87758e-06,3,0,5.97572,-2.52604,1.24428,-0.934152,0.712
0.0471753,0.0482589,0.0290581,0.0292645,0.000727794,-1.2638e-06,0.000241053,3.25172e-06,3,0,5.95979,-2.5517,1.23852,-0.951204,0.716
0.0471782,0.0482589,0.029059,0.0292645,0.000735798,-8.42533e-07,0.000243704,2.16781e-06,3,0,5.94369,-2.57824,1.23271,-0.966145,0.72
0.0471812,0.0482589,0.02906,0.0292645,0.000743845,-5.61689e-07,0.000246369,1.44521e-06,3,0,5.92742,-2.60542,1.22682,-0.979696,0.724
0.0471842,0.0482589,0.029061,0.0292645,0.000751934,-3.74459e-07,0.000249048,9.63473e-07,3,0,5.91096,-2.63308,1.22088,-0.992339,0.728
0.0471872,0.0482589,0.029062,0.0292645,0.000760065,-2.49639e-07,0.000251741,6.42315e-07,3,0,5.89433,-2.6611,1.21487,-1.0044,0.732
0.0471902,0.0482589,0.029063,0.0292645,0.000768238,-1.66426e-07,0.000254448,4.2821e-07,3,0,5.87752,-2.68941,1.2088,-1.01608,0.736
0.0471933,0.0482592,0.029064,0.0292645,0.000776453,2.868e-05,0.000257169,2.85473e-07,3,0,5.86243,-2.6172,1.20266,-1.02753,0.74
0.0471965,0.0482592,0.0290651,0.0292645,0.000784709,1.912e-05,0.000259904,1.90316e-07,3,0,5.84526,-2.67956,1.19645,-1.03885,0.744
0.0471996,0.0482592,0.0290661,0.0292645,0.000793008,1.27467e-05,0.000262652,1.26877e-07,3,0,5.8279,-2.73092,1.19018,-1.0501,0.748
0.0472028,0.0482592,0.0290672,0.0292641,0.000801349,8.49777e-06,0.000265415,-2.87063e-05,3,0,5.81036,-2.77498,1.18177,-1.17649,0.752
0.047206,0.0482592,0.0290682,0.0292645,0.000809732,5.66518e-06,0.000268191,9.65336e-06,2,0,5.79264,-2.81423,1.17744,-1.03415,0.756
0.0472093,0.0482592,0.0290693,0.0292652,0.000818156,3.77679e-06,0.000270982,6.40174e-05,2,0,5.77473,-2.85033,1.17512,-0.827857,0.76
0.0472126,0.0482592,0.0290704,0.0292645,0.000826622,2.51786e-06,0.000273786,-1.49036e-05,2,0,5.75664,-2.88437,1.16443,-1.15476,0.764
0.0472159,0.0482592,0.0290715,0.0292645,0.00083513,1.67857e-06,0.000276604,-9.93571e-06,2,0,5.73836,-2.91708,1.15783,-1.14616,0.768
0.0472193,0.0482592,0.0290726,0.0292645,0.00084368,1.11905e-06,0.000279435,-6.62381e-06,2,0,5.7199,-2.94896,1.15116,-1.14424,0.772
0.0472226,0.0482592,0.0290737,0.0292645,0.000852272,7.46032e-07,0.000282281,-4.41587e-06,2,0,5.70124,-2.98034,1.14442,-1.14679,0.776
0.0472261,0.0482589,0.0290749,0.0292645,0.000860905,-2.82936e-05,0.000285141,-2.94391e-06,2,0,5.6805,-3.1122,1.13761,-1.15234,0.78
0.0472295,0.0482592,0.029076,0.0292645,0.00086958,9.92854e-06,0.000288014,-1.96261e-06,2,0,5.66336,-3.00878,1.13073,-1.15991,0.784
0.047233,0.0482592,0.0290772,0.0292645,0.000878297,6.61903e-06,0.000290901,-1.30841e-06,2,0,5.64413,-3.05087,1.12378,-1.16884,0.788
0.0472366,0.0482592,0.0290784,0.0292641,0.000887055,4.41269e-06,0.000293802,-2.96632e-05,2,0,5.62471,-3.08925,1.11469,-1.29386,0.792
0.0472401,0.0482592,0.0290795,0.0292645,0.000895855,2.94179e-06,0.000296716,9.01546e-06,2,0,5.6051,-3.1252,1.10968,-1.1508,0.796
0.0472437,0.0482592,0.0290807,0.0292645,0.000904697,1.96119e-06,0.000299645,6.01031e-06,2,0,5.5853,-3.15957,1.10252,-1.17454,0.8
0.0472474,0.0482589,0.0290819,0.0292645,0.00091358,-2.74835e-05,0.000302587,4.00687e-06,2,0,5.5634,-3.29372,1.0953,-1.19432,0.804
0.047251,0.0482592,0.0290831,0.0292645,0.000922505,1.04686e-05,0.000305543,2.67125e-06,2,0,5.5451,-3.19213,1.088,-1.21149,0.808
0.0472547,0.0482592,0.0290844,0.0292645,0.000931471,6.97908e-06,0.000308513,1.78083e-06,2,0,5.52471,-3.23572,1.08063,-1.22693,0.812
0.0472585,0.0482592,0.0290856,0.0292645,0.000940478,4.65272e-06,0.000311496,1.18722e-06,2,0,5.50411,-3.27539,1.07319,-1.24124,0.816
0.0472623,0.0482592,0.0290869,0.0292645,0.000949527,3.10181e-06,0.000314493,7.91481e-07,2,0,5.48332,-3.31249,1.06568,-1.25481,0.82
0.0472661,0.0482592,0.0290881,0.0292652,0.000958618,2.06787e-06,0.000317504,5.81095e-05,2,0,5.46233,-3.34793,1.06224,-1.03758,0.824
0.0472699,0.0482592,0.0290894,0.0292645,0.00096775,1.37858e-06,0.000320529,-1.88422e-05,2,0,5.44114,-3.3823,1.05044,-1.35748,0.828
0.0472738,0.0482589,0.0290907,0.0292645,0.000976923,-2.78719e-05,0.000323567,-1.25615e-05,1,0,5.41785,-3.51678,1.04271,-1.34451,0.832
0.0472777,0.0482592,0.029092,0.0292645,0.000986138,1.02097e-05,0.000326619,-8.3743e-06,1,0,5.39816,-3.41575,1.03491,-1.33997,0.836
0.0472817,0.0482592,0.0290933,0.0292645,0.000995394,6.80645e-06,0.000329685,-5.58287e-06,1,0,5.37636,-3.46006,1.02703,-1.34107,0.84
0.0472857,0.0482592,0.0290946,0.0292645,0.00100469,4.53763e-06,0.000332764,-3.72191e-06,1,0,5.35436,-3.50054,1.01908,-1.34594,0.844
0.0472897,0.0482592,0.029096,0.0292645,0.00101403,3.02509e-06,0.000335857,-2.48127e-06,1,0,5.33216,-3.53852,1.01106,-1.35335,0.848
0.0472938,0.0482592,0.0290973,0.0292641,0.00102341,2.01673e-06,0.000338964,-3.04451e-05,1,0,5.30974,-3.57487,1.00089,-1.47763,0.852
0.0472979,0.0482592,0.0290987,0.0292652,0.00103283,1.34448e-06,0.000342084,6.6076e-05,1,0,5.28713,-3.6102,0.998934,-1.10403,0.856
0.0473021,0.0482592,0.0291001,0.0292652,0.00104229,8.96323e-07,0.000345218,4.40507e-05,1,0,5.2643,-3.64489,0.990686,-1.20467,0.86
0.0473063,0.0482592,0.0291014,0.0292645,0.0010518,5.97549e-07,0.000348365,-2.82147e-05,1,0,5.24126,-3.67919,0.978217,-1.50632,0.864
0.0473105,0.0482592,0.0291028,0.0292652,0.00106134,3.98366e-07,0.000351527,3.8772e-05,1,0,5.21802,-3.7133,0.973965,-1.25102,0.868
0.0473148,0.0482592,0.0291043,0.0292645,0.00107093,2.65577e-07,0.000354701,-3.17338e-05,1,0,5.19457,-3.74731,0.961344,-1.54574,0.872
0.0473191,0.0482592,0.0291057,0.0292645,0.00108055,1.77051e-07,0.00035789,-2.11559e-05,1,0,5.1709,-3.78131,0.952793,-1.51618,0.876
0.0473234,0.0482592,0.0291071,0.0292652,0.00109022,1.18034e-07,0.000361092,4.34779e-05,1,0,5.14702,-3.81536,0.948311,-1.27046,0.88
0.0473278,0.0482592,0.0291086,0.0292645,0.00109993,7.86895e-08,0.000364307,-2.85966e-05,1,0,5.12293,-3.84947,0.935461,-1.57162,0.884
0.0473322,0.0482592,0.02911,0.0292648,0.00110968,5.24597e-08,0.000367537,9.72655e-06,1,0,5.09862,-3.88369,0.928751,-1.43124,0.888
0.0473367,0.0482592,0.0291115,0.0292652,0.00111947,3.49731e-08,0.000370779,3.52753e-05,1,0,5.0741,-3.91802,0.921965,-1.34202,0.892
0.0473412,0.0482592,0.029113,0.0292645,0.0011293,2.33154e-08,0.000374036,-3.4065e-05,1,0,5.04937,-3.95247,0.908881,-1.6324,0.896
0.0473457,0.0482592,0.0291145,0.0292641,0.00113917,1.55436e-08,0.000377306,-5.15009e-05,1,0,5.02441,-3.98705,0.897792,-1.71523,0.9
0.0473503,0.0482592,0.029116,0.0292641,0.00114909,1.03624e-08,0.000380589,-3.43339e-05,0,0,4.99924,-4.02176,0.888697,-1.65969,0.904
0.0473549,0.0482592,0.0291175,0.0292645,0.00115904,6.90827e-09,0.000383886,5.90163e-06,0,0,4.97385,-4.05662,0.881596,-1.51194,0.908
0.0473596,0.0482592,0.0291191,0.0292645,0.00116904,4.60551e-09,0.000387196,3.93442e-06,0,0,4.94825,-4.09161,0.872343,-1.53305,0.912
0.0473642,0.0482592,0.0291206,0.0292645,0.00117907,3.07034e-09,0.00039052,2.62295e-06,0,0,4.92242,-4.12674,0.863011,-1.55159,0.916
0.047369,0.0482592,0.0291222,0.0292645,0.00118915,2.0469e-09,0.000393858,1.74863e-06,0,0,4.89637,-4.16201,0.853598,-1.56844,0.92
0.0473738,0.0482592,0.0291238,0.0292645,0.00119926,1.3646e-09,0.000397209,1.16575e-06,0,0,4.87009,-4.19742,0.844106,-1.58417,0.924
0.0473786,0.0482592,0.0291254,0.0292645,0.00120942,9.09731e-10,0.000400573,7.77169e-07,0,0,4.8436,-4.23298,0.834532,-1.59918,0.928
0.0473834,0.0482592,0.029127,0.0292652,0.00121962,6.06487e-10,0.000403951,5.81e-05,0,0,4.81688,-4.26867,0.829024,-1.3834,0.932
0.0473883,0.0482592,0.0291286,0.0292648,0.00122986,4.04325e-10,0.000407343,9.94238e-06,0,0,4.78993,-4.30451,0.817215,-1.5896,0.936
0.0473933,0.0482592,0.0291303,0.0292645,0.00124014,2.6955e-10,0.000410747,-2.21627e-05,0,0,4.76276,-4.34049,0.805325,-1.73164,0.94
0.0473983,0.0482592,0.0291319,0.0292645,0.00125046,1.797e-10,0.000414166,-1.47751e-05,0,0,4.73537,-4.37662,0.795427,-1.71576,0.944
0.0474033,0.0482592,0.0291336,0.0292652,0.00126082,1.198e-10,0.000417597,4.77318e-05,0,0,4.70774,-4.41288,0.789591,-1.47946,0.948
0.0474083,0.0482592,0.0291352,0.0292648,0.00127123,7.98667e-11,0.000421043,3.03026e-06,0,0,4.67989,-4.44929,0.777455,-1.67205,0.952
0.0474134,0.0482592,0.0291369,0.0292652,0.00128167,5.32444e-11,0.000424501,3.08111e-05,0,0,4.65181,-4.48584,0.769381,-1.57476,0.956
0.0474186,0.0482592,0.0291386,0.0292645,0.00129215,3.54963e-11,0.000427973,-3.70411e-05,0,-1,4.6235,-4.52253,0.755006,-1.86006,0.96
0.0474238,0.0482592,0.0291404,0.0292645,0.00130267,2.36642e-11,0.000431459,-2.46941e-05,0,-1,4.59495,-4.55936,0.744692,-1.82461,0.964
0.047429,0.0482592,0.0291421,0.0292645,0.00131324,1.57761e-11,0.000434958,-1.64627e-05,0,-1,4.56618,-4.59633,0.734295,-1.80568,0.968
0.0474343,0.0482592,0.0291438,0.0292652,0.00132384,1.05174e-11,0.00043847,4.66067e-05,0,0,4.53717,-4.63345,0.72796,-1.56745,0.972
0.0474396,0.0482592,0.0291456,0.0292645,0.00133449,7.01161e-12,0.000441995,-2.65107e-05,0,-1,4.50793,-4.6707,0.713249,-1.87402,0.976
0.047445,0.0482592,0.0291474,0.0292652,0.00134517,4.67441e-12,0.000445534,3.9908e-05,0,0,4.47845,-4.7081,0.706744,-1.62251,0.98
0.0474504,0.0482592,0.0291492,0.0292641,0.0013559,3.11627e-12,0.000449087,-5.97674e-05,0,-1,4.44874,-4.74564,0.68979,-2.03542,0.984
0.0474558,0.0482592,0.029151,0.0292645,0.00136666,2.07752e-12,0.000452653,-1.1054e-05,0,-1,4.41879,-4.78332,0.681042,-1.85483,0.988
0.0474613,0.0482592,0.0291528,0.0292645,0.00137747,1.38501e-12,0.000456232,-7.36935e-06,0,-1,4.38861,-4.82114,0.670136,-1.8544,0.992
0.0474668,0.0482592,0.0291546,0.0292652,0.00138831,9.2334e-13,0.000459824,5.2669e-05,0,0,4.35819,-4.8591,0.663289,-1.62862,0.996
0.0474724,0.0482592,0.0291565,0.0292645,0.0013992,6.1556e-13,0.00046343,-2.24692e-05,0,-1,4.32752,-4.8972,0.648064,-1.9436,1
0.047478,0.0482592,0.0291583,0.0292645,0.00141013,4.10373e-13,0.000467049,-1.49795e-05,0,-1,4.29662,-4.93545,0.636898,-1.92811,1.004
0.0474837,0.0482592,0.0291602,0.0292645,0.00142109,2.73582e-13,0.000470681,-9.98632e-06,0,-1,4.26548,-4.97383,0.625645,-1.92267,1.008
0.0474894,0.0482592,0.0291621,0.0292645,0.0014321,1.82388e-13,0.000474327,-6.65755e-06,0,-1,4.23409,-5.01236,0.614305,-1.92394,1.012
0.0474951,0.0482592,0.029164,0.0292648,0.00144315,1.21592e-13,0.000477986,2.43526e-05,0,-1,4.20246,-5.05102,0.604951,-1.81453,1.016
0.0475009,0.0482592,0.0291659,0.0292645,0.00145424,8.10614e-14,0.000481658,-1.25559e-05,0,-1,4.17059,-5.08983,0.591362,-1.97685,1.02
0.0475068,0.0482592,0.0291679,0.0292645,0.00146536,5.40409e-14,0.000485343,-8.37059e-06,0,-1,4.13848,-5.12877,0.579758,-1.97486,1.024
0.0475127,0.0482592,0.0291698,0.0292645,0.00147653,3.60273e-14,0.000489042,-5.58039e-06,-1,-1,4.10612,-5.16786,0.568065,-1.97849,1.028
0.0475186,0.0482592,0.0291718,0.0292645,0.00148774,2.40182e-14,0.000492754,-3.72026e-06,-1,-1,4.07351,-5.20708,0.556284,-1.9859,1.032
0.0475246,0.0482592,0.0291737,0.0292645,0.00149899,1.60121e-14,0.000496479,-2.48017e-06,-1,-1,4.04066,-5.24645,0.544413,-1.99584,1.036
0.0475306,0.0482592,0.0291757,0.0292645,0.00151027,1.06748e-14,0.000500218,-1.65345e-06,-1,-1,4.00755,-5.28596,0.532453,-2.00749,1.04
0.0475367,0.0482592,0.0291777,0.0292645,0.0015216,7.1165e-15,0.00050397,-1.1023e-06,-1,-1,3.9742,-5.3256,0.520403,-2.02029,1.044
0.0475428,0.0482592,0.0291798,0.0292648,0.00153297,4.74433e-15,0.000507735,2.80561e-05,-1,-1,3.9406,-5.36539,0.510335,-1.91871,1.048
0.0475489,0.0482592,0.0291818,0.0292648,0.00154437,3.16289e-15,0.000511513,1.8704e-05,-1,-1,3.90675,-5.40531,0.498104,-1.97123,1.052
0.0475551,0.0482592,0.0291839,0.0292648,0.00155582,2.10859e-15,0.000515304,1.24694e-05,-1,-1,3.87265,-5.44538,0.485782,-2.01134,1.056
0.0475614,0.0482592,0.0291859,0.0292645,0.00156731,1.40573e-15,0.000519109,-2.0478e-05,-1,-1,3.8383,-5.48558,0.471296,-2.15835,1.06
0.0475677,0.0482592,0.029188,0.0292645,0.00157884,9.37153e-16,0.000522926,-1.3652e-05,-1,-1,3.80369,-5.52592,0.458792,-2.14631,1.064
0.047574,0.0482592,0.0291901,0.0292645,0.0015904,6.24768e-16,0.000526757,-9.10134e-06,-1,-1,3.76883,-5.56641,0.446196,-2.14343,1.068
0.0475804,0.0482592,0.0291922,0.0292645,0.00160201,4.16512e-16,0.000530601,-6.06756e-06,-1,-1,3.73371,-5.60703,0.433508,-2.14668,1.072
0.0475868,0.0482592,0.0291944,0.0292648,0.00161365,2.77675e-16,0.000534459,2.47459e-05,-1,-1,3.69834,-5.64779,0.4228,-2.03885,1.076
0.0475933,0.0482592,0.0291965,0.0292645,0.00162534,1.85117e-16,0.000538329,-1.22937e-05,-2,-1,3.66271,-5.68869,0.407854,-2.20249,1.08
0.0475998,0.0482592,0.0291987,0.0292645,0.00163706,1.23411e-16,0.000542213,-8.19578e-06,-2,-1,3.62682,-5.72973,0.394887,-2.20163,1.084
0.0476064,0.0482592,0.0292008,0.0292648,0.00164883,8.2274e-17,0.000546109,2.33271e-05,-2,-1,3.59068,-5.7709,0.3839,-2.09113,1.088
0.047613,0.0482592,0.029203,0.0292645,0.00166063,5.48494e-17,0.000550019,-1.32395e-05,-2,-1,3.55427,-5.81222,0.368674,-2.25303,1.092
0.0476197,0.0482592,0.0292052,0.0292645,0.00167248,3.65662e-17,0.000553942,-8.82636e-06,-2,-1,3.51761,-5.85368,0.355426,-2.25107,1.096
0.0476264,0.0482599,0.0292075,0.0292645,0.00168436,5.75818e-05,0.000557878,-5.88424e-06,-2,-1,3.48449,-5.69373,0.342084,-2.25505,1.1
0.0476331,0.0482599,0.0292097,0.0292645,0.00169629,3.83879e-05,0.000561827,-3.92283e-06,-2,-1,3.4473,-5.80264,0.328648,-2.263,1.104
0.04764,0.0482596,0.029212,0.0292645,0.00170825,-3.19899e-06,0.000565789,-2.61522e-06,-2,-1,3.40795,-5.99007,0.315117,-2.27362,1.108
0.0476468,0.0482596,0.0292142,0.0292648,0.00172025,-2.13266e-06,0.000569765,2.70474e-05,-2,-1,3.37023,-6.02834,0.303563,-2.17087,1.112
0.0476537,0.0482596,0.0292165,0.0292648,0.00173229,-1.42177e-06,0.000573753,1.80316e-05,-2,-1,3.33226,-6.068,0.289841,-2.22289,1.116
0.0476607,0.0482596,0.0292188,0.0292645,0.00174437,-9.47849e-07,0.000577754,-1.67698e-05,-2,-2,3.29401,-6.10863,0.27395,-2.3781,1.12
0.0476677,0.0482596,0.0292211,0.0292645,0.00175649,-6.319e-07,0.000581769,-1.11799e-05,-2,-2,3.2555,-6.14994,0.260035,-2.37179,1.124
0.0476747,0.0482596,0.0292235,0.0292645,0.00176865,-4.21266e-07,0.000585796,-7.45326e-06,-2,-2,3.21673,-6.19176,0.246025,-2.373,1.128
0.0476818,0.0482589,0.0292258,0.0292645,0.00178085,-5.78627e-05,0.000589837,-4.96884e-06,-3,-2,3.17388,-6.43551,0.231917,-2.37922,1.132
0.047689,0.0482596,0.0292282,0.0292648,0.00179309,1.90067e-05,0.00059389,2.54784e-05,-3,-2,3.13837,-6.2093,0.219785,-2.27365,1.136
0.0476962,0.0482592,0.0292306,0.0292645,0.00180537,-1.61198e-05,0.000597957,-1.18053e-05,-3,-2,3.09689,-6.37521,0.20341,-2.43905,1.14
0.0477034,0.0482596,0.029233,0.0292648,0.00181769,1.80444e-05,0.000602037,2.09207e-05,-3,-2,3.05893,-6.29875,0.191083,-2.32446,1.144
0.0477107,0.0482596,0.0292354,0.0292645,0.00183004,1.20296e-05,0.000606129,-1.48438e-05,-3,-2,3.01881,-6.36305,0.174512,-2.48389,1.148
0.047718,0.0482596,0.0292378,0.0292645,0.00184244,8.01974e-06,0.000610235,-9.89586e-06,-3,-2,2.97841,-6.42047,0.159916,-2.48052,1.152
0.0477254,0.0482596,0.0292403,0.0292648,0.00185487,5.34649e-06,0.000614353,2.21937e-05,-3,-2,2.93774,-6.47335,0.147294,-2.36864,1.156
0.0477329,0.0482596,0.0292427,0.0292645,0.00186735,3.56433e-06,0.000618485,-1.39951e-05,-3,-2,2.8968,-6.52324,0.130427,-2.52992,1.16
0.0477404,0.0482596,0.0292452,0.0292648,0.00187986,2.37622e-06,0.000622629,1.94608e-05,-3,-2,2.85558,-6.5712,0.117607,-2.41267,1.164
0.0477479,0.0482596,0.0292477,0.0292645,0.00189241,1.58415e-06,0.000626787,-1.5817e-05,-3,-2,2.81408,-6.6179,0.100541,-2.57042,1.168
0.0477555,0.0482596,0.0292502,0.0292645,0.00190501,1.0561e-06,0.000630957,-1.05447e-05,-3,-2,2.77231,-6.66382,0.0854478,-2.56601,1.172
0.0477632,0.0482596,0.0292528,0.0292645,0.00191764,7.04065e-07,0.000635141,-7.02979e-06,-3,-2,2.73026,-6.70926,0.0702547,-2.56868,1.176
0.0477709,0.0482596,0.0292553,0.0292645,0.00193031,4.69376e-07,0.000639337,-4.68653e-06,-4,-2,2.68793,-6.75443,0.054961,-2.57609,1.18
0.0477786,0.0482596,0.0292579,0.0292645,0.00194301,3.12918e-07,0.000643546,-3.12435e-06,-4,-2,2.64533,-6.79945,0.0395664,-2.58668,1.184
0.0477864,0.0482596,0.0292605,0.0292645,0.00195576,2.08612e-07,0.000647768,-2.0829e-06,-4,-2,2.60244,-6.84443,0.0240706,-2.5994,1.188
0.0477943,0.0482596,0.0292631,0.0292645,0.00196855,1.39074e-07,0.000652003,-1.3886e-06,-4,-2,2.55927,-6.88943,0.00847342,-2.61357,1.192
0.0478022,0.0482596,0.0292657,0.0292645,0.00198137,9.27163e-08,0.000656251,-9.25734e-07,-4,-2,2.51583,-6.93448,-0.0072256,-2.62871,1.196
0.0478101,0.0482596,0.0292683,0.0292645,0.00199424,6.18109e-08,0.000660512,-6.17156e-07,-4,-2,2.47209,-6.97962,-0.0230267,-2.64452,1.2
0.0478181,0.0482596,0.029271,0.0292645,0.00200714,4.12073e-08,0.000664785,-4.11437e-07,-4,-2,2.42808,-7.02485,-0.0389303,-2.66079,1.204
0.0478262,0.0482596,0.0292736,0.0292645,0.00202008,2.74715e-08,0.000669072,-2.74292e-07,-4,-2,2.38378,-7.07019,-0.0549365,-2.67739,1.208
0.0478343,0.0482596,0.0292763,0.0292648,0.00203306,1.83143e-08,0.000673371,2.86081e-05,-4,-2,2.33919,-7.11566,-0.0689729,-2.57905,1.212
0.0478424,0.0482596,0.029279,0.0292648,0.00204608,1.22096e-08,0.000677684,1.9072e-05,-4,-2,2.29432,-7.16125,-0.0851855,-2.63445,1.216
0.0478506,0.0482596,0.0292817,0.0292645,0.00205914,8.13971e-09,0.000682009,-1.60762e-05,-4,-2,2.24917,-7.20697,-0.103575,-2.79234,1.22
0.0478589,0.0482596,0.0292845,0.0292648,0.00207224,5.42647e-09,0.000686347,1.80734e-05,-5,-2,2.20372,-7.25282,-0.117922,-2.67309,1.224
0.0478672,0.0482596,0.0292872,0.0292645,0.00208537,3.61765e-09,0.000690697,-1.6742e-05,-5,-2,2.15799,-7.2988,-0.136519,-2.82976,1.228
0.0478756,0.0482596,0.02929,0.0292645,0.00209855,2.41176e-09,0.000695061,-1.11613e-05,-5,-2,2.11196,-7.34491,-0.153149,-2.82489,1.232
0.047884,0.0482596,0.0292928,0.0292645,0.00211176,1.60784e-09,0.000699437,-7.44087e-06,-5,-2,2.06565,-7.39116,-0.169883,-2.82751,1.236
0.0478925,0.0482596,0.0292956,0.0292645,0.00212501,1.0719e-09,0.000703826,-4.96058e-06,-5,-3,2.01905,-7.43755,-0.186722,-2.83515,1.24
0.047901,0.0482596,0.0292984,0.0292645,0.0021383,7.14597e-10,0.000708228,-3.30705e-06,-5,-3,1.97215,-7.48406,-0.203666,-2.84614,1.244
0.0479096,0.0482596,0.0293013,0.0292648,0.00215163,4.76398e-10,0.000712643,2.65862e-05,-5,-2,1.92496,-7.53072,-0.218644,-2.74423,1.248
0.0479182,0.0482596,0.0293041,0.0292645,0.002165,3.17599e-10,0.000717071,-1.10668e-05,-5,-3,1.87748,-7.5775,-0.237873,-2.91255,1.252
0.0479269,0.0482596,0.029307,0.0292648,0.00217841,2.11732e-10,0.000721511,2.14131e-05,-5,-3,1.8297,-7.62443,-0.253063,-2.80039,1.256
0.0479356,0.0482596,0.0293099,0.0292648,0.00219185,1.41155e-10,0.000725964,1.42754e-05,-5,-3,1.78163,-7.67148,-0.270433,-2.84675,1.26
0.0479444,0.0482596,0.0293128,0.0292645,0.00220534,9.41033e-11,0.00073043,-1.9274e-05,-5,-3,1.73326,-7.71867,-0.289983,-2.99881,1.264
0.0479533,0.0482596,0.0293157,0.0292645,0.00221886,6.27355e-11,0.000734908,-1.28493e-05,-6,-3,1.68459,-7.766,-0.307567,-2.99103,1.268
0.0479622,0.0482596,0.0293187,0.0292648,0.00223242,4.18237e-11,0.000739399,2.02247e-05,-6,-3,1.63563,-7.81346,-0.323185,-2.8767,1.272
0.0479711,0.0482596,0.0293217,0.0292645,0.00224602,2.78825e-11,0.000743903,-1.53078e-05,-6,-3,1.58637,-7.86105,-0.343058,-3.03684,1.276
0.0479802,0.0482596,0.0293246,0.0292648,0.00225965,1.85883e-11,0.00074842,1.85857e-05,-6,-3,1.5368,-7.90878,-0.358893,-2.91934,1.28
0.0479892,0.0482603,0.0293276,0.0292645,0.00227333,5.75819e-05,0.000752949,-1.64004e-05,-6,-3,1.49074,-7.75511,-0.378982,-3.0774,1.284
0.0479983,0.0482599,0.0293307,0.0292645,0.00228704,9.59698e-06,0.000757491,-1.09336e-05,-6,-3,1.43868,-7.97105,-0.397107,-3.0737,1.288
0.0480075,0.0482603,0.0293337,0.0292645,0.00230079,3.51889e-05,0.000762046,-7.28908e-06,-6,-3,1.39011,-7.92961,-0.415342,-3.07734,1.292
0.0480168,0.0482599,0.0293368,0.0292645,0.00231458,-5.33165e-06,0.000766613,-4.85939e-06,-6,-3,1.33744,-8.1197,-0.433686,-3.08589,1.296
0.048026,0.0482592,0.0293398,0.0292645,0.00232841,-6.11363e-05,0.000771193,-3.23959e-06,-7,-3,1.28257,-8.36341,-0.452139,-3.09773,1.3
0.0480354,0.0482599,0.0293429,0.0292648,0.00234228,1.68243e-05,0.000775786,2.66312e-05,-6,-3,1.23499,-8.13908,-0.46863,-2.99662,1.304
0.0480448,0.0482599,0.029346,0.0292648,0.00235618,1.12162e-05,0.000780391,1.77541e-05,-7,-3,1.18331,-8.20738,-0.487304,-3.05055,1.308
0.0480542,0.0482599,0.0293492,0.0292648,0.00237012,7.47748e-06,0.000785009,1.18361e-05,-7,-3,1.13132,-8.26926,-0.506089,-3.09269,1.312
0.0480637,0.0482603,0.0293523,0.0292645,0.00238411,3.37759e-05,0.00078964,-2.09002e-05,-7,-3,1.08092,-8.22615,-0.527058,-3.24216,1.316
0.0480733,0.0482599,0.0293555,0.0292648,0.00239812,-6.27365e-06,0.000794283,1.48575e-05,-7,-3,1.02642,-8.41539,-0.543992,-3.1177,1.32
0.0480829,0.0482592,0.0293587,0.0292648,0.00241218,-6.17643e-05,0.000798939,9.90497e-06,-7,-3,0.969705,-8.65881,-0.56311,-3.15614,1.324
0.0480926,0.0482599,0.0293619,0.0292648,0.00242628,1.64057e-05,0.000803608,6.60331e-06,-7,-3,0.920282,-8.43455,-0.582341,-3.18802,1.328
0.0481023,0.0482599,0.0293651,0.0292648,0.00244041,1.09371e-05,0.000808289,4.40221e-06,-7,-3,0.866749,-8.50316,-0.601684,-3.21555,1.332
0.0481121,0.0482599,0.0293683,0.0292648,0.00245458,7.2914e-06,0.000812982,2.93481e-06,-7,-3,0.812904,-8.56551,-0.621139,-3.24019,1.336
0.048122,0.0482599,0.0293716,0.0292648,0.00246879,4.86094e-06,0.000817689,1.95654e-06,-7,-3,0.758747,-8.62375,-0.640707,-3.26293,1.34
0.0481319,0.0482599,0.0293749,0.0292645,0.00248304,3.24062e-06,0.000822407,-2.74866e-05,-7,-4,0.704277,-8.67929,-0.662461,-3.39958,1.344
0.0481418,0.0482599,0.0293782,0.0292645,0.00249732,2.16042e-06,0.000827139,-1.83244e-05,-8,-4,0.649493,-8.73307,-0.682256,-3.38185,1.348
0.0481519,0.0482599,0.0293815,0.0292648,0.00251165,1.44028e-06,0.000831883,1.65747e-05,-8,-3,0.594395,-8.78572,-0.700091,-3.26123,1.352
0.0481619,0.0482599,0.0293848,0.0292648,0.00252601,9.60185e-07,0.000836639,1.10498e-05,-8,-4,0.538981,-8.83766,-0.720113,-3.30236,1.356
0.0481721,0.0482599,0.0293882,0.0292645,0.00254041,6.40123e-07,0.000841408,-2.14244e-05,-8,-4,0.48325,-8.88918,-0.742323,-3.45133,1.36
0.0481823,0.0482599,0.0293916,0.0292648,0.00255484,4.26749e-07,0.00084619,1.4508e-05,-8,-4,0.427202,-8.94045,-0.760501,-3.32673,1.364
0.0481925,0.0482599,0.029395,0.0292648,0.00256932,2.84499e-07,0.000850984,9.67199e-06,-8,-4,0.370837,-8.99161,-0.780867,-3.36525,1.368
0.0482028,0.0482599,0.0293984,0.0292648,0.00258383,1.89666e-07,0.00085579,6.448e-06,-8,-4,0.314152,-9.04273,-0.801348,-3.39737,1.372
0.0482132,0.0482599,0.0294018,0.0292648,0.00259838,1.26444e-07,0.000860609,4.29866e-06,-8,-4,0.257148,-9.09388,-0.821945,-3.42524,1.376
0.0482236,0.0482599,0.0294053,0.0292648,0.00261297,8.42961e-08,0.000865441,2.86578e-06,-8,-4,0.199823,-9.14508,-0.842657,-3.4503,1.38
0.0482341,0.0482599,0.0294087,0.0292648,0.00262759,5.61974e-08,0.000870285,1.91052e-06,-9,-4,0.142177,-9.19637,-0.863486,-3.4735,1.384
0.0482446,0.0482599,0.0294122,0.0292648,0.00264225,3.74649e-08,0.000875141,1.27368e-06,-9,-4,0.0842091,-9.24776,-0.884431,-3.49547,1.388
0.0482552,0.0482599,0.0294157,0.0292648,0.00265695,2.49766e-08,0.00088001,8.49119e-07,-9,-4,0.0259178,-9.29925,-0.905493,-3.51664,1.392
0.0482659,0.0482596,0.0294193,0.0292645,0.00267169,-2.87743e-05,0.000884892,-2.82248e-05,-9,-4,-0.0345974,-9.45163,-0.928745,-3.65247,1.396
0.0482766,0.0482599,0.0294228,0.0292648,0.00268647,9.60808e-06,0.000889785,9.97436e-06,-9,-4,-0.0916369,-9.36901,-0.947968,-3.51924,1.4
0.0482874,0.0482596,0.0294264,0.0292648,0.00270128,-2.23855e-05,0.000894692,6.64957e-06,-9,-4,-0.152802,-9.53283,-0.969382,-3.55217,1.404
0.0482982,0.0482603,0.02943,0.0292648,0.00271613,4.26582e-05,0.000899611,4.43305e-06,-9,-4,-0.208593,-9.35716,-0.990913,-3.58071,1.408
0.0483091,0.0482603,0.0294336,0.0292648,0.00273102,2.84388e-05,0.000904542,2.95537e-06,-9,-4,-0.268512,-9.45903,-1.01256,-3.60635,1.412
0.04832,0.0482603,0.0294372,0.0292648,0.00274595,1.89592e-05,0.000909485,1.97024e-06,-9,-4,-0.328758,-9.54445,-1.03433,-3.63006,1.416
0.0483311,0.0482603,0.0294409,0.0292648,0.00276091,1.26395e-05,0.000914441,1.3135e-06,-10,-4,-0.389334,-9.61894,-1.05622,-3.65251,1.42
0.0483421,0.048261,0.0294445,0.0292648,0.00277591,6.60082e-05,0.00091941,8.75664e-07,-9,-4,-0.446438,-9.48465,-1.07822,-3.67414,1.424
0.0483533,0.0482603,0.0294482,0.0292648,0.00279095,-1.35764e-05,0.00092439,5.83776e-07,-10,-4,-0.511474,-9.81583,-1.10035,-3.69523,1.428
0.0483645,0.0482603,0.0294519,0.0292648,0.00280602,-9.05094e-06,0.000929383,3.89184e-07,-10,-4,-0.573041,-9.85276,-1.1226,-3.71598,1.432
0.0483757,0.0482599,0.0294557,0.0292648,0.00282114,-3.48249e-05,0.000934389,2.59456e-07,-10,-4,-0.63684,-9.99586,-1.14496,-3.73652,1.436
0.048387,0.0482603,0.0294594,0.0292648,0.00283629,5.57433e-06,0.000939407,1.72971e-07,-10,-4,-0.697171,-9.90749,-1.16745,-3.75694,1.44
0.0483984,0.0482603,0.0294632,0.0292648,0.00285147,3.71622e-06,0.000944437,1.15314e-07,-10,-4,-0.759736,-9.96715,-1.19005,-3.77729,1.444
0.0484098,0.0482599,0.029467,0.0292648,0.0028667,-2.63134e-05,0.000949479,7.68759e-08,-10,-5,-0.824536,-10.1255,-1.21278,-3.79761,1.448
0.0484213,0.0482606,0.0294708,0.0292648,0.00288196,4.00396e-05,0.000954534,5.12506e-08,-10,-5,-0.883971,-9.94672,-1.23563,-3.81793,1.452
0.0484329,0.0482606,0.0294746,0.0292648,0.00289726,2.6693e-05,0.000959602,3.4167e-08,-10,-5,-0.947542,-10.047,-1.2586,-3.83827,1.456
0.0484445,0.0482606,0.0294784,0.0292648,0.00291259,1.77954e-05,0.000964681,2.2778e-08,-11,-5,-1.01145,-10.1318,-1.28169,-3.85863,1.46
0.0484562,0.0482606,0.0294823,0.0292648,0.00292797,1.18636e-05,0.000969773,1.51854e-08,-11,-5,-1.0757,-10.2064,-1.3049,-3.87903,1.464
0.0484679,0.0482606,0.0294862,0.0292648,0.00294338,7.90905e-06,0.000974877,1.01236e-08,-11,-5,-1.14028,-10.2741,-1.32824,-3.89947,1.468
0.0484797,0.0482606,0.0294901,0.0292648,0.00295883,5.2727e-06,0.000979993,6.74905e-09,-11,-5,-1.20521,-10.3374,-1.3517,-3.91995,1.472
0.0484916,0.0482606,0.029494,0.0292648,0.00297431,3.51513e-06,0.000985122,4.49936e-09,-11,-5,-1.27047,-10.3978,-1.37528,-3.94047,1.476
0.0485035,0.0482606,0.029498,0.0292648,0.00298983,2.34342e-06,0.000990263,2.99958e-09,-11,-5,-1.33608,-10.4562,-1.39898,-3.96104,1.48
0.0485155,0.0482606,0.029502,0.0292648,0.00300539,1.56228e-06,0.000995416,1.99972e-09,-11,-5,-1.40202,-10.5134,-1.42281,-3.98166,1.484
0.0485276,0.0482606,0.029506,0.0292648,0.00302099,1.04152e-06,0.00100058,1.33314e-09,-12,-5,-1.46831,-10.5698,-1.44676,-4.00232,1.488
0.0485397,0.0482606,0.02951,0.0292648,0.00303662,6.94347e-07,0.00100576,8.88763e-10,-12,-5,-1.53495,-10.6257,-1.47084,-4.02304,1.492
0.0485519,0.0482606,0.029514,0.0292648,0.00305229,4.62898e-07,0.00101095,5.92509e-10,-12,-5,-1.60192,-10.6814,-1.49504,-4.0438,1.496
0.0485641,0.048261,0.0295181,0.0292648,0.003068,2.90995e-05,0.00101615,3.95006e-10,-12,-5,-1.66735,-10.6361,-1.51936,-4.06461,1.5
0.0485764,0.0482613,0.0295221,0.0292648,0.00308374,4.81906e-05,0.00102137,2.63337e-10,-12,-5,-1.73312,-10.6244,-1.54381,-4.08546,1.504
0.0485888,0.0482613,0.0295262,0.0292648,0.00309952,3.21271e-05,0.00102659,1.75558e-10,-12,-5,-1.80113,-10.7359,-1.56839,-4.10637,1.508
0.0486012,0.0482613,0.0295303,0.0292648,0.00311534,2.1418e-05,0.00103183,1.17039e-10,-12,-5,-1.8695,-10.8287,-1.59309,-4.12733,1.512
0.0486137,0.0482613,0.0295345,0.0292648,0.00313119,1.42787e-05,0.00103708,7.80259e-11,-12,-5,-1.93821,-10.9092,-1.61792,-4.14833,1.516
0.0486263,0.0482613,0.0295386,0.0292648,0.00314708,9.51913e-06,0.00104235,5.20172e-11,-12,-5,-2.00727,-10.9815,-1.64287,-4.16938,1.52
0.0486389,0.0482613,0.0295428,0.0292648,0.00316301,6.34609e-06,0.00104762,3.46782e-11,-13,-5,-2.07668,-11.0483,-1.66795,-4.19049,1.524
0.0486516,0.0482613,0.029547,0.0292648,0.00317898,4.23073e-06,0.00105291,2.31188e-11,-13,-5,-2.14644,-11.1116,-1.69316,-4.21164,1.528
0.0486643,0.0482613,0.0295512,0.0292648,0.00319498,2.82048e-06,0.00105821,1.54125e-11,-13,-5,-2.21655,-11.1725,-1.71849,-4.23284,1.532
0.0486771,0.048261,0.0295555,0.0292648,0.00321101,-2.69106e-05,0.00106352,1.0275e-11,-13,-5,-2.28892,-11.3327,-1.74395,-4.25408,1.536
0.04869,0.0482613,0.0295597,0.0292648,0.00322709,1.08505e-05,0.00106884,6.85001e-12,-13,-6,-2.35784,-11.2568,-1.76954,-4.27538,1.54
0.0487029,0.0482613,0.029564,0.0292648,0.0032432,7.23368e-06,0.00107418,4.56667e-12,-13,-6,-2.42901,-11.3259,-1.79526,-4.29672,1.544
0.0487159,0.048262,0.0295683,0.0292648,0.00325935,6.24043e-05,0.00107953,3.04445e-12,-13,-6,-2.49674,-11.1893,-1.8211,-4.31812,1.548
0.048729,0.048261,0.0295727,0.0292648,0.00327553,-4.47699e-05,0.00108489,2.02963e-12,-14,-6,-2.57432,-11.6211,-1.84707,-4.33956,1.552
0.0487422,0.048262,0.029577,0.0292648,0.00329175,5.65262e-05,0.00109026,1.35309e-12,-13,-6,-2.64086,-11.3233,-1.87317,-4.36105,1.556
0.0487554,0.0482613,0.0295814,0.0292648,0.00330801,-1.98977e-05,0.00109565,9.02059e-13,-14,-6,-2.71726,-11.6477,-1.89941,-4.38259,1.56
0.0487686,0.0482617,0.0295858,0.0292648,0.0033243,1.55258e-05,0.00110104,6.01372e-13,-14,-6,-2.78832,-11.5807,-1.92577,-4.40417,1.564
0.0487819,0.0482617,0.0295902,0.0292648,0.00334064,1.03505e-05,0.00110645,4.00915e-13,-14,-6,-2.86163,-11.656,-1.95226,-4.42581,1.568
0.0487953,0.0482617,0.0295946,0.0292648,0.003357,6.90034e-06,0.00111187,2.67277e-13,-14,-6,-2.93531,-11.7254,-1.97888,-4.44749,1.572
0.0488088,0.0482617,0.0295991,0.0292648,0.00337341,4.60023e-06,0.00111731,1.78184e-13,-14,-6,-3.00934,-11.7908,-2.00563,-4.46922,1.576
0.0488223,0.0482617,0.0296036,0.0292648,0.00338985,3.06682e-06,0.00112275,1.1879e-13,-14,-6,-3.08374,-11.8537,-2.03251,-4.491,1.58
0.0488359,0.0482617,0.0296081,0.0292648,0.00340632,2.04455e-06,0.00112821,7.91931e-14,-15,-6,-3.15849,-11.915,-2.05952,-4.51283,1.584
0.0488496,0.0482617,0.0296126,0.0292648,0.00342283,1.36303e-06,0.00113368,5.27954e-14,-15,-6,-3.23361,-11.9751,-2.08666,-4.53471,1.588
0.0488633,0.0482617,0.0296171,0.0292648,0.00343938,9.08687e-07,0.00113916,3.51969e-14,-15,-6,-3.3091,-12.0347,-2.11393,-4.55663,1.592
0.0488771,0.048262,0.0296217,0.0292648,0.00345597,2.93967e-05,0.00114465,2.34646e-14,-15,-6,-3.38305,-11.993,-2.14134,-4.57861,1.596
0.048891,0.0482623,0.0296263,0.0292648,0.00347259,4.83887e-05,0.00115016,1.56431e-14,-15,-6,-3.45736,-11.9847,-2.16888,-4.60063,1.6
0.0489049,0.048263,0.0296309,0.0292648,0.00348925,8.9841e-05,0.00115567,1.04287e-14,-15,-6,-3.53014,-11.8979,-2.19655,-4.6227,1.604
0.0489189,0.048262,0.0296355,0.0292648,0.00350594,-2.64788e-05,0.0011612,6.95248e-15,-15,-6,-3.61279,-12.3635,-2.22435,-4.64481,1.608
0.0489329,0.0482627,0.0296402,0.0292648,0.00352267,3.99293e-05,0.00116674,4.63499e-15,-15,-6,-3.6863,-12.1896,-2.25229,-4.66698,1.612
0.048947,0.0482627,0.0296449,0.0292648,0.00353944,2.66196e-05,0.0011723,3.08999e-15,-16,-6,-3.76398,-12.2949,-2.28035,-4.68919,1.616
0.0489612,0.0482627,0.0296496,0.0292648,0.00355624,1.77464e-05,0.00117786,2.05999e-15,-16,-7,-3.84204,-12.3847,-2.30856,-4.71145,1.62
0.0489755,0.0482627,0.0296543,0.0292648,0.00357308,1.18309e-05,0.00118344,1.37333e-15,-16,-7,-3.92046,-12.4644,-2.33689,-4.73376,1.624
0.0489898,0.0482627,0.0296591,0.0292648,0.00358995,7.88728e-06,0.00118903,9.15553e-16,-16,-7,-3.99925,-12.5372,-2.36536,-4.75611,1.628
0.0490042,0.0482627,0.0296638,0.0292648,0.00360686,5.25818e-06,0.00119463,6.10368e-16,-16,-7,-4.07842,-12.6056,-2.39397,-4.77852,1.632
0.0490187,0.0482627,0.0296686,0.0292648,0.00362381,3.50546e-06,0.00120024,4.06912e-16,-16,-7,-4.15796,-12.6711,-2.4227,-4.80097,1.636
0.0490332,0.0482627,0.0296734,0.0292648,0.00364079,2.33697e-06,0.00120587,2.71275e-16,-16,-7,-4.23787,-12.7346,-2.45158,-4.82347,1.64
0.0490478,0.0482627,0.0296783,0.0292648,0.00365781,1.55798e-06,0.0012115,1.8085e-16,-17,-7,-4.31815,-12.7969,-2.48059,-4.84602,1.644
0.0490625,0.0482627,0.0296831,0.0292648,0.00367487,1.03865e-06,0.00121715,1.20567e-16,-17,-7,-4.39881,-12.8584,-2.50973,-4.86861,1.648
0.0490772,0.0482627,0.029688,0.0292648,0.00369196,6.92436e-07,0.00122281,8.03777e-17,-17,-7,-4.47984,-12.9194,-2.53901,-4.89125,1.652
0.049092,0.0482627,0.0296929,0.0292648,0.00370908,4.61624e-07,0.00122849,5.35852e-17,-17,-7,-4.56126,-12.9802,-2.56842,-4.91394,1.656
0.0491069,0.0482634,0.0296978,0.0292648,0.00372624,5.78896e-05,0.00123417,3.57234e-17,-17,-7,-4.63924,-12.8392,-2.59798,-4.93668,1.66
0.0491218,0.0482627,0.0297028,0.0292648,0.00374344,-1.89888e-05,0.00123987,2.38156e-17,-17,-7,-4.72521,-13.1685,-2.62766,-4.95947,1.664
0.0491368,0.0482623,0.0297077,0.0292648,0.00376068,-4.14501e-05,0.00124557,1.58771e-17,-18,-7,-4.80966,-13.3074,-2.65749,-4.9823,1.668
0.0491519,0.048263,0.0297127,0.0292648,0.00377795,2.99484e-05,0.00125129,1.05847e-17,-18,-7,-4.88878,-13.118,-2.68745,-5.00518,1.672
0.049167,0.048263,0.0297177,0.0292648,0.00379525,1.99656e-05,0.00125703,7.05648e-18,-18,-7,-4.97209,-13.2135,-2.71755,-5.0281,1.676
0.0491823,0.048263,0.0297228,0.0292648,0.00381259,1.33104e-05,0.00126277,4.70432e-18,-18,-7,-5.05577,-13.2975,-2.74779,-5.05108,1.68
0.0491975,0.048263,0.0297279,0.0292648,0.00382997,8.87361e-06,0.00126853,3.13621e-18,-18,-7,-5.13984,-13.3738,-2.77817,-5.0741,1.684
0.0492129,0.048263,0.0297329,0.0292648,0.00384738,5.91574e-06,0.00127429,2.09081e-18,-18,-7,-5.22429,-13.4451,-2.80868,-5.09717,1.688
0.0492283,0.048263,0.029738,0.0292648,0.00386483,3.94383e-06,0.00128007,1.39387e-18,-18,-7,-5.30913,-13.5131,-2.83933,-5.12029,1.692
0.0492438,0.048263,0.0297432,0.0292648,0.00388232,2.62922e-06,0.00128586,9.29249e-19,-18,-8,-5.39434,-13.5789,-2.87012,-5.14345,1.696
0.0492594,0.048263,0.0297483,0.0292648,0.00389984,1.75281e-06,0.00129167,6.19499e-19,-19,-8,-5.47995,-13.6433,-2.90105,-5.16666,1.7
0.049275,0.048263,0.0297535,0.0292648,0.00391739,1.16854e-06,0.00129748,4.12999e-19,-19,-8,-5.56594,-13.7068,-2.93212,-5.18992,1.704
0.0492907,0.0482627,0.0297587,0.0292648,0.00393498,-2.80119e-05,0.00130331,2.75333e-19,-19,-8,-5.65421,-13.8705,-2.96333,-5.21322,1.708
0.0493065,0.0482634,0.0297639,0.0292648,0.00395261,3.89073e-05,0.00130914,1.83555e-19,-19,-8,-5.73718,-13.698,-2.99468,-5.23658,1.712
0.0493223,0.0482634,0.0297692,0.0292648,0.00397027,2.59382e-05,0.00131499,1.2237e-19,-19,-8,-5.82433,-13.8052,-3.02617,-5.25998,1.716
0.0493383,0.0482637,0.0297745,0.0292648,0.00398797,4.6083e-05,0.00132086,8.15801e-20,-19,-8,-5.90997,-13.7966,-3.0578,-5.28342,1.72
0.0493543,0.0482637,0.0297798,0.0292648,0.0040057,3.0722e-05,0.00132673,5.43867e-20,-19,-8,-5.9979,-13.9124,-3.08957,-5.30692,1.724
0.0493703,0.0482637,0.0297851,0.0292648,0.00402347,2.04813e-05,0.00133261,3.62578e-20,-20,-8,-6.08622,-14.0105,-3.12148,-5.33046,1.728
0.0493864,0.0482637,0.0297904,0.0292648,0.00404127,1.36542e-05,0.00133851,2.41719e-20,-20,-8,-6.17493,-14.0967,-3.15354,-5.35404,1.732
0.0494026,0.0482641,0.0297958,0.0292648,0.00405911,3.78937e-05,0.00134442,1.61146e-20,-20,-8,-6.26214,-14.0743,-3.18573,-5.37768,1.736
0.0494189,0.0482644,0.0298012,0.0292648,0.00407699,5.40534e-05,0.00135034,1.07431e-20,-20,-8,-6.34973,-14.0803,-3.21807,-5.40136,1.74
0.0494353,0.0482644,0.0298066,0.0292648,0.0040949,3.60356e-05,0.00135627,7.16204e-21,-20,-8,-6.43962,-14.206,-3.25055,-5.42509,1.744
0.0494517,0.0482648,0.029812,0.0292648,0.00411284,5.28147e-05,0.00136222,4.77469e-21,-20,-8,-6.52801,-14.2101,-3.28317,-5.44886,1.748
0.0494682,0.0482658,0.0298175,0.0292648,0.00413082,0.000121583,0.00136817,3.18313e-21,-20,-8,-6.61299,-14.0323,-3.31594,-5.47268,1.752
0.0494847,0.0482658,0.029823,0.0292648,0.00414884,8.1055e-05,0.00137414,2.12209e-21,-20,-8,-6.70406,-14.2372,-3.34884,-5.49655,1.756
0.0495013,0.0482661,0.0298285,0.0292648,0.00416689,8.28276e-05,0.00138012,1.41472e-21,-21,-8,-6.79364,-14.2942,-3.38189,-5.52047,1.76
0.0495181,0.0482672,0.029834,0.0292648,0.00418498,0.000141591,0.00138611,9.43149e-22,-21,-8,-6.87981,-14.1518,-3.41509,-5.54443,1.764
0.0495348,0.0482682,0.0298396,0.0292648,0.0042031,0.000180767,0.00139211,6.28766e-22,-21,-9,-6.96637,-14.0782,-3.44843,-5.56844,1.768
0.0495517,0.0482693,0.0298451,0.0292648,0.00422125,0.000206884,0.00139812,4.19178e-22,-21,-9,-7.05334,-14.0503,-3.48191,-5.59249,1.772
0.0495686,0.0482703,0.0298507,0.0292648,0.00423945,0.000224295,0.00140415,2.79452e-22,-21,-9,-7.14071,-14.053,-3.51554,-5.61659,1.776
0.0495856,0.048271,0.0298564,0.0292648,0.00425767,0.000207112,0.00141018,1.86301e-22,-21,-9,-7.23038,-14.177,-3.54931,-5.64074,1.78
0.0496027,0.048272,0.029862,0.0292648,0.00427594,0.000224448,0.00141623,1.24201e-22,-21,-9,-7.31855,-14.1802,-3.58323,-5.66493,1.784
0.0496198,0.0482731,0.0298677,0.0292648,0.00429423,0.000236004,0.00142229,8.28005e-23,-21,-9,-7.40712,-14.2038,-3.61729,-5.68917,1.788
0.049637,0.0482744,0.0298734,0.0292648,0.00431256,0.0002725,0.00142837,5.52003e-23,-21,-9,-7.49419,-14.1402,-3.6515,-5.71346,1.792
0.0496543,0.0482748,0.0298791,0.0292648,0.00433093,0.000210458,0.00143445,3.68002e-23,-22,-9,-7.58737,-14.4217,-3.68585,-5.73779,1.796
0.0496717,0.0482755,0.0298849,0.0292648,0.00434933,0.000197887,0.00144054,2.45335e-23,-22,-9,-7.67905,-14.5301,-3.72035,-5.76217,1.8
0.0496891,0.0482762,0.0298907,0.0292648,0.00436777,0.000189506,0.00144665,1.63557e-23,-22,-9,-7.77114,-14.6239,-3.755,-5.7866,1.804
0.0497066,0.0482769,0.0298965,0.0292648,0.00438624,0.000183919,0.00145277,1.09038e-23,-22,-9,-7.86363,-14.7081,-3.78979,-5.81107,1.808
0.0497242,0.0482775,0.0299023,0.0292648,0.00440475,0.000180195,0.0014589,7.26918e-24,-22,-9,-7.95653,-14.7859,-3.82473,-5.83559,1.812
0.0497418,0.0482786,0.0299081,0.0292648,0.00442329,0.000206503,0.00146504,4.84612e-24,-22,-9,-8.04794,-14.7588,-3.85982,-5.86016,1.816
0.0497596,0.0482793,0.029914,0.0292648,0.00444187,0.00019525,0.00147119,3.23075e-24,-23,-9,-8.14166,-14.8632,-3.89505,-5.88477,1.82
0.0497774,0.0482803,0.0299199,0.0292648,0.00446048,0.00021654,0.00147736,2.15383e-24,-23,-9,-8.23388,-14.8538,-3.93043,-5.90942,1.824
0.0497953,0.0482813,0.0299258,0.0292648,0.00447912,0.000230733,0.00148353,1.43589e-24,-23,-9,-8.32652,-14.8694,-3.96596,-5.93413,1.828
0.0498132,0.048282,0.0299318,0.0292648,0.00449781,0.000211404,0.00148972,9.57258e-25,-23,-9,-8.42146,-15.0024,-4.00164,-5.95888,1.832
0.0498312,0.0482834,0.0299377,0.0292648,0.00451652,0.000256099,0.00149592,6.38172e-25,-23,-10,-8.51302,-14.9115,-4.03747,-5.98367,1.836
0.0498493,0.0482845,0.0299437,0.0292648,0.00453527,0.000257106,0.00150213,4.25448e-25,-23,-10,-8.60689,-14.9736,-4.07345,-6.00851,1.84
0.0498675,0.0482858,0.0299498,0.0292652,0.00455406,0.000286567,0.00150835,2.87909e-05,-23,-10,-8.69927,-14.9362,-4.1075,-5.91824,1.844
0.0498858,0.0482869,0.0299558,0.0292648,0.00457288,0.000277418,0.00151458,-9.59697e-06,-23,-10,-8.79397,-15.0341,-4.14585,-6.09672,1.848
0.0499041,0.0482876,0.0299619,0.0292645,0.00459173,0.000242527,0.00152083,-3.51889e-05,-24,-10,-8.89098,-15.2222,-4.18435,-6.22407,1.852
0.0499225,0.0482883,0.029968,0.0292655,0.00461062,0.000219267,0.00152708,6.29135e-05,-24,-10,-8.9884,-15.3697,-4.2147,-5.85668,1.856
0.049941,0.0482893,0.0299741,0.0292648,0.00462954,0.00023255,0.00153335,-1.56395e-05,-24,-10,-9.08434,-15.3895,-4.25557,-6.19597,1.86
0.0499595,0.048291,0.0299802,0.0292652,0.0046485,0.000298988,0.00153963,1.83646e-05,-24,-10,-9.1769,-15.2233,-4.29038,-6.08507,1.864
0.0499782,0.0482924,0.0299864,0.0292645,0.00466749,0.000314489,0.00154592,-4.53388e-05,-24,-10,-9.27178,-15.2355,-4.33155,-6.36504,1.868
0.0499969,0.0482938,0.0299926,0.0292652,0.00468652,0.000324823,0.00155222,2.7356e-05,-24,-10,-9.36707,-15.2659,-4.36458,-6.09947,1.872
0.0500157,0.0482952,0.0299988,0.0292645,0.00470558,0.000331712,0.00155854,-3.93445e-05,-24,-10,-9.46278,-15.3086,-4.40606,-6.39153,1.876
0.0500345,0.0482969,0.0300051,0.0292652,0.00472468,0.000365096,0.00156486,3.13522e-05,-24,-10,-9.55701,-15.2585,-4.43939,-6.13404,1.88
0.0500535,0.0482983,0.0300113,0.0292652,0.00474381,0.000358561,0.0015712,2.09014e-05,-25,-10,-9.65357,-15.3484,-4.47702,-6.20119,1.884
0.0500725,0.0482993,0.0300176,0.0292652,0.00476298,0.000325414,0.00157755,1.39343e-05,-25,-10,-9.75244,-15.5315,-4.51481,-6.25445,1.888
0.0500916,0.0483007,0.030024,0.0292652,0.00478218,0.000332106,0.00158391,9.28953e-06,-25,-10,-9.84984,-15.5752,-4.55275,-6.29846,1.892
0.0501107,0.0483021,0.0300303,0.0292652,0.00480141,0.000336568,0.00159028,6.19302e-06,-25,-10,-9.94765,-15.6269,-4.59084,-6.33633,1.896
0.05013,0.0483035,0.0300367,0.0292652,0.00482068,0.000339542,0.00159666,4.12868e-06,-25,-10,-10.0459,-15.684,-4.62908,-6.37012,1.9
0.0501493,0.0483041,0.0300431,0.0292652,0.00483998,0.000283943,0.00160305,2.75245e-06,-26,-11,-10.1484,-15.9461,-4.66748,-6.40119,1.904
0.0501687,0.0483052,0.0300495,0.0292652,0.00485932,0.000275668,0.00160946,1.83497e-06,-26,-11,-10.2494,-16.0428,-4.70603,-6.43048,1.908
0.0501882,0.0483066,0.030056,0.0292652,0.00487869,0.000298943,0.00161587,1.22331e-06,-26,-11,-10.3489,-16.0291,-4.74473,-6.45859,1.912
0.0502077,0.0483079,0.0300624,0.0292652,0.00489809,0.000314459,0.0016223,8.15542e-07,-26,-11,-10.4488,-16.0427,-4.78359,-6.48593,1.916
0.0502274,0.048309,0.0300689,0.0292652,0.00491753,0.000296012,0.00162874,5.43695e-07,-26,-11,-10.5511,-16.1753,-4.8226,-6.51277,1.92
0.0502471,0.0483107,0.0300755,0.0292652,0.00493701,0.000341296,0.00163519,3.62463e-07,-26,-11,-10.65,-16.085,-4.86177,-6.5393,1.924
0.0502669,0.0483121,0.030082,0.0292652,0.00495651,0.000342694,0.00164165,2.41642e-07,-26,-11,-10.7512,-16.1484,-4.90109,-6.56563,1.928
0.0502867,0.0483142,0.0300886,0.0292652,0.00497606,0.000401208,0.00164812,1.61095e-07,-26,-11,-10.8491,-16.012,-4.94057,-6.59184,1.932
0.0503067,0.0483159,0.0300952,0.0292652,0.00499563,0.000411427,0.0016546,1.07396e-07,-26,-11,-10.9493,-16.0447,-4.9802,-6.61799,1.936
0.0503267,0.048318,0.0301018,0.0292652,0.00501524,0.00044703,0.0016611,7.15976e-08,-27,-11,-11.048,-15.9887,-5.01999,-6.64411,1.94
0.0503468,0.04832,0.0301085,0.0292652,0.00503489,0.000470766,0.00166761,4.77318e-08,-27,-11,-11.1471,-15.9744,-5.05993,-6.67023,1.944
0.050367,0.0483221,0.0301152,0.0292652,0.00505457,0.000486589,0.00167412,3.18212e-08,-27,-11,-11.2467,-15.9879,-5.10003,-6.69637,1.948
0.0503872,0.0483245,0.0301219,0.0292652,0.00507428,0.000525929,0.00168065,2.12141e-08,-27,-11,-11.3448,-15.9192,-5.14029,-6.72253,1.952
0.0504076,0.0483269,0.0301286,0.0292652,0.00509402,0.000552156,0.00168719,1.41427e-08,-27,-11,-11.4434,-15.8965,-5.1807,-6.74871,1.956
0.050428,0.0483297,0.0301354,0.0292652,0.0051138,0.000598431,0.00169374,9.42849e-09,-27,-11,-11.5405,-15.8038,-5.22128,-6.77494,1.96
0.0504485,0.0483328,0.0301422,0.0292652,0.00513362,0.000658073,0.00170031,6.28566e-09,-27,-12,-11.6361,-15.6644,-5.262,-6.8012,1.964
0.050469,0.0483359,0.030149,0.0292652,0.00515347,0.000697833,0.00170688,4.19044e-09,-27,-12,-11.7321,-15.5947,-5.30289,-6.82751,1.968
0.0504897,0.048339,0.0301558,0.0292652,0.00517335,0.000724341,0.00171347,2.79363e-09,-27,-12,-11.8286,-15.5715,-5.34393,-6.85385,1.972
0.0505104,0.0483422,0.0301627,0.0292648,0.00519326,0.000742012,0.00172006,-2.87891e-05,-27,-12,-11.9256,-15.5794,-5.38721,-6.9954,1.976
0.0505312,0.0483453,0.0301696,0.0292652,0.00521321,0.000753793,0.00172667,9.59822e-06,-27,-12,-12.0229,-15.608,-5.4265,-6.86829,1.98
0.0505521,0.0483487,0.0301765,0.0292652,0.0052332,0.000790438,0.00173329,6.39881e-06,-27,-12,-12.1188,-15.5497,-5.46802,-6.90756,1.984
0.0505731,0.0483525,0.0301835,0.0292652,0.00525321,0.000843659,0.00173992,4.26587e-06,-27,-12,-12.2133,-15.4334,-5.5097,-6.94261,1.988
0.0505942,0.0483556,0.0301904,0.0292652,0.00527327,0.000821558,0.00174656,2.84392e-06,-27,-12,-12.312,-15.581,-5.55153,-6.97486,1.992
0.0506153,0.0483584,0.0301974,0.0292652,0.00529335,0.000778032,0.00175321,1.89594e-06,-28,-12,-12.413,-15.8036,-5.59353,-7.00526,1.996
0.0506365,0.0483612,0.0302045,0.0292652,0.00531347,0.000749016,0.00175988,1.26396e-06,-28,-12,-12.5145,-15.9756,-5.63569,-7.03444,2
0.0506578,0.0483639,0.0302115,0.0292652,0.00533362,0.000729671,0.00176655,8.42642e-07,-28,-12,-12.6164,-16.1138,-5.678,-7.06283,2.004
0.0506792,0.048367,0.0302186,0.0292652,0.00535381,0.000745566,0.00177324,5.61761e-07,-28,-12,-12.7169,-16.1288,-5.72048,-7.09069,2.008
0.0507006,0.0483705,0.0302257,0.0292659,0.00537403,0.000784953,0.00177993,5.79564e-05,-28,-12,-12.8159,-16.0618,-5.75897,-6.8879,2.012
0.0507222,0.0483736,0.0302328,0.0292652,0.00539428,0.00078242,0.00178664,-1.89443e-05,-29,-13,-12.9172,-16.1415,-5.80592,-7.22234,2.016
0.0507438,0.048377,0.03024,0.0292652,0.00541457,0.000809523,0.00179336,-1.26295e-05,-29,-13,-13.0171,-16.1176,-5.84888,-7.22396,2.02
0.0507655,0.0483805,0.0302472,0.0292648,0.00543489,0.000827591,0.00180009,-3.72106e-05,-29,-13,-13.1174,-16.1255,-5.89407,-7.3492,2.024
0.0507873,0.048384,0.0302544,0.0292648,0.00545524,0.000839637,0.00180683,-2.48071e-05,-29,-13,-13.2182,-16.1546,-5.93736,-7.32655,2.028
0.0508091,0.0483878,0.0302616,0.0292659,0.00547563,0.000876458,0.00181358,6.98347e-05,-29,-12,-13.3176,-16.0971,-5.97458,-6.97499,2.032
0.0508311,0.0483919,0.0302689,0.0292648,0.00549605,0.000929796,0.00182035,-3.98163e-05,-29,-13,-13.4155,-15.9819,-6.02441,-7.44065,2.036
0.0508531,0.0483957,0.0302762,0.0292655,0.0055165,0.000936564,0.00182712,3.10377e-05,-29,-13,-13.5157,-16.0298,-6.06403,-7.18433,2.04
0.0508752,0.0484002,0.0302835,0.0292655,0.00553699,0.000998658,0.00183391,2.06918e-05,-29,-13,-13.6126,-15.8842,-6.10796,-7.25286,2.044
0.0508974,0.048405,0.0302909,0.0292655,0.00555751,0.00106885,0.0018407,1.37945e-05,-29,-13,-13.708,-15.7103,-6.15206,-7.30764,2.048
0.0509197,0.0484102,0.0302982,0.0292655,0.00557806,0.00114443,0.00184751,9.19634e-06,-29,-13,-13.802,-15.5177,-6.19632,-7.35326,2.052
0.050942,0.0484161,0.0303056,0.0292655,0.00559865,0.0012524,0.00185433,6.1309e-06,-29,-13,-13.8926,-15.2119,-6.24074,-7.3928,2.056
0.0509645,0.048422,0.0303131,0.0292655,0.00561927,0.00132438,0.00186116,4.08726e-06,-29,-13,-13.9837,-15.0321,-6.28533,-7.42829,2.06
0.050987,0.0484271,0.0303205,0.0292655,0.00563993,0.00131478,0.001868,2.72484e-06,-29,-13,-14.0791,-15.138,-6.33008,-7.4611,2.064
0.0510096,0.048433,0.030328,0.0292655,0.00566061,0.00136597,0.00187485,1.81656e-06,-29,-13,-14.1711,-15.0313,-6.37499,-7.49215,2.068
0.0510323,0.0484385,0.0303355,0.0292655,0.00568133,0.0013713,0.00188172,1.21104e-06,-29,-13,-14.2654,-15.0851,-6.42007,-7.52202,2.072
0.051055,0.0484444,0.0303431,0.0292655,0.00570209,0.00140365,0.00188859,8.07361e-07,-29,-14,-14.3584,-15.0445,-6.46531,-7.55113,2.076
0.0510779,0.0484499,0.0303506,0.0292655,0.00572288,0.00139642,0.00189547,5.3824e-07,-29,-14,-14.4536,-15.1426,-6.51072,-7.57975,2.08
0.0511008,0.0484562,0.0303582,0.0292655,0.0057437,0.00144918,0.00190237,3.58827e-07,-29,-14,-14.5456,-15.0308,-6.55629,-7.60805,2.084
0.0511238,0.0484624,0.0303659,0.0292655,0.00576455,0.00148436,0.00190928,2.39218e-07,-29,-14,-14.6379,-14.9807,-6.60203,-7.63615,2.088
0.0511469,0.0484693,0.0303735,0.0292655,0.00578544,0.00156539,0.0019162,1.59479e-07,-29,-14,-14.727,-14.7702,-6.64794,-7.66414,2.092
0.0511701,0.0484765,0.0303812,0.0292655,0.00580636,0.0016482,0.00192312,1.06319e-07,-29,-14,-14.8146,-14.5535,-6.69401,-7.69207,2.096
0.0511934,0.0484855,0.0303889,0.0292662,0.00582731,0.00184737,0.00193006,5.76527e-05,-28,-14,-14.8932,-13.9298,-6.7361,-7.48964,2.1
0.0512167,0.0484942,0.0303966,0.0292659,0.00584829,0.00195135,0.00193701,9.64423e-06,-28,-14,-14.9741,-13.6393,-6.78458,-7.70948,2.104
0.0512402,0.0485038,0.0304044,0.0292662,0.00586931,0.00210705,0.00194398,3.52204e-05,-28,-14,-15.0498,-13.1679,-6.82908,-7.63502,2.108
0.0512637,0.0485142,0.0304122,0.0292655,0.00589036,0.00226843,0.00195095,-3.41016e-05,-27,-14,-15.1221,-12.6768,-6.87997,-7.9402,2.112
0.0512873,0.0485249,0.03042,0.0292659,0.00591145,0.0024048,0.00195793,6.05654e-06,-27,-14,-15.193,-12.2733,-6.9248,-7.8075,2.116
0.051311,0.0485349,0.0304278,0.0292659,0.00593257,0.00243814,0.00196493,4.03769e-06,-27,-14,-15.2682,-12.2305,-6.97187,-7.84356,2.12
0.0513347,0.0485439,0.0304357,0.0292659,0.00595372,0.00237399,0.00197193,2.6918e-06,-27,-14,-15.3496,-12.529,-7.01912,-7.87696,2.124
0.0513586,0.0485532,0.0304436,0.0292659,0.0059749,0.00236001,0.00197895,1.79453e-06,-28,-14,-15.4295,-12.6521,-7.06653,-7.90861,2.128
0.0513825,0.0485619,0.0304515,0.0292659,0.00599612,0.00229312,0.00198597,1.19635e-06,-28,-15,-15.5137,-12.9605,-7.11411,-7.93911,2.132
0.0514066,0.0485691,0.0304595,0.0292659,0.00601737,0.00213335,0.00199301,7.97569e-07,-29,-15,-15.6059,-13.594,-7.16185,-7.96886,2.136
0.0514307,0.0485757,0.0304675,0.0292659,0.00603865,0.00196926,0.00200006,5.31713e-07,-29,-15,-15.7024,-14.2428,-7.20977,-7.99812,2.14
0.0514549,0.0485823,0.0304755,0.0292659,0.00605996,0.00185987,0.00200712,3.54475e-07,-30,-15,-15.7994,-14.7003,-7.25786,-8.02707,2.144
0.0514792,0.0485885,0.0304835,0.0292659,0.00608131,0.00175815,0.00201419,2.36317e-07,-31,-15,-15.8987,-15.1311,-7.30611,-8.05582,2.148
0.0515035,0.0485954,0.0304916,0.0292659,0.00610269,0.00174792,0.00202127,1.57545e-07,-31,-15,-15.9948,-15.2417,-7.35454,-8.08446,2.152
0.051528,0.048603,0.0304997,0.0292659,0.0061241,0.00179868,0.00202837,1.0503e-07,-31,-15,-16.0874,-15.139,-7.40313,-8.11304,2.156
0.0515525,0.0486116,0.0305078,0.0292662,0.00614555,0.00191889,0.00203547,2.88609e-05,-30,-15,-16.1749,-14.7933,-7.44983,-8.02643,2.16
0.0515772,0.0486213,0.030516,0.0292662,0.00616703,0.00208541,0.00204258,1.92406e-05,-30,-15,-16.2571,-14.2857,-7.49876,-8.09337,2.164
0.0516019,0.0486317,0.0305242,0.0292662,0.00618854,0.002254,0.00204971,1.28271e-05,-30,-15,-16.336,-13.7709,-7.54787,-8.14752,2.168
0.0516267,0.0486417,0.0305324,0.0292662,0.00621008,0.0023376,0.00205684,8.55139e-06,-29,-15,-16.4173,-13.5537,-7.59715,-8.19316,2.172
0.0516515,0.0486527,0.0305406,0.0292662,0.00623166,0.00247971,0.00206399,5.70093e-06,-29,-15,-16.4934,-13.1318,-7.6466,-8.23315,2.176
0.0516765,0.0486628,0.0305489,0.0292662,0.00625327,0.00248808,0.00207115,3.80062e-06,-29,-15,-16.5756,-13.1782,-7.69622,-8.26938,2.18
0.0517016,0.0486721,0.0305572,0.0292662,0.00627491,0.00243607,0.00207831,2.53375e-06,-30,-16,-16.6621,-13.4359,-7.74601,-8.30312,2.184
0.0517267,0.0486825,0.0305655,0.0292662,0.00629658,0.00248778,0.00208549,1.68916e-06,-30,-16,-16.7434,-13.3308,-7.79598,-8.33521,2.188
0.0517519,0.0486928,0.0305739,0.0292662,0.00631829,0.00252225,0.00209268,1.12611e-06,-30,-16,-16.8251,-13.2862,-7.84612,-8.36622,2.192
0.0517773,0.0487032,0.0305823,0.0292662,0.00634003,0.00254522,0.00209988,7.50739e-07,-30,-16,-16.9074,-13.2818,-7.89643,-8.39652,2.196
0.0518027,0.0487142,0.0305907,0.0292662,0.0063618,0.00261813,0.00210709,5.00493e-07,-30,-16,-16.9863,-13.1029,-7.94691,-8.42637,2.2
0.0518282,0.048726,0.0305991,0.0292662,0.0063836,0.00272431,0.00211431,3.33662e-07,-29,-16,-17.0619,-12.8075,-7.99757,-8.45592,2.204
0.0518537,0.0487388,0.0306076,0.0292662,0.00640544,0.00288147,0.00212155,2.22441e-07,-29,-16,-17.1323,-12.3339,-8.0484,-8.4853,2.208
0.0518794,0.0487516,0.0306161,0.0292662,0.00642731,0.00298624,0.00212879,1.48294e-07,-29,-16,-17.2031,-12.0437,-8.0994,-8.51456,2.212
0.0519051,0.0487643,0.0306246,0.0292666,0.00644921,0.00305609,0.00213604,2.88898e-05,-29,-16,-17.2744,-11.8759,-8.14851,-8.42861,2.216
0.051931,0.0487757,0.0306332,0.0292669,0.00647114,0.0029875,0.00214331,4.80508e-05,-29,-16,-17.3539,-12.1928,-8.19779,-8.38103,2.22
0.0519569,0.0487861,0.0306418,0.0292669,0.00649311,0.00285539,0.00215058,3.20339e-05,-30,-16,-17.4395,-12.732,-8.24931,-8.4742,2.224
0.0519829,0.0487958,0.0306504,0.0292662,0.0065151,0.00270974,0.00215787,-3.62259e-05,-30,-17,-17.5294,-13.3188,-8.30516,-8.77638,2.228
0.052009,0.0488051,0.030659,0.0292666,0.00653713,0.00258385,0.00216516,4.64029e-06,-31,-16,-17.6216,-13.8365,-8.35497,-8.6421,2.232
0.0520352,0.0488151,0.0306677,0.0292666,0.00655919,0.0025575,0.00217247,3.09353e-06,-31,-17,-17.7106,-14.0059,-8.40702,-8.67751,2.236
0.0520615,0.0488258,0.0306764,0.0292666,0.00658129,0.00259752,0.00217979,2.06235e-06,-31,-17,-17.7962,-13.9432,-8.45924,-8.71091,2.24
0.0520879,0.0488372,0.0306852,0.0292666,0.00660342,0.00268178,0.00218712,1.3749e-06,-31,-17,-17.8785,-13.7257,-8.51165,-8.74297,2.244
0.0521143,0.0488493,0.0306939,0.0292666,0.00662557,0.00279554,0.00219446,9.16601e-07,-31,-17,-17.9576,-13.4051,-8.56423,-8.77416,2.248
0.0521409,0.0488614,0.0307027,0.0292666,0.00664776,0.00287137,0.00220181,6.11068e-07,-31,-17,-18.037,-13.2174,-8.61698,-8.80478,2.252
0.0521675,0.0488739,0.0307115,0.0292666,0.00666999,0.00295072,0.00220917,4.07378e-07,-31,-17,-18.1151,-13.0174,-8.66991,-8.83504,2.256
0.0521942,0.048887,0.0307204,0.0292669,0.00669224,0.0030612,0.00221654,2.90625e-05,-30,-17,-18.1899,-12.7086,-8.72095,-8.7499,2.26
0.0522211,0.0488998,0.0307293,0.0292666,0.00671453,0.00310607,0.00222392,-9.41592e-06,-30,-17,-18.2671,-12.6296,-8.77631,-8.93334,2.264
0.052248,0.0489119,0.0307382,0.0292669,0.00673685,0.00307839,0.00223131,2.25136e-05,-31,-17,-18.3485,-12.8046,-8.8277,-8.8352,2.268
0.052275,0.048924,0.0307471,0.0292669,0.0067592,0.00305994,0.00223872,1.50091e-05,-31,-17,-18.4305,-12.9474,-8.88134,-8.89482,2.272
0.052302,0.0489364,0.0307561,0.0292669,0.00678158,0.00307644,0.00224613,1.00061e-05,-31,-17,-18.511,-12.968,-8.93516,-8.94449,2.276
0.0523292,0.0489492,0.0307651,0.0292669,0.006804,0.00311622,0.00225355,6.67071e-06,-31,-17,-18.5902,-12.9072,-8.98915,-8.98753,2.28
0.0523565,0.0489623,0.0307741,0.0292666,0.00682644,0.00317154,0.00226099,-2.43438e-05,-31,-18,-18.6679,-12.7922,-9.0454,-9.14132,2.284
0.0523838,0.0489751,0.0307832,0.0292676,0.00684892,0.00317962,0.00226843,7.01436e-05,-31,-17,-18.748,-12.8425,-9.09353,-8.79315,2.288
0.0524113,0.0489875,0.0307923,0.0292672,0.00687143,0.00315622,0.00227589,1.79715e-05,-31,-18,-18.8305,-13.0032,-9.15014,-9.03167,2.292
0.0524388,0.0489996,0.0308014,0.0292672,0.00689397,0.00311183,0.00228335,1.1981e-05,-32,-18,-18.9154,-13.2375,-9.20485,-9.08549,2.296
0.0524664,0.0490114,0.0308105,0.0292672,0.00691655,0.00305344,0.00229083,7.98732e-06,-32,-18,-19.0028,-13.5209,-9.25974,-9.13137,2.3
0.0524941,0.0490235,0.0308197,0.0292672,0.00693915,0.00304331,0.00229832,5.32488e-06,-32,-18,-19.0887,-13.6354,-9.31481,-9.17197,2.304
0.0525219,0.0490356,0.0308289,0.0292676,0.00696179,0.00303656,0.00230582,3.23408e-05,-32,-18,-19.1751,-13.7383,-9.36798,-9.0939,2.308
0.0525498,0.0490483,0.0308382,0.0292683,0.00698446,0.00308964,0.00231332,7.91424e-05,-32,-18,-19.2582,-13.6319,-9.41927,-8.93673,2.312
0.0525778,0.0490608,0.0308474,0.0292679,0.00700716,0.00309623,0.00232084,2.39707e-05,-33,-18,-19.3437,-13.6883,-9.47695,-9.18749,2.316
0.0526059,0.0490736,0.0308567,0.0292679,0.00702989,0.00312942,0.00232837,1.59805e-05,-33,-18,-19.4278,-13.6517,-9.53274,-9.24957,2.32
0.052634,0.0490874,0.0308661,0.0292679,0.00705266,0.00323792,0.00233591,1.06536e-05,-32,-18,-19.5067,-13.3516,-9.58871,-9.30103,2.324
0.0526623,0.0491022,0.0308754,0.0292679,0.00707545,0.00339662,0.00234346,7.10242e-06,-32,-18,-19.5804,-12.8759,-9.64487,-9.34544,2.328
0.0526906,0.0491174,0.0308848,0.0292676,0.00709828,0.00353121,0.00235102,-2.4056e-05,-32,-19,-19.6527,-12.4847,-9.70327,-9.50032,2.332
0.0527191,0.049133,0.0308942,0.0292683,0.00712114,0.00364973,0.00235859,4.15445e-05,-31,-19,-19.7236,-12.1499,-9.75564,-9.2682,2.336
0.0527476,0.0491485,0.0309037,0.0292683,0.00714403,0.00372875,0.00236618,2.76964e-05,-31,-19,-19.795,-11.9535,-9.81234,-9.35392,2.34
0.0527762,0.0491644,0.0309131,0.0292686,0.00716695,0.00381021,0.00237377,4.72552e-05,-31,-19,-19.865,-11.7486,-9.86715,-9.30605,2.344
0.0528049,0.0491803,0.0309227,0.0292686,0.00718991,0.00386453,0.00238137,3.15034e-05,-31,-19,-19.9355,-11.6388,-9.92421,-9.39947,2.348
0.0528338,0.0491959,0.0309322,0.029269,0.00721289,0.00387194,0.00238898,4.97932e-05,-31,-19,-20.0084,-11.6933,-9.97938,-9.35676,2.352
0.0528627,0.0492121,0.0309418,0.0292693,0.00723591,0.00393447,0.00239661,6.19864e-05,-31,-19,-20.0781,-11.555,-10.0347,-9.33848,2.356
0.0528916,0.0492294,0.0309514,0.0292697,0.00725896,0.00406252,0.00240424,7.01152e-05,-31,-19,-20.1425,-11.1875,-10.0903,-9.3365,2.36
0.0529207,0.0492477,0.030961,0.0292697,0.00728204,0.00423427,0.00241188,4.67435e-05,-30,-19,-20.2017,-10.6672,-10.1481,-9.46056,2.364
0.0529499,0.0492653,0.0309707,0.02927,0.00730515,0.00429118,0.00241954,5.99532e-05,-30,-19,-20.2653,-10.5489,-10.204,-9.43834,2.368
0.0529792,0.0492826,0.0309804,0.0292704,0.00732829,0.00430034,0.0024272,6.87597e-05,-30,-19,-20.3312,-10.5978,-10.2601,-9.43378,2.372
0.0530085,0.0493009,0.0309901,0.0292704,0.00735146,0.00439281,0.00243488,4.58398e-05,-30,-19,-20.392,-10.3553,-10.3184,-9.55616,2.376
0.053038,0.0493199,0.0309998,0.029271,0.00737467,0.00451204,0.00244257,8.81417e-05,-30,-19,-20.4495,-10.0192,-10.3728,-9.41769,2.38
0.0530675,0.0493396,0.0310096,0.0292707,0.0073979,0.00464911,0.00245026,2.99702e-05,-30,-20,-20.5037,-9.62078,-10.4336,-9.68116,2.384
0.0530972,0.0493593,0.0310194,0.0292707,0.00742117,0.00474049,0.00245797,1.99802e-05,-29,-20,-20.5584,-9.38239,-10.4925,-9.75195,2.388
0.0531269,0.0493786,0.0310293,0.029271,0.00744447,0.00477262,0.00246568,4.2111e-05,-29,-20,-20.6155,-9.35148,-10.5495,-9.69429,2.392
0.0531567,0.0493962,0.0310392,0.0292717,0.0074678,0.00465008,0.00247341,8.56559e-05,-30,-20,-20.6826,-9.86201,-10.6046,-9.55102,2.396
0.0531866,0.0494132,0.0310491,0.0292721,0.00749116,0.00451081,0.00248115,8.58948e-05,-31,-20,-20.754,-10.4312,-10.662,-9.58102,2.4
0.0532166,0.0494304,0.031059,0.0292721,0.00751455,0.00444675,0.0024889,5.72632e-05,-31,-20,-20.8241,-10.7373,-10.7216,-9.72653,2.404
0.0532468,0.0494477,0.031069,0.0292731,0.00753798,0.00440405,0.00249665,0.000124548,-31,-20,-20.8947,-10.9687,-10.7752,-9.48843,2.408
0.0532769,0.0494643,0.031079,0.0292742,0.00756143,0.004318,0.00250442,0.000169405,-32,-20,-20.9695,-11.352,-10.829,-9.34007,2.412
0.0533072,0.0494795,0.031089,0.0292755,0.00758492,0.00414547,0.0025122,0.0002281,-33,-20,-21.0525,-12.0381,-10.8809,-9.13641,2.416
0.0533376,0.0494947,0.0310991,0.0292773,0.00760843,0.00403044,0.00251999,0.000296022,-33,-19,-21.1361,-12.523,-10.931,-8.89588,2.42
0.0533681,0.0495082,0.0311092,0.029279,0.00763198,0.00380981,0.00252779,0.000341302,-34,-19,-21.2296,-13.3776,-10.9812,-8.74595,2.424
0.0533987,0.0495203,0.0311193,0.02928,0.00765556,0.00354755,0.0025356,0.000313908,-35,-19,-21.3313,-14.378,-11.0357,-8.88677,2.428
0.0534294,0.049532,0.0311295,0.0292814,0.00767917,0.00334393,0.00254342,0.000324435,-36,-19,-21.4353,-15.1733,-11.0884,-8.87593,2.432
0.0534601,0.0495427,0.0311397,0.0292828,0.00770281,0.0031218,0.00255125,0.000331454,-37,-20,-21.5456,-16.0335,-11.1412,-8.87918,2.436
0.053491,0.0495528,0.0311499,0.0292842,0.00772648,0.00291614,0.00255909,0.000336133,-38,-20,-21.6602,-16.8362,-11.1942,-8.89183,2.44
0.0535219,0.0495614,0.0311601,0.0292849,0.00775018,0.00266387,0.00256694,0.000281671,-39,-20,-21.783,-17.8021,-11.2516,-9.14108,2.444
0.053553,0.0495686,0.0311704,0.0292852,0.00777392,0.00238052,0.0025748,0.000216571,-40,-20,-21.9138,-18.8769,-11.3112,-9.43292,2.448
0.0535841,0.0495731,0.0311807,0.0292862,0.00779768,0.0019613,0.00258267,0.000230754,-42,-20,-22.0604,-20.4274,-11.3669,-9.40767,2.452
0.0536154,0.0495762,0.0311911,0.0292862,0.00782148,0.00156665,0.00259055,0.000153836,-44,-21,-22.2151,-21.8919,-11.429,-9.74687,2.456
0.0536467,0.049578,0.0312015,0.0292873,0.0078453,0.00118839,0.00259844,0.00018893,-45,-21,-22.378,-23.2992,-11.485,-9.63806,2.46
0.0536781,0.0495783,0.0312119,0.0292894,0.00786916,0.000821049,0.00260635,0.000298699,-47,-20,-22.5489,-24.6684,-11.5351,-9.23059,2.464
0.0537096,0.0495776,0.0312223,0.0292921,0.00789305,0.000489784,0.00261426,0.00042946,-48,-20,-22.7261,-25.9114,-11.5811,-8.73919,2.468
0.0537413,0.0495776,0.0312328,0.0292956,0.00791696,0.000326523,0.00262218,0.000574216,-49,-19,-22.9,-26.5665,-11.6232,-8.19185,2.472
0.053773,0.049578,0.0312433,0.029299,0.00794091,0.000246473,0.00263011,0.00067072,-50,-19,-23.0726,-26.9305,-11.6655,-7.83757,2.476
0.0538048,0.0495783,0.0312538,0.0293025,0.00796489,0.000193106,0.00263805,0.000735056,-50,-19,-23.2456,-27.2013,-11.708,-7.61199,2.48
0.0538367,0.0495783,0.0312644,0.0293059,0.0079889,0.000128737,0.00264601,0.000777946,-50,-19,-23.4211,-27.5106,-11.7507,-7.47224,2.484
0.0538687,0.0495787,0.031275,0.0293097,0.00801294,0.000114616,0.00265397,0.000835331,-51,-19,-23.5952,-27.6442,-11.7915,-7.27455,2.488
0.0539008,0.0495787,0.0312856,0.0293142,0.00803702,7.64106e-05,0.00266194,0.000931169,-51,-18,-23.7718,-27.8621,-11.8283,-6.92309,2.492
0.053933,0.0495787,0.0312963,0.0293177,0.00806112,5.09404e-05,0.00266992,0.000908689,-51,-18,-23.9489,-28.0356,-11.8716,-7.04494,2.496
0.0539653,0.0495787,0.031307,0.0293222,0.00808525,3.39603e-05,0.00267792,0.000980075,-52,-18,-24.1265,-28.1795,-11.9088,-6.79137,2.5
0.0539977,0.049579,0.0313177,0.0293249,0.00810941,5.14311e-05,0.00268592,0.00088371,-52,-19,-24.3027,-28.2029,-11.9566,-7.20884,2.504
0.0540302,0.0495794,0.0313285,0.0293284,0.00813361,6.30783e-05,0.00269393,0.00087705,-52,-19,-24.4795,-28.2469,-12.0004,-7.26754,2.508
0.0540628,0.0495794,0.0313393,0.0293312,0.00815783,4.20522e-05,0.00270196,0.000815027,-53,-19,-24.6587,-28.4052,-12.0486,-7.54772,2.512
0.0540954,0.0495797,0.0313501,0.0293343,0.00818209,5.68257e-05,0.00270999,0.00080247,-53,-19,-24.8365,-28.4384,-12.0949,-7.63008,2.516
0.0541282,0.04958,0.0313609,0.029337,0.00820637,6.66747e-05,0.00271803,0.000765307,-53,-19,-25.0149,-28.4889,-12.1434,-7.81091,2.52
0.0541611,0.0495804,0.0313718,0.0293405,0.00823069,7.32408e-05,0.00272609,0.000798114,-53,-19,-25.1938,-28.5511,-12.188,-7.71189,2.524
0.0541941,0.0495807,0.0313827,0.0293429,0.00825503,7.76181e-05,0.00273415,0.000733613,-53,-20,-25.3732,-28.621,-12.239,-8.00215,2.528
0.0542271,0.0495807,0.0313937,0.0293446,0.00827941,5.17454e-05,0.00274222,0.00063303,-54,-20,-25.5551,-28.7968,-12.2944,-8.43678,2.532
0.0542603,0.0495807,0.0314047,0.0293453,0.00830382,3.44969e-05,0.00275031,0.000479602,-54,-21,-25.7375,-28.9426,-12.3562,-9.08283,2.536
0.0542936,0.0495811,0.0314157,0.029346,0.00832825,5.17889e-05,0.0027584,0.000377316,-54,-21,-25.9186,-28.9676,-12.4181,-9.52434,2.54
0.0543269,0.0495811,0.0314267,0.0293453,0.00835272,3.45259e-05,0.00276651,0.000193962,-55,-22,-26.1021,-29.1137,-12.4886,-10.2902,2.544
0.0543604,0.0495818,0.0314378,0.0293457,0.00837722,8.05991e-05,0.00277462,0.000158099,-55,-23,-26.2823,-29.0382,-12.553,-10.4661,2.548
0.0543939,0.0495821,0.0314489,0.0293453,0.00840175,8.25237e-05,0.00278274,7.66085e-05,-55,-23,-26.465,-29.1173,-12.6217,-10.8245,2.552
0.0544276,0.0495828,0.0314601,0.029346,0.0084263,0.000112598,0.00279088,0.000108654,-55,-23,-26.6463,-29.098,-12.6845,-10.7289,2.556
0.0544613,0.0495832,0.0314713,0.029346,0.00845089,0.000103856,0.00279902,7.24361e-05,-56,-23,-26.83,-29.2146,-12.7516,-10.9063,2.56
0.0544952,0.0495835,0.0314825,0.029346,0.00847551,9.80283e-05,0.00280718,4.82907e-05,-56,-23,-27.0143,-29.3212,-12.8188,-11.0355,2.564
0.0545291,0.0495842,0.0314937,0.029346,0.00850016,0.000122934,0.00281534,3.21938e-05,-56,-24,-27.1973,-29.3203,-12.8863,-11.1326,2.568
0.0545632,0.0495849,0.031505,0.029346,0.00852484,0.000139538,0.00282351,2.14626e-05,-56,-24,-27.3807,-29.3485,-12.954,-11.2082,2.572
0.0545973,0.0495856,0.0315163,0.0293464,0.00854955,0.000150607,0.0028317,4.30993e-05,-56,-24,-27.5648,-29.3963,-13.0198,-11.1544,2.576
0.0546316,0.0495863,0.0315277,0.0293471,0.00857429,0.000157987,0.00283989,8.63147e-05,-57,-24,-27.7493,-29.457,-13.0837,-11.0143,2.58
0.0546659,0.0495873,0.031539,0.0293471,0.00859905,0.000191697,0.00284809,5.75431e-05,-57,-24,-27.9325,-29.4257,-13.1519,-11.1622,2.584
0.0547004,0.0495883,0.0315504,0.0293477,0.00862385,0.000214171,0.00285631,9.59439e-05,-57,-24,-28.1163,-29.4339,-13.2162,-11.0415,2.588
0.0547349,0.0495897,0.0315619,0.0293474,0.00864868,0.000257944,0.00286453,3.51717e-05,-57,-24,-28.2987,-29.3676,-13.287,-11.3174,2.592
0.0547696,0.0495908,0.0315734,0.0293477,0.00867354,0.000258336,0.00287277,5.22387e-05,-57,-24,-28.4835,-29.4532,-13.3537,-11.2821,2.596
0.0548043,0.0495918,0.0315849,0.0293481,0.00869843,0.000258597,0.00288101,6.36167e-05,-58,-24,-28.6689,-29.5394,-13.4207,-11.2696,2.6
0.0548392,0.0495928,0.0315964,0.0293488,0.00872335,0.00025877,0.00288926,9.9993e-05,-58,-24,-28.8548,-29.626,-13.4858,-11.1571,2.604
0.0548741,0.0495935,0.031608,0.0293491,0.0087483,0.000230095,0.00289753,9.54529e-05,-58,-24,-29.0432,-29.8137,-13.5532,-11.2083,2.608
0.0549092,0.0495942,0.0316196,0.0293498,0.00877328,0.000210979,0.0029058,0.000121217,-59,-24,-29.2322,-29.968,-13.6187,-11.1383,2.612
0.0549443,0.0495949,0.0316312,0.0293498,0.00879828,0.000198234,0.00291408,8.08114e-05,-59,-25,-29.4217,-30.1002,-13.6885,-11.3331,2.616
0.0549795,0.0495956,0.0316429,0.0293502,0.00882332,0.000189738,0.00292237,8.26652e-05,-59,-25,-29.6117,-30.2175,-13.7565,-11.3588,2.62
0.0550149,0.0495963,0.0316546,0.0293505,0.00884839,0.000184074,0.00293068,8.39011e-05,-60,-25,-29.8023,-30.3251,-13.8246,-11.3871,2.624
0.0550503,0.0495973,0.0316663,0.0293505,0.00887349,0.000209089,0.00293899,5.5934e-05,-60,-25,-29.9915,-30.3254,-13.8951,-11.5322,2.628
0.0550859,0.0495977,0.0316781,0.0293509,0.00889862,0.000168183,0.00294731,6.60803e-05,-60,-25,-30.1851,-30.5565,-13.9636,-11.5249,2.632
0.0551215,0.049599,0.0316899,0.0293512,0.00892377,0.000227286,0.00295564,7.28444e-05,-60,-25,-30.3736,-30.4377,-14.0324,-11.5312,2.636
0.0551573,0.0495994,0.0317018,0.0293512,0.00894896,0.000180315,0.00296399,4.8563e-05,-61,-25,-30.5683,-30.6903,-14.1034,-11.6617,2.64
0.0551931,0.0496004,0.0317136,0.0293512,0.00897418,0.000206583,0.00297234,3.23753e-05,-61,-25,-30.7597,-30.6866,-14.1747,-11.7599,2.644
0.0552291,0.0496015,0.0317255,0.0293512,0.00899942,0.000224095,0.0029807,2.15835e-05,-61,-26,-30.9517,-30.7136,-14.2461,-11.8365,2.648
0.0552651,0.0496025,0.0317375,0.0293515,0.0090247,0.000235769,0.00298907,4.318e-05,-61,-26,-31.1443,-30.7613,-14.3157,-11.7836,2.652
0.0553012,0.0496035,0.0317495,0.0293519,0.00905,0.000243552,0.00299745,5.75776e-05,-62,-26,-31.3374,-30.8226,-14.3854,-11.7595,2.656
0.0553375,0.0496046,0.0317615,0.0293519,0.00907534,0.000248741,0.00300584,3.8385e-05,-62,-26,-31.5311,-30.8931,-14.4575,-11.8698,2.66
0.0553739,0.0496063,0.0317735,0.0293522,0.0091007,0.000309782,0.00301425,5.4381e-05,-62,-26,-31.7215,-30.7682,-14.5276,-11.8395,2.664
0.0554103,0.0496077,0.0317856,0.0293522,0.0091261,0.000321685,0.00302266,3.6254e-05,-62,-26,-31.9144,-30.8154,-14.6001,-11.9456,2.668
0.0554469,0.0496091,0.0317977,0.0293526,0.00915152,0.00032962,0.00303108,5.29602e-05,-62,-26,-32.1079,-30.8767,-14.6707,-11.9125,2.672
0.0554835,0.0496101,0.0318098,0.0293529,0.00917697,0.00030612,0.00303951,6.40977e-05,-63,-26,-32.3038,-31.048,-14.7414,-11.9016,2.676
0.0555203,0.0496118,0.031822,0.0293533,0.00920246,0.000348034,0.00304795,7.15228e-05,-63,-26,-32.4965,-30.9905,-14.8124,-11.9057,2.68
0.0555571,0.0496136,0.0318342,0.0293536,0.00922797,0.000375978,0.0030564,7.64728e-05,-63,-26,-32.6897,-30.982,-14.8836,-11.9197,2.684
0.0555941,0.0496153,0.0318465,0.0293543,0.00925351,0.000394606,0.00306486,0.000108564,-63,-26,-32.8835,-31.0062,-14.9529,-11.8252,2.688
0.0556312,0.0496177,0.0318587,0.0293547,0.00927908,0.000464607,0.00307333,0.000101167,-63,-26,-33.074,-30.8507,-15.0245,-11.8886,2.692
0.0556683,0.0496194,0.031871,0.029355,0.00930468,0.000453693,0.00308181,9.62354e-05,-64,-27,-33.269,-30.9785,-15.0963,-11.9423,2.696
0.0557056,0.0496218,0.0318834,0.0293553,0.00933031,0.000503998,0.00309029,9.29479e-05,-64,-27,-33.4606,-30.8921,-15.1683,-11.9894,2.7
0.055743,0.049625,0.0318958,0.029356,0.00935597,0.000595117,0.00309879,0.000119547,-64,-27,-33.6491,-30.663,-15.2384,-11.917,2.704
0.0557805,0.0496277,0.0319082,0.0293567,0.00938166,0.000627072,0.0031073,0.00013728,-64,-27,-33.84,-30.6411,-15.3087,-11.8801,2.708
0.055818,0.0496301,0.0319206,0.0293578,0.00940738,0.000619585,0.00311582,0.000177893,-64,-27,-34.0334,-30.7573,-15.3772,-11.7517,2.712
0.0558557,0.0496329,0.0319331,0.0293585,0.00943312,0.000643384,0.00312435,0.000176177,-64,-27,-34.2254,-30.7641,-15.4479,-11.7927,2.716
0.0558935,0.0496364,0.0319456,0.0293595,0.0094589,0.000716832,0.00313288,0.000203824,-65,-27,-34.4142,-30.5972,-15.5168,-11.7162,2.72
0.0559314,0.0496398,0.0319582,0.0293602,0.0094847,0.000765797,0.00314143,0.000193465,-65,-27,-34.6036,-30.5162,-15.5879,-11.7919,2.724
0.0559694,0.0496436,0.0319707,0.0293612,0.00951054,0.000827232,0.00314999,0.000215349,-65,-27,-34.7917,-30.3916,-15.6572,-11.7386,2.728
0.0560075,0.0496474,0.0319834,0.0293619,0.0095364,0.000868188,0.00315855,0.000201148,-65,-27,-34.9803,-30.3387,-15.7287,-11.8296,2.732
0.0560457,0.0496516,0.031996,0.0293629,0.00956229,0.000924283,0.00316713,0.000220471,-65,-27,-35.1676,-30.233,-15.7984,-11.7866,2.736
0.056084,0.0496557,0.0320087,0.0293636,0.00958822,0.00096168,0.00317571,0.000204563,-65,-27,-35.3554,-30.1929,-15.8704,-11.8846,2.74
0.0561224,0.0496599,0.0320214,0.0293643,0.00961417,0.000986611,0.00318431,0.000193957,-65,-27,-35.5438,-30.1964,-15.9426,-11.9614,2.744
0.0561609,0.0496637,0.0320342,0.0293654,0.00964015,0.000974441,0.00319291,0.000215677,-66,-27,-35.7347,-30.33,-16.0129,-11.9089,2.748
0.0561995,0.0496671,0.032047,0.0293661,0.00966615,0.000937536,0.00320153,0.000201367,-66,-28,-35.9281,-30.5502,-16.0855,-12.0006,2.752
0.0562382,0.0496695,0.0320598,0.0293671,0.00969219,0.000826561,0.00321015,0.000220617,-67,-28,-36.1277,-31.0297,-16.1562,-11.9581,2.756
0.056277,0.0496719,0.0320726,0.0293681,0.00971826,0.000752577,0.00321879,0.000233451,-67,-28,-36.3279,-31.3799,-16.2271,-11.9413,2.76
0.056316,0.0496737,0.0320855,0.0293695,0.00974435,0.000645673,0.00322743,0.000270798,-68,-28,-36.5325,-31.8454,-16.2962,-11.8265,2.764
0.056355,0.0496747,0.0320985,0.0293705,0.00977048,0.000516821,0.00323608,0.000266905,-69,-28,-36.7415,-32.3878,-16.3675,-11.8767,2.768
0.0563941,0.0496754,0.0321114,0.0293719,0.00979663,0.000402129,0.00324474,0.0002931,-69,-28,-36.9529,-32.8808,-16.437,-11.8066,2.772
0.0564334,0.0496757,0.0321244,0.0293737,0.00982281,0.000296877,0.00325342,0.000339355,-70,-28,-37.1669,-33.3408,-16.5046,-11.6562,2.776
0.0564727,0.0496761,0.0321375,0.0293757,0.00984903,0.000226709,0.0032621,0.000398982,-71,-28,-37.3813,-33.6781,-16.5704,-11.4525,2.78
0.0565121,0.0496764,0.0321505,0.0293781,0.00987527,0.00017993,0.00327079,0.000467524,-71,-27,-37.5964,-33.9337,-16.6343,-11.2131,2.784
0.0565517,0.0496764,0.0321636,0.0293809,0.00990153,0.000119954,0.00327949,0.00054201,-72,-27,-37.814,-34.2355,-16.6963,-10.9499,2.788
0.0565914,0.0496768,0.0321768,0.0293837,0.00992783,0.00010876,0.0032882,0.000591668,-72,-27,-38.0302,-34.3668,-16.7585,-10.7861,2.792
0.0566311,0.0496771,0.0321899,0.0293868,0.00995416,0.000101298,0.00329692,0.000653563,-72,-27,-38.247,-34.485,-16.8189,-10.5734,2.796
0.056671,0.0496778,0.0322031,0.0293906,0.00998051,0.000125114,0.00330565,0.000752409,-72,-27,-38.4625,-34.4939,-16.8753,-10.213,2.8
0.056711,0.0496789,0.0322164,0.0293944,0.0100069,0.000169782,0.00331439,0.000818306,-73,-26,-38.6766,-34.4299,-16.9319,-9.98432,2.804
0.056751,0.0496795,0.0322296,0.0293989,0.0100333,0.00017077,0.00332313,0.00091982,-73,-26,-38.8933,-34.5189,-16.9846,-9.61326,2.808
0.0567912,0.0496806,0.032243,0.0294041,0.0100598,0.000200219,0.00333189,0.00104508,-73,-26,-39.1086,-34.5084,-17.0334,-9.14726,2.812
0.0568315,0.0496823,0.0322563,0.0294099,0.0100862,0.000277434,0.00334066,0.00118616,-73,-25,-39.3207,-34.3308,-17.0782,-8.61798,2.816
0.0568719,0.049683,0.0322697,0.0294168,0.0101127,0.000242538,0.00334944,0.00136659,-74,-25,-39.5391,-34.5456,-17.1171,-7.93137,2.82
0.0569124,0.0496844,0.0322831,0.0294241,0.0101392,0.000276856,0.00335822,0.00151567,-74,-24,-39.7542,-34.5184,-17.154,-7.3702,2.824
0.056953,0.0496858,0.0322965,0.0294307,0.0101658,0.000299734,0.00336702,0.00155748,-74,-24,-39.97,-34.5312,-17.1953,-7.23816,2.828
0.0569938,0.0496871,0.03231,0.0294369,0.0101924,0.000314986,0.00337582,0.00155655,-74,-24,-40.1863,-34.5709,-17.2389,-7.27707,2.832
0.0570346,0.0496885,0.0323236,0.0294434,0.010219,0.000325155,0.00338464,0.00158473,-75,-24,-40.4033,-34.6285,-17.2807,-7.19962,2.836
0.0570755,0.0496896,0.0323371,0.0294493,0.0102456,0.000303143,0.00339346,0.00154593,-75,-24,-40.6227,-34.7987,-17.3268,-7.39011,2.84
0.0571165,0.0496906,0.0323507,0.0294545,0.0102723,0.000288468,0.00340229,0.00146249,-75,-25,-40.8427,-34.9434,-17.3772,-7.75923,2.844
0.0571577,0.0496913,0.0323643,0.029459,0.010299,0.000249894,0.00341114,0.00134927,-76,-25,-41.0652,-35.1719,-17.432,-8.24745,2.848
0.0571989,0.0496913,0.032378,0.0294628,0.0103257,0.000166596,0.00341999,0.00121622,-76,-26,-41.292,-35.557,-17.4912,-8.81509,2.852
0.0572403,0.0496916,0.0323917,0.0294652,0.0103525,0.000139855,0.00342885,0.00101235,-77,-27,-41.5176,-35.7442,-17.5589,-9.66601,2.856
0.0572818,0.0496916,0.0324054,0.029468,0.0103793,9.32365e-05,0.00343772,0.000905225,-77,-27,-41.7456,-36.0011,-17.6247,-10.13,2.86
0.0573233,0.0496916,0.0324192,0.02947,0.0104061,6.21577e-05,0.0034466,0.000776229,-78,-28,-41.9743,-36.2037,-17.6949,-10.6815,2.864
0.057365,0.049692,0.032433,0.0294718,0.0104329,7.02294e-05,0.00345549,0.000661441,-78,-28,-42.2016,-36.2694,-17.7673,-11.1762,2.868
0.0574068,0.0496923,0.0324468,0.0294732,0.0104598,7.56105e-05,0.00346439,0.000556124,-78,-29,-42.4295,-36.3446,-17.8421,-11.6331,2.872
0.0574487,0.0496927,0.0324607,0.0294742,0.0104867,7.91979e-05,0.0034733,0.000457122,-79,-29,-42.658,-36.4262,-17.9191,-12.0647,2.876
0.0574907,0.0496937,0.0324746,0.0294745,0.0105136,0.000139171,0.00348221,0.000333539,-79,-30,-42.8833,-36.3105,-18.0005,-12.5947,2.88
0.0575328,0.0496937,0.0324886,0.0294749,0.0105406,9.27809e-05,0.00349114,0.00025115,-79,-31,-43.1149,-36.5672,-18.0821,-12.96,2.884
0.057575,0.0496944,0.0325026,0.0294749,0.0105675,0.000119436,0.00350008,0.000167434,-79,-31,-43.3433,-36.5684,-18.166,-13.3306,2.888
0.0576173,0.0496947,0.0325166,0.0294749,0.0105946,0.000108415,0.00350902,0.000111622,-80,-31,-43.5742,-36.7015,-18.2501,-13.5896,2.892
0.0576598,0.0496954,0.0325306,0.0294749,0.0106216,0.000129858,0.00351798,7.44149e-05,-80,-32,-43.8038,-36.7211,-18.3344,-13.7743,2.896
0.0577023,0.0496958,0.0325447,0.0294749,0.0106487,0.000115363,0.00352694,4.96099e-05,-80,-32,-44.0359,-36.8665,-18.419,-13.9093,2.9
0.057745,0.0496961,0.0325588,0.0294752,0.0106757,0.0001057,0.00353592,6.18642e-05,-81,-32,-44.2685,-36.9952,-18.5017,-13.8962,2.904
0.0577877,0.0496968,0.032573,0.0294756,0.0107029,0.000128048,0.0035449,7.00337e-05,-81,-32,-44.4999,-37.0119,-18.5846,-13.8995,2.908
0.0578306,0.0496972,0.0325872,0.0294759,0.01073,0.000114156,0.00355389,7.54801e-05,-81,-32,-44.7337,-37.1555,-18.6677,-13.9136,2.912
0.0578736,0.0496975,0.0326014,0.0294763,0.0107572,0.000104895,0.00356289,7.9111e-05,-82,-32,-44.9682,-37.2831,-18.751,-13.9351,2.916
0.0579166,0.0496985,0.0326157,0.0294766,0.0107844,0.000156303,0.0035719,8.15316e-05,-82,-32,-45.1995,-37.1983,-18.8345,-13.9615,2.92
0.0579598,0.0496996,0.03263,0.0294773,0.0108116,0.000190575,0.00358092,0.000111936,-82,-32,-45.4313,-37.1737,-18.9162,-13.876,2.924
0.0580031,0.049701,0.0326443,0.029478,0.0108389,0.000242214,0.00358995,0.000132206,-82,-32,-45.6619,-37.0884,-18.9981,-13.831,2.928
0.0580465,0.049702,0.0326587,0.0294783,0.0108662,0.000247848,0.00359899,0.000116928,-83,-33,-45.8949,-37.1642,-19.0823,-13.9283,2.932
0.0580901,0.0497037,0.0326731,0.0294787,0.0108935,0.000309187,0.00360804,0.000106743,-83,-33,-46.1248,-37.0451,-19.1667,-14.0052,2.936
0.0581337,0.0497051,0.0326876,0.0294794,0.0109208,0.000321288,0.0036171,0.000128744,-83,-33,-46.3571,-37.0985,-19.2493,-13.9534,2.94
0.0581774,0.0497065,0.0327021,0.0294797,0.0109482,0.000329356,0.00362616,0.00011462,-83,-33,-46.5901,-37.166,-19.3341,-14.0462,2.944
0.0582213,0.0497075,0.0327166,0.0294804,0.0109756,0.000305943,0.00363524,0.000133995,-84,-33,-46.8256,-37.3439,-19.4171,-14.005,2.948
0.0582652,0.0497089,0.0327312,0.0294808,0.0110031,0.000319126,0.00364432,0.000118121,-84,-33,-47.0597,-37.3937,-19.5024,-14.1048,2.952
0.0583093,0.0497099,0.0327458,0.0294811,0.0110305,0.000299123,0.00365342,0.000107538,-84,-33,-47.2964,-37.5598,-19.5879,-14.1835,2.956
0.0583535,0.0497103,0.0327604,0.0294818,0.011058,0.000228207,0.00366252,0.000129274,-85,-33,-47.5375,-37.9043,-19.6716,-14.133,2.96
0.0583978,0.049711,0.0327751,0.0294821,0.0110855,0.00020972,0.00367163,0.000114974,-85,-33,-47.7772,-38.0653,-19.7575,-14.2266,2.964
0.0584422,0.0497117,0.0327898,0.0294821,0.011113,0.000197395,0.00368075,7.66491e-05,-86,-34,-48.0176,-38.2048,-19.8457,-14.4164,2.968
0.0584867,0.0497124,0.0328045,0.0294821,0.0111406,0.000189178,0.00368988,5.10994e-05,-86,-34,-48.2586,-38.33,-19.9342,-14.5551,2.972
0.0585313,0.0497131,0.0328193,0.0294825,0.0111682,0.000183701,0.00369902,6.28572e-05,-86,-34,-48.5002,-38.4458,-20.0208,-14.5447,2.976
0.058576,0.0497138,0.0328341,0.0294825,0.0111958,0.000180049,0.00370817,4.19048e-05,-87,-34,-48.7424,-38.5552,-20.1097,-14.6651,2.98
0.0586208,0.0497144,0.0328489,0.0294828,0.0112235,0.000177615,0.00371733,5.67275e-05,-87,-34,-48.9852,-38.6605,-20.1967,-14.6424,2.984
0.0586658,0.0497151,0.0328638,0.0294828,0.0112512,0.000175992,0.0037265,3.78183e-05,-87,-35,-49.2287,-38.7631,-20.286,-14.7547,2.988
