peachynonah/Fire_monitor_KIRO_CDSL/csv_datas/trial12/cdsl_data_t12_10_u.csv
joint1_pos_desired, joint1_pos, joint2_pos_desired, joint2_pos, joint1_vel_desired, joint1_vel_filtered, joint2_vel_desired, joint2_vel_filtered, target_torque_joint1, target_torque_joint2, estimated_disturbance_joint1, saturated_DOB_joint1, estimated_disturbance_joint2, saturated_DOB_joint2, current_time
0.052669,0.0539291,0.221662,0.0214833,3.76499e-07,0,0.0500001,0,13,-2500,0,0,23.0509,0.1,0.004
0.052669,0.0539274,0.221862,0.0214833,1.50479e-06,-0.000143955,0.0500006,0,12,-2500,0.0143327,0.0143327,20.1755,0.1,0.008
0.052669,0.0539267,0.222062,0.0214958,3.38307e-06,-0.000153552,0.0500013,0.00103647,12,-2500,0.0272864,0.0272864,17.3113,0.1,0.012
0.052669,0.0539263,0.222262,0.0216661,6.00952e-06,-0.000131159,0.0500023,0.0148849,12,-2500,0.0401395,0.0401395,14.4769,0.1,0.016
0.0526691,0.0539263,0.222462,0.0220226,9.38236e-06,-8.74391e-05,0.0500036,0.0396355,13,-2394,0.0532013,0.0532013,11.8002,0.1,0.02
0.0526691,0.0539253,0.222662,0.0225267,1.34998e-05,-0.000144666,0.0500052,0.0684296,12,-2115,0.0665944,0.0665944,9.38614,0.1,0.024
0.0526692,0.0539249,0.222862,0.0231486,1.836e-05,-0.000125235,0.050007,0.0974434,12,-1832,0.0794139,0.0794139,7.27281,0.1,0.028
0.0526693,0.0539239,0.223062,0.0238427,2.39611e-05,-0.000169863,0.0500092,0.122803,12,-1583,0.0923283,0.0923283,5.45966,0.1,0.032
0.0526694,0.0539232,0.223262,0.0245772,3.03014e-05,-0.000170824,0.0500116,0.143078,12,-1383,0.104756,0.1,3.90881,0.1,0.036
0.0526695,0.0539222,0.223462,0.0253252,3.73792e-05,-0.000200255,0.0500143,0.157718,11,-1236,0.11706,0.1,2.56859,0.1,0.04
0.0526697,0.0539225,0.223662,0.0260625,4.51925e-05,-0.000104712,0.0500173,0.166585,12,-1145,0.129017,0.1,1.38207,0.1,0.044
0.0526699,0.0539232,0.223862,0.0267662,5.37396e-05,-1.22265e-05,0.0500205,0.169704,13,-1110,0.1418,0.1,0.291021,0.1,0.048
0.0526701,0.0539225,0.224062,0.0274341,6.30187e-05,-6.57328e-05,0.0500241,0.168789,13,-1115,0.155269,0.1,-0.761325,-0.1,0.052
0.0526704,0.0539225,0.224263,0.0280846,7.3028e-05,-4.38219e-05,0.0500279,0.166739,13,-1129,0.168091,0.1,-1.81453,-0.1,0.056
0.0526707,0.0539225,0.224463,0.0287072,8.37657e-05,-2.92146e-05,0.050032,0.163041,13,-1160,0.180965,0.1,-2.87954,-0.1,0.06
0.052671,0.0539222,0.224663,0.0293432,9.52301e-05,-4.82673e-05,0.0500363,0.161698,12,-1168,0.193794,0.1,-3.97022,-0.1,0.064
0.0526714,0.0539222,0.224863,0.0299745,0.000107419,-3.21782e-05,0.050041,0.1604,12,-1176,0.206275,0.1,-5.0645,-0.1,0.068
0.0526719,0.0539222,0.225063,0.0306157,0.000120332,-2.14521e-05,0.0500459,0.160369,12,-1172,0.218731,0.1,-6.16112,-0.1,0.072
0.0526724,0.0539215,0.225263,0.0312569,0.000133965,-7.18833e-05,0.0500511,0.160349,12,-1167,0.23106,0.1,-7.24822,-0.1,0.076
0.052673,0.0539215,0.225464,0.0319033,0.000148318,-4.79222e-05,0.0500566,0.160767,12,-1158,0.242731,0.1,-8.32546,-0.1,0.08
0.0526736,0.0539218,0.225664,0.0325515,0.000163389,-3.1572e-06,0.0500623,0.16119,12,-1149,0.254454,0.1,-9.38875,-0.1,0.084
0.0526743,0.0539218,0.225864,0.0331823,0.000179176,-2.1048e-06,0.0500683,0.160032,12,-1156,0.266387,0.1,-10.4392,-0.1,0.088
0.052675,0.0539218,0.226064,0.033789,0.000195676,-1.4032e-06,0.0500746,0.157245,12,-1178,0.27811,0.1,-11.4929,-0.1,0.092
0.0526758,0.0539218,0.226265,0.0343943,0.00021289,-9.35466e-07,0.0500812,0.155272,12,-1193,0.289614,0.1,-12.5645,-0.1,0.096
0.0526767,0.0539218,0.226465,0.0349938,0.000230814,-6.23644e-07,0.050088,0.153467,11,-1206,0.300888,0.1,-13.6463,-0.1,0.1
0.0526777,0.0539218,0.226665,0.0355911,0.000249446,-4.15763e-07,0.0500951,0.152091,11,-1215,0.311925,0.1,-14.7365,-0.1,0.104
0.0526787,0.0539218,0.226866,0.0361826,0.000268786,-2.77175e-07,0.0501025,0.150684,11,-1224,0.322717,0.1,-15.8312,-0.1,0.108
0.0526798,0.0539218,0.227066,0.0367837,0.000288831,-1.84783e-07,0.0501101,0.150552,11,-1221,0.333255,0.1,-16.9298,-0.1,0.112
0.052681,0.0539218,0.227267,0.03737,0.00030958,-1.23189e-07,0.050118,0.149226,11,-1229,0.343533,0.1,-18.0211,-0.1,0.116
0.0526823,0.0539222,0.227467,0.037937,0.00033103,2.87088e-05,0.0501262,0.14673,11,-1249,0.353564,0.1,-19.1174,-0.1,0.12
0.0526837,0.0539225,0.227668,0.0385164,0.00035318,4.79301e-05,0.0501346,0.146102,11,-1251,0.363606,0.1,-20.2283,-0.1,0.124
0.0526851,0.0539218,0.227868,0.0390965,0.000376029,-2.56284e-05,0.0501433,0.145742,10,-1251,0.373496,0.1,-21.336,-0.1,0.128
0.0526867,0.0539222,0.228069,0.0396679,0.000399574,1.17053e-05,0.0501522,0.144781,10,-1256,0.382429,0.1,-22.4387,-0.1,0.132
0.0526883,0.0539222,0.228269,0.0402463,0.000423814,7.80353e-06,0.0501615,0.144717,10,-1252,0.391417,0.1,-23.5413,-0.1,0.136
0.0526901,0.0539222,0.22847,0.0408284,0.000448746,5.20236e-06,0.050171,0.144991,9,-1246,0.400065,0.1,-24.6352,-0.1,0.14
0.0526919,0.0539222,0.228671,0.0414095,0.00047437,3.46824e-06,0.0501807,0.145087,9,-1241,0.408378,0.1,-25.7174,-0.1,0.144
0.0526939,0.0539222,0.228871,0.041992,0.000500683,2.31216e-06,0.0501907,0.145266,9,-1235,0.416359,0.1,-26.7897,-0.1,0.148
0.0526959,0.0539222,0.229072,0.0425728,0.000527684,1.54144e-06,0.050201,0.145242,8,-1231,0.424006,0.1,-27.8513,-0.1,0.152
0.0526981,0.0539222,0.229273,0.0431391,0.000555371,1.02763e-06,0.0502115,0.144016,8,-1239,0.431317,0.1,-28.905,-0.1,0.156
0.0527004,0.0539222,0.229474,0.0437102,0.000583742,6.85084e-07,0.0502223,0.143602,8,-1239,0.438288,0.1,-29.9617,-0.1,0.16
0.0527028,0.0539222,0.229675,0.0442785,0.000612796,4.56723e-07,0.0502333,0.143096,7,-1240,0.444913,0.1,-31.0138,-0.1,0.164
0.0527053,0.0539222,0.229876,0.0448427,0.00064253,3.04482e-07,0.0502446,0.142413,7,-1243,0.451188,0.1,-32.0624,-0.1,0.168
0.0527079,0.0539222,0.230077,0.045402,0.000672943,2.02988e-07,0.0502562,0.141554,7,-1247,0.457107,0.1,-33.1092,-0.1,0.172
0.0527107,0.0539222,0.230278,0.0459583,0.000704033,1.35325e-07,0.050268,0.140723,6,-1251,0.462662,0.1,-34.1559,-0.1,0.176
0.0527136,0.0539222,0.230479,0.0465421,0.000735798,9.02168e-08,0.05028,0.142472,6,-1230,0.467849,0.1,-35.2006,-0.1,0.18
0.0527166,0.0539222,0.23068,0.0470897,0.000768238,6.01445e-08,0.0502924,0.140615,6,-1244,0.472661,0.1,-36.2215,-0.1,0.184
0.0527197,0.0539222,0.230881,0.0476726,0.000801349,4.00964e-08,0.0503049,0.142314,5,-1224,0.477091,0.1,-37.2501,-0.1,0.188
0.052723,0.0539222,0.231083,0.0482447,0.00083513,2.67309e-08,0.0503178,0.142553,5,-1218,0.481133,0.1,-38.2541,-0.1,0.192
0.0527264,0.0539222,0.231284,0.0488175,0.00086958,1.78206e-08,0.0503308,0.142771,5,-1212,0.484781,0.1,-39.2472,-0.1,0.196
0.0527299,0.0539218,0.231485,0.049408,0.000904697,-2.8779e-05,0.0503442,0.144384,4,-1192,0.488008,0.1,-40.2286,-0.1,0.2
0.0527336,0.0539218,0.231687,0.0500033,0.000940478,-1.9186e-05,0.0503577,0.145863,4,-1174,0.490563,0.1,-41.1855,-0.1,0.204
0.0527375,0.0539218,0.231888,0.0506013,0.000976923,-1.27907e-05,0.0503716,0.147079,3,-1158,0.492799,0.1,-42.1193,-0.1,0.208
0.0527414,0.0539218,0.23209,0.0511945,0.00101403,-8.52712e-06,0.0503857,0.147487,3,-1150,0.494679,0.1,-43.033,-0.1,0.212
0.0527456,0.0539229,0.232291,0.0517905,0.0010518,8.0688e-05,0.0504,0.147989,4,-1141,0.496235,0.1,-43.9343,-0.1,0.216
0.0527499,0.0539225,0.232493,0.0523785,0.00109022,2.50011e-05,0.0504145,0.147661,3,-1140,0.498161,0.1,-44.8229,-0.1,0.22
0.0527543,0.0539225,0.232694,0.0529655,0.0011293,1.66674e-05,0.0504294,0.147357,2,-1139,0.499117,0.1,-45.7065,-0.1,0.224
0.0527589,0.0539225,0.232896,0.0535335,0.00116904,1.11116e-05,0.0504444,0.14557,2,-1152,0.499544,0.1,-46.586,-0.1,0.228
0.0527636,0.0539225,0.233098,0.0540984,0.00120942,7.40773e-06,0.0504597,0.14412,1,-1162,0.499465,0.1,-47.4752,-0.1,0.232
0.0527686,0.0539225,0.2333,0.0546615,0.00125046,4.93849e-06,0.0504753,0.143009,1,-1169,0.498891,0.1,-48.3707,-0.1,0.236
0.0527736,0.0539225,0.233502,0.0552268,0.00129215,3.29232e-06,0.0504911,0.142441,0,-1170,0.497829,0.1,-49.2689,-0.1,0.24
0.0527789,0.0539229,0.233704,0.0557923,0.00133449,3.09858e-05,0.0505071,0.142092,0,-1170,0.496299,0.1,-50.1647,-0.1,0.244
0.0527843,0.0539229,0.233906,0.0563323,0.00137747,2.06572e-05,0.0505234,0.139728,0,-1189,0.494547,0.1,-51.0574,-0.1,0.248
0.0527899,0.0539229,0.234108,0.0568844,0.00142109,1.37715e-05,0.05054,0.13916,0,-1191,0.492209,0.1,-51.9648,-0.1,0.252
0.0527957,0.0539229,0.23431,0.0574351,0.00146536,9.18098e-06,0.0505567,0.138666,-1,-1192,0.489314,0.1,-52.8699,-0.1,0.256
0.0528016,0.0539229,0.234512,0.0579855,0.00151027,6.12065e-06,0.0505737,0.138308,-1,-1192,0.485877,0.1,-53.772,-0.1,0.26
0.0528078,0.0539229,0.234715,0.0585393,0.00155582,4.08044e-06,0.050591,0.138357,-2,-1188,0.481909,0.1,-54.6697,-0.1,0.264
0.0528141,0.0539229,0.234917,0.0590883,0.00160201,2.72029e-06,0.0506085,0.137987,-2,-1187,0.477413,0.1,-55.5594,-0.1,0.268
0.0528206,0.0539229,0.23512,0.0596532,0.00164883,1.81353e-06,0.0506262,0.139064,-3,-1173,0.472389,0.1,-56.444,-0.1,0.272
0.0528273,0.0539229,0.235322,0.0601801,0.00169629,1.20902e-06,0.0506441,0.136616,-3,-1193,0.466835,0.1,-57.3126,-0.1,0.276
0.0528342,0.0539229,0.235525,0.060727,0.00174437,8.06012e-07,0.0506623,0.136653,-4,-1189,0.46075,0.1,-58.1964,-0.1,0.28
0.0528412,0.0539229,0.235728,0.0612656,0.00179309,5.37341e-07,0.0506808,0.135987,-4,-1192,0.454128,0.1,-59.0727,-0.1,0.284
0.0528485,0.0539236,0.23593,0.0618018,0.00184244,5.79401e-05,0.0506994,0.135342,-4,-1195,0.447005,0.1,-59.948,-0.1,0.288
0.052856,0.0539229,0.236133,0.0623376,0.00189241,-1.89551e-05,0.0507183,0.134882,-6,-1196,0.439825,0.1,-60.8223,-0.1,0.292
0.0528637,0.0539225,0.236336,0.0628739,0.00194301,-4.14277e-05,0.0507375,0.134605,-7,-1195,0.431354,0.1,-61.6934,-0.1,0.296
0.0528715,0.0539232,0.236539,0.0634076,0.00199424,2.99634e-05,0.0507569,0.134219,-6,-1195,0.422164,0.1,-62.56,-0.1,0.3
0.0528796,0.0539232,0.236742,0.06394,0.00204608,1.99756e-05,0.0507765,0.133846,-7,-1196,0.413078,0.1,-63.423,-0.1,0.304
0.0528879,0.0539236,0.236945,0.0644714,0.00209855,4.2108e-05,0.0507963,0.133511,-8,-1195,0.403344,0.1,-64.2824,-0.1,0.308
0.0528964,0.0539239,0.237148,0.0650035,0.00215163,5.68629e-05,0.0508163,0.133345,-8,-1194,0.393255,0.1,-65.1376,-0.1,0.312
0.0529051,0.0539239,0.237352,0.0655348,0.00220534,3.79086e-05,0.0508366,0.133177,-9,-1192,0.38271,0.1,-65.9871,-0.1,0.316
0.052914,0.0539243,0.237555,0.0660665,0.00225965,5.40633e-05,0.0508572,0.133094,-9,-1189,0.371412,0.1,-66.831,-0.1,0.32
0.0529232,0.0539243,0.237759,0.0665993,0.00231458,3.60422e-05,0.0508779,0.133125,-10,-1185,0.359661,0.1,-67.6683,-0.1,0.324
0.0529326,0.0539249,0.237962,0.0671293,0.00237012,8.161e-05,0.0508989,0.132915,-10,-1184,0.347174,0.1,-68.4983,-0.1,0.328
0.0529421,0.0539246,0.238166,0.0676579,0.00242628,2.56157e-05,0.0509201,0.13266,-11,-1183,0.334473,0.1,-69.3233,-0.1,0.332
0.052952,0.0539249,0.23837,0.0681944,0.00248304,4.58681e-05,0.0509415,0.133153,-12,-1175,0.320648,0.1,-70.1431,-0.1,0.336
0.052962,0.0539253,0.238573,0.0687051,0.00254041,5.93696e-05,0.0509632,0.131321,-12,-1189,0.306408,0.1,-70.9525,-0.1,0.34
0.0529723,0.0539256,0.238777,0.0692274,0.00259838,6.83707e-05,0.0509851,0.131079,-13,-1188,0.291679,0.1,-71.7721,-0.1,0.344
0.0529828,0.053926,0.238981,0.0697474,0.00265695,7.43714e-05,0.0510072,0.130717,-14,-1189,0.276412,0.1,-72.5871,-0.1,0.348
0.0529935,0.0539263,0.239185,0.0702663,0.00271613,7.83718e-05,0.0510295,0.130388,-14,-1189,0.26057,0.1,-73.3988,-0.1,0.352
0.0530045,0.0539267,0.239389,0.0707894,0.00277591,8.10388e-05,0.0510521,0.130515,-15,-1184,0.244129,0.1,-74.2065,-0.1,0.356
0.0530158,0.053927,0.239594,0.0713111,0.00283629,8.28168e-05,0.0510749,0.130484,-16,-1181,0.227069,0.1,-75.0061,-0.1,0.36
0.0530272,0.053927,0.239798,0.0718279,0.00289726,5.52112e-05,0.0510979,0.130061,-17,-1182,0.209356,0.1,-75.7993,-0.1,0.364
0.0530389,0.053927,0.240002,0.0723489,0.00295883,3.68075e-05,0.0511211,0.130124,-17,-1178,0.190714,0.1,-76.5896,-0.1,0.368
0.0530509,0.0539267,0.240207,0.0728672,0.00302099,-4.25261e-06,0.0511445,0.129936,-19,-1177,0.171207,0.1,-77.3726,-0.1,0.372
0.0530631,0.0539274,0.240412,0.0733878,0.00308374,5.47468e-05,0.0511682,0.130012,-19,-1173,0.150688,0.1,-78.1504,-0.1,0.376
0.0530756,0.0539277,0.240616,0.0739078,0.00314708,6.52888e-05,0.051192,0.130005,-19,-1170,0.130058,0.1,-78.9208,-0.1,0.38
0.0530883,0.0539281,0.240821,0.0744333,0.00321101,7.23168e-05,0.0512161,0.130461,-20,-1162,0.108853,0.1,-79.6842,-0.1,0.384
0.0531013,0.0539291,0.241026,0.0749702,0.00327553,0.000134584,0.0512405,0.131715,-20,-1146,0.0870724,0.0870724,-80.4357,-0.1,0.388
0.0531145,0.0539298,0.241231,0.075477,0.00334064,0.000147304,0.051265,0.130046,-21,-1159,0.0651395,0.0651395,-81.1699,-0.1,0.392
0.053128,0.0539305,0.241436,0.0760004,0.00340632,0.000155785,0.0512897,0.130316,-22,-1154,0.0425392,0.0425392,-81.9129,-0.1,0.396
0.0531417,0.0539322,0.241641,0.0765246,0.00347259,0.000247811,0.0513147,0.130553,-22,-1148,0.0192823,0.0192823,-82.6466,-0.1,0.4
0.0531558,0.0539336,0.241847,0.0770476,0.00353944,0.000280371,0.0513399,0.130625,-22,-1144,-0.00389505,-0.00389505,-83.3715,-0.1,0.404
0.0531701,0.0539357,0.242052,0.0775735,0.00360686,0.00035966,0.0513653,0.130903,-22,-1138,-0.0275243,-0.0275243,-84.0889,-0.1,0.408
0.0531846,0.0539377,0.242258,0.0780955,0.00367487,0.000412519,0.0513909,0.130772,-23,-1136,-0.0511915,-0.0511915,-84.7973,-0.1,0.412
0.0531995,0.0539405,0.242463,0.0786168,0.00374344,0.00050534,0.0514167,0.130627,-23,-1134,-0.0751227,-0.0751227,-85.5005,-0.1,0.416
0.0532146,0.0539436,0.242669,0.0791354,0.00381259,0.000596012,0.0514427,0.1303,-23,-1134,-0.0989496,-0.0989496,-86.1989,-0.1,0.42
0.05323,0.0539474,0.242875,0.0796516,0.00388232,0.000714041,0.0514689,0.12988,-23,-1135,-0.122678,-0.1,-86.8942,-0.1,0.424
0.0532456,0.0539505,0.243081,0.0801646,0.00395261,0.000735146,0.0514954,0.129341,-23,-1137,-0.146023,-0.1,-87.5874,-0.1,0.428
0.0532616,0.053954,0.243287,0.0806725,0.00402347,0.000778006,0.051522,0.12855,-24,-1142,-0.169881,-0.1,-88.2798,-0.1,0.432
0.0532778,0.0539578,0.243493,0.0811804,0.0040949,0.000835371,0.0515489,0.128023,-24,-1144,-0.194044,-0.1,-88.9737,-0.1,0.436
0.0532943,0.0539623,0.243699,0.0817007,0.00416689,0.000931196,0.051576,0.128708,-24,-1134,-0.218353,-0.1,-89.6658,-0.1,0.44
0.0533111,0.0539664,0.243906,0.0821954,0.00423945,0.000966289,0.0516032,0.127034,-24,-1147,-0.242494,-0.1,-90.3464,-0.1,0.444
0.0533283,0.0539716,0.244112,0.082703,0.00431256,0.00107606,0.0516307,0.126983,-24,-1145,-0.266993,-0.1,-91.0364,-0.1,0.448
0.0533457,0.0539761,0.244319,0.0832167,0.00438624,0.00109165,0.0516584,0.127467,-25,-1137,-0.291218,-0.1,-91.7204,-0.1,0.452
0.0533633,0.0539816,0.244525,0.0837311,0.00446048,0.00118842,0.0516863,0.127848,-25,-1130,-0.316003,-0.1,-92.3934,-0.1,0.456
0.0533813,0.0539864,0.244732,0.0842494,0.00453527,0.00119536,0.0517144,0.128418,-25,-1121,-0.340653,-0.1,-93.0563,-0.1,0.46
0.0533996,0.053992,0.244939,0.084768,0.00461062,0.00125756,0.0517427,0.128827,-26,-1114,-0.36598,-0.1,-93.7075,-0.1,0.464
0.0534182,0.0539978,0.245146,0.0852914,0.00468652,0.00132782,0.0517712,0.129503,-26,-1105,-0.391463,-0.1,-94.3483,-0.1,0.468
0.0534371,0.0540034,0.245353,0.0858276,0.00476298,0.00134587,0.0518,0.131019,-27,-1087,-0.417069,-0.1,-94.9756,-0.1,0.472
0.0534563,0.0540099,0.24556,0.0863486,0.00483998,0.00144427,0.0518289,0.130763,-27,-1086,-0.443237,-0.1,-95.5828,-0.1,0.476
0.0534758,0.0540168,0.245768,0.0868789,0.00491753,0.00153867,0.051858,0.131369,-26,-1077,-0.469221,-0.1,-96.1861,-0.1,0.48
0.0534957,0.0540234,0.245975,0.087412,0.00499563,0.00157281,0.0518873,0.132004,-27,-1068,-0.495106,-0.1,-96.7772,-0.1,0.484
0.0535158,0.0540289,0.246183,0.0879368,0.00507428,0.00150919,0.0519168,0.131736,-29,-1067,-0.521531,-0.1,-97.3567,-0.1,0.488
0.0535363,0.0540348,0.246391,0.0884623,0.00515347,0.00149557,0.0519465,0.131615,-30,-1065,-0.549384,-0.1,-97.9328,-0.1,0.492
0.053557,0.0540403,0.246598,0.0889885,0.0052332,0.0014577,0.0519765,0.131592,-31,-1062,-0.578218,-0.1,-98.5042,-0.1,0.496
0.0535781,0.0540459,0.246806,0.0895254,0.00531347,0.00143246,0.0520066,0.132469,-32,-1050,-0.608257,-0.1,-99.0694,-0.1,0.5
0.0535995,0.0540514,0.247014,0.0900371,0.00539428,0.00141563,0.0520369,0.130952,-33,-1062,-0.639382,-0.1,-99.6216,-0.1,0.504
0.0536213,0.0540573,0.247223,0.0905663,0.00547563,0.0014332,0.0520674,0.131409,-34,-1054,-0.671495,-0.1,-100.182,-0.1,0.508
0.0536433,0.0540635,0.247431,0.0910967,0.00555751,0.0014737,0.0520981,0.1318,-35,-1047,-0.704262,-0.1,-100.732,-0.1,0.512
0.0536657,0.05407,0.247639,0.0916246,0.00563993,0.00152949,0.052129,0.131859,-35,-1043,-0.737463,-0.1,-101.272,-0.1,0.516
0.0536885,0.054078,0.247848,0.092158,0.00572288,0.00168185,0.0521601,0.132359,-34,-1035,-0.770891,-0.1,-101.806,-0.1,0.52
0.0537115,0.0540859,0.248057,0.092687,0.00580636,0.00178343,0.0521913,0.132318,-34,-1033,-0.803681,-0.1,-102.33,-0.1,0.524
0.0537349,0.0540939,0.248266,0.0932159,0.00589036,0.00185114,0.0522228,0.132291,-35,-1030,-0.836338,-0.1,-102.848,-0.1,0.528
0.0537587,0.0541018,0.248475,0.0937355,0.0059749,0.00189629,0.0522545,0.131496,-35,-1034,-0.8692,-0.1,-103.362,-0.1,0.532
0.0537827,0.0541108,0.248684,0.0942621,0.00605996,0.00201276,0.0522863,0.131541,-35,-1030,-0.902436,-0.1,-103.877,-0.1,0.536
0.0538071,0.0541195,0.248893,0.0947492,0.00614555,0.00206161,0.0523184,0.128289,-36,-1059,-0.935427,-0.1,-104.389,-0.1,0.54
0.0538319,0.0541305,0.249102,0.0952477,0.00623166,0.00229572,0.0523506,0.127072,-34,-1068,-0.968685,-0.1,-104.926,-0.1,0.544
0.053857,0.0541429,0.249312,0.0957415,0.00631829,0.00256695,0.0523831,0.125857,-33,-1077,-1.00045,-0.1,-105.471,-0.1,0.548
0.0538824,0.0541578,0.249521,0.0962348,0.00640544,0.00294931,0.0524157,0.125018,-30,-1082,-1.03031,-0.1,-106.021,-0.1,0.552
0.0539082,0.0541737,0.249731,0.0967306,0.00649311,0.00329059,0.0524485,0.12466,-28,-1082,-1.05724,-0.1,-106.575,-0.1,0.556
0.0539344,0.0541906,0.249941,0.0972291,0.00658129,0.00360448,0.0524815,0.124652,-26,-1080,-1.08166,-0.1,-107.126,-0.1,0.56
0.0539609,0.0542079,0.250151,0.0977353,0.00666999,0.00384253,0.0525147,0.12528,-24,-1071,-1.10389,-0.1,-107.672,-0.1,0.564
0.0539877,0.0542252,0.250361,0.0982442,0.0067592,0.00400124,0.052548,0.125929,-24,-1062,-1.12469,-0.1,-108.206,-0.1,0.568
0.054015,0.0542411,0.250571,0.0987673,0.00684892,0.00399187,0.0525816,0.127542,-25,-1043,-1.14494,-0.1,-108.727,-0.1,0.572
0.0540425,0.0542552,0.250782,0.0992883,0.00693915,0.00384168,0.0526153,0.128445,-27,-1031,-1.1663,-0.1,-109.227,-0.1,0.576
0.0540705,0.0542691,0.250992,0.0998082,0.00702989,0.00371275,0.0526493,0.12896,-30,-1023,-1.19009,-0.1,-109.713,-0.1,0.58
0.0540988,0.0542836,0.251203,0.100336,0.00712114,0.00368439,0.0526834,0.129995,-31,-1010,-1.21605,-0.1,-110.189,-0.1,0.584
0.0541274,0.0542984,0.251414,0.100866,0.00721289,0.00369427,0.0527177,0.1308,-32,-999,-1.24321,-0.1,-110.649,-0.1,0.588
0.0541565,0.0543136,0.251625,0.101406,0.00730515,0.00372965,0.0527521,0.132229,-32,-982,-1.27119,-0.1,-111.095,-0.1,0.592
0.0541859,0.0543281,0.251836,0.101928,0.0073979,0.00369565,0.0527868,0.131627,-34,-985,-1.29982,-0.1,-111.523,-0.1,0.596
0.0542157,0.0543437,0.252047,0.102464,0.00749116,0.00375936,0.0528216,0.132435,-34,-974,-1.32968,-0.1,-111.951,-0.1,0.6
0.0542458,0.0543599,0.252258,0.102983,0.00758492,0.00385941,0.0528566,0.131476,-34,-980,-1.35983,-0.1,-112.367,-0.1,0.604
0.0542763,0.0543779,0.25247,0.103506,0.00767917,0.00407007,0.0528918,0.131298,-33,-979,-1.38986,-0.1,-112.786,-0.1,0.608
0.0543072,0.0543976,0.252681,0.104028,0.00777392,0.00435446,0.0529272,0.131006,-32,-978,-1.4187,-0.1,-113.203,-0.1,0.612
0.0543385,0.0544186,0.252893,0.104554,0.00786916,0.00465922,0.0529627,0.131128,-30,-974,-1.44563,-0.1,-113.617,-0.1,0.616
0.0543702,0.054439,0.253105,0.105069,0.00796489,0.00480481,0.0529985,0.130375,-29,-978,-1.47059,-0.1,-114.026,-0.1,0.62
0.0544023,0.0544573,0.253317,0.105557,0.00806112,0.00472913,0.0530344,0.127569,-31,-1003,-1.49522,-0.1,-114.439,-0.1,0.624
0.0544347,0.0544763,0.253529,0.106051,0.00815783,0.00473625,0.0530704,0.126189,-32,-1013,-1.52154,-0.1,-114.874,-0.1,0.628
0.0544675,0.0544953,0.253742,0.10654,0.00825503,0.004741,0.0531067,0.124922,-33,-1023,-1.54879,-0.1,-115.317,-0.1,0.632
0.0545007,0.054515,0.253954,0.107025,0.00835272,0.00480175,0.0531431,0.123675,-34,-1032,-1.57695,-0.1,-115.769,-0.1,0.636
0.0545343,0.0545354,0.254167,0.107507,0.00845089,0.00489983,0.0531797,0.122642,-34,-1039,-1.60547,-0.1,-116.228,-0.1,0.64
0.0545683,0.0545565,0.25438,0.107988,0.00854955,0.0050228,0.0532165,0.121839,-34,-1044,-1.634,-0.1,-116.693,-0.1,0.644
0.0546027,0.0545779,0.254593,0.10846,0.00864868,0.00513357,0.0532535,0.120525,-34,-1054,-1.66231,-0.1,-117.161,-0.1,0.648
0.0546375,0.0546004,0.254806,0.108928,0.0087483,0.00529379,0.0532906,0.119391,-33,-1063,-1.69049,-0.1,-117.637,-0.1,0.652
0.0546727,0.0546253,0.255019,0.109415,0.00884839,0.00560214,0.0533279,0.120189,-32,-1053,-1.71798,-0.1,-118.119,-0.1,0.656
0.0547083,0.0546487,0.255232,0.109875,0.00894896,0.00569254,0.0533653,0.118447,-32,-1067,-1.74355,-0.1,-118.59,-0.1,0.66
0.0547443,0.0546722,0.255446,0.110328,0.00905,0.00575281,0.053403,0.116738,-32,-1081,-1.76926,-0.1,-119.073,-0.1,0.664
0.0547807,0.054695,0.255659,0.110788,0.00915152,0.00573541,0.0534408,0.116089,-34,-1085,-1.79545,-0.1,-119.568,-0.1,0.668
0.0548175,0.0547185,0.255873,0.111248,0.00925351,0.00578139,0.0534787,0.115742,-34,-1086,-1.82281,-0.1,-120.065,-0.1,0.672
0.0548547,0.0547427,0.256087,0.111703,0.00935597,0.00586962,0.0535169,0.115079,-35,-1090,-1.85073,-0.1,-120.561,-0.1,0.676
0.0548924,0.0547683,0.256301,0.112164,0.0094589,0.00604361,0.0535552,0.115184,-34,-1087,-1.87875,-0.1,-121.059,-0.1,0.68
0.0549304,0.0547949,0.256516,0.112615,0.00956229,0.00624598,0.0535937,0.114333,-33,-1093,-1.90605,-0.1,-121.551,-0.1,0.684
0.0549689,0.0548222,0.25673,0.113064,0.00966615,0.00643847,0.0536323,0.113679,-32,-1097,-1.93238,-0.1,-122.047,-0.1,0.688
0.0550077,0.0548491,0.256945,0.113509,0.00977048,0.006538,0.0536711,0.11284,-33,-1103,-1.95791,-0.1,-122.546,-0.1,0.692
0.055047,0.0548757,0.25716,0.113946,0.00987527,0.00657557,0.0537101,0.111647,-33,-1112,-1.98355,-0.1,-123.048,-0.1,0.696
0.0550867,0.0549034,0.257374,0.114387,0.00998051,0.00668699,0.0537492,0.111169,-33,-1114,-2.00983,-0.1,-123.558,-0.1,0.7
0.0551269,0.0549307,0.25759,0.114823,0.0100862,0.00673247,0.0537885,0.110475,-34,-1119,-2.03611,-0.1,-124.068,-0.1,0.704
0.0551674,0.054959,0.257805,0.115256,0.0101924,0.00684917,0.053828,0.109725,-34,-1124,-2.06296,-0.1,-124.581,-0.1,0.708
0.0552084,0.0549884,0.25802,0.115704,0.010299,0.00701334,0.0538676,0.110434,-34,-1115,-2.0897,-0.1,-125.095,-0.1,0.712
0.0552498,0.0550177,0.258236,0.116129,0.0104061,0.00712279,0.0539074,0.109093,-34,-1126,-2.11591,-0.1,-125.6,-0.1,0.716
0.0552917,0.0550474,0.258451,0.116559,0.0105136,0.00722455,0.0539473,0.108516,-34,-1130,-2.14212,-0.1,-126.113,-0.1,0.72
0.0553339,0.0550758,0.258667,0.116988,0.0106216,0.00717722,0.0539874,0.108102,-36,-1132,-2.16851,-0.1,-126.628,-0.1,0.724
0.0553766,0.0551031,0.258883,0.117414,0.01073,0.0070593,0.0540277,0.107567,-38,-1135,-2.19652,-0.1,-127.142,-0.1,0.728
0.0554198,0.0551297,0.2591,0.117839,0.0108389,0.0069231,0.0540681,0.107124,-41,-1137,-2.22683,-0.1,-127.657,-0.1,0.732
0.0554634,0.0551542,0.259316,0.11827,0.0109482,0.00665955,0.0541087,0.107347,-44,-1133,-2.2597,-0.1,-128.172,-0.1,0.736
0.0555074,0.055178,0.259532,0.11869,0.011058,0.00642628,0.0541494,0.106546,-48,-1139,-2.29631,-0.1,-128.682,-0.1,0.74
0.0555518,0.0552001,0.259749,0.119112,0.0111682,0.0061268,0.0541903,0.106184,-52,-1141,-2.33642,-0.1,-129.194,-0.1,0.744
0.0555967,0.0552212,0.259966,0.119535,0.0112789,0.00584078,0.0542314,0.106058,-56,-1140,-2.38064,-0.1,-129.706,-0.1,0.748
0.0556421,0.0552395,0.260183,0.119954,0.01139,0.00541977,0.0542726,0.105629,-61,-1142,-2.42894,-0.1,-130.216,-0.1,0.752
0.0556878,0.0552544,0.2604,0.120378,0.0115015,0.00485119,0.054314,0.105746,-68,-1139,-2.4827,-0.1,-130.725,-0.1,0.756
0.0557341,0.0552654,0.260617,0.120798,0.0116135,0.00415544,0.0543555,0.105536,-76,-1139,-2.54338,-0.1,-131.229,-0.1,0.76
0.0557807,0.0552741,0.260835,0.121223,0.0117259,0.00349007,0.0543972,0.105741,-84,-1136,-2.61214,-0.1,-131.73,-0.1,0.764
0.0558279,0.055281,0.261053,0.121646,0.0118387,0.00290253,0.054439,0.105763,-91,-1134,-2.68865,-0.1,-132.226,-0.1,0.768
0.0558755,0.0552872,0.26127,0.12207,0.011952,0.00245326,0.054481,0.105864,-97,-1131,-2.7721,-0.1,-132.717,-0.1,0.772
0.0559235,0.0552934,0.261488,0.122498,0.0120657,0.00215374,0.0545231,0.10619,-101,-1126,-2.8611,-0.1,-133.203,-0.1,0.776
0.055972,0.0553003,0.261707,0.122928,0.0121799,0.00201165,0.0545654,0.106696,-104,-1119,-2.95414,-0.1,-133.681,-0.1,0.78
0.0560209,0.0553083,0.261925,0.123362,0.0122944,0.00200329,0.0546078,0.107234,-106,-1112,-3.04967,-0.1,-134.15,-0.1,0.784
0.0560703,0.055318,0.262144,0.123797,0.0124094,0.00214167,0.0546504,0.107737,-106,-1105,-3.14634,-0.1,-134.61,-0.1,0.788
0.0561202,0.0553297,0.262362,0.124237,0.0125248,0.00240667,0.0546931,0.108533,-105,-1095,-3.2427,-0.1,-135.061,-0.1,0.792
0.0561705,0.0553421,0.262581,0.124684,0.0126407,0.00264092,0.054736,0.109582,-104,-1083,-3.33759,-0.1,-135.499,-0.1,0.796
0.0562213,0.055356,0.2628,0.125109,0.0127569,0.00291225,0.054779,0.108496,-103,-1092,-3.43129,-0.1,-135.924,-0.1,0.8
0.0562726,0.0553698,0.263019,0.125542,0.0128736,0.00309314,0.0548222,0.108406,-103,-1091,-3.52351,-0.1,-136.356,-0.1,0.804
0.0563243,0.0553843,0.263239,0.125974,0.0129907,0.00327131,0.0548655,0.108259,-103,-1090,-3.6151,-0.1,-136.784,-0.1,0.808
0.0563765,0.0553985,0.263458,0.126415,0.0131083,0.0033613,0.054909,0.108881,-103,-1082,-3.70615,-0.1,-137.21,-0.1,0.812
0.0564292,0.0554116,0.263678,0.126833,0.0132262,0.00333492,0.0549526,0.107482,-105,-1094,-3.79757,-0.1,-137.627,-0.1,0.816
0.0564823,0.0554233,0.263898,0.127259,0.0133446,0.00320217,0.0549963,0.107125,-108,-1095,-3.89052,-0.1,-138.054,-0.1,0.82
0.0565359,0.0554334,0.264118,0.127674,0.0134633,0.00296972,0.0550402,0.105995,-112,-1105,-3.98606,-0.1,-138.48,-0.1,0.824
0.05659,0.0554413,0.264338,0.128096,0.0135825,0.002642,0.0550843,0.105874,-117,-1104,-4.08519,-0.1,-138.914,-0.1,0.828
0.0566446,0.0554475,0.264559,0.128512,0.0137021,0.00227957,0.0551285,0.105218,-122,-1108,-4.18882,-0.1,-139.345,-0.1,0.832
0.0566997,0.0554527,0.264779,0.128932,0.0138221,0.00195158,0.0551728,0.105184,-126,-1107,-4.29726,-0.1,-139.779,-0.1,0.836
0.0567552,0.0554565,0.265,0.129359,0.0139425,0.00161775,0.0552173,0.10568,-131,-1100,-4.41019,-0.1,-140.209,-0.1,0.84
0.0568112,0.0554593,0.265221,0.129778,0.0140633,0.00130883,0.0552619,0.105348,-136,-1102,-4.52766,-0.1,-140.631,-0.1,0.844
0.0568677,0.0554613,0.265442,0.1302,0.0141845,0.0010453,0.0553066,0.105414,-140,-1099,-4.6494,-0.1,-141.052,-0.1,0.848
0.0569247,0.0554631,0.265663,0.130625,0.0143061,0.00084082,0.0553515,0.10566,-144,-1095,-4.77496,-0.1,-141.469,-0.1,0.852
0.0569821,0.0554644,0.265885,0.131052,0.0144282,0.000675711,0.0553966,0.106055,-147,-1090,-4.90375,-0.1,-141.88,-0.1,0.856
0.0570401,0.0554662,0.266107,0.131474,0.0145506,0.000594428,0.0554417,0.105886,-150,-1090,-5.03537,-0.1,-142.283,-0.1,0.86
0.0570985,0.0554679,0.266328,0.131897,0.0146734,0.00054024,0.055487,0.105859,-152,-1088,-5.16901,-0.1,-142.684,-0.1,0.864
0.0571575,0.0554696,0.26655,0.132321,0.0147966,0.000504115,0.0555325,0.105842,-154,-1086,-5.30441,-0.1,-143.082,-0.1,0.868
0.0572169,0.0554717,0.266773,0.132744,0.0149202,0.000508822,0.0555781,0.105859,-156,-1084,-5.44139,-0.1,-143.477,-0.1,0.872
0.0572768,0.0554741,0.266995,0.133169,0.0150442,0.000540751,0.0556238,0.105928,-157,-1082,-5.57954,-0.1,-143.867,-0.1,0.876
0.0573373,0.0554769,0.267218,0.133591,0.0151686,0.000590828,0.0556696,0.105801,-159,-1081,-5.71861,-0.1,-144.254,-0.1,0.88
0.0573982,0.0554797,0.26744,0.134016,0.0152934,0.000624213,0.0557156,0.105947,-160,-1078,-5.85843,-0.1,-144.638,-0.1,0.884
0.0574596,0.0554831,0.267663,0.134458,0.0154186,0.000704051,0.0557617,0.107455,-161,-1062,-5.99914,-0.1,-145.016,-0.1,0.888
0.0575215,0.0554859,0.267887,0.134875,0.0155441,0.000699695,0.055808,0.106387,-163,-1070,-6.14037,-0.1,-145.378,-0.1,0.892
0.057584,0.0554897,0.26811,0.135304,0.0156701,0.000783163,0.0558544,0.106741,-164,-1065,-6.28284,-0.1,-145.745,-0.1,0.896
0.0576469,0.0554931,0.268333,0.13573,0.0157964,0.000810018,0.0559009,0.106602,-166,-1065,-6.42577,-0.1,-146.106,-0.1,0.9
0.0577103,0.0554969,0.268557,0.136156,0.0159231,0.000856712,0.0559475,0.106625,-167,-1063,-6.5697,-0.1,-146.465,-0.1,0.904
0.0577743,0.0555014,0.268781,0.136573,0.0160502,0.000945424,0.0559943,0.105834,-168,-1069,-6.71439,-0.1,-146.82,-0.1,0.908
0.0578387,0.0555066,0.269005,0.136995,0.0161777,0.00106215,0.0560412,0.10571,-169,-1068,-6.85945,-0.1,-147.18,-0.1,0.912
0.0579037,0.0555125,0.269229,0.137415,0.0163056,0.00119754,0.0560883,0.105483,-169,-1069,-7.00461,-0.1,-147.538,-0.1,0.916
0.0579692,0.0555183,0.269454,0.137835,0.0164338,0.00128781,0.0561354,0.105303,-170,-1069,-7.14974,-0.1,-147.894,-0.1,0.92
0.0580352,0.0555249,0.269678,0.138254,0.0165624,0.00140557,0.0561827,0.105154,-171,-1068,-7.29522,-0.1,-148.249,-0.1,0.924
0.0581017,0.0555325,0.269903,0.138678,0.0166914,0.00157044,0.0562302,0.105372,-171,-1065,-7.44078,-0.1,-148.602,-0.1,0.928
0.0581687,0.0555401,0.270128,0.139099,0.0168208,0.00168036,0.0562777,0.105344,-172,-1063,-7.58603,-0.1,-148.95,-0.1,0.932
0.0582363,0.0555491,0.270353,0.139525,0.0169505,0.00186881,0.0563254,0.1057,-172,-1058,-7.73142,-0.1,-149.294,-0.1,0.936
0.0583043,0.0555591,0.270579,0.13995,0.0170806,0.00208081,0.0563732,0.105908,-172,-1054,-7.87621,-0.1,-149.632,-0.1,0.94
0.0583729,0.0555712,0.270804,0.140374,0.0172111,0.00239489,0.0564211,0.105932,-171,-1052,-8.02011,-0.1,-149.964,-0.1,0.944
0.058442,0.0555857,0.27103,0.140797,0.0173419,0.00280581,0.0564692,0.10589,-169,-1051,-8.16212,-0.1,-150.293,-0.1,0.948
0.0585116,0.0556026,0.271256,0.141216,0.0174731,0.0032813,0.0565174,0.105546,-166,-1053,-8.3013,-0.1,-150.619,-0.1,0.952
0.0585818,0.0556213,0.271482,0.141634,0.0176047,0.00374224,0.0565657,0.105201,-164,-1054,-8.43705,-0.1,-150.946,-0.1,0.956
0.0586525,0.0556396,0.271709,0.142051,0.0177366,0.00402075,0.0566141,0.104884,-163,-1056,-8.56965,-0.1,-151.273,-0.1,0.96
0.0587237,0.0556583,0.271935,0.142458,0.0178689,0.00423521,0.0566627,0.103781,-162,-1065,-8.70084,-0.1,-151.6,-0.1,0.964
0.0587954,0.0556787,0.272162,0.142864,0.0180015,0.00452214,0.0567113,0.103074,-162,-1070,-8.83115,-0.1,-151.935,-0.1,0.968
0.0588677,0.0557018,0.272389,0.143282,0.0181345,0.00494375,0.0567601,0.103524,-159,-1064,-8.95984,-0.1,-152.273,-0.1,0.972
0.0589405,0.0557263,0.272616,0.143683,0.0182679,0.00533999,0.056809,0.102443,-157,-1073,-9.08568,-0.1,-152.605,-0.1,0.976
0.0590138,0.0557519,0.272843,0.144083,0.0184016,0.00569052,0.0568581,0.101577,-156,-1080,-9.20892,-0.1,-152.944,-0.1,0.98
0.0590877,0.0557795,0.273071,0.144484,0.0185357,0.00609695,0.0569072,0.101144,-154,-1083,-9.32997,-0.1,-153.289,-0.1,0.984
0.0591621,0.0558124,0.273299,0.144887,0.0186701,0.00679977,0.0569565,0.101029,-149,-1082,-9.44811,-0.1,-153.635,-0.1,0.988
0.0592371,0.0558469,0.273527,0.145289,0.0188049,0.00741228,0.0570059,0.100836,-145,-1083,-9.56066,-0.1,-153.978,-0.1,0.992
0.0593126,0.0558835,0.273755,0.145679,0.01894,0.00799335,0.0570554,0.0997867,-141,-1091,-9.66846,-0.1,-154.322,-0.1,0.996
0.0593886,0.0559226,0.273983,0.146073,0.0190755,0.00858228,0.057105,0.0993461,-137,-1094,-9.77183,-0.1,-154.672,-0.1,1
0.0594652,0.0559661,0.274212,0.146464,0.0192113,0.00934918,0.0571547,0.0987645,-131,-1099,-9.87056,-0.1,-155.024,-0.1,1.004
0.0595423,0.0560121,0.27444,0.146853,0.0193475,0.010062,0.0572046,0.0983192,-126,-1102,-9.96305,-0.1,-155.379,-0.1,1.008
0.05962,0.0560621,0.274669,0.147242,0.019484,0.0108827,0.0572546,0.0979359,-120,-1104,-10.0497,-0.1,-155.735,-0.1,1.012
0.0596982,0.056114,0.274898,0.147623,0.0196208,0.0115738,0.0573046,0.097047,-115,-1111,-10.1297,-0.1,-156.093,-0.1,1.016
0.0597769,0.0561679,0.275128,0.148006,0.019758,0.0122072,0.0573548,0.0965983,-110,-1114,-10.2042,-0.1,-156.456,-0.1,1.02
0.0598562,0.0562256,0.275357,0.148399,0.0198956,0.0129462,0.0574051,0.0971918,-105,-1107,-10.2737,-0.1,-156.821,-0.1,1.024
0.0599361,0.0562836,0.275587,0.148778,0.0200334,0.0134677,0.0574556,0.0963781,-102,-1114,-10.3373,-0.1,-157.177,-0.1,1.028
0.0600165,0.0563444,0.275817,0.149164,0.0201717,0.0140457,0.0575061,0.096354,-98,-1113,-10.3971,-0.1,-157.538,-0.1,1.032
0.0600975,0.056409,0.276047,0.14955,0.0203102,0.0147477,0.0575568,0.096453,-92,-1111,-10.4525,-0.1,-157.896,-0.1,1.036
0.060179,0.0564774,0.276277,0.149942,0.0204491,0.0155324,0.0576075,0.0969221,-87,-1105,-10.5021,-0.1,-158.251,-0.1,1.04
0.0602611,0.0565462,0.276508,0.150328,0.0205883,0.0160843,0.0576584,0.0968318,-83,-1105,-10.5456,-0.1,-158.598,-0.1,1.044
0.0603437,0.0566174,0.276738,0.150723,0.0207278,0.0166538,0.0577093,0.097405,-79,-1098,-10.5849,-0.1,-158.942,-0.1,1.048
0.0604269,0.0566882,0.276969,0.151098,0.0208677,0.0170047,0.0577604,0.0962324,-77,-1108,-10.6201,-0.1,-159.28,-0.1,1.052
0.0605106,0.0567621,0.277201,0.151479,0.0210079,0.0174977,0.0578116,0.0959113,-74,-1110,-10.6531,-0.1,-159.626,-0.1,1.056
0.0605949,0.0568385,0.277432,0.15186,0.0211484,0.0180279,0.0578629,0.0956397,-70,-1111,-10.6825,-0.1,-159.972,-0.1,1.06
0.0606798,0.0569155,0.277663,0.15224,0.0212893,0.018439,0.0579143,0.0954874,-68,-1112,-10.7082,-0.1,-160.318,-0.1,1.064
0.0607653,0.0569943,0.277895,0.15262,0.0214304,0.018857,0.0579659,0.0952707,-65,-1113,-10.7312,-0.1,-160.663,-0.1,1.068
0.0608513,0.0570744,0.278127,0.153003,0.0215719,0.0192508,0.0580175,0.0954429,-63,-1110,-10.7515,-0.1,-161.007,-0.1,1.072
0.0609378,0.0571574,0.278359,0.153388,0.0217137,0.0197437,0.0580692,0.0957017,-59,-1106,-10.7691,-0.1,-161.347,-0.1,1.076
0.061025,0.0572396,0.278592,0.153772,0.0218559,0.0200147,0.058121,0.0958166,-58,-1104,-10.7835,-0.1,-161.681,-0.1,1.08
0.0611127,0.0573222,0.278824,0.15416,0.0219983,0.0202242,0.058173,0.09621,-58,-1099,-10.7966,-0.1,-162.012,-0.1,1.084
0.061201,0.0574065,0.279057,0.154559,0.0221411,0.0205078,0.058225,0.0973647,-56,-1087,-10.809,-0.1,-162.335,-0.1,1.088
0.0612898,0.0574935,0.27929,0.15496,0.0222842,0.0209272,0.0582771,0.0983649,-54,-1076,-10.8199,-0.1,-162.644,-0.1,1.092
0.0613792,0.0575785,0.279523,0.155349,0.0224276,0.021034,0.0583294,0.0980239,-54,-1078,-10.8283,-0.1,-162.942,-0.1,1.096
0.0614692,0.0576656,0.279757,0.155747,0.0225713,0.021278,0.0583817,0.0985164,-53,-1072,-10.837,-0.1,-163.239,-0.1,1.1
0.0615598,0.057753,0.27999,0.156145,0.0227153,0.0214694,0.0584342,0.098816,-53,-1067,-10.8447,-0.1,-163.53,-0.1,1.104
0.061651,0.0578435,0.280224,0.156546,0.0228596,0.0218562,0.0584867,0.0993036,-51,-1061,-10.8518,-0.1,-163.814,-0.1,1.108
0.0617427,0.057934,0.280458,0.156938,0.0230043,0.022114,0.0585394,0.0988513,-49,-1065,-10.8565,-0.1,-164.092,-0.1,1.112
0.061835,0.0580256,0.280693,0.157334,0.0231492,0.0223723,0.0585921,0.0988953,-48,-1063,-10.8602,-0.1,-164.371,-0.1,1.116
0.0619279,0.0581151,0.280927,0.157713,0.0232945,0.0223717,0.058645,0.097485,-50,-1075,-10.8629,-0.1,-164.648,-0.1,1.12
0.0620213,0.058207,0.281162,0.158091,0.02344,0.0225728,0.0586979,0.0965161,-49,-1083,-10.8669,-0.1,-164.937,-0.1,1.124
0.0621154,0.0582999,0.281397,0.158467,0.0235859,0.0227933,0.0587509,0.0956974,-49,-1090,-10.8704,-0.1,-165.233,-0.1,1.128
0.06221,0.0583921,0.281632,0.158843,0.023732,0.0228827,0.0588041,0.095094,-49,-1095,-10.8732,-0.1,-165.534,-0.1,1.132
0.0623052,0.0584854,0.281867,0.15922,0.0238785,0.0230287,0.0588573,0.0948357,-49,-1096,-10.8765,-0.1,-165.839,-0.1,1.136
0.0624011,0.0585815,0.282103,0.159603,0.0240253,0.0233563,0.0589107,0.0951241,-47,-1093,-10.8797,-0.1,-166.144,-0.1,1.14
0.0624975,0.0586765,0.282338,0.159981,0.0241723,0.0234884,0.0589641,0.0949134,-48,-1094,-10.8813,-0.1,-166.443,-0.1,1.144
0.0625944,0.0587691,0.282574,0.160352,0.0243197,0.0233749,0.0590176,0.0942546,-50,-1099,-10.8831,-0.1,-166.743,-0.1,1.148
0.062692,0.0588651,0.28281,0.160728,0.0244673,0.0235871,0.0590712,0.0941321,-50,-1099,-10.8874,-0.1,-167.046,-0.1,1.152
0.0627902,0.0589636,0.283047,0.161111,0.0246152,0.0239302,0.0591249,0.0947127,-48,-1092,-10.8909,-0.1,-167.348,-0.1,1.156
0.0628889,0.0590596,0.283283,0.161484,0.0247635,0.0239573,0.0591787,0.0942072,-49,-1096,-10.8927,-0.1,-167.642,-0.1,1.16
0.0629883,0.0591546,0.28352,0.161855,0.024912,0.0238891,0.0592326,0.0937263,-51,-1100,-10.8957,-0.1,-167.939,-0.1,1.164
0.0630882,0.0592531,0.283757,0.162231,0.0250608,0.0241315,0.0592866,0.0938087,-50,-1098,-10.9007,-0.1,-168.238,-0.1,1.168
0.0631888,0.0593533,0.283995,0.162603,0.0252099,0.024437,0.0593407,0.093547,-49,-1100,-10.9047,-0.1,-168.534,-0.1,1.172
0.0632899,0.0594531,0.284232,0.16298,0.0253593,0.0246119,0.0593948,0.093718,-48,-1097,-10.9073,-0.1,-168.83,-0.1,1.176
0.0633916,0.0595523,0.28447,0.163348,0.0255089,0.0246709,0.0594491,0.0931986,-49,-1101,-10.9097,-0.1,-169.123,-0.1,1.18
0.063494,0.0596535,0.284708,0.163725,0.0256589,0.024883,0.0595035,0.0935145,-49,-1097,-10.9129,-0.1,-169.418,-0.1,1.184
0.0635969,0.0597551,0.284946,0.164098,0.0258091,0.0250532,0.0595579,0.0934372,-48,-1097,-10.9155,-0.1,-169.707,-0.1,1.188
0.0637005,0.0598574,0.285184,0.164476,0.0259596,0.0252243,0.0596124,0.0938175,-48,-1092,-10.9179,-0.1,-169.995,-0.1,1.192
0.0638046,0.059961,0.285423,0.164846,0.0261104,0.0254535,0.059667,0.0933513,-48,-1096,-10.92,-0.1,-170.278,-0.1,1.196
0.0639093,0.0600654,0.285661,0.165214,0.0262615,0.0256638,0.0597217,0.0929253,-47,-1099,-10.9214,-0.1,-170.562,-0.1,1.2
0.0640147,0.0601707,0.2859,0.165584,0.0264128,0.0258904,0.0597765,0.0927565,-46,-1100,-10.9222,-0.1,-170.849,-0.1,1.204
0.0641206,0.060273,0.28614,0.165937,0.0265644,0.0257824,0.0598314,0.0912908,-49,-1113,-10.9225,-0.1,-171.136,-0.1,1.208
0.0642272,0.0603791,0.286379,0.166295,0.0267163,0.0260271,0.0598863,0.0906879,-48,-1118,-10.9251,-0.1,-171.435,-0.1,1.212
0.0643344,0.0604841,0.286619,0.166656,0.0268685,0.0261038,0.0599414,0.0904875,-49,-1119,-10.9269,-0.1,-171.737,-0.1,1.216
0.0644421,0.0605908,0.286859,0.167019,0.0270209,0.026299,0.0599965,0.0906419,-48,-1117,-10.9293,-0.1,-172.039,-0.1,1.22
0.0645505,0.0606997,0.287099,0.167386,0.0271736,0.0266018,0.0600517,0.0909751,-47,-1113,-10.9313,-0.1,-172.338,-0.1,1.224
0.0646595,0.0608044,0.287339,0.16774,0.0273266,0.0264582,0.060107,0.0901608,-50,-1120,-10.9321,-0.1,-172.631,-0.1,1.228
0.0647691,0.0609122,0.28758,0.168112,0.0274798,0.0266215,0.0601624,0.0910862,-50,-1110,-10.9356,-0.1,-172.93,-0.1,1.232
0.0648794,0.0610203,0.28782,0.168484,0.0276333,0.0267593,0.0602179,0.0917608,-50,-1103,-10.9391,-0.1,-173.217,-0.1,1.236
0.0649902,0.0611302,0.288061,0.16886,0.0277871,0.026995,0.0602734,0.0924696,-49,-1095,-10.9426,-0.1,-173.495,-0.1,1.24
0.0651017,0.0612407,0.288303,0.169238,0.0279411,0.0272098,0.060329,0.0932012,-48,-1087,-10.9453,-0.1,-173.764,-0.1,1.244
0.0652137,0.061352,0.288544,0.169611,0.0280954,0.0274105,0.0603847,0.0931708,-48,-1086,-10.9475,-0.1,-174.024,-0.1,1.248
0.0653264,0.0614629,0.288786,0.169982,0.0282499,0.0275156,0.0604405,0.0930641,-48,-1086,-10.9492,-0.1,-174.282,-0.1,1.252
0.0654397,0.0615776,0.289027,0.170369,0.0284047,0.0279023,0.0604964,0.0942886,-46,-1074,-10.9512,-0.1,-174.538,-0.1,1.256
0.0655537,0.0616864,0.28927,0.170733,0.0285598,0.0276707,0.0605523,0.0932047,-50,-1083,-10.9514,-0.1,-174.782,-0.1,1.26
0.0656682,0.0618001,0.289512,0.171104,0.0287151,0.0279193,0.0606083,0.0930579,-49,-1084,-10.9551,-0.1,-175.033,-0.1,1.264
0.0657834,0.061913,0.289754,0.171474,0.0288707,0.0280275,0.0606644,0.0928161,-49,-1085,-10.9579,-0.1,-175.285,-0.1,1.268
0.0658992,0.0620274,0.289997,0.171846,0.0290265,0.0282148,0.0607206,0.0928564,-49,-1084,-10.9611,-0.1,-175.536,-0.1,1.272
0.0660156,0.0621438,0.29024,0.172215,0.0291826,0.0285124,0.0607768,0.092653,-48,-1085,-10.964,-0.1,-175.785,-0.1,1.276
0.0661327,0.0622572,0.290483,0.172578,0.0293389,0.0284517,0.0608332,0.0920279,-50,-1090,-10.9657,-0.1,-176.035,-0.1,1.28
0.0662503,0.0623719,0.290727,0.17295,0.0294955,0.0285264,0.0608896,0.0923598,-51,-1086,-10.9695,-0.1,-176.288,-0.1,1.284
0.0663686,0.062489,0.290971,0.173326,0.0296523,0.0287777,0.060946,0.0928977,-50,-1080,-10.9739,-0.1,-176.536,-0.1,1.288
0.0664875,0.0626064,0.291214,0.173703,0.0298094,0.0289741,0.0610026,0.0933715,-49,-1075,-10.9775,-0.1,-176.776,-0.1,1.292
0.0666071,0.0627211,0.291459,0.174065,0.0299667,0.0288746,0.0610592,0.0924493,-52,-1083,-10.9808,-0.1,-177.011,-0.1,1.296
0.0667273,0.0628403,0.291703,0.174432,0.0301242,0.0291826,0.0611159,0.0921513,-51,-1085,-10.9864,-0.1,-177.252,-0.1,1.3
0.0668481,0.0629592,0.291947,0.174799,0.030282,0.0293592,0.0611727,0.0920389,-50,-1085,-10.9906,-0.1,-177.495,-0.1,1.304
0.0669695,0.0630777,0.292192,0.175167,0.0304401,0.0294481,0.0612295,0.0920792,-51,-1084,-10.9947,-0.1,-177.736,-0.1,1.308
0.0670916,0.0631996,0.292437,0.175538,0.0305984,0.0297952,0.0612864,0.0923076,-49,-1081,-10.9993,-0.1,-177.976,-0.1,1.312
0.0672143,0.0633206,0.292683,0.175909,0.0307569,0.0299403,0.0613434,0.0924311,-49,-1079,-11.0022,-0.1,-178.211,-0.1,1.316
0.0673377,0.0634408,0.292928,0.176276,0.0309156,0.0299795,0.0614004,0.0921679,-51,-1080,-11.0053,-0.1,-178.443,-0.1,1.32
0.0674616,0.0635652,0.293174,0.176641,0.0310746,0.030351,0.0614576,0.0918485,-49,-1083,-11.0093,-0.1,-178.676,-0.1,1.324
0.0675863,0.0636892,0.29342,0.177005,0.0312339,0.03057,0.0615148,0.0916067,-48,-1084,-11.0113,-0.1,-178.91,-0.1,1.328
0.0677115,0.0638112,0.293666,0.177363,0.0313933,0.0305432,0.061572,0.0908698,-50,-1091,-11.0129,-0.1,-179.145,-0.1,1.332
0.0678374,0.0639369,0.293912,0.177722,0.031553,0.030842,0.0616293,0.0904936,-48,-1094,-11.0162,-0.1,-179.386,-0.1,1.336
0.0679639,0.0640617,0.294159,0.178083,0.0317129,0.0309549,0.0616867,0.0904156,-49,-1094,-11.0182,-0.1,-179.628,-0.1,1.34
0.0680911,0.0641864,0.294406,0.178441,0.0318731,0.0310301,0.0617442,0.0901045,-50,-1096,-11.0206,-0.1,-179.87,-0.1,1.344
0.0682189,0.0643142,0.294653,0.1788,0.0320335,0.0313394,0.0618017,0.090041,-48,-1096,-11.0238,-0.1,-180.112,-0.1,1.348
0.0683474,0.0644407,0.2949,0.179157,0.0321941,0.0314304,0.0618593,0.0897396,-49,-1098,-11.0256,-0.1,-180.354,-0.1,1.352
0.0684765,0.0645685,0.295148,0.179511,0.0323549,0.0316062,0.061917,0.0893659,-49,-1101,-11.028,-0.1,-180.597,-0.1,1.356
0.0686062,0.0646963,0.295396,0.179868,0.0325159,0.0317235,0.0619747,0.0892895,-49,-1101,-11.0304,-0.1,-180.842,-0.1,1.36
0.0687366,0.0648245,0.295644,0.180228,0.0326772,0.0318304,0.0620325,0.0895553,-50,-1098,-11.0332,-0.1,-181.085,-0.1,1.364
0.0688676,0.0649547,0.295892,0.180585,0.0328387,0.0320745,0.0620903,0.0894733,-49,-1098,-11.0364,-0.1,-181.325,-0.1,1.368
0.0689993,0.0650853,0.29614,0.180944,0.0330004,0.0322659,0.0621482,0.0895339,-49,-1097,-11.0388,-0.1,-181.563,-0.1,1.372
0.0691316,0.065217,0.296389,0.181305,0.0331623,0.03248,0.0622062,0.0897758,-48,-1094,-11.041,-0.1,-181.799,-0.1,1.376
0.0692646,0.0653438,0.296638,0.181653,0.0333245,0.0322196,0.0622643,0.088843,-52,-1102,-11.0429,-0.1,-182.031,-0.1,1.38
0.0693982,0.065474,0.296887,0.182008,0.0334869,0.0323339,0.0623224,0.0887969,-53,-1102,-11.0487,-0.1,-182.271,-0.1,1.384
0.0695325,0.0656088,0.297137,0.182367,0.0336494,0.0327844,0.0623805,0.0891117,-50,-1098,-11.0548,-0.1,-182.509,-0.1,1.388
0.0696674,0.0657435,0.297386,0.182724,0.0338122,0.0330847,0.0624387,0.0891776,-49,-1097,-11.0582,-0.1,-182.743,-0.1,1.392
0.069803,0.0658748,0.297636,0.183075,0.0339752,0.032997,0.062497,0.0887033,-51,-1101,-11.0604,-0.1,-182.974,-0.1,1.396
0.0699392,0.0660088,0.297886,0.183427,0.0341385,0.0331689,0.0625554,0.0884447,-51,-1103,-11.065,-0.1,-183.209,-0.1,1.4
0.0700761,0.0661422,0.298136,0.183777,0.0343019,0.0332259,0.0626138,0.0881859,-52,-1105,-11.0695,-0.1,-183.444,-0.1,1.404
0.0702136,0.0662745,0.298387,0.184129,0.0344655,0.0331775,0.0626722,0.0881286,-54,-1105,-11.0752,-0.1,-183.681,-0.1,1.408
0.0703518,0.0664082,0.298638,0.184474,0.0346294,0.0332604,0.0627307,0.0874569,-55,-1111,-11.0828,-0.1,-183.916,-0.1,1.412
0.0704907,0.066543,0.298889,0.184826,0.0347934,0.0334021,0.0627893,0.0876714,-55,-1108,-11.0912,-0.1,-184.156,-0.1,1.416
0.0706302,0.0666819,0.29914,0.185182,0.0349576,0.033842,0.0628479,0.0881022,-53,-1104,-11.0996,-0.1,-184.393,-0.1,1.42
0.0707703,0.0668173,0.299392,0.185527,0.0351221,0.0338474,0.0629066,0.0874394,-54,-1110,-11.1056,-0.1,-184.624,-0.1,1.424
0.0709112,0.0669548,0.299643,0.185874,0.0352867,0.0340237,0.0629654,0.087199,-54,-1111,-11.1131,-0.1,-184.86,-0.1,1.428
0.0710526,0.0670958,0.299895,0.18622,0.0354516,0.0344292,0.0630242,0.0869812,-52,-1113,-11.1203,-0.1,-185.097,-0.1,1.432
0.0711948,0.067235,0.300148,0.186569,0.0356167,0.0345555,0.063083,0.0870663,-52,-1112,-11.1253,-0.1,-185.334,-0.1,1.436
0.0713376,0.0673739,0.3004,0.186914,0.0357819,0.034611,0.0631419,0.0868639,-53,-1113,-11.1307,-0.1,-185.569,-0.1,1.44
0.071481,0.0675135,0.300653,0.18726,0.0359473,0.0347055,0.0632009,0.0866714,-54,-1115,-11.1372,-0.1,-185.804,-0.1,1.444
0.0716251,0.067652,0.300906,0.187604,0.036113,0.0346822,0.0632599,0.0865143,-56,-1116,-11.1444,-0.1,-186.04,-0.1,1.448
0.0717699,0.0677926,0.301159,0.187947,0.0362788,0.0348394,0.0633189,0.086208,-56,-1118,-11.1534,-0.1,-186.276,-0.1,1.452
0.0719154,0.0679329,0.301412,0.188287,0.0364448,0.0349154,0.0633781,0.0858023,-57,-1122,-11.1625,-0.1,-186.514,-0.1,1.456
0.0720615,0.0680749,0.301666,0.188635,0.0366111,0.03511,0.0634372,0.086194,-57,-1117,-11.1724,-0.1,-186.754,-0.1,1.46
0.0722083,0.0682158,0.30192,0.188977,0.0367775,0.0351533,0.0634964,0.0860232,-58,-1119,-11.1822,-0.1,-186.988,-0.1,1.464
0.0723557,0.0683575,0.302174,0.189328,0.0369441,0.0352398,0.0635557,0.0866004,-59,-1113,-11.1931,-0.1,-187.223,-0.1,1.468
0.0725038,0.0685078,0.302428,0.189694,0.0371109,0.0360173,0.063615,0.0881944,-53,-1097,-11.2043,-0.1,-187.449,-0.1,1.472
0.0726526,0.0686512,0.302683,0.190046,0.0372778,0.0359598,0.0636744,0.0881342,-55,-1097,-11.2102,-0.1,-187.659,-0.1,1.476
0.072802,0.0687938,0.302938,0.190393,0.037445,0.0358638,0.0637338,0.087691,-58,-1101,-11.2182,-0.1,-187.869,-0.1,1.48
0.0729522,0.0689414,0.303193,0.190746,0.0376123,0.0362029,0.0637933,0.087885,-56,-1098,-11.2285,-0.1,-188.081,-0.1,1.484
0.0731029,0.0690882,0.303448,0.191099,0.0377798,0.0363714,0.0638528,0.0879567,-56,-1097,-11.2372,-0.1,-188.289,-0.1,1.488
0.0732544,0.0692399,0.303703,0.191454,0.0379475,0.0368868,0.0639123,0.0882349,-53,-1094,-11.2457,-0.1,-188.496,-0.1,1.492
0.0734065,0.069387,0.303959,0.191803,0.0381154,0.0368562,0.0639719,0.0879021,-55,-1096,-11.2512,-0.1,-188.698,-0.1,1.496
0.0735593,0.0695377,0.304215,0.192157,0.0382835,0.0371236,0.0640316,0.0880833,-54,-1094,-11.2584,-0.1,-188.903,-0.1,1.5
0.0737128,0.0696897,0.304471,0.192512,0.0384517,0.0374171,0.0640913,0.0883193,-53,-1091,-11.2646,-0.1,-189.104,-0.1,1.504
0.0738669,0.0698393,0.304728,0.192857,0.0386201,0.0374112,0.064151,0.0876129,-54,-1098,-11.2698,-0.1,-189.301,-0.1,1.508
0.0740218,0.0699927,0.304985,0.193202,0.0387887,0.037724,0.0642108,0.0871995,-53,-1101,-11.2764,-0.1,-189.505,-0.1,1.512
0.0741772,0.070143,0.305242,0.193544,0.0389575,0.0376734,0.0642706,0.0866072,-55,-1107,-11.2819,-0.1,-189.711,-0.1,1.516
0.0743334,0.0702971,0.305499,0.193882,0.0391264,0.0379563,0.0643305,0.0858957,-54,-1113,-11.2893,-0.1,-189.922,-0.1,1.52
0.0744903,0.0704501,0.305756,0.194219,0.0392955,0.0380586,0.0643904,0.0853637,-55,-1118,-11.2957,-0.1,-190.139,-0.1,1.524
0.0746478,0.0706042,0.306014,0.194549,0.0394648,0.0382132,0.0644503,0.0844621,-55,-1126,-11.3028,-0.1,-190.36,-0.1,1.528
0.074806,0.0707597,0.306272,0.194882,0.0396342,0.0384314,0.0645103,0.0840049,-54,-1131,-11.3099,-0.1,-190.588,-0.1,1.532
0.0749649,0.0709152,0.30653,0.195213,0.0398038,0.0385768,0.0645704,0.083585,-55,-1134,-11.3166,-0.1,-190.82,-0.1,1.536
0.0751244,0.0710737,0.306788,0.195552,0.0399736,0.0389329,0.0646304,0.0840248,-53,-1130,-11.3234,-0.1,-191.054,-0.1,1.54
0.0752846,0.0712289,0.307047,0.195886,0.0401435,0.0388824,0.0646906,0.0837998,-55,-1132,-11.3286,-0.1,-191.283,-0.1,1.544
0.0754456,0.0713881,0.307306,0.196225,0.0403136,0.0391942,0.0647507,0.0841104,-54,-1128,-11.3358,-0.1,-191.512,-0.1,1.548
0.0756071,0.0715429,0.307565,0.19656,0.0404839,0.0390278,0.0648109,0.0840296,-57,-1129,-11.3419,-0.1,-191.737,-0.1,1.552
0.0757694,0.0717029,0.307824,0.196903,0.0406543,0.0393487,0.0648711,0.0845515,-55,-1124,-11.3509,-0.1,-191.961,-0.1,1.556
0.0759324,0.0718628,0.308084,0.197249,0.0408249,0.0395627,0.0649314,0.0852162,-55,-1117,-11.3586,-0.1,-192.179,-0.1,1.56
0.076096,0.0720221,0.308344,0.197593,0.0409956,0.0396477,0.0649917,0.0855154,-56,-1114,-11.3659,-0.1,-192.389,-0.1,1.564
0.0762603,0.0721835,0.308604,0.197942,0.0411665,0.0398772,0.0650521,0.0860603,-55,-1108,-11.374,-0.1,-192.595,-0.1,1.568
0.0764254,0.0723448,0.308864,0.198294,0.0413376,0.0400302,0.0651125,0.0867115,-56,-1101,-11.3815,-0.1,-192.794,-0.1,1.572
0.0765911,0.072512,0.309125,0.198653,0.0415088,0.0406216,0.0651729,0.0877502,-52,-1091,-11.3889,-0.1,-192.984,-0.1,1.576
0.0767574,0.0726706,0.309386,0.19899,0.0416801,0.0402961,0.0652333,0.0866001,-56,-1102,-11.3928,-0.1,-193.165,-0.1,1.58
0.0769245,0.0728354,0.309647,0.199335,0.0418517,0.0405973,0.0652938,0.0864379,-55,-1103,-11.4011,-0.1,-193.355,-0.1,1.584
0.0770922,0.0729988,0.309908,0.199678,0.0420233,0.040683,0.0653544,0.0862435,-56,-1104,-11.4083,-0.1,-193.546,-0.1,1.588
0.0772607,0.0731684,0.31017,0.200031,0.0421951,0.0412583,0.0654149,0.0868912,-52,-1098,-11.4161,-0.1,-193.737,-0.1,1.592
0.0774298,0.0733294,0.310431,0.200372,0.0423671,0.0409221,0.0654755,0.0863153,-57,-1103,-11.4204,-0.1,-193.921,-0.1,1.596
0.0775996,0.0734977,0.310693,0.200719,0.0425392,0.0413026,0.0655361,0.0864784,-55,-1101,-11.4293,-0.1,-194.109,-0.1,1.6
0.0777701,0.0736642,0.310956,0.201068,0.0427115,0.0414123,0.0655968,0.0867311,-56,-1098,-11.4363,-0.1,-194.294,-0.1,1.604
0.0779413,0.0738349,0.311218,0.201422,0.0428839,0.0418309,0.0656575,0.0873026,-53,-1092,-11.4437,-0.1,-194.475,-0.1,1.608
0.0781132,0.0740014,0.311481,0.201763,0.0430564,0.0417645,0.0657182,0.0866472,-56,-1098,-11.4491,-0.1,-194.65,-0.1,1.612
0.0782858,0.0741721,0.311744,0.202108,0.0432291,0.0420657,0.0657789,0.0865557,-54,-1099,-11.4565,-0.1,-194.831,-0.1,1.616
0.078459,0.0743407,0.312007,0.202455,0.0434019,0.0420938,0.0658397,0.0865523,-56,-1099,-11.4628,-0.1,-195.011,-0.1,1.62
0.078633,0.0745128,0.312271,0.202803,0.0435749,0.0424004,0.0659005,0.0867228,-55,-1097,-11.4704,-0.1,-195.19,-0.1,1.624
0.0788076,0.0746824,0.312534,0.203152,0.043748,0.0424033,0.0659614,0.086894,-56,-1095,-11.4768,-0.1,-195.366,-0.1,1.628
0.078983,0.0748555,0.312798,0.203502,0.0439212,0.0426931,0.0660223,0.0871234,-55,-1092,-11.4848,-0.1,-195.539,-0.1,1.632
0.079159,0.0750272,0.313063,0.203849,0.0440946,0.0427712,0.0660832,0.0869595,-56,-1093,-11.4917,-0.1,-195.708,-0.1,1.636
0.0793357,0.0751999,0.313327,0.204194,0.0442681,0.0429096,0.0661441,0.0867352,-56,-1095,-11.4995,-0.1,-195.879,-0.1,1.64
0.0795131,0.0753789,0.313592,0.204549,0.0444418,0.0435201,0.066205,0.0874493,-52,-1088,-11.5073,-0.1,-196.05,-0.1,1.644
0.0796912,0.0755489,0.313857,0.204883,0.0446156,0.0431785,0.066266,0.0861404,-57,-1100,-11.5115,-0.1,-196.214,-0.1,1.648
0.0798701,0.0757254,0.314122,0.205231,0.0447895,0.0434978,0.066327,0.0864194,-56,-1097,-11.5203,-0.1,-196.389,-0.1,1.652
0.0800496,0.0759058,0.314387,0.205583,0.0449635,0.0440274,0.066388,0.0869509,-53,-1092,-11.5275,-0.1,-196.56,-0.1,1.656
0.0802298,0.0760751,0.314653,0.205915,0.0451377,0.0434592,0.0664491,0.0856065,-60,-1105,-11.532,-0.1,-196.726,-0.1,1.66
0.0804107,0.0762506,0.314919,0.20626,0.045312,0.0435986,0.0665102,0.0858332,-60,-1102,-11.5432,-0.1,-196.904,-0.1,1.664
0.0805923,0.0764278,0.315185,0.206607,0.0454864,0.0438355,0.0665713,0.0860994,-59,-1099,-11.5548,-0.1,-197.078,-0.1,1.668
0.0807746,0.0766113,0.315451,0.206967,0.0456609,0.0445116,0.0666324,0.0873997,-55,-1086,-11.5654,-0.1,-197.247,-0.1,1.672
0.0809576,0.0767937,0.315718,0.207326,0.0458356,0.044876,0.0666936,0.0882378,-53,-1078,-11.5713,-0.1,-197.403,-0.1,1.676
0.0811412,0.0769654,0.315985,0.207662,0.0460104,0.0442264,0.0667548,0.0867524,-61,-1092,-11.5761,-0.1,-197.551,-0.1,1.68
0.0813256,0.0771451,0.316252,0.208011,0.0461853,0.0444556,0.066816,0.0869714,-60,-1089,-11.5883,-0.1,-197.712,-0.1,1.684
0.0815107,0.0773302,0.316519,0.208366,0.0463604,0.045069,0.0668772,0.087578,-56,-1083,-11.5997,-0.1,-197.869,-0.1,1.688
0.0816965,0.0775078,0.316787,0.208706,0.0465355,0.0448445,0.0669384,0.086658,-60,-1092,-11.6073,-0.1,-198.02,-0.1,1.692
0.081883,0.0776902,0.317055,0.209051,0.0467108,0.045098,0.0669997,0.0865629,-59,-1093,-11.6186,-0.1,-198.179,-0.1,1.696
0.0820702,0.0778733,0.317323,0.209392,0.0468862,0.0453245,0.067061,0.0861253,-59,-1097,-11.6291,-0.1,-198.338,-0.1,1.7
0.0822581,0.0780578,0.317591,0.209733,0.0470617,0.0455907,0.0671223,0.0858047,-58,-1099,-11.6391,-0.1,-198.5,-0.1,1.704
0.0824467,0.0782413,0.31786,0.21007,0.0472373,0.0456818,0.0671836,0.0852743,-59,-1104,-11.6483,-0.1,-198.665,-0.1,1.708
0.082636,0.0784282,0.318129,0.210406,0.0474131,0.0460304,0.0672449,0.0848919,-57,-1108,-11.6581,-0.1,-198.834,-0.1,1.712
0.082826,0.0786134,0.318398,0.210737,0.0475889,0.0461189,0.0673063,0.0841475,-58,-1115,-11.6665,-0.1,-199.007,-0.1,1.716
0.0830167,0.0788065,0.318667,0.211078,0.0477649,0.04684,0.0673677,0.0845438,-53,-1111,-11.6753,-0.1,-199.185,-0.1,1.72
0.0832081,0.0789889,0.318937,0.211403,0.0479409,0.0464283,0.0674291,0.083426,-59,-1122,-11.6795,-0.1,-199.359,-0.1,1.724
0.0834002,0.0791765,0.319207,0.211731,0.0481171,0.0465857,0.0674905,0.0829399,-59,-1126,-11.689,-0.1,-199.543,-0.1,1.728
0.0835931,0.0793624,0.319477,0.212061,0.0482934,0.0465466,0.0675519,0.0828174,-61,-1127,-11.6989,-0.1,-199.73,-0.1,1.732
0.0837866,0.0795511,0.319747,0.212393,0.0484698,0.0467509,0.0676134,0.0828797,-61,-1127,-11.7107,-0.1,-199.918,-0.1,1.736
0.0839808,0.0797407,0.320018,0.212724,0.0486463,0.0469735,0.0676748,0.0828348,-60,-1127,-11.7222,-0.1,-200.105,-0.1,1.74
0.0841758,0.0799311,0.320289,0.213048,0.0488229,0.0471795,0.0677363,0.0822003,-60,-1133,-11.7332,-0.1,-200.291,-0.1,1.744
0.0843714,0.0801211,0.32056,0.213373,0.0489996,0.047288,0.0677978,0.0818925,-61,-1136,-11.7441,-0.1,-200.483,-0.1,1.748
0.0845678,0.0803125,0.320831,0.213698,0.0491764,0.0474755,0.0678593,0.0816872,-61,-1138,-11.7555,-0.1,-200.676,-0.1,1.752
0.0847648,0.0805094,0.321103,0.214039,0.0493533,0.0480612,0.0679208,0.0829036,-57,-1126,-11.7666,-0.1,-200.87,-0.1,1.756
0.0849626,0.0806974,0.321374,0.214368,0.0495303,0.047703,0.0679823,0.0826204,-62,-1129,-11.7743,-0.1,-201.052,-0.1,1.76
0.0851611,0.0808905,0.321646,0.214709,0.0497074,0.0478962,0.0680439,0.0835257,-62,-1120,-11.7869,-0.1,-201.235,-0.1,1.764
0.0853602,0.0810826,0.321919,0.215049,0.0498846,0.0479385,0.0681054,0.0839853,-63,-1115,-11.7994,-0.1,-201.409,-0.1,1.768
0.0855601,0.0812785,0.322191,0.215389,0.0500619,0.0482835,0.068167,0.084378,-62,-1111,-11.813,-0.1,-201.577,-0.1,1.772
0.0857607,0.0814723,0.322464,0.215731,0.0502392,0.0483407,0.0682286,0.0847263,-63,-1108,-11.8252,-0.1,-201.74,-0.1,1.776
0.085962,0.0816668,0.322737,0.216067,0.0504167,0.0484364,0.0682902,0.084469,-64,-1110,-11.8385,-0.1,-201.899,-0.1,1.78
0.0861641,0.0818603,0.32301,0.216401,0.0505943,0.0484139,0.0683518,0.0841535,-66,-1113,-11.8526,-0.1,-202.06,-0.1,1.784
0.0863668,0.0820593,0.323284,0.21674,0.0507719,0.0488595,0.0684134,0.084375,-63,-1111,-11.8684,-0.1,-202.223,-0.1,1.788
0.0865702,0.0822545,0.323558,0.217073,0.0509497,0.0488399,0.068475,0.0840332,-65,-1114,-11.8819,-0.1,-202.384,-0.1,1.792
0.0867744,0.0824466,0.323832,0.217396,0.0511275,0.0485677,0.0685366,0.0829417,-69,-1125,-11.8974,-0.1,-202.547,-0.1,1.796
0.0869793,0.0826439,0.324106,0.217721,0.0513055,0.0488181,0.0685982,0.0823003,-69,-1131,-11.917,-0.1,-202.72,-0.1,1.8
0.0871848,0.0828419,0.324381,0.21805,0.0514835,0.0490426,0.0686599,0.0823046,-68,-1131,-11.9359,-0.1,-202.899,-0.1,1.804
0.0873911,0.0830377,0.324655,0.218374,0.0516616,0.0490195,0.0687215,0.0818469,-70,-1135,-11.9545,-0.1,-203.077,-0.1,1.808
0.0875981,0.0832285,0.32493,0.218695,0.0518398,0.0485723,0.0687832,0.0813401,-76,-1140,-11.9753,-0.1,-203.259,-0.1,1.812
0.0878058,0.0834244,0.325206,0.219025,0.052018,0.048706,0.0688449,0.0817221,-77,-1136,-12.0018,-0.1,-203.444,-0.1,1.816
0.0880143,0.0836189,0.325481,0.219356,0.0521964,0.0486799,0.0689065,0.0821207,-79,-1133,-12.0289,-0.1,-203.625,-0.1,1.82
0.0882234,0.0838144,0.325757,0.219692,0.0523748,0.048749,0.0689682,0.0827031,-80,-1127,-12.0578,-0.1,-203.801,-0.1,1.824
0.0884333,0.0840131,0.326033,0.22003,0.0525533,0.0490541,0.0690299,0.0832929,-79,-1121,-12.0877,-0.1,-203.971,-0.1,1.828
0.0886438,0.0842062,0.326309,0.220358,0.0527319,0.0487968,0.0690916,0.08288,-83,-1125,-12.1166,-0.1,-204.134,-0.1,1.832
0.0888551,0.0844024,0.326586,0.220688,0.0529105,0.0488845,0.0691532,0.0827199,-84,-1127,-12.1496,-0.1,-204.301,-0.1,1.836
0.0890671,0.0845983,0.326862,0.221019,0.0530893,0.0489141,0.0692149,0.0827571,-86,-1126,-12.1835,-0.1,-204.468,-0.1,1.84
0.0892798,0.0847956,0.327139,0.221351,0.0532681,0.049049,0.0692766,0.0828683,-86,-1125,-12.2187,-0.1,-204.635,-0.1,1.844
0.0894933,0.0849905,0.327416,0.22168,0.053447,0.0489374,0.0693383,0.0826545,-89,-1127,-12.2546,-0.1,-204.799,-0.1,1.848
0.0897074,0.0851853,0.327694,0.222006,0.0536259,0.048863,0.0694,0.0822816,-91,-1131,-12.2932,-0.1,-204.965,-0.1,1.852
0.0899223,0.0853778,0.327972,0.22233,0.053805,0.0486119,0.0694617,0.0818027,-96,-1136,-12.3343,-0.1,-205.135,-0.1,1.856
0.0901379,0.0855705,0.32825,0.222651,0.0539841,0.0484733,0.0695234,0.0812819,-99,-1141,-12.3796,-0.1,-205.308,-0.1,1.86
0.0903542,0.0857606,0.328528,0.222968,0.0541632,0.0481505,0.0695851,0.0805892,-104,-1148,-12.428,-0.1,-205.486,-0.1,1.864
0.0905712,0.0859537,0.328806,0.223291,0.0543425,0.0481945,0.0696468,0.0806745,-105,-1147,-12.4811,-0.1,-205.67,-0.1,1.868
0.0907889,0.0861434,0.329085,0.223611,0.0545218,0.0479359,0.0697085,0.0804722,-109,-1149,-12.5356,-0.1,-205.852,-0.1,1.872
0.0910073,0.0863265,0.329364,0.223922,0.0547011,0.0472164,0.0697702,0.0795311,-118,-1158,-12.5947,-0.1,-206.036,-0.1,1.876
0.0912265,0.0865113,0.329643,0.224242,0.0548806,0.0468808,0.0698319,0.07971,-123,-1157,-12.6622,-0.1,-206.228,-0.1,1.88
0.0914464,0.0866965,0.329923,0.224563,0.0550601,0.0466858,0.0698936,0.0798579,-127,-1155,-12.7346,-0.1,-206.418,-0.1,1.884
0.091667,0.0868817,0.330202,0.224882,0.0552396,0.0465558,0.0699553,0.0798702,-130,-1155,-12.8106,-0.1,-206.606,-0.1,1.888
0.0918883,0.0870724,0.330482,0.225215,0.0554193,0.0469298,0.070017,0.0809437,-129,-1145,-12.8892,-0.1,-206.792,-0.1,1.892
0.0921103,0.0872514,0.330762,0.225524,0.0555989,0.0462002,0.0700787,0.0797591,-137,-1157,-12.9666,-0.1,-206.968,-0.1,1.896
0.0923331,0.0874341,0.331043,0.225843,0.0557787,0.0460305,0.0701404,0.0797468,-141,-1157,-13.0525,-0.1,-207.155,-0.1,1.9
0.0925566,0.0876183,0.331324,0.226159,0.0559585,0.0460326,0.0702021,0.0794794,-143,-1160,-13.1416,-0.1,-207.342,-0.1,1.904
0.0927808,0.0878003,0.331605,0.226471,0.0561383,0.0458612,0.0702637,0.0790421,-147,-1164,-13.2325,-0.1,-207.53,-0.1,1.908
0.0930057,0.0879807,0.331886,0.226782,0.0563182,0.045603,0.0703254,0.0786065,-151,-1169,-13.3269,-0.1,-207.723,-0.1,1.912
0.0932313,0.0881559,0.332167,0.227089,0.0564982,0.044999,0.0703871,0.0779707,-159,-1175,-13.4257,-0.1,-207.919,-0.1,1.916
0.0934577,0.0883296,0.332449,0.227398,0.0566782,0.0444812,0.0704487,0.0777196,-166,-1178,-13.532,-0.1,-208.12,-0.1,1.92
0.0936847,0.0885,0.332731,0.227717,0.0568583,0.043848,0.0705104,0.0783871,-174,-1171,-13.6452,-0.1,-208.323,-0.1,1.924
0.0939125,0.0886582,0.333013,0.228028,0.0570384,0.0424183,0.070572,0.0781411,-189,-1174,-13.7667,-0.1,-208.52,-0.1,1.928
0.094141,0.0888109,0.333295,0.228347,0.0572186,0.0410044,0.0706337,0.0786969,-205,-1169,-13.9037,-0.1,-208.717,-0.1,1.932
0.0943703,0.0889567,0.333578,0.228668,0.0573988,0.0394861,0.0706953,0.0792401,-221,-1164,-14.0561,-0.1,-208.909,-0.1,1.936
0.0946002,0.0891042,0.333861,0.228998,0.057579,0.0386178,0.0707569,0.0802933,-232,-1154,-14.2245,-0.1,-209.094,-0.1,1.94
0.0948309,0.0892455,0.334144,0.229314,0.0577594,0.0375207,0.0708185,0.0798726,-244,-1158,-14.4031,-0.1,-209.269,-0.1,1.944
0.0950623,0.0893944,0.334427,0.229635,0.0579397,0.0374227,0.0708801,0.0799951,-248,-1157,-14.5934,-0.1,-209.447,-0.1,1.948
0.0952944,0.0895503,0.334711,0.229964,0.0581201,0.0379332,0.0709417,0.0807391,-245,-1150,-14.786,-0.1,-209.623,-0.1,1.952
0.0955273,0.0897157,0.334995,0.230298,0.0583006,0.0390796,0.0710033,0.0816669,-237,-1141,-14.9749,-0.1,-209.791,-0.1,1.956
0.0957608,0.0898916,0.335279,0.230641,0.058481,0.0407077,0.0710649,0.0830628,-225,-1128,-15.1542,-0.1,-209.948,-0.1,1.96
0.0959951,0.0900733,0.335563,0.230978,0.0586616,0.0422825,0.0711265,0.0834175,-212,-1124,-15.3195,-0.1,-210.092,-0.1,1.964
0.0962301,0.0902658,0.335848,0.231321,0.0588421,0.0442249,0.071188,0.0842299,-197,-1116,-15.4712,-0.1,-210.231,-0.1,1.968
0.0964659,0.090463,0.336133,0.231656,0.0590228,0.0459229,0.0712496,0.0840229,-183,-1119,-15.606,-0.1,-210.362,-0.1,1.972
0.0967023,0.0906665,0.336418,0.23199,0.0592034,0.0475731,0.0713111,0.0838849,-170,-1120,-15.7262,-0.1,-210.494,-0.1,1.976
0.0969395,0.0908763,0.336703,0.232328,0.0593841,0.0491915,0.0713726,0.084052,-157,-1118,-15.8322,-0.1,-210.627,-0.1,1.98
0.0971774,0.0910911,0.336989,0.232668,0.0595648,0.0507023,0.0714341,0.0844225,-145,-1115,-15.9245,-0.1,-210.758,-0.1,1.984
0.097416,0.0913095,0.337275,0.233012,0.0597455,0.0519974,0.0714956,0.0849574,-135,-1110,-16.0041,-0.1,-210.885,-0.1,1.988
0.0976553,0.0915316,0.337561,0.233356,0.0599263,0.0531775,0.0715571,0.0852565,-126,-1107,-16.073,-0.1,-211.005,-0.1,1.992
0.0978954,0.0917545,0.337847,0.233702,0.0601072,0.0540218,0.0716186,0.0856574,-120,-1103,-16.1325,-0.1,-211.122,-0.1,1.996
0.0981362,0.0919815,0.338134,0.234043,0.060288,0.0549302,0.07168,0.0855503,-113,-1104,-16.1856,-0.1,-211.235,-0.1,2
0.0983777,0.0922102,0.338421,0.234383,0.0604689,0.0556797,0.0717414,0.0853638,-108,-1105,-16.2317,-0.1,-211.348,-0.1,2.004
0.09862,0.0924413,0.338708,0.234723,0.0606498,0.0563809,0.0718028,0.0852107,-104,-1107,-16.2724,-0.1,-211.463,-0.1,2.008
0.0988629,0.0926735,0.338995,0.235059,0.0608307,0.0569348,0.0718642,0.0848783,-100,-1110,-16.3082,-0.1,-211.579,-0.1,2.012
0.0991066,0.0929077,0.339283,0.235394,0.0610117,0.0574768,0.0719256,0.0844551,-97,-1114,-16.3403,-0.1,-211.698,-0.1,2.016
0.099351,0.0931423,0.339571,0.235726,0.0611927,0.0578669,0.071987,0.0839715,-95,-1119,-16.3691,-0.1,-211.821,-0.1,2.02
0.0995961,0.0933897,0.339859,0.236065,0.0613737,0.0591922,0.0720483,0.0842249,-85,-1117,-16.3953,-0.1,-211.947,-0.1,2.024
0.099842,0.0936236,0.340147,0.236382,0.0615547,0.0589529,0.0721097,0.08258,-89,-1133,-16.4114,-0.1,-212.072,-0.1,2.028
0.100089,0.0938647,0.340436,0.236706,0.0617358,0.059398,0.072171,0.0820592,-86,-1138,-16.4312,-0.1,-212.212,-0.1,2.032
0.100336,0.094109,0.340724,0.237029,0.0619169,0.0599539,0.0722323,0.0816257,-83,-1142,-16.4483,-0.1,-212.356,-0.1,2.036
0.100584,0.0943602,0.341013,0.237359,0.062098,0.0609002,0.0722936,0.0819124,-76,-1140,-16.4616,-0.1,-212.505,-0.1,2.04
0.100833,0.0946024,0.341303,0.237676,0.0622791,0.0607826,0.0723548,0.0810672,-79,-1148,-16.4682,-0.1,-212.65,-0.1,2.044
0.101082,0.0948518,0.341592,0.238004,0.0624602,0.0613088,0.072416,0.0813386,-76,-1146,-16.4772,-0.1,-212.803,-0.1,2.048
0.101332,0.0951013,0.341882,0.238333,0.0626414,0.0616596,0.0724773,0.0816347,-74,-1143,-16.4831,-0.1,-212.953,-0.1,2.052
0.101583,0.0953587,0.342172,0.238677,0.0628226,0.0625556,0.0725385,0.0831277,-67,-1129,-16.4869,-0.1,-213.098,-0.1,2.056
0.101835,0.0956026,0.342462,0.239007,0.0630037,0.0620301,0.0725996,0.0828562,-74,-1131,-16.4848,-0.1,-213.229,-0.1,2.06
0.102087,0.0958555,0.342753,0.239349,0.0631849,0.0624284,0.0726608,0.0837981,-72,-1122,-16.4889,-0.1,-213.362,-0.1,2.064
0.10234,0.0961077,0.343044,0.239694,0.0633662,0.0626363,0.0727219,0.0845699,-72,-1115,-16.4911,-0.1,-213.485,-0.1,2.068
0.102594,0.0963682,0.343335,0.240049,0.0635474,0.0634659,0.072783,0.0859482,-66,-1101,-16.4925,-0.1,-213.599,-0.1,2.072
0.102849,0.09662,0.343626,0.240394,0.0637286,0.0632992,0.0728441,0.086061,-69,-1100,-16.4884,-0.1,-213.699,-0.1,2.076
0.103104,0.0968736,0.343917,0.240741,0.0639099,0.063332,0.0729051,0.0862801,-70,-1098,-16.4874,-0.1,-213.798,-0.1,2.08
0.10336,0.0971293,0.344209,0.241096,0.0640911,0.0635266,0.0729662,0.0871459,-70,-1090,-16.4878,-0.1,-213.895,-0.1,2.084
0.103617,0.0973853,0.344501,0.241457,0.0642724,0.0636851,0.0730272,0.0881838,-70,-1080,-16.4881,-0.1,-213.981,-0.1,2.088
0.103874,0.0976441,0.344793,0.241824,0.0644537,0.0640212,0.0730882,0.0893364,-69,-1068,-16.4885,-0.1,-214.057,-0.1,2.092
0.104132,0.0979015,0.345086,0.242197,0.0646349,0.06413,0.0731491,0.0906806,-70,-1055,-16.4875,-0.1,-214.121,-0.1,2.096
0.104391,0.0981582,0.345379,0.24257,0.0648162,0.064145,0.0732101,0.0914903,-71,-1047,-16.4872,-0.1,-214.171,-0.1,2.1
0.104651,0.098418,0.345672,0.242949,0.0649975,0.0644141,0.073271,0.0926348,-70,-1036,-16.4884,-0.1,-214.212,-0.1,2.104
0.104911,0.0986754,0.345965,0.243325,0.0651788,0.064392,0.0733318,0.0930523,-72,-1031,-16.4889,-0.1,-214.242,-0.1,2.108
0.105172,0.0989245,0.346258,0.243695,0.0653601,0.0636862,0.0733927,0.0928987,-80,-1033,-16.4918,-0.1,-214.268,-0.1,2.112
0.105434,0.099176,0.346552,0.244072,0.0655414,0.0634173,0.0734535,0.0933146,-85,-1028,-16.5029,-0.1,-214.294,-0.1,2.116
0.105697,0.0994296,0.346846,0.244456,0.0657227,0.0634107,0.0735143,0.0941964,-86,-1019,-16.5182,-0.1,-214.316,-0.1,2.12
0.10596,0.0996835,0.34714,0.244834,0.0659039,0.0634352,0.0735751,0.0942949,-88,-1018,-16.5351,-0.1,-214.328,-0.1,2.124
0.106224,0.0999295,0.347434,0.245202,0.0660852,0.0627892,0.0736358,0.0935832,-96,-1025,-16.554,-0.1,-214.34,-0.1,2.128
0.106489,0.10018,0.347729,0.245574,0.0662665,0.0627041,0.0736965,0.093339,-98,-1027,-16.5805,-0.1,-214.359,-0.1,2.132
0.106754,0.100432,0.348024,0.245948,0.0664478,0.0628201,0.0737572,0.0934066,-99,-1026,-16.6094,-0.1,-214.379,-0.1,2.136
0.10702,0.100686,0.348319,0.246325,0.066629,0.0630414,0.0738178,0.093682,-99,-1023,-16.6388,-0.1,-214.398,-0.1,2.14
0.107287,0.100941,0.348615,0.246707,0.0668103,0.0632753,0.0738785,0.0942686,-98,-1017,-16.6678,-0.1,-214.414,-0.1,2.144
0.107555,0.101195,0.34891,0.247085,0.0669916,0.0633737,0.0739391,0.094343,-99,-1016,-16.6964,-0.1,-214.424,-0.1,2.148
0.107823,0.101454,0.349206,0.247465,0.0671728,0.0638423,0.0739996,0.0945942,-97,-1013,-16.7255,-0.1,-214.432,-0.1,2.152
0.108092,0.10172,0.349502,0.247852,0.067354,0.0647018,0.0740601,0.0952798,-90,-1006,-16.7516,-0.1,-214.438,-0.1,2.156
0.108362,0.101982,0.349799,0.248218,0.0675353,0.064958,0.0741206,0.0940958,-90,-1017,-16.7716,-0.1,-214.437,-0.1,2.16
0.108632,0.102249,0.350095,0.248587,0.0677165,0.0655895,0.0741811,0.0934217,-86,-1024,-16.7906,-0.1,-214.448,-0.1,2.164
0.108904,0.102519,0.350392,0.248947,0.0678977,0.0662409,0.0742415,0.0923388,-81,-1034,-16.8053,-0.1,-214.465,-0.1,2.168
0.109176,0.102797,0.350689,0.249311,0.0680788,0.0673085,0.0743019,0.0918761,-73,-1038,-16.8152,-0.1,-214.492,-0.1,2.172
0.109448,0.103069,0.350986,0.249657,0.06826,0.0675596,0.0743623,0.0900992,-73,-1055,-16.8171,-0.1,-214.525,-0.1,2.176
0.109722,0.103335,0.351284,0.249983,0.0684412,0.0671799,0.0744226,0.0871872,-78,-1083,-16.8188,-0.1,-214.576,-0.1,2.18
0.109996,0.103609,0.351582,0.250309,0.0686223,0.0676178,0.0744829,0.0853322,-75,-1101,-16.8253,-0.1,-214.655,-0.1,2.184
0.110271,0.103887,0.35188,0.250634,0.0688034,0.068284,0.0745431,0.0839516,-71,-1115,-16.8292,-0.1,-214.752,-0.1,2.188
0.110546,0.104164,0.352178,0.250953,0.0689845,0.0685842,0.0746034,0.0825418,-70,-1129,-16.8287,-0.1,-214.863,-0.1,2.192
0.110822,0.104438,0.352477,0.251268,0.0691656,0.068554,0.0746635,0.0812852,-72,-1141,-16.8272,-0.1,-214.987,-0.1,2.196
0.1111,0.104716,0.352775,0.251591,0.0693466,0.0688506,0.0747237,0.0811096,-71,-1143,-16.8276,-0.1,-215.124,-0.1,2.2
0.111377,0.105002,0.353074,0.251933,0.0695277,0.0697681,0.0747838,0.0825761,-64,-1129,-16.8265,-0.1,-215.26,-0.1,2.204
0.111656,0.105275,0.353374,0.252269,0.0697087,0.0692281,0.0748439,0.0830067,-71,-1125,-16.8193,-0.1,-215.382,-0.1,2.208
0.111935,0.105548,0.353673,0.252616,0.0698897,0.0688969,0.0749039,0.0843015,-75,-1113,-16.8189,-0.1,-215.5,-0.1,2.212
0.112215,0.105823,0.353973,0.252977,0.0700706,0.0688488,0.0749639,0.0862587,-77,-1094,-16.8231,-0.1,-215.603,-0.1,2.216
0.112495,0.106098,0.354273,0.253343,0.0702516,0.0688456,0.0750239,0.0879954,-79,-1077,-16.8295,-0.1,-215.686,-0.1,2.22
0.112777,0.10637,0.354573,0.253715,0.0704325,0.0685555,0.0750838,0.0897002,-83,-1061,-16.8379,-0.1,-215.752,-0.1,2.224
0.113059,0.10664,0.354874,0.254093,0.0706134,0.0681606,0.0751437,0.0912686,-89,-1045,-16.8507,-0.1,-215.8,-0.1,2.228
0.113342,0.106905,0.355174,0.254474,0.0707942,0.0675806,0.0752035,0.0925733,-96,-1032,-16.8692,-0.1,-215.833,-0.1,2.232
0.113625,0.107168,0.355475,0.25486,0.070975,0.0669061,0.0752633,0.0939326,-104,-1019,-16.8949,-0.1,-215.852,-0.1,2.236
0.11391,0.10743,0.355776,0.255257,0.0711558,0.0664564,0.0753231,0.0957025,-110,-1002,-16.9287,-0.1,-215.857,-0.1,2.24
0.114195,0.107684,0.356078,0.255656,0.0713366,0.0654656,0.0753828,0.0970552,-121,-988,-16.9688,-0.1,-215.844,-0.1,2.244
0.11448,0.10792,0.356379,0.256041,0.0715173,0.0633655,0.0754425,0.0967766,-142,-990,-17.0207,-0.1,-215.818,-0.1,2.248
0.114767,0.108159,0.356681,0.256441,0.071698,0.0621382,0.0755021,0.0978576,-155,-980,-17.0937,-0.1,-215.794,-0.1,2.252
0.115054,0.108392,0.356983,0.256848,0.0718786,0.0608305,0.0755617,0.0991829,-169,-966,-17.1802,-0.1,-215.759,-0.1,2.256
0.115342,0.108613,0.357286,0.257248,0.0720592,0.0589799,0.0756212,0.099433,-188,-963,-17.2812,-0.1,-215.71,-0.1,2.26
0.11563,0.108831,0.357588,0.257653,0.0722398,0.0574582,0.0756808,0.100003,-204,-957,-17.4013,-0.1,-215.659,-0.1,2.264
0.11592,0.109043,0.357891,0.258056,0.0724204,0.0559831,0.0757402,0.100239,-220,-955,-17.5375,-0.1,-215.602,-0.1,2.268
0.11621,0.10925,0.358194,0.258456,0.0726009,0.0545966,0.0757996,0.100195,-235,-954,-17.6893,-0.1,-215.542,-0.1,2.272
0.1165,0.109455,0.358498,0.258855,0.0727813,0.0534996,0.075859,0.100021,-247,-956,-17.8558,-0.1,-215.483,-0.1,2.276
0.116792,0.109654,0.358801,0.259241,0.0729617,0.0521924,0.0759183,0.098869,-262,-966,-18.0346,-0.1,-215.426,-0.1,2.28
0.117084,0.10985,0.359105,0.259624,0.0731421,0.0511769,0.0759776,0.0978706,-273,-976,-18.2273,-0.1,-215.38,-0.1,2.284
0.117377,0.110045,0.359409,0.260003,0.0733225,0.0503273,0.0760369,0.0968307,-284,-985,-18.4312,-0.1,-215.344,-0.1,2.288
0.117671,0.110238,0.359713,0.260376,0.0735027,0.0496744,0.0760961,0.0956192,-292,-997,-18.6447,-0.1,-215.318,-0.1,2.292
0.117965,0.11043,0.360018,0.260744,0.073683,0.049124,0.0761552,0.0944085,-300,-1008,-18.866,-0.1,-215.304,-0.1,2.296
0.11826,0.110621,0.360323,0.261108,0.0738632,0.0486419,0.0762143,0.0932846,-307,-1019,-19.0942,-0.1,-215.302,-0.1,2.3
0.118556,0.11081,0.360628,0.261471,0.0740433,0.0481766,0.0762734,0.0923914,-314,-1027,-19.3287,-0.1,-215.311,-0.1,2.304
0.118853,0.110998,0.360933,0.261826,0.0742234,0.0478088,0.0763324,0.0911626,-320,-1039,-19.5691,-0.1,-215.329,-0.1,2.308
0.11915,0.111183,0.361238,0.262179,0.0744035,0.0472469,0.0763914,0.0901994,-327,-1048,-19.8149,-0.1,-215.359,-0.1,2.312
0.119448,0.111368,0.361544,0.26253,0.0745835,0.0469299,0.0764503,0.0893845,-333,-1056,-20.0675,-0.1,-215.398,-0.1,2.316
0.119746,0.11155,0.36185,0.262881,0.0747634,0.0464594,0.0765091,0.0888988,-340,-1061,-20.3249,-0.1,-215.445,-0.1,2.32
0.120046,0.111733,0.362156,0.263231,0.0749433,0.0462321,0.076568,0.0884311,-345,-1066,-20.5883,-0.1,-215.497,-0.1,2.324
0.120346,0.111914,0.362462,0.263584,0.0751232,0.0459079,0.0766267,0.0883496,-350,-1066,-20.8555,-0.1,-215.553,-0.1,2.328
0.120647,0.112095,0.362769,0.263933,0.075303,0.0456341,0.0766854,0.0879786,-356,-1070,-21.1275,-0.1,-215.61,-0.1,2.332
0.120948,0.112275,0.363076,0.264283,0.0754827,0.0454228,0.0767441,0.0877888,-360,-1072,-21.4037,-0.1,-215.67,-0.1,2.336
0.121251,0.112459,0.363383,0.26463,0.0756624,0.045685,0.0768027,0.0874607,-361,-1075,-21.6832,-0.1,-215.732,-0.1,2.34
0.121554,0.112642,0.36369,0.264973,0.075842,0.0456871,0.0768613,0.0869253,-364,-1081,-21.9621,-0.1,-215.798,-0.1,2.344
0.121857,0.112819,0.363998,0.2653,0.0760216,0.0452278,0.0769198,0.0851576,-371,-1098,-22.2429,-0.1,-215.869,-0.1,2.348
0.122162,0.112999,0.364306,0.265633,0.0762011,0.0451231,0.0769783,0.0845262,-374,-1104,-22.5295,-0.1,-215.957,-0.1,2.352
0.122467,0.11318,0.364614,0.265963,0.0763806,0.0451685,0.0770367,0.0838461,-377,-1111,-22.8187,-0.1,-216.052,-0.1,2.356
0.122773,0.113363,0.364922,0.266306,0.0765599,0.0453716,0.077095,0.084458,-378,-1105,-23.109,-0.1,-216.152,-0.1,2.36
0.12308,0.113535,0.36523,0.266629,0.0767393,0.0445568,0.0771533,0.0832537,-388,-1117,-23.3996,-0.1,-216.247,-0.1,2.364
0.123387,0.113709,0.365539,0.266964,0.0769185,0.0441864,0.0772116,0.0834008,-394,-1116,-23.6994,-0.1,-216.353,-0.1,2.368
0.123695,0.113882,0.365848,0.2673,0.0770977,0.0438818,0.0772698,0.0836141,-400,-1114,-24.0043,-0.1,-216.457,-0.1,2.372
0.124004,0.114052,0.366157,0.267641,0.0772769,0.0434197,0.0773279,0.0841594,-407,-1109,-24.3138,-0.1,-216.559,-0.1,2.376
0.124313,0.114222,0.366467,0.267982,0.0774559,0.0431116,0.077386,0.0845517,-413,-1106,-24.6293,-0.1,-216.656,-0.1,2.38
0.124623,0.114388,0.366776,0.268325,0.077635,0.0425895,0.0774441,0.0849572,-421,-1102,-24.9494,-0.1,-216.748,-0.1,2.384
0.124934,0.114557,0.367086,0.268669,0.0778139,0.0425006,0.077502,0.0853139,-424,-1099,-25.2759,-0.1,-216.836,-0.1,2.388
0.125246,0.114727,0.367396,0.26902,0.0779928,0.0424413,0.07756,0.0860987,-428,-1091,-25.6048,-0.1,-216.92,-0.1,2.392
0.125558,0.114891,0.367707,0.269356,0.0781716,0.0419986,0.0776178,0.0854127,-435,-1098,-25.9362,-0.1,-216.997,-0.1,2.396
0.125871,0.11506,0.368017,0.269697,0.0783503,0.0421067,0.0776756,0.0853297,-437,-1099,-26.273,-0.1,-217.08,-0.1,2.4
0.126185,0.115235,0.368328,0.270034,0.0785289,0.0426393,0.0777334,0.0849864,-435,-1103,-26.6102,-0.1,-217.164,-0.1,2.404
0.126499,0.115413,0.368639,0.270372,0.0787075,0.0432535,0.0777911,0.0848151,-433,-1105,-26.9439,-0.1,-217.252,-0.1,2.408
0.126815,0.115598,0.36895,0.270707,0.078886,0.0442388,0.0778487,0.0844994,-427,-1108,-27.2732,-0.1,-217.341,-0.1,2.412
0.12713,0.115786,0.369262,0.27104,0.0790645,0.0451836,0.0779063,0.0840586,-421,-1112,-27.5949,-0.1,-217.433,-0.1,2.416
0.127447,0.115983,0.369574,0.271374,0.0792428,0.0465332,0.0779639,0.0838799,-411,-1114,-27.909,-0.1,-217.529,-0.1,2.42
0.127764,0.116182,0.369886,0.271705,0.0794211,0.0476345,0.0780213,0.0835016,-404,-1118,-28.2122,-0.1,-217.627,-0.1,2.424
0.128082,0.116387,0.370198,0.272036,0.0795993,0.0488294,0.0780787,0.0832207,-396,-1121,-28.5065,-0.1,-217.729,-0.1,2.428
0.128401,0.116595,0.37051,0.272363,0.0797775,0.0498563,0.0781361,0.0827742,-390,-1126,-28.7914,-0.1,-217.834,-0.1,2.432
0.128721,0.116807,0.370823,0.272697,0.0799555,0.0509439,0.0781934,0.0829949,-383,-1124,-29.0681,-0.1,-217.942,-0.1,2.436
0.129041,0.117016,0.371136,0.273017,0.0801335,0.0513235,0.0782506,0.0820191,-382,-1134,-29.3366,-0.1,-218.049,-0.1,2.44
0.129362,0.11722,0.371449,0.27334,0.0803114,0.0512599,0.0783078,0.0815413,-385,-1139,-29.6035,-0.1,-218.165,-0.1,2.444
0.129683,0.117427,0.371762,0.273663,0.0804892,0.051419,0.0783649,0.081338,-386,-1142,-29.8725,-0.1,-218.286,-0.1,2.448
0.130006,0.11763,0.372076,0.27399,0.0806669,0.0511796,0.0784219,0.081404,-391,-1141,-30.1419,-0.1,-218.409,-0.1,2.452
0.130329,0.117834,0.37239,0.274326,0.0808446,0.0511352,0.0784789,0.0823405,-394,-1133,-30.415,-0.1,-218.53,-0.1,2.456
0.130652,0.118032,0.372704,0.274659,0.0810222,0.0505873,0.0785358,0.0825617,-402,-1131,-30.6905,-0.1,-218.642,-0.1,2.46
0.130977,0.118229,0.373018,0.274998,0.0811996,0.0501645,0.0785927,0.0833138,-409,-1124,-30.9727,-0.1,-218.751,-0.1,2.464
0.131302,0.118427,0.373333,0.27534,0.081377,0.0499114,0.0786495,0.0840456,-414,-1117,-31.2605,-0.1,-218.853,-0.1,2.468
0.131628,0.11862,0.373647,0.275685,0.0815543,0.0493396,0.0787062,0.0847637,-422,-1110,-31.5524,-0.1,-218.948,-0.1,2.472
0.131954,0.118817,0.373962,0.276035,0.0817316,0.0493039,0.0787629,0.0857319,-425,-1101,-31.851,-0.1,-219.035,-0.1,2.476
0.132282,0.119003,0.374277,0.276379,0.0819087,0.0483876,0.0788195,0.0858304,-436,-1101,-32.152,-0.1,-219.112,-0.1,2.48
0.13261,0.119188,0.374593,0.276728,0.0820857,0.0476903,0.078876,0.0862415,-445,-1097,-32.4632,-0.1,-219.189,-0.1,2.484
0.132938,0.119371,0.374908,0.277078,0.0822627,0.0470239,0.0789325,0.0866883,-454,-1093,-32.7826,-0.1,-219.261,-0.1,2.488
0.133268,0.119555,0.375224,0.277435,0.0824395,0.0466661,0.0789889,0.0875045,-461,-1085,-33.1096,-0.1,-219.328,-0.1,2.492
0.133598,0.119725,0.37554,0.27777,0.0826163,0.0453046,0.0790453,0.0863211,-476,-1097,-33.4422,-0.1,-219.388,-0.1,2.496
0.133929,0.1199,0.375857,0.278114,0.082793,0.0448001,0.0791016,0.0861656,-483,-1098,-33.7886,-0.1,-219.46,-0.1,2.5
0.13426,0.120074,0.376173,0.278458,0.0829695,0.0443486,0.0791578,0.0861483,-491,-1099,-34.1414,-0.1,-219.533,-0.1,2.504
0.134593,0.120259,0.37649,0.278817,0.083146,0.0449689,0.0792139,0.0873172,-488,-1088,-34.4994,-0.1,-219.605,-0.1,2.508
0.134925,0.12043,0.376807,0.279152,0.0833224,0.0442307,0.07927,0.0861674,-498,-1099,-34.854,-0.1,-219.667,-0.1,2.512
0.135259,0.12061,0.377124,0.279503,0.0834987,0.0444872,0.079326,0.0866389,-499,-1095,-35.2165,-0.1,-219.739,-0.1,2.516
0.135593,0.120793,0.377441,0.279859,0.0836749,0.0449461,0.079382,0.0874427,-497,-1087,-35.578,-0.1,-219.806,-0.1,2.52
0.135929,0.120988,0.377759,0.28023,0.083851,0.0461446,0.0794379,0.0891878,-490,-1070,-35.9364,-0.1,-219.865,-0.1,2.524
0.136264,0.121174,0.378077,0.280583,0.084027,0.0463102,0.0794937,0.0888829,-491,-1073,-36.2857,-0.1,-219.907,-0.1,2.528
0.136601,0.121369,0.378395,0.280945,0.0842029,0.0471115,0.0795494,0.0894281,-487,-1068,-36.6346,-0.1,-219.951,-0.1,2.532
0.136938,0.121569,0.378713,0.281307,0.0843787,0.0480488,0.0796051,0.0897916,-481,-1065,-36.9775,-0.1,-219.99,-0.1,2.536
0.137276,0.12177,0.379032,0.281665,0.0845544,0.0488465,0.0796607,0.0897461,-477,-1065,-37.3133,-0.1,-220.026,-0.1,2.54
0.137614,0.121975,0.379351,0.282023,0.0847299,0.0496373,0.0797162,0.0896293,-473,-1066,-37.6431,-0.1,-220.062,-0.1,2.544
0.137954,0.12218,0.37967,0.282375,0.0849054,0.0501646,0.0797717,0.0890908,-471,-1072,-37.9673,-0.1,-220.1,-0.1,2.548
0.138294,0.122389,0.379989,0.28273,0.0850808,0.0508616,0.0798271,0.088991,-468,-1073,-38.288,-0.1,-220.142,-0.1,2.552
0.138634,0.1226,0.380308,0.283085,0.0852561,0.0514702,0.0798824,0.0889244,-465,-1073,-38.6038,-0.1,-220.186,-0.1,2.556
0.138976,0.122812,0.380628,0.28344,0.0854312,0.0519911,0.0799377,0.0887936,-463,-1075,-38.9156,-0.1,-220.23,-0.1,2.56
0.139318,0.123028,0.380948,0.28379,0.0856063,0.052655,0.0799929,0.0883897,-460,-1079,-39.2239,-0.1,-220.276,-0.1,2.564
0.13966,0.123246,0.381268,0.284141,0.0857812,0.0532992,0.080048,0.0881781,-457,-1081,-39.5276,-0.1,-220.325,-0.1,2.568
0.140004,0.12347,0.381588,0.28449,0.0859561,0.0541318,0.080103,0.0878642,-452,-1084,-39.8267,-0.1,-220.377,-0.1,2.572
0.140348,0.123697,0.381909,0.284842,0.0861308,0.0550611,0.080158,0.0879429,-447,-1084,-40.1195,-0.1,-220.431,-0.1,2.576
0.140693,0.123926,0.382229,0.285195,0.0863054,0.055767,0.0802129,0.0880241,-443,-1083,-40.4053,-0.1,-220.485,-0.1,2.58
0.141039,0.124157,0.38255,0.285551,0.0864799,0.0564391,0.0802677,0.0883662,-440,-1080,-40.6861,-0.1,-220.538,-0.1,2.584
0.141385,0.124388,0.382871,0.285907,0.0866543,0.0568296,0.0803224,0.0885942,-439,-1078,-40.9624,-0.1,-220.587,-0.1,2.588
0.141732,0.12462,0.383193,0.28627,0.0868286,0.0572339,0.0803771,0.0892933,-438,-1071,-41.2365,-0.1,-220.634,-0.1,2.592
0.142079,0.124846,0.383514,0.286622,0.0870028,0.0569852,0.0804317,0.088838,-443,-1076,-41.5088,-0.1,-220.674,-0.1,2.596
0.142428,0.125074,0.383836,0.286979,0.0871768,0.0570497,0.0804862,0.0889952,-445,-1074,-41.7849,-0.1,-220.718,-0.1,2.6
0.142777,0.125303,0.384158,0.287337,0.0873508,0.0571215,0.0805407,0.0891287,-447,-1073,-42.0619,-0.1,-220.761,-0.1,2.604
0.143127,0.125536,0.384481,0.287697,0.0875246,0.0574861,0.0805951,0.0894481,-446,-1070,-42.3396,-0.1,-220.802,-0.1,2.608
0.143477,0.125766,0.384803,0.288056,0.0876983,0.0574988,0.0806494,0.089517,-449,-1070,-42.6156,-0.1,-220.841,-0.1,2.612
0.143828,0.126004,0.385126,0.288419,0.0878718,0.0581119,0.0807036,0.0899949,-446,-1065,-42.8927,-0.1,-220.878,-0.1,2.616
0.14418,0.126245,0.385449,0.288784,0.0880453,0.0588086,0.0807577,0.0903422,-442,-1062,-43.1656,-0.1,-220.911,-0.1,2.62
0.144533,0.126502,0.385772,0.289164,0.0882186,0.0606837,0.0808118,0.0919557,-428,-1046,-43.4328,-0.1,-220.939,-0.1,2.624
0.144886,0.126745,0.386095,0.289516,0.0883919,0.0606958,0.0808658,0.0906418,-431,-1059,-43.6852,-0.1,-220.953,-0.1,2.628
0.14524,0.127004,0.386419,0.289881,0.088565,0.0619995,0.0809197,0.0908311,-421,-1057,-43.9381,-0.1,-220.979,-0.1,2.632
0.145594,0.12727,0.386743,0.290253,0.0887379,0.063502,0.0809736,0.0915619,-410,-1050,-44.1804,-0.1,-221.002,-0.1,2.636
0.14595,0.127537,0.387067,0.290621,0.0889108,0.0645901,0.0810273,0.091646,-403,-1050,-44.4104,-0.1,-221.019,-0.1,2.64
0.146306,0.127811,0.387391,0.290995,0.0890835,0.0658912,0.081081,0.0922779,-394,-1044,-44.6317,-0.1,-221.035,-0.1,2.644
0.146662,0.128084,0.387715,0.291361,0.0892561,0.0667299,0.0811346,0.0920082,-389,-1046,-44.8426,-0.1,-221.045,-0.1,2.648
0.14702,0.12836,0.38804,0.291729,0.0894286,0.0674618,0.0811881,0.0920011,-384,-1046,-45.0474,-0.1,-221.057,-0.1,2.652
0.147378,0.128636,0.388365,0.292092,0.0896009,0.0679497,0.0812416,0.0916221,-382,-1050,-45.2469,-0.1,-221.07,-0.1,2.656
0.147736,0.128911,0.38869,0.292452,0.0897731,0.0682461,0.0812949,0.0911104,-382,-1055,-45.4436,-0.1,-221.086,-0.1,2.66
0.148096,0.129187,0.389015,0.292809,0.0899452,0.0685014,0.0813482,0.0904813,-382,-1061,-45.6391,-0.1,-221.108,-0.1,2.664
0.148456,0.129465,0.389341,0.293166,0.0901172,0.0688155,0.0814014,0.0900331,-381,-1066,-45.8338,-0.1,-221.136,-0.1,2.668
0.148817,0.129743,0.389666,0.293523,0.090289,0.0690249,0.0814546,0.0897631,-382,-1068,-46.0271,-0.1,-221.168,-0.1,2.672
0.149178,0.130019,0.389992,0.293879,0.0904607,0.0690493,0.0815076,0.0895255,-384,-1071,-46.2201,-0.1,-221.203,-0.1,2.676
0.14954,0.1303,0.390318,0.294241,0.0906322,0.0694111,0.0815606,0.0898278,-383,-1068,-46.4142,-0.1,-221.24,-0.1,2.68
0.149903,0.130584,0.390645,0.29461,0.0908037,0.0699978,0.0816134,0.0906915,-380,-1060,-46.6064,-0.1,-221.274,-0.1,2.684
0.150267,0.130858,0.390971,0.294963,0.0909749,0.0694964,0.0816662,0.0898565,-387,-1068,-46.7952,-0.1,-221.3,-0.1,2.688
0.150631,0.131145,0.391298,0.295333,0.0911461,0.0702562,0.0817189,0.0907106,-382,-1060,-46.9895,-0.1,-221.333,-0.1,2.692
0.150996,0.131419,0.391625,0.295685,0.0913171,0.0696687,0.0817716,0.0898117,-390,-1069,-47.1791,-0.1,-221.359,-0.1,2.696
0.151362,0.131704,0.391952,0.296049,0.091488,0.0701983,0.0818241,0.0901913,-387,-1065,-47.375,-0.1,-221.394,-0.1,2.7
0.151728,0.131993,0.39228,0.296415,0.0916588,0.0708393,0.0818766,0.0907035,-384,-1060,-47.5675,-0.1,-221.424,-0.1,2.704
0.152095,0.132289,0.392607,0.296789,0.0918294,0.0719,0.081929,0.0916208,-377,-1051,-47.7552,-0.1,-221.449,-0.1,2.708
0.152463,0.132582,0.392935,0.297158,0.0919998,0.072348,0.0819813,0.0917716,-375,-1050,-47.935,-0.1,-221.465,-0.1,2.712
0.152831,0.132878,0.393263,0.297527,0.0921702,0.0728771,0.0820335,0.0919586,-372,-1048,-48.112,-0.1,-221.48,-0.1,2.716
0.1532,0.133174,0.393591,0.297898,0.0923403,0.0732873,0.0820856,0.0922272,-371,-1046,-48.2858,-0.1,-221.492,-0.1,2.72
0.15357,0.133474,0.39392,0.298278,0.0925104,0.0738199,0.0821377,0.0931548,-368,-1037,-48.4571,-0.1,-221.502,-0.1,2.724
0.15394,0.133763,0.394248,0.298645,0.0926803,0.0733401,0.0821896,0.0926504,-375,-1042,-48.6257,-0.1,-221.503,-0.1,2.728
0.154311,0.134056,0.394577,0.299021,0.09285,0.0733369,0.0822415,0.0931202,-377,-1037,-48.7999,-0.1,-221.509,-0.1,2.732
0.154683,0.13435,0.394906,0.299402,0.0930197,0.0733635,0.0822933,0.0938653,-379,-1030,-48.9757,-0.1,-221.51,-0.1,2.736
0.155055,0.134642,0.395236,0.299784,0.0931891,0.0732374,0.082345,0.0943909,-382,-1025,-49.1528,-0.1,-221.503,-0.1,2.74
0.155428,0.134936,0.395565,0.30017,0.0933585,0.0733548,0.0823966,0.0950579,-384,-1018,-49.3324,-0.1,-221.491,-0.1,2.744
0.155802,0.135231,0.395895,0.300554,0.0935276,0.0734906,0.0824481,0.095445,-385,-1014,-49.5125,-0.1,-221.473,-0.1,2.748
0.156177,0.135527,0.396225,0.30094,0.0936967,0.0736388,0.0824996,0.0957607,-385,-1011,-49.6927,-0.1,-221.45,-0.1,2.752
0.156552,0.135828,0.396555,0.301329,0.0938655,0.0741982,0.0825509,0.0962303,-383,-1007,-49.8729,-0.1,-221.425,-0.1,2.756
0.156928,0.136124,0.396885,0.301715,0.0940343,0.0741105,0.0826022,0.0963418,-386,-1005,-50.0497,-0.1,-221.395,-0.1,2.76
0.157304,0.136424,0.397216,0.302104,0.0942029,0.0744263,0.0826533,0.0966176,-385,-1003,-50.2286,-0.1,-221.364,-0.1,2.764
0.157681,0.136727,0.397546,0.302493,0.0943713,0.0748384,0.0827044,0.0968879,-384,-1000,-50.406,-0.1,-221.33,-0.1,2.768
0.158059,0.137031,0.397877,0.302879,0.0945396,0.0752283,0.0827554,0.0967514,-382,-1001,-50.5811,-0.1,-221.294,-0.1,2.772
0.158437,0.137349,0.398208,0.303274,0.0947077,0.076611,0.0828063,0.0973802,-372,-995,-50.7534,-0.1,-221.258,-0.1,2.776
0.158817,0.13765,0.39854,0.303644,0.0948757,0.0761797,0.0828572,0.095784,-378,-1010,-50.9155,-0.1,-221.218,-0.1,2.78
0.159196,0.137963,0.398871,0.304023,0.0950435,0.0768998,0.0829079,0.0954396,-374,-1013,-51.0824,-0.1,-221.193,-0.1,2.784
0.159577,0.138276,0.399203,0.304399,0.0952112,0.0772936,0.0829585,0.0949797,-372,-1018,-51.2443,-0.1,-221.171,-0.1,2.788
0.159958,0.138597,0.399535,0.304787,0.0953787,0.0783046,0.0830091,0.0955945,-365,-1012,-51.4037,-0.1,-221.154,-0.1,2.792
0.16034,0.138897,0.399867,0.305151,0.095546,0.0772512,0.0830595,0.0940753,-377,-1026,-51.5564,-0.1,-221.132,-0.1,2.796
0.160723,0.139207,0.400199,0.305525,0.0957132,0.0772974,0.0831099,0.0938974,-379,-1028,-51.7198,-0.1,-221.124,-0.1,2.8
0.161106,0.139516,0.400532,0.305899,0.0958803,0.0772995,0.0831602,0.0937789,-381,-1029,-51.8842,-0.1,-221.118,-0.1,2.804
0.16149,0.139828,0.400865,0.306274,0.0960471,0.0775024,0.0832103,0.0937286,-381,-1030,-52.0499,-0.1,-221.113,-0.1,2.808
0.161874,0.140144,0.401198,0.306651,0.0962139,0.078012,0.0832604,0.0939542,-379,-1028,-52.2151,-0.1,-221.109,-0.1,2.812
0.162259,0.140456,0.401531,0.307019,0.0963804,0.0779774,0.0833104,0.0932985,-381,-1034,-52.3773,-0.1,-221.102,-0.1,2.816
0.162645,0.14077,0.401864,0.307388,0.0965468,0.0782135,0.0833603,0.0929477,-381,-1037,-52.5412,-0.1,-221.103,-0.1,2.82
0.163032,0.141087,0.402198,0.307754,0.0967131,0.0785436,0.0834101,0.0924259,-380,-1043,-52.7043,-0.1,-221.107,-0.1,2.824
0.163419,0.141404,0.402531,0.308117,0.0968791,0.0787637,0.0834599,0.0918765,-380,-1048,-52.8658,-0.1,-221.116,-0.1,2.828
0.163807,0.141721,0.402865,0.308477,0.0970451,0.078968,0.0835095,0.09128,-381,-1054,-53.0268,-0.1,-221.131,-0.1,2.832
0.164195,0.14204,0.403199,0.30884,0.0972108,0.0791905,0.083559,0.0911126,-381,-1056,-53.1875,-0.1,-221.152,-0.1,2.836
0.164584,0.142362,0.403534,0.309205,0.0973764,0.0796268,0.0836085,0.0910873,-379,-1056,-53.3473,-0.1,-221.174,-0.1,2.84
0.164974,0.142685,0.403868,0.309573,0.0975418,0.0800041,0.0836578,0.0914736,-378,-1052,-53.5047,-0.1,-221.196,-0.1,2.844
0.165365,0.143011,0.404203,0.309942,0.097707,0.0804859,0.083707,0.0917023,-375,-1050,-53.66,-0.1,-221.215,-0.1,2.848
0.165756,0.143338,0.404538,0.310316,0.0978721,0.0808935,0.0837562,0.0922867,-374,-1045,-53.8123,-0.1,-221.231,-0.1,2.852
0.166148,0.143669,0.404873,0.310697,0.098037,0.0815683,0.0838052,0.0933096,-370,-1035,-53.9622,-0.1,-221.241,-0.1,2.856
0.16654,0.144001,0.405208,0.31108,0.0982018,0.0820469,0.0838542,0.094078,-368,-1027,-54.1074,-0.1,-221.241,-0.1,2.86
0.166933,0.144335,0.405544,0.311465,0.0983664,0.0825388,0.0839031,0.0947917,-365,-1020,-54.2497,-0.1,-221.234,-0.1,2.864
0.167327,0.144669,0.40588,0.311849,0.0985308,0.0828379,0.0839518,0.09521,-365,-1016,-54.389,-0.1,-221.219,-0.1,2.868
0.167722,0.145003,0.406216,0.312231,0.098695,0.0830373,0.0840005,0.0953449,-365,-1015,-54.527,-0.1,-221.201,-0.1,2.872
0.168117,0.145345,0.406552,0.312622,0.0988591,0.08389,0.0840491,0.0961546,-359,-1007,-54.6643,-0.1,-221.181,-0.1,2.876
0.168512,0.145676,0.406888,0.313002,0.099023,0.0835084,0.0840975,0.0957443,-365,-1011,-54.7958,-0.1,-221.153,-0.1,2.88
0.168909,0.146009,0.407224,0.313383,0.0991867,0.0834267,0.0841459,0.0955283,-367,-1013,-54.9321,-0.1,-221.13,-0.1,2.884
0.169306,0.146347,0.407561,0.313764,0.0993502,0.0837177,0.0841942,0.0954995,-367,-1013,-55.0704,-0.1,-221.108,-0.1,2.888
0.169704,0.146688,0.407898,0.314146,0.0995136,0.0842861,0.0842424,0.0954515,-364,-1014,-55.2073,-0.1,-221.087,-0.1,2.892
0.170102,0.14702,0.408235,0.314512,0.0996768,0.08383,0.0842905,0.0941239,-370,-1027,-55.341,-0.1,-221.067,-0.1,2.896
0.170501,0.147356,0.408572,0.314878,0.0998398,0.083929,0.0843385,0.0932965,-371,-1035,-55.48,-0.1,-221.061,-0.1,2.9
0.170901,0.147697,0.40891,0.315252,0.100003,0.0843405,0.0843863,0.0933206,-369,-1035,-55.6194,-0.1,-221.062,-0.1,2.904
0.171301,0.148036,0.409247,0.315622,0.100165,0.0844421,0.0844341,0.0930776,-370,-1037,-55.7565,-0.1,-221.064,-0.1,2.908
0.171702,0.148369,0.409585,0.315987,0.100328,0.084078,0.0844818,0.092455,-375,-1043,-55.8945,-0.1,-221.068,-0.1,2.912
0.172104,0.148708,0.409923,0.316355,0.10049,0.0843247,0.0845294,0.0923566,-375,-1044,-56.0369,-0.1,-221.078,-0.1,2.916
0.172506,0.149052,0.410261,0.316729,0.100652,0.0848346,0.0845769,0.092694,-373,-1041,-56.1782,-0.1,-221.088,-0.1,2.92
0.172909,0.149396,0.4106,0.317102,0.100814,0.0852034,0.0846243,0.0928614,-371,-1039,-56.3164,-0.1,-221.096,-0.1,2.924
0.173313,0.149727,0.410938,0.317461,0.100976,0.084384,0.0846715,0.0918502,-380,-1049,-56.4534,-0.1,-221.103,-0.1,2.928
0.173717,0.150067,0.411277,0.31783,0.101137,0.084615,0.0847187,0.092011,-380,-1048,-56.5986,-0.1,-221.119,-0.1,2.932
0.174122,0.150409,0.411616,0.318202,0.101299,0.0849418,0.0847658,0.0922909,-379,-1045,-56.7431,-0.1,-221.134,-0.1,2.936
0.174527,0.150755,0.411955,0.318576,0.10146,0.0854476,0.0848128,0.0927366,-377,-1041,-56.8859,-0.1,-221.145,-0.1,2.94
0.174933,0.151102,0.412295,0.318947,0.101621,0.0858712,0.0848596,0.0926883,-375,-1042,-57.0255,-0.1,-221.153,-0.1,2.944
0.17534,0.151452,0.412634,0.319315,0.101782,0.0864126,0.0849064,0.0924545,-372,-1044,-57.1626,-0.1,-221.161,-0.1,2.948
0.175748,0.151801,0.412974,0.319679,0.101943,0.0866873,0.0849531,0.091982,-372,-1049,-57.2962,-0.1,-221.172,-0.1,2.952
0.176156,0.152154,0.413314,0.320047,0.102103,0.0872446,0.0849997,0.0920124,-369,-1048,-57.4286,-0.1,-221.188,-0.1,2.956
0.176564,0.152508,0.413654,0.320414,0.102263,0.0876162,0.0850461,0.0918888,-367,-1050,-57.5574,-0.1,-221.203,-0.1,2.96
0.176974,0.152861,0.413994,0.320783,0.102423,0.0878639,0.0850925,0.0920367,-367,-1049,-57.6843,-0.1,-221.22,-0.1,2.964
0.177384,0.153211,0.414335,0.321149,0.102583,0.0877412,0.0851387,0.0918762,-370,-1050,-57.8105,-0.1,-221.235,-0.1,2.968
0.177794,0.153562,0.414675,0.321515,0.102743,0.0877457,0.0851849,0.0917692,-372,-1051,-57.9392,-0.1,-221.252,-0.1,2.972
0.178206,0.153918,0.415016,0.321881,0.102902,0.0881518,0.0852309,0.0916115,-370,-1053,-58.069,-0.1,-221.27,-0.1,2.976
0.178618,0.15427,0.415357,0.322237,0.103062,0.088077,0.0852769,0.0907577,-373,-1062,-58.1967,-0.1,-221.29,-0.1,2.98
0.17903,0.154625,0.415698,0.322591,0.103221,0.0883151,0.0853227,0.0900447,-373,-1069,-58.3263,-0.1,-221.319,-0.1,2.984
0.179443,0.154982,0.41604,0.322945,0.10338,0.0886753,0.0853684,0.0895405,-371,-1074,-58.4551,-0.1,-221.355,-0.1,2.988
0.179857,0.155341,0.416381,0.323301,0.103539,0.0890307,0.0854141,0.0893195,-370,-1076,-58.582,-0.1,-221.396,-0.1,2.992
0.180272,0.155701,0.416723,0.323661,0.103697,0.0893539,0.0854596,0.0895177,-369,-1074,-58.707,-0.1,-221.439,-0.1,2.996
0.180687,0.156061,0.417065,0.324022,0.103856,0.0895118,0.085505,0.0898226,-370,-1072,-58.8306,-0.1,-221.48,-0.1,3
0.181103,0.156422,0.417407,0.324395,0.104014,0.0897899,0.0855503,0.0909183,-369,-1061,-58.9541,-0.1,-221.517,-0.1,3.004
0.181519,0.156782,0.417749,0.32477,0.104172,0.0898888,0.0855955,0.0918504,-370,-1052,-59.0765,-0.1,-221.544,-0.1,3.008
0.181936,0.157143,0.418092,0.325147,0.104329,0.0899548,0.0856406,0.0926445,-371,-1045,-59.1994,-0.1,-221.561,-0.1,3.012
0.182354,0.157501,0.418435,0.325521,0.104487,0.0898549,0.0856856,0.0929436,-374,-1042,-59.3232,-0.1,-221.571,-0.1,3.016
0.182772,0.157862,0.418777,0.325897,0.104644,0.089961,0.0857305,0.0932869,-375,-1039,-59.4491,-0.1,-221.578,-0.1,3.02
0.183191,0.158236,0.41912,0.326287,0.104801,0.0911258,0.0857752,0.0946962,-366,-1025,-59.5749,-0.1,-221.581,-0.1,3.024
0.18361,0.158587,0.419464,0.326653,0.104958,0.0900309,0.0858199,0.093678,-378,-1035,-59.6926,-0.1,-221.572,-0.1,3.028
0.18403,0.15895,0.419807,0.327032,0.105115,0.0902223,0.0858644,0.0939781,-378,-1032,-59.8209,-0.1,-221.571,-0.1,3.032
0.184451,0.159315,0.42015,0.327408,0.105272,0.0905514,0.0859089,0.0940054,-377,-1032,-59.9488,-0.1,-221.568,-0.1,3.036
0.184873,0.159686,0.420494,0.327787,0.105428,0.0913178,0.0859532,0.0942827,-372,-1029,-60.0748,-0.1,-221.565,-0.1,3.04
0.185295,0.160055,0.420838,0.328157,0.105584,0.0915985,0.0859975,0.093719,-372,-1035,-60.1954,-0.1,-221.56,-0.1,3.044
0.185717,0.160427,0.421182,0.328532,0.10574,0.0921311,0.0860416,0.0936599,-369,-1036,-60.3147,-0.1,-221.56,-0.1,3.048
0.18614,0.160799,0.421526,0.328905,0.105896,0.0923997,0.0860856,0.0935341,-368,-1037,-60.4307,-0.1,-221.561,-0.1,3.052
0.186564,0.161181,0.421871,0.329289,0.106052,0.0934138,0.0861295,0.0943716,-361,-1029,-60.5451,-0.1,-221.562,-0.1,3.056
0.186989,0.161553,0.422215,0.329662,0.106207,0.0932837,0.0861733,0.0939798,-364,-1033,-60.6523,-0.1,-221.556,-0.1,3.06
0.187414,0.16192,0.42256,0.330028,0.106362,0.0927939,0.0862169,0.0931716,-370,-1041,-60.7622,-0.1,-221.554,-0.1,3.064
0.18784,0.162298,0.422905,0.330399,0.106517,0.0933311,0.0862605,0.0930646,-367,-1042,-60.8773,-0.1,-221.56,-0.1,3.068
0.188266,0.16268,0.42325,0.330775,0.106672,0.0940923,0.0863039,0.09331,-362,-1040,-60.9888,-0.1,-221.567,-0.1,3.072
0.188693,0.163062,0.423596,0.331148,0.106826,0.0945709,0.0863473,0.0933585,-360,-1039,-61.0948,-0.1,-221.572,-0.1,3.076
0.189121,0.163446,0.423941,0.331523,0.10698,0.0949764,0.0863905,0.0934196,-358,-1039,-61.1979,-0.1,-221.576,-0.1,3.08
0.189549,0.163843,0.424287,0.331912,0.107135,0.0964272,0.0864336,0.0947271,-347,-1026,-61.298,-0.1,-221.579,-0.1,3.084
0.189978,0.164223,0.424633,0.332283,0.107288,0.095926,0.0864766,0.0941016,-353,-1032,-61.3874,-0.1,-221.571,-0.1,3.088
0.190407,0.164608,0.424979,0.332657,0.107442,0.0960526,0.0865195,0.0938862,-353,-1034,-61.4823,-0.1,-221.568,-0.1,3.092
0.190837,0.165001,0.425325,0.333033,0.107596,0.0967991,0.0865623,0.0939441,-349,-1034,-61.577,-0.1,-221.567,-0.1,3.096
0.191268,0.165394,0.425671,0.333406,0.107749,0.0972968,0.086605,0.0936948,-346,-1036,-61.6665,-0.1,-221.566,-0.1,3.1
0.191699,0.165789,0.426018,0.333775,0.107902,0.0977726,0.0866475,0.0932407,-343,-1041,-61.7527,-0.1,-221.568,-0.1,3.104
0.192131,0.166184,0.426364,0.334144,0.108055,0.0980897,0.08669,0.0929092,-342,-1044,-61.836,-0.1,-221.575,-0.1,3.108
0.192564,0.166593,0.426711,0.334523,0.108207,0.0994528,0.0867323,0.0935231,-332,-1038,-61.9172,-0.1,-221.584,-0.1,3.112
0.192997,0.166978,0.427058,0.334883,0.10836,0.0984326,0.0867745,0.0923201,-342,-1050,-61.9887,-0.1,-221.588,-0.1,3.116
0.193431,0.16737,0.427405,0.335251,0.108512,0.0982418,0.0868166,0.0922091,-346,-1051,-62.0703,-0.1,-221.604,-0.1,3.12
0.193865,0.167771,0.427753,0.335631,0.108664,0.0989208,0.0868586,0.0931139,-341,-1043,-62.1545,-0.1,-221.621,-0.1,3.124
0.1943,0.168165,0.4281,0.336004,0.108815,0.0987977,0.0869004,0.0931702,-344,-1042,-62.2343,-0.1,-221.628,-0.1,3.128
0.194736,0.168565,0.428448,0.336383,0.108967,0.099205,0.0869422,0.0936683,-342,-1038,-62.3163,-0.1,-221.636,-0.1,3.132
0.195172,0.168964,0.428796,0.336761,0.109118,0.0993902,0.0869838,0.0939428,-342,-1035,-62.396,-0.1,-221.638,-0.1,3.136
0.195609,0.169363,0.429144,0.337137,0.109269,0.0995136,0.0870253,0.0939818,-343,-1035,-62.4753,-0.1,-221.638,-0.1,3.14
0.196046,0.169762,0.429492,0.337515,0.10942,0.0995384,0.0870667,0.0941518,-344,-1033,-62.5549,-0.1,-221.638,-0.1,3.144
0.196484,0.170157,0.42984,0.337891,0.109571,0.0993533,0.087108,0.0941212,-347,-1033,-62.6357,-0.1,-221.636,-0.1,3.148
0.196922,0.170554,0.430189,0.338265,0.109721,0.0992587,0.0871492,0.093928,-350,-1035,-62.7194,-0.1,-221.634,-0.1,3.152
0.197362,0.17095,0.430537,0.338638,0.109871,0.0991669,0.0871903,0.0936553,-352,-1038,-62.8052,-0.1,-221.635,-0.1,3.156
0.197801,0.171345,0.430886,0.339004,0.110021,0.0990193,0.0872312,0.0929553,-355,-1045,-62.8932,-0.1,-221.639,-0.1,3.16
0.198242,0.171739,0.431235,0.339365,0.110171,0.0988633,0.087272,0.0920279,-358,-1054,-62.9839,-0.1,-221.65,-0.1,3.164
0.198683,0.172135,0.431584,0.339722,0.110321,0.0989321,0.0873127,0.0911505,-359,-1063,-63.0771,-0.1,-221.671,-0.1,3.168
0.199124,0.172529,0.431934,0.340076,0.11047,0.0987764,0.0873533,0.0902777,-362,-1072,-63.1711,-0.1,-221.7,-0.1,3.172
0.199567,0.172927,0.432283,0.340433,0.110619,0.0989893,0.0873938,0.0899262,-362,-1075,-63.2676,-0.1,-221.738,-0.1,3.176
0.200009,0.173328,0.432633,0.34079,0.110768,0.0994191,0.0874341,0.089663,-360,-1078,-63.3634,-0.1,-221.779,-0.1,3.18
0.200453,0.173729,0.432983,0.341144,0.110917,0.0997057,0.0874743,0.0893436,-359,-1081,-63.4566,-0.1,-221.824,-0.1,3.184
0.200897,0.174131,0.433333,0.341495,0.111065,0.100012,0.0875144,0.088814,-358,-1087,-63.5485,-0.1,-221.871,-0.1,3.188
0.201341,0.174538,0.433683,0.341845,0.111213,0.100533,0.0875544,0.0883457,-355,-1092,-63.6388,-0.1,-221.925,-0.1,3.192
0.201786,0.174946,0.434033,0.342192,0.111361,0.101053,0.0875943,0.087832,-352,-1097,-63.7257,-0.1,-221.983,-0.1,3.196
0.202232,0.175356,0.434384,0.342542,0.111509,0.101543,0.087634,0.0877199,-349,-1099,-63.8092,-0.1,-222.046,-0.1,3.2
0.202678,0.175785,0.434734,0.342911,0.111656,0.103454,0.0876737,0.0892286,-334,-1084,-63.8887,-0.1,-222.109,-0.1,3.204
0.203125,0.176184,0.435085,0.343255,0.111803,0.102165,0.0877132,0.0881615,-347,-1095,-63.9541,-0.1,-222.159,-0.1,3.208
0.203573,0.1766,0.435436,0.343616,0.11195,0.102803,0.0877526,0.0888609,-343,-1089,-64.0313,-0.1,-222.218,-0.1,3.212
0.204021,0.177018,0.435787,0.343978,0.112097,0.103372,0.0877918,0.0893559,-340,-1084,-64.1041,-0.1,-222.271,-0.1,3.216
0.20447,0.177439,0.436138,0.34434,0.112244,0.104011,0.087831,0.0897723,-336,-1080,-64.1729,-0.1,-222.319,-0.1,3.22
0.204919,0.177875,0.43649,0.344719,0.11239,0.105704,0.08787,0.0913742,-322,-1065,-64.2367,-0.1,-222.362,-0.1,3.224
0.205369,0.178283,0.436841,0.345073,0.112536,0.104471,0.0879089,0.0904557,-335,-1074,-64.2881,-0.1,-222.391,-0.1,3.228
0.205819,0.178701,0.437193,0.345439,0.112682,0.104484,0.0879477,0.0907646,-336,-1071,-64.3512,-0.1,-222.428,-0.1,3.232
0.20627,0.179119,0.437545,0.345803,0.112828,0.104436,0.0879864,0.0908841,-338,-1070,-64.4155,-0.1,-222.462,-0.1,3.236
0.206722,0.179537,0.437897,0.34617,0.112973,0.10449,0.0880249,0.0911942,-339,-1068,-64.4814,-0.1,-222.496,-0.1,3.24
0.207174,0.179957,0.438249,0.346537,0.113118,0.104612,0.0880633,0.0913433,-339,-1066,-64.548,-0.1,-222.526,-0.1,3.244
0.207627,0.180379,0.438601,0.346907,0.113263,0.104924,0.0881016,0.0917594,-338,-1063,-64.6147,-0.1,-222.555,-0.1,3.248
0.20808,0.18079,0.438954,0.347269,0.113408,0.10421,0.0881398,0.091317,-346,-1067,-64.6804,-0.1,-222.58,-0.1,3.252
0.208534,0.181208,0.439306,0.347638,0.113552,0.104282,0.0881778,0.0915979,-347,-1065,-64.7533,-0.1,-222.609,-0.1,3.256
0.208989,0.181623,0.439659,0.348001,0.113696,0.104128,0.0882158,0.0913821,-349,-1067,-64.8269,-0.1,-222.636,-0.1,3.26
0.209444,0.18204,0.440012,0.348366,0.11384,0.10414,0.0882536,0.0913246,-351,-1068,-64.9031,-0.1,-222.665,-0.1,3.264
0.209899,0.182457,0.440365,0.348731,0.113984,0.104235,0.0882912,0.0913151,-352,-1068,-64.9803,-0.1,-222.695,-0.1,3.268
0.210355,0.182873,0.440719,0.349097,0.114127,0.104154,0.0883288,0.0913087,-354,-1068,-65.058,-0.1,-222.725,-0.1,3.272
0.210812,0.183293,0.441072,0.349461,0.11427,0.104446,0.0883662,0.0912757,-353,-1069,-65.1375,-0.1,-222.755,-0.1,3.276
0.21127,0.183721,0.441425,0.349832,0.114413,0.105303,0.0884035,0.0917431,-347,-1064,-65.2152,-0.1,-222.785,-0.1,3.28
0.211728,0.184131,0.441779,0.350182,0.114556,0.10429,0.0884407,0.0902985,-357,-1079,-65.2875,-0.1,-222.812,-0.1,3.284
0.212186,0.184554,0.442133,0.350541,0.114699,0.104796,0.0884778,0.0901704,-354,-1080,-65.3693,-0.1,-222.852,-0.1,3.288
0.212645,0.184979,0.442487,0.350897,0.114841,0.105305,0.0885147,0.0897394,-351,-1085,-65.4478,-0.1,-222.895,-0.1,3.292
0.213105,0.185407,0.442841,0.351255,0.114983,0.105847,0.0885515,0.0896249,-348,-1086,-65.5228,-0.1,-222.941,-0.1,3.296
0.213565,0.185836,0.443195,0.351613,0.115125,0.106323,0.0885882,0.0896349,-346,-1086,-65.5943,-0.1,-222.989,-0.1,3.3
0.214026,0.186268,0.44355,0.351975,0.115266,0.106871,0.0886247,0.0898719,-342,-1084,-65.6627,-0.1,-223.036,-0.1,3.304
