peachynonah/Fire_monitor_KIRO_CDSL/csv_datas/trial12/cdsl_data_t12_7_u.csv
joint1_pos_desired, joint1_pos, joint2_pos_desired, joint2_pos, joint1_vel_desired, joint1_vel_filtered, joint2_vel_desired, joint2_vel_filtered, target_torque_joint1, target_torque_joint2, estimated_disturbance_joint1, saturated_DOB_joint1, estimated_disturbance_joint2, saturated_DOB_joint2, current_time
-0.047,-0.0462903,0.2202,0.0221356,3.76499e-07,0,0.0500001,0,4,-1934,0,0,23.0506,0.1,0.004
-0.047,-0.046292,0.2204,0.0221356,1.50479e-06,-0.000143955,0.0500006,0,3,-1935,0.00497564,0.00497564,21.0439,0.1,0.008
-0.047,-0.046292,0.2206,0.0221467,3.38307e-06,-9.59697e-05,0.0500013,0.00092131,3,-1928,0.00862109,0.00862109,19.0452,0.1,0.012
-0.047,-0.0462917,0.2208,0.0222849,6.00952e-06,-3.51889e-05,0.0500023,0.0121306,4,-1821,0.0127374,0.0127374,17.0705,0.1,0.016
-0.0469999,-0.0462917,0.221,0.0225758,9.38236e-06,-2.34593e-05,0.0500036,0.032329,4,-1626,0.0174035,0.0174035,15.2218,0.1,0.02
-0.0469999,-0.0462917,0.2212,0.0230035,1.34998e-05,-1.56395e-05,0.0500052,0.0571958,4,-1386,0.0221497,0.0221497,13.5863,0.1,0.024
-0.0469998,-0.0462917,0.2214,0.023558,1.836e-05,-1.04263e-05,0.050007,0.08434,4,-1124,0.0269303,0.0269303,12.2085,0.1,0.028
-0.0469997,-0.0462917,0.2216,0.0242103,2.39611e-05,-6.9509e-06,0.0500092,0.110584,4,-869,0.031712,0.031712,11.1087,0.1,0.032
-0.0469996,-0.0462917,0.2218,0.0249179,3.03014e-05,-4.63393e-06,0.0500116,0.132686,4,-653,0.0364703,0.0364703,10.2751,0.1,0.036
-0.0469995,-0.0462917,0.222,0.0256721,3.73792e-05,-3.08929e-06,0.0500143,0.151308,4,-471,0.0411862,0.0411862,9.66625,0.1,0.04
-0.0469993,-0.0462917,0.2222,0.026418,4.51925e-05,-2.05952e-06,0.0500173,0.163032,4,-355,0.0458447,0.0458447,9.24434,0.1,0.044
-0.0469991,-0.0462917,0.2224,0.0271549,5.37396e-05,-1.37302e-06,0.0500205,0.170099,4,-283,0.050433,0.050433,8.94148,0.1,0.048
-0.0469989,-0.0462917,0.2226,0.0278493,6.30187e-05,-9.15344e-07,0.0500241,0.171269,4,-269,0.0549402,0.0549402,8.70989,0.1,0.052
-0.0469986,-0.0462917,0.222801,0.0284923,7.3028e-05,-6.1023e-07,0.0500279,0.167759,4,-299,0.0593565,0.0593565,8.49114,0.1,0.056
-0.0469983,-0.0462917,0.223001,0.0290731,8.37657e-05,-4.0682e-07,0.050032,0.160237,4,-369,0.0636728,0.0636728,8.23872,0.1,0.06
-0.046998,-0.0462917,0.223201,0.0295865,9.52301e-05,-2.71213e-07,0.0500363,0.149608,4,-469,0.0678806,0.0678806,7.91307,0.1,0.064
-0.0469976,-0.0462917,0.223401,0.0300633,0.000107419,-1.80809e-07,0.050041,0.13947,4,-564,0.0719716,0.0719716,7.48565,0.1,0.068
-0.0469971,-0.0462917,0.223601,0.0304962,0.000120332,-1.20539e-07,0.0500459,0.129055,4,-663,0.0759378,0.0759378,6.961,0.1,0.072
-0.0469966,-0.0462917,0.223801,0.0309101,0.000133965,-8.03594e-08,0.0500511,0.120528,3,-743,0.0797713,0.0797713,6.33799,0.1,0.076
-0.046996,-0.0462917,0.224002,0.0313125,0.000148318,-5.3573e-08,0.0500566,0.113894,3,-805,0.0834643,0.0834643,5.63572,0.1,0.08
-0.0469954,-0.0462917,0.224202,0.0317123,0.000163389,-3.57153e-08,0.0500623,0.10924,3,-849,0.0870091,0.0870091,4.87332,0.1,0.084
-0.0469947,-0.0462917,0.224402,0.0320965,0.000179176,-2.38102e-08,0.0500683,0.104842,3,-890,0.0903979,0.0903979,4.06954,0.1,0.088
-0.046994,-0.0462917,0.224602,0.0324807,0.000195676,-1.58735e-08,0.0500746,0.10191,3,-916,0.0936232,0.0936232,3.22785,0.1,0.092
-0.0469932,-0.0462917,0.224803,0.0328559,0.00021289,-1.05823e-08,0.0500812,0.0992072,3,-941,0.0966772,0.0966772,2.36212,0.1,0.096
-0.0469923,-0.0462917,0.225003,0.0332252,0.000230814,-7.05488e-09,0.050088,0.0969156,3,-962,0.0995523,0.0995523,1.47479,0.1,0.1
-0.0469913,-0.0462917,0.225203,0.0335714,0.000249446,-4.70325e-09,0.0500951,0.0934589,2,-994,0.102241,0.1,0.56891,0.1,0.104
-0.0469903,-0.0462917,0.225404,0.033912,0.000268786,-3.1355e-09,0.0501025,0.0906938,2,-1021,0.104726,0.1,-0.3659,-0.1,0.108
-0.0469892,-0.0462917,0.225604,0.0342351,0.000288831,-2.09033e-09,0.0501101,0.087382,2,-1052,0.106997,0.1,-1.32443,-0.1,0.112
-0.046988,-0.0462917,0.225805,0.0345571,0.00030958,-1.39356e-09,0.050118,0.0850878,2,-1073,0.10905,0.1,-2.31015,-0.1,0.116
-0.0469867,-0.0462917,0.226005,0.0348708,0.00033103,-9.29037e-10,0.0501262,0.0828674,2,-1094,0.110876,0.1,-3.31349,-0.1,0.12
-0.0469853,-0.0462917,0.226206,0.0351848,0.00035318,-6.19358e-10,0.0501346,0.0814159,1,-1107,0.11247,0.1,-4.33322,-0.1,0.124
-0.0469839,-0.0462917,0.226406,0.035504,0.000376029,-4.12905e-10,0.0501433,0.0808801,1,-1111,0.113824,0.1,-5.36152,-0.1,0.128
-0.0469823,-0.0462917,0.226607,0.035825,0.000399574,-2.7527e-10,0.0501522,0.0806668,1,-1113,0.114933,0.1,-6.38961,-0.1,0.132
-0.0469807,-0.0462917,0.226807,0.0361474,0.000423814,-1.83513e-10,0.0501615,0.0806398,1,-1112,0.115789,0.1,-7.41438,-0.1,0.136
-0.0469789,-0.0462917,0.227008,0.0364814,0.000448746,-1.22342e-10,0.050171,0.0816007,0,-1102,0.116386,0.1,-8.43343,-0.1,0.14
-0.0469771,-0.0462917,0.227209,0.036819,0.00047437,-8.15616e-11,0.0501807,0.0825292,0,-1092,0.116717,0.1,-9.43758,-0.1,0.144
-0.0469751,-0.0462917,0.227409,0.0371652,0.000500683,-5.43744e-11,0.0501907,0.083868,0,-1079,0.116777,0.1,-10.4269,-0.1,0.148
-0.0469731,-0.0462917,0.22761,0.0375082,0.000527684,-3.62496e-11,0.050201,0.0845014,0,-1072,0.116558,0.1,-11.3981,-0.1,0.152
-0.0469709,-0.0462917,0.227811,0.0378496,0.000555371,-2.41664e-11,0.0502115,0.0847797,0,-1068,0.116055,0.1,-12.358,-0.1,0.156
-0.0469686,-0.0462917,0.228012,0.0381913,0.000583742,-1.61109e-11,0.0502223,0.084994,0,-1065,0.115261,0.1,-13.31,-0.1,0.16
-0.0469662,-0.0462917,0.228213,0.0385274,0.000612796,-1.07406e-11,0.0502333,0.0846762,0,-1067,0.114169,0.1,-14.2552,-0.1,0.164
-0.0469637,-0.0462917,0.228414,0.0388429,0.00064253,-7.16041e-12,0.0502446,0.0827369,-1,-1085,0.112773,0.1,-15.1997,-0.1,0.168
-0.0469611,-0.0462917,0.228615,0.0391569,0.000672943,-4.77361e-12,0.0502562,0.0813289,-1,-1098,0.111068,0.1,-16.1582,-0.1,0.172
-0.0469583,-0.0462917,0.228816,0.0394623,0.000704033,-3.1824e-12,0.050268,0.0796705,-1,-1114,0.109046,0.1,-17.126,-0.1,0.176
-0.0469554,-0.046291,0.229017,0.0397674,0.000735798,5.75818e-05,0.05028,0.078536,-1,-1124,0.106742,0.1,-18.1049,-0.1,0.18
-0.0469524,-0.0462917,0.229218,0.0400725,0.000768238,-1.9194e-05,0.0502924,0.0777797,-2,-1130,0.104595,0.1,-19.09,-0.1,0.184
-0.0469493,-0.0462917,0.229419,0.0403813,0.000801349,-1.2796e-05,0.0503049,0.0775922,-2,-1132,0.101397,0.1,-20.0772,-0.1,0.188
-0.046946,-0.0462917,0.229621,0.0406975,0.00083513,-8.53064e-06,0.0503178,0.0780719,-3,-1126,0.0979201,0.0979201,-21.0608,-0.1,0.192
-0.0469426,-0.0462917,0.229822,0.0410091,0.00086958,-5.6871e-06,0.0503308,0.0780173,-3,-1126,0.0941294,0.0941294,-22.035,-0.1,0.196
-0.0469391,-0.0462913,0.230023,0.0413308,0.000904697,2.49995e-05,0.0503442,0.0788159,-3,-1118,0.0900172,0.0900172,-23.0041,-0.1,0.2
-0.0469354,-0.0462913,0.230225,0.0416476,0.000940478,1.66664e-05,0.0503577,0.0789452,-4,-1116,0.0858096,0.0858096,-23.9608,-0.1,0.204
-0.0469315,-0.046292,0.230426,0.0419609,0.000976923,-4.64709e-05,0.0503716,0.0787435,-5,-1117,0.0810945,0.0810945,-24.9115,-0.1,0.208
-0.0469276,-0.0462913,0.230628,0.0422743,0.00101403,2.66012e-05,0.0503857,0.078609,-4,-1118,0.0754463,0.0754463,-25.8592,-0.1,0.212
-0.0469234,-0.0462913,0.230829,0.0425849,0.0010518,1.77341e-05,0.0504,0.0782891,-5,-1120,0.0700761,0.0700761,-26.8037,-0.1,0.216
-0.0469191,-0.046292,0.231031,0.0428858,0.00109022,-4.57591e-05,0.0504145,0.0772696,-6,-1130,0.0641702,0.0641702,-27.7469,-0.1,0.22
-0.0469147,-0.0462913,0.231232,0.0431836,0.0011293,2.70758e-05,0.0504294,0.0763308,-6,-1138,0.0573048,0.0573048,-28.6956,-0.1,0.224
-0.0469101,-0.0462917,0.231434,0.0434842,0.00116904,-1.07404e-05,0.0504444,0.0759353,-6,-1141,0.0506716,0.0506716,-29.6484,-0.1,0.228
-0.0469054,-0.0462913,0.231636,0.0437858,0.00120942,2.16307e-05,0.0504597,0.075758,-7,-1143,0.0432762,0.0432762,-30.6003,-0.1,0.232
-0.0469004,-0.0462913,0.231838,0.0440919,0.00125046,1.44204e-05,0.0504753,0.0760141,-7,-1140,0.0357405,0.0357405,-31.5488,-0.1,0.236
-0.0468954,-0.0462913,0.23204,0.0444056,0.00129215,9.61363e-06,0.0504911,0.0768182,-8,-1131,0.027688,0.027688,-32.4897,-0.1,0.24
-0.0468901,-0.046291,0.232242,0.0447249,0.00133449,3.52e-05,0.0505071,0.077815,-8,-1121,0.019155,0.019155,-33.4176,-0.1,0.244
-0.0468847,-0.0462906,0.232444,0.0450375,0.00137747,5.22576e-05,0.0505234,0.0779324,-8,-1119,0.0104129,0.0104129,-34.3314,-0.1,0.248
-0.0468791,-0.0462903,0.232646,0.0453523,0.00142109,6.36293e-05,0.05054,0.0781835,-9,-1116,0.00137065,0.00137065,-35.2393,-0.1,0.252
-0.0468733,-0.0462903,0.232848,0.0456684,0.00146536,4.24195e-05,0.0505567,0.078466,-9,-1113,-0.00805538,-0.00805538,-36.1401,-0.1,0.256
-0.0468674,-0.0462903,0.23305,0.0459807,0.00151027,2.82797e-05,0.0505737,0.0783377,-10,-1114,-0.0181734,-0.0181734,-37.0337,-0.1,0.26
-0.0468612,-0.0462903,0.233253,0.0462934,0.00155582,1.88531e-05,0.050591,0.0782809,-11,-1114,-0.0289219,-0.0289219,-37.9239,-0.1,0.264
-0.0468549,-0.0462903,0.233455,0.0466123,0.00160201,1.25688e-05,0.0506085,0.0787613,-11,-1108,-0.0402624,-0.0402624,-38.8098,-0.1,0.268
-0.0468484,-0.0462906,0.233658,0.0469177,0.00164883,-2.04118e-05,0.0506262,0.0779587,-12,-1115,-0.0521925,-0.0521925,-39.6873,-0.1,0.272
-0.0468417,-0.0462899,0.23386,0.0472307,0.00169629,4.3974e-05,0.0506441,0.078057,-12,-1114,-0.0649013,-0.0649013,-40.5677,-0.1,0.276
-0.0468348,-0.0462899,0.234063,0.0475479,0.00174437,2.9316e-05,0.0506623,0.0784681,-13,-1109,-0.0775397,-0.0775397,-41.4423,-0.1,0.28
-0.0468278,-0.0462899,0.234266,0.0478636,0.00179309,1.9544e-05,0.0506808,0.078627,-13,-1107,-0.090852,-0.090852,-42.3086,-0.1,0.284
-0.0468205,-0.0462899,0.234468,0.0481805,0.00184244,1.30293e-05,0.0506994,0.0788193,-14,-1105,-0.104798,-0.1,-43.1688,-0.1,0.288
-0.046813,-0.0462896,0.234671,0.0485056,0.00189241,3.74771e-05,0.0507183,0.0796384,-14,-1096,-0.119312,-0.1,-44.0222,-0.1,0.292
-0.0468053,-0.0462896,0.234874,0.0488386,0.00194301,2.49848e-05,0.0507375,0.0808467,-15,-1084,-0.134094,-0.1,-44.8627,-0.1,0.296
-0.0467975,-0.0462892,0.235077,0.0491807,0.00199424,4.54474e-05,0.0507569,0.0824008,-15,-1068,-0.149474,-0.1,-45.6866,-0.1,0.3
-0.0467894,-0.0462892,0.23528,0.0495241,0.00204608,3.02983e-05,0.0507765,0.0835521,-16,-1057,-0.165173,-0.1,-46.4908,-0.1,0.304
-0.0467811,-0.0462889,0.235483,0.0498671,0.00209855,4.89898e-05,0.0507963,0.0842908,-16,-1049,-0.181506,-0.1,-47.2795,-0.1,0.308
-0.0467726,-0.0462889,0.235686,0.0502078,0.00215163,3.26599e-05,0.0508163,0.0845817,-17,-1045,-0.198186,-0.1,-48.0569,-0.1,0.312
-0.0467639,-0.0462886,0.23589,0.050544,0.00220534,5.05642e-05,0.0508366,0.0844014,-17,-1046,-0.215524,-0.1,-48.8275,-0.1,0.316
-0.046755,-0.0462886,0.236093,0.0508729,0.00225965,3.37094e-05,0.0508572,0.0836765,-18,-1052,-0.233227,-0.1,-49.5961,-0.1,0.32
-0.0467458,-0.0462886,0.236297,0.0512039,0.00231458,2.2473e-05,0.0508779,0.0833661,-19,-1055,-0.251624,-0.1,-50.3676,-0.1,0.324
-0.0467364,-0.0462886,0.2365,0.0515335,0.00237012,1.4982e-05,0.0508989,0.0830439,-20,-1057,-0.270664,-0.1,-51.138,-0.1,0.328
-0.0467269,-0.0462882,0.236704,0.0518631,0.00242628,3.87789e-05,0.0509201,0.0828292,-20,-1059,-0.290295,-0.1,-51.9075,-0.1,0.332
-0.046717,-0.0462879,0.236908,0.0521899,0.00248304,5.46435e-05,0.0509415,0.0824557,-20,-1061,-0.310234,-0.1,-52.6752,-0.1,0.336
-0.046707,-0.0462872,0.237111,0.0525146,0.00254041,9.40109e-05,0.0509632,0.0820339,-21,-1065,-0.330545,-0.1,-53.4425,-0.1,0.34
-0.0466967,-0.0462872,0.237315,0.0528349,0.00259838,6.26739e-05,0.0509851,0.0813785,-22,-1071,-0.351063,-0.1,-54.2102,-0.1,0.344
-0.0466862,-0.0462872,0.237519,0.0531504,0.00265695,4.17826e-05,0.0510072,0.0805384,-22,-1078,-0.372449,-0.1,-54.9805,-0.1,0.348
-0.0466755,-0.0462868,0.237723,0.0534699,0.00271613,5.6646e-05,0.0510295,0.0803239,-23,-1080,-0.394585,-0.1,-55.7547,-0.1,0.352
-0.0466645,-0.0462865,0.237927,0.053776,0.00277591,6.65549e-05,0.0510521,0.079058,-23,-1091,-0.417144,-0.1,-56.5278,-0.1,0.356
-0.0466532,-0.0462861,0.238132,0.054087,0.00283629,7.31609e-05,0.0510749,0.0786172,-24,-1095,-0.44018,-0.1,-57.309,-0.1,0.36
-0.0466418,-0.0462861,0.238336,0.0543948,0.00289726,4.87739e-05,0.0510979,0.0780642,-25,-1100,-0.463751,-0.1,-58.0906,-0.1,0.364
-0.0466301,-0.0462858,0.23854,0.0547016,0.00295883,6.13069e-05,0.0511211,0.0776091,-26,-1104,-0.488127,-0.1,-58.8738,-0.1,0.368
-0.0466181,-0.0462854,0.238745,0.0550049,0.00302099,6.96622e-05,0.0511445,0.0770178,-26,-1109,-0.51297,-0.1,-59.6576,-0.1,0.372
-0.0466059,-0.0462848,0.23895,0.0553052,0.00308374,0.000104023,0.0511682,0.0763645,-26,-1115,-0.538304,-0.1,-60.4433,-0.1,0.376
-0.0465934,-0.0462837,0.239154,0.0555995,0.00314708,0.000155722,0.051192,0.0754396,-27,-1123,-0.56388,-0.1,-61.2319,-0.1,0.38
-0.0465807,-0.0462823,0.239359,0.0558929,0.00321101,0.000218978,0.0512161,0.0747365,-27,-1130,-0.589532,-0.1,-62.0256,-0.1,0.384
-0.0465677,-0.0462806,0.239564,0.0561862,0.00327553,0.00028994,0.0512405,0.0742679,-27,-1134,-0.615153,-0.1,-62.8222,-0.1,0.388
-0.0465545,-0.0462792,0.239769,0.0564774,0.00334064,0.000308457,0.051265,0.0737827,-27,-1138,-0.640712,-0.1,-63.6196,-0.1,0.392
-0.046541,-0.0462775,0.239974,0.0567711,0.00340632,0.000349593,0.0512897,0.0736607,-28,-1139,-0.666693,-0.1,-64.4177,-0.1,0.396
-0.0465273,-0.0462761,0.240179,0.0570665,0.00347259,0.000348225,0.0513147,0.0737234,-28,-1138,-0.692918,-0.1,-65.2129,-0.1,0.4
-0.0465132,-0.0462747,0.240385,0.0573591,0.00353944,0.000347314,0.0513399,0.0735348,-29,-1139,-0.71979,-0.1,-66.0038,-0.1,0.404
-0.0464989,-0.0462734,0.24059,0.05766,0.00360686,0.000346706,0.0513653,0.0741001,-30,-1133,-0.747311,-0.1,-66.7922,-0.1,0.408
-0.0464844,-0.046272,0.240796,0.0579665,0.00367487,0.000346301,0.0513909,0.0749376,-31,-1125,-0.775482,-0.1,-67.5708,-0.1,0.412
-0.0464695,-0.0462706,0.241001,0.0582764,0.00374344,0.000346031,0.0514167,0.0757839,-31,-1116,-0.804305,-0.1,-68.3372,-0.1,0.416
-0.0464544,-0.0462692,0.241207,0.0585853,0.00381259,0.000345851,0.0514427,0.0762617,-32,-1111,-0.833784,-0.1,-69.0916,-0.1,0.42
-0.046439,-0.0462671,0.241413,0.058891,0.00388232,0.000403313,0.0514689,0.0763211,-32,-1110,-0.863883,-0.1,-69.8377,-0.1,0.424
-0.0464234,-0.0462657,0.241619,0.0592016,0.00395261,0.000384039,0.0514954,0.0767638,-33,-1106,-0.89412,-0.1,-70.5792,-0.1,0.428
-0.0464074,-0.0462637,0.241825,0.0595077,0.00402347,0.000428772,0.051522,0.0766846,-34,-1106,-0.925174,-0.1,-71.3129,-0.1,0.432
-0.0463912,-0.0462616,0.242031,0.0598104,0.0040949,0.000458593,0.0515489,0.0763439,-34,-1109,-0.95646,-0.1,-72.0439,-0.1,0.436
-0.0463747,-0.0462595,0.242237,0.0601203,0.00416689,0.000478474,0.051576,0.0767214,-35,-1105,-0.988132,-0.1,-72.7741,-0.1,0.44
-0.0463579,-0.0462575,0.242444,0.0604316,0.00423945,0.000491728,0.0516032,0.0770882,-35,-1101,-1.02029,-0.1,-73.4969,-0.1,0.444
-0.0463407,-0.0462557,0.24265,0.0607436,0.00431256,0.000471774,0.0516307,0.0773904,-36,-1097,-1.05303,-0.1,-74.2124,-0.1,0.448
-0.0463233,-0.0462547,0.242857,0.0610535,0.00438624,0.000400889,0.0516584,0.077419,-38,-1097,-1.0867,-0.1,-74.9214,-0.1,0.452
-0.0463057,-0.046254,0.243063,0.0613571,0.00446048,0.000324841,0.0516863,0.0769199,-39,-1101,-1.12178,-0.1,-75.627,-0.1,0.456
-0.0462877,-0.0462537,0.24327,0.061656,0.00453527,0.000245351,0.0517144,0.0761841,-41,-1108,-1.15833,-0.1,-76.3341,-0.1,0.46
-0.0462694,-0.0462533,0.243477,0.0619504,0.00461062,0.000192359,0.0517427,0.0753193,-42,-1116,-1.19637,-0.1,-77.0451,-0.1,0.464
-0.0462508,-0.0462526,0.243684,0.0622454,0.00468652,0.000185821,0.0517712,0.0748003,-43,-1120,-1.23562,-0.1,-77.761,-0.1,0.468
-0.0462319,-0.0462509,0.243891,0.0625394,0.00476298,0.000267835,0.0518,0.0743679,-43,-1124,-1.27558,-0.1,-78.4785,-0.1,0.472
-0.0462127,-0.0462488,0.244098,0.0628383,0.00483998,0.000351302,0.0518289,0.0744828,-43,-1123,-1.31543,-0.1,-79.1965,-0.1,0.476
-0.0461932,-0.0462454,0.244306,0.0631385,0.00491753,0.000522111,0.051858,0.0746745,-43,-1121,-1.3551,-0.1,-79.9096,-0.1,0.48
-0.0461733,-0.0462416,0.244513,0.0634384,0.00499563,0.000664774,0.0518873,0.0747735,-42,-1119,-1.39379,-0.1,-80.6175,-0.1,0.484
-0.0461532,-0.0462371,0.244721,0.0637376,0.00507428,0.000817465,0.0519168,0.074782,-42,-1119,-1.43177,-0.1,-81.3209,-0.1,0.488
-0.0461327,-0.0462315,0.244929,0.0640347,0.00515347,0.00100563,0.0519465,0.0746148,-41,-1120,-1.46893,-0.1,-82.0208,-0.1,0.492
-0.046112,-0.046225,0.245136,0.0643301,0.0052332,0.00121745,0.0519765,0.0743595,-39,-1122,-1.50493,-0.1,-82.7191,-0.1,0.496
-0.0460909,-0.0462167,0.245344,0.0646289,0.00531347,0.00150261,0.0520066,0.0744771,-38,-1121,-1.53949,-0.1,-83.4162,-0.1,0.5
-0.0460695,-0.0462077,0.245552,0.0649237,0.00539428,0.00175031,0.0520369,0.0742101,-36,-1123,-1.57198,-0.1,-84.109,-0.1,0.504
-0.0460477,-0.0461967,0.245761,0.0652225,0.00547563,0.00208818,0.0520674,0.0743775,-34,-1121,-1.60267,-0.1,-84.8008,-0.1,0.508
-0.0460257,-0.0461846,0.245969,0.0655224,0.00555751,0.0023998,0.0520981,0.0745755,-31,-1119,-1.63076,-0.1,-85.4875,-0.1,0.512
-0.0460033,-0.0461718,0.246177,0.0658219,0.00563993,0.00266513,0.052129,0.0746788,-30,-1118,-1.65654,-0.1,-86.1689,-0.1,0.516
-0.0459805,-0.046159,0.246386,0.0661194,0.00572288,0.00284202,0.0521601,0.0745748,-29,-1118,-1.6805,-0.1,-86.8461,-0.1,0.52
-0.0459575,-0.0461462,0.246595,0.0664176,0.00580636,0.00295994,0.0521913,0.0745631,-29,-1118,-1.70353,-0.1,-87.5209,-0.1,0.524
-0.0459341,-0.0461331,0.246804,0.0667188,0.00589036,0.00306735,0.0522228,0.0748144,-29,-1115,-1.72619,-0.1,-88.1924,-0.1,0.528
-0.0459103,-0.0461186,0.247013,0.0670146,0.0059749,0.00325412,0.0522545,0.0745213,-28,-1118,-1.74854,-0.1,-88.8584,-0.1,0.532
-0.0458863,-0.0461034,0.247222,0.0673103,0.00605996,0.00343621,0.0522863,0.0743259,-27,-1119,-1.76984,-0.1,-89.524,-0.1,0.536
-0.0458619,-0.0460871,0.247431,0.0676029,0.00614555,0.00364398,0.0523184,0.0739365,-26,-1123,-1.79011,-0.1,-90.1884,-0.1,0.54
-0.0458371,-0.0460705,0.24764,0.0678866,0.00623166,0.00381129,0.0523506,0.0729284,-25,-1132,-1.80917,-0.1,-90.854,-0.1,0.544
-0.045812,-0.0460536,0.24785,0.0681744,0.00631829,0.00395161,0.0523831,0.0726017,-24,-1135,-1.8274,-0.1,-91.5259,-0.1,0.548
-0.0457866,-0.0460381,0.248059,0.0684618,0.00640544,0.00393,0.0524157,0.0723552,-26,-1137,-1.84519,-0.1,-92.1978,-0.1,0.552
-0.0457608,-0.0460243,0.248269,0.0687465,0.00649311,0.00377164,0.0524485,0.0719605,-28,-1141,-1.86416,-0.1,-92.8691,-0.1,0.556
-0.0457346,-0.0460118,0.248479,0.0690353,0.00658129,0.0035509,0.0524815,0.0720429,-31,-1140,-1.88562,-0.1,-93.5408,-0.1,0.56
-0.0457081,-0.0459997,0.248689,0.0693173,0.00666999,0.00337495,0.0525147,0.071522,-34,-1145,-1.91014,-0.1,-94.2089,-0.1,0.564
-0.0456813,-0.0459866,0.248899,0.0696071,0.0067592,0.00334402,0.052548,0.0718369,-35,-1141,-1.93719,-0.1,-94.8785,-0.1,0.568
-0.045654,-0.0459738,0.249109,0.0698922,0.00684892,0.00329461,0.0525816,0.0716438,-36,-1143,-1.96544,-0.1,-95.5421,-0.1,0.572
-0.0456265,-0.045959,0.24932,0.0701768,0.00693915,0.00343442,0.0526153,0.0714862,-36,-1144,-1.99491,-0.1,-96.2044,-0.1,0.576
-0.0455985,-0.0459431,0.24953,0.0704712,0.00702989,0.00361399,0.0526493,0.0721874,-35,-1137,-2.02382,-0.1,-96.8646,-0.1,0.58
-0.0455702,-0.0459258,0.249741,0.0707635,0.00712114,0.00384888,0.0526834,0.072482,-34,-1134,-2.05177,-0.1,-97.515,-0.1,0.584
-0.0455416,-0.0459078,0.249952,0.0710623,0.00721289,0.00406305,0.0527177,0.0732255,-33,-1127,-2.07824,-0.1,-98.159,-0.1,0.588
-0.0455125,-0.0458892,0.250163,0.0713626,0.00730515,0.00426341,0.0527521,0.0738363,-32,-1121,-2.10347,-0.1,-98.7925,-0.1,0.592
-0.0454831,-0.0458688,0.250374,0.0716704,0.0073979,0.00454094,0.0527868,0.0748769,-30,-1111,-2.12752,-0.1,-99.4166,-0.1,0.596
-0.0454533,-0.0458477,0.250585,0.0719786,0.00749116,0.00478354,0.0528216,0.0755995,-29,-1103,-2.1497,-0.1,-100.027,-0.1,0.6
-0.0454232,-0.045827,0.250796,0.0722871,0.00758492,0.00491648,0.0528566,0.0761099,-28,-1098,-2.17044,-0.1,-100.628,-0.1,0.604
-0.0453927,-0.0458073,0.251008,0.0725953,0.00767917,0.00491874,0.0528918,0.0764215,-29,-1095,-2.19086,-0.1,-101.221,-0.1,0.608
-0.0453618,-0.0457872,0.251219,0.0729,0.00777392,0.00494903,0.0529272,0.0763412,-30,-1095,-2.21215,-0.1,-101.808,-0.1,0.612
-0.0453305,-0.0457679,0.251431,0.0732106,0.00786916,0.00491165,0.0529627,0.0767772,-31,-1091,-2.23413,-0.1,-102.393,-0.1,0.616
-0.0452988,-0.0457482,0.251643,0.0735115,0.00796489,0.00491551,0.0529985,0.0762617,-32,-1095,-2.25738,-0.1,-102.971,-0.1,0.62
-0.0452667,-0.0457282,0.251855,0.0738252,0.00806112,0.00494688,0.0530344,0.0769833,-33,-1088,-2.28151,-0.1,-103.55,-0.1,0.624
-0.0452343,-0.0457064,0.252067,0.0741351,0.00815783,0.00511175,0.0530704,0.0771477,-33,-1086,-2.30617,-0.1,-104.12,-0.1,0.628
-0.0452015,-0.0456836,0.25228,0.0744475,0.00825503,0.00530803,0.0531067,0.0774588,-32,-1083,-2.33009,-0.1,-104.685,-0.1,0.632
-0.0451683,-0.0456601,0.252492,0.074756,0.00835272,0.00549647,0.0531431,0.0773495,-31,-1084,-2.353,-0.1,-105.244,-0.1,0.636
-0.0451347,-0.0456366,0.252705,0.0750614,0.00845089,0.0056221,0.0531797,0.0770175,-31,-1087,-2.37501,-0.1,-105.802,-0.1,0.64
-0.0451007,-0.0456138,0.252918,0.0753637,0.00854955,0.00564827,0.0532165,0.0765371,-31,-1091,-2.39679,-0.1,-106.361,-0.1,0.644
-0.0450663,-0.04559,0.253131,0.0756574,0.00864868,0.00575208,0.0532535,0.075497,-31,-1101,-2.41922,-0.1,-106.922,-0.1,0.648
-0.0450315,-0.0455665,0.253344,0.0759517,0.0087483,0.00579251,0.0532906,0.0748612,-32,-1107,-2.44163,-0.1,-107.49,-0.1,0.652
-0.0449963,-0.045543,0.253557,0.0762464,0.00884839,0.00581945,0.0533279,0.0744661,-33,-1110,-2.46461,-0.1,-108.062,-0.1,0.656
-0.0449607,-0.0455188,0.25377,0.0765363,0.00894896,0.005895,0.0533653,0.0737997,-33,-1116,-2.48828,-0.1,-108.635,-0.1,0.66
-0.0449247,-0.0454929,0.253984,0.0768272,0.00905,0.00608932,0.053403,0.0734417,-32,-1120,-2.51208,-0.1,-109.212,-0.1,0.664
-0.0448883,-0.0454652,0.254197,0.0771167,0.00915152,0.00636282,0.0534408,0.073088,-31,-1123,-2.53486,-0.1,-109.79,-0.1,0.668
-0.0448515,-0.045438,0.254411,0.0774042,0.00925351,0.00651636,0.0534787,0.0726794,-30,-1127,-2.55597,-0.1,-110.368,-0.1,0.672
-0.0448143,-0.0454113,0.254625,0.0776906,0.00935597,0.00656114,0.0535169,0.0723206,-31,-1130,-2.57662,-0.1,-110.948,-0.1,0.676
-0.0447766,-0.0453851,0.254839,0.0779773,0.0094589,0.00656221,0.0535552,0.0721102,-32,-1132,-2.59785,-0.1,-111.529,-0.1,0.68
-0.0447386,-0.0453585,0.255054,0.0782644,0.00956229,0.00659171,0.0535937,0.0719987,-33,-1133,-2.62007,-0.1,-112.109,-0.1,0.684
-0.0447001,-0.0453326,0.255268,0.0785453,0.00966615,0.00655379,0.0536323,0.0714062,-34,-1138,-2.64306,-0.1,-112.687,-0.1,0.688
-0.0446613,-0.0453067,0.255483,0.0788307,0.00977048,0.00652851,0.0536711,0.0713854,-36,-1138,-2.66743,-0.1,-113.269,-0.1,0.692
-0.044622,-0.0452804,0.255698,0.0791164,0.00987527,0.00654045,0.0537101,0.0714004,-37,-1138,-2.69306,-0.1,-113.848,-0.1,0.696
-0.0445823,-0.0452535,0.255912,0.0794073,0.00998051,0.00660599,0.0537492,0.0718422,-37,-1134,-2.71955,-0.1,-114.424,-0.1,0.7
-0.0445421,-0.0452269,0.256128,0.0796993,0.0100862,0.0066209,0.0537885,0.0722231,-38,-1130,-2.74644,-0.1,-114.993,-0.1,0.704
-0.0445016,-0.0452016,0.256343,0.0799929,0.0101924,0.00651567,0.053828,0.072621,-40,-1126,-2.7743,-0.1,-115.555,-0.1,0.708
-0.0444606,-0.0451775,0.256558,0.0802897,0.010299,0.00635914,0.0538676,0.0731454,-43,-1121,-2.80429,-0.1,-116.111,-0.1,0.712
-0.0444192,-0.0451546,0.256774,0.0805855,0.0104061,0.00613963,0.0539074,0.0734087,-46,-1118,-2.83693,-0.1,-116.659,-0.1,0.716
-0.0443773,-0.0451322,0.256989,0.0808819,0.0105136,0.0059645,0.0539473,0.0736417,-49,-1116,-2.87278,-0.1,-117.202,-0.1,0.72
-0.0443351,-0.0451108,0.257205,0.0811807,0.0106216,0.00576137,0.0539874,0.0739986,-52,-1112,-2.91145,-0.1,-117.74,-0.1,0.724
-0.0442924,-0.0450907,0.257421,0.0814779,0.01073,0.00551079,0.0540277,0.0740926,-56,-1111,-2.95322,-0.1,-118.272,-0.1,0.728
-0.0442492,-0.0450721,0.257638,0.0817753,0.0108389,0.00522857,0.0540681,0.0741841,-60,-1110,-2.99857,-0.1,-118.8,-0.1,0.732
-0.0442056,-0.0450548,0.257854,0.0820724,0.0109482,0.00492526,0.0541087,0.0742162,-64,-1109,-3.04781,-0.1,-119.325,-0.1,0.736
-0.0441616,-0.0450393,0.25807,0.0823727,0.011058,0.0045791,0.0541494,0.0744968,-68,-1107,-3.10115,-0.1,-119.847,-0.1,0.74
-0.0441172,-0.0450261,0.258287,0.0826729,0.0111682,0.00414679,0.0541903,0.0746838,-74,-1105,-3.15905,-0.1,-120.364,-0.1,0.744
-0.0440723,-0.0450154,0.258504,0.082978,0.0112789,0.00365704,0.0542314,0.0752116,-80,-1099,-3.22237,-0.1,-120.876,-0.1,0.748
-0.0440269,-0.0450064,0.258721,0.0832786,0.01139,0.00318659,0.0542726,0.0751892,-86,-1099,-3.29162,-0.1,-121.381,-0.1,0.752
-0.0439812,-0.0449995,0.258938,0.0835764,0.0115015,0.00270021,0.054314,0.0749439,-92,-1102,-3.36662,-0.1,-121.884,-0.1,0.756
-0.0439349,-0.0449933,0.259155,0.0838759,0.0116135,0.00231838,0.0543555,0.0749243,-97,-1102,-3.44744,-0.1,-122.387,-0.1,0.76
-0.0438883,-0.0449874,0.259373,0.0841765,0.0117259,0.00203503,0.0543972,0.0749977,-101,-1101,-3.53303,-0.1,-122.888,-0.1,0.764
-0.0438411,-0.0449816,0.259591,0.0844809,0.0118387,0.00184613,0.054439,0.0753632,-104,-1097,-3.62241,-0.1,-123.385,-0.1,0.768
-0.0437935,-0.0449771,0.259808,0.084788,0.011952,0.00160504,0.054481,0.0758373,-107,-1092,-3.71473,-0.1,-123.876,-0.1,0.772
-0.0437455,-0.0449722,0.260026,0.0851048,0.0120657,0.0014731,0.0545231,0.0769595,-110,-1081,-3.81039,-0.1,-124.36,-0.1,0.776
-0.043697,-0.0449674,0.260245,0.0854199,0.0121799,0.00138514,0.0545654,0.0775636,-112,-1075,-3.90834,-0.1,-124.83,-0.1,0.78
-0.0436481,-0.0449629,0.260463,0.0857364,0.0122944,0.00129771,0.0546078,0.0780816,-115,-1070,-4.00818,-0.1,-125.292,-0.1,0.784
-0.0435987,-0.0449584,0.260682,0.0860525,0.0124094,0.00123942,0.0546504,0.0783981,-117,-1067,-4.10987,-0.1,-125.747,-0.1,0.788
-0.0435488,-0.0449539,0.2609,0.0863666,0.0125248,0.00120056,0.0546931,0.0784363,-118,-1066,-4.21314,-0.1,-126.196,-0.1,0.792
-0.0434985,-0.0449487,0.261119,0.0866792,0.0126407,0.00123224,0.054736,0.0783467,-119,-1067,-4.31776,-0.1,-126.643,-0.1,0.796
-0.0434477,-0.0449436,0.261338,0.0869909,0.0127569,0.00125336,0.054779,0.0782005,-121,-1068,-4.42308,-0.1,-127.089,-0.1,0.8
-0.0433964,-0.044938,0.261557,0.0873025,0.0128736,0.00129623,0.0548222,0.0781031,-122,-1069,-4.52918,-0.1,-127.534,-0.1,0.804
-0.0433447,-0.0449311,0.261777,0.0876148,0.0129907,0.00143997,0.0548655,0.0780957,-122,-1068,-4.63579,-0.1,-127.977,-0.1,0.808
-0.0432925,-0.0449239,0.261996,0.0879247,0.0131083,0.00156459,0.054909,0.0778893,-122,-1070,-4.74199,-0.1,-128.419,-0.1,0.812
-0.0432398,-0.0449159,0.262216,0.0882326,0.0132262,0.00170525,0.0549526,0.0775789,-122,-1073,-4.84796,-0.1,-128.861,-0.1,0.816
-0.0431867,-0.0449069,0.262436,0.0885411,0.0133446,0.0018854,0.0549963,0.0774296,-122,-1074,-4.95351,-0.1,-129.303,-0.1,0.82
-0.0431331,-0.0448976,0.262656,0.0888486,0.0134633,0.00203429,0.0550402,0.0772436,-122,-1076,-5.05831,-0.1,-129.745,-0.1,0.824
-0.043079,-0.0448876,0.262876,0.0891581,0.0135825,0.00219113,0.0550843,0.0772924,-122,-1075,-5.16264,-0.1,-130.186,-0.1,0.828
-0.0430244,-0.0448776,0.263097,0.0894597,0.0137021,0.00229569,0.0551285,0.0766628,-122,-1081,-5.26649,-0.1,-130.625,-0.1,0.832
-0.0429693,-0.0448689,0.263317,0.0897679,0.0138221,0.00225023,0.0551728,0.07679,-124,-1080,-5.37044,-0.1,-131.068,-0.1,0.836
-0.0429138,-0.044862,0.263538,0.0900806,0.0139425,0.00207597,0.0552173,0.0772491,-127,-1075,-5.47599,-0.1,-131.508,-0.1,0.84
-0.0428578,-0.0448568,0.263759,0.0903974,0.0140633,0.00181585,0.0552619,0.0779007,-131,-1069,-5.58441,-0.1,-131.94,-0.1,0.844
-0.0428013,-0.0448544,0.26398,0.0907215,0.0141845,0.0014121,0.0553066,0.0789397,-137,-1058,-5.69659,-0.1,-132.363,-0.1,0.848
-0.0427443,-0.044853,0.264201,0.0910514,0.0143061,0.00105656,0.0553515,0.0801218,-142,-1047,-5.81384,-0.1,-132.774,-0.1,0.852
-0.0426869,-0.044853,0.264423,0.0913803,0.0144282,0.000704376,0.0553966,0.0808235,-146,-1040,-5.9357,-0.1,-133.172,-0.1,0.856
-0.0426289,-0.044853,0.264645,0.091713,0.0145506,0.000469584,0.0554417,0.081608,-150,-1032,-6.06206,-0.1,-133.56,-0.1,0.86
-0.0425705,-0.0448527,0.264866,0.0920426,0.0146734,0.000341847,0.055487,0.0818719,-153,-1029,-6.19174,-0.1,-133.939,-0.1,0.864
-0.0425115,-0.0448517,0.265088,0.0923729,0.0147966,0.000314271,0.0555325,0.0821054,-155,-1026,-6.32368,-0.1,-134.313,-0.1,0.868
-0.0424521,-0.0448503,0.265311,0.0927015,0.0149202,0.000324678,0.0555781,0.0821171,-156,-1026,-6.4569,-0.1,-134.683,-0.1,0.872
-0.0423922,-0.0448482,0.265533,0.09303,0.0150442,0.000389197,0.0556238,0.0821249,-157,-1026,-6.59103,-0.1,-135.051,-0.1,0.876
-0.0423317,-0.0448458,0.265756,0.0933462,0.0151686,0.000461001,0.0556696,0.0810936,-158,-1035,-6.72555,-0.1,-135.417,-0.1,0.88
-0.0422708,-0.044843,0.265978,0.0936564,0.0152934,0.000537662,0.0557156,0.0799167,-159,-1046,-6.8604,-0.1,-135.792,-0.1,0.884
-0.0422094,-0.0448403,0.266201,0.0939604,0.0154186,0.000588768,0.0557617,0.0786138,-160,-1059,-6.99555,-0.1,-136.178,-0.1,0.888
-0.0421475,-0.0448368,0.266425,0.0942576,0.0155441,0.000680422,0.055808,0.0771694,-161,-1073,-7.13122,-0.1,-136.574,-0.1,0.892
-0.042085,-0.0448337,0.266648,0.0945485,0.0156701,0.000712733,0.0558544,0.0756882,-162,-1087,-7.26708,-0.1,-136.983,-0.1,0.896
-0.0420221,-0.0448306,0.266871,0.0948363,0.0157964,0.000734273,0.0559009,0.0744417,-164,-1099,-7.40369,-0.1,-137.405,-0.1,0.9
-0.0419587,-0.0448282,0.267095,0.0951275,0.0159231,0.000691052,0.0559475,0.0738985,-166,-1104,-7.54119,-0.1,-137.836,-0.1,0.904
-0.0418947,-0.0448251,0.267319,0.095416,0.0160502,0.00071982,0.0559943,0.0733061,-167,-1110,-7.68015,-0.1,-138.271,-0.1,0.908
-0.0418303,-0.0448219,0.267543,0.0957128,0.0161777,0.000738998,0.0560412,0.0736021,-168,-1107,-7.8199,-0.1,-138.71,-0.1,0.912
-0.0417653,-0.0448181,0.267767,0.0960154,0.0163056,0.000809366,0.0560883,0.0742889,-169,-1100,-7.9605,-0.1,-139.143,-0.1,0.916
-0.0416998,-0.0448137,0.267992,0.0963215,0.0164338,0.000913859,0.0561354,0.0750347,-170,-1093,-8.10145,-0.1,-139.568,-0.1,0.92
-0.0416338,-0.0448088,0.268216,0.0966332,0.0165624,0.00101231,0.0561827,0.0759926,-171,-1083,-8.24244,-0.1,-139.983,-0.1,0.924
-0.0415673,-0.0448026,0.268441,0.0969462,0.0166914,0.00119311,0.0562302,0.0767463,-171,-1076,-8.38347,-0.1,-140.387,-0.1,0.928
-0.0415003,-0.0447964,0.268666,0.0972703,0.0168208,0.00131364,0.0562777,0.0781701,-171,-1062,-8.52382,-0.1,-140.78,-0.1,0.932
-0.0414327,-0.0447895,0.268891,0.0975967,0.0169505,0.00145158,0.0563254,0.0793208,-171,-1051,-8.66405,-0.1,-141.158,-0.1,0.936
-0.0413647,-0.0447822,0.269117,0.0979229,0.0170806,0.00157233,0.0563732,0.0800592,-172,-1044,-8.80401,-0.1,-141.523,-0.1,0.94
-0.0412961,-0.044775,0.269342,0.0982584,0.0172111,0.00165283,0.0564211,0.0813288,-173,-1031,-8.94389,-0.1,-141.878,-0.1,0.944
-0.041227,-0.0447684,0.269568,0.0986038,0.0173419,0.00164891,0.0564692,0.0830101,-175,-1015,-9.08413,-0.1,-142.218,-0.1,0.948
-0.0411574,-0.0447615,0.269794,0.0989476,0.0174731,0.00167509,0.0565174,0.083987,-176,-1005,-9.22549,-0.1,-142.541,-0.1,0.952
-0.0410872,-0.044756,0.27002,0.0992945,0.0176047,0.00157738,0.0565657,0.0848974,-179,-996,-9.3678,-0.1,-142.851,-0.1,0.956
-0.0410165,-0.0447515,0.270247,0.0996462,0.0177366,0.00142587,0.0566141,0.0859075,-182,-986,-9.51224,-0.1,-143.151,-0.1,0.96
-0.0409453,-0.0447477,0.270473,0.0999938,0.0178689,0.00126728,0.0566627,0.0862353,-185,-982,-9.65932,-0.1,-143.44,-0.1,0.964
-0.0408736,-0.0447446,0.2707,0.100341,0.0180015,0.00110397,0.0567113,0.0864251,-188,-980,-9.8091,-0.1,-143.724,-0.1,0.968
-0.0408013,-0.0447421,0.270927,0.100689,0.0181345,0.000937518,0.0567601,0.0865804,-192,-978,-9.96164,-0.1,-144.004,-0.1,0.972
-0.0407285,-0.0447404,0.271154,0.101035,0.0182679,0.000768967,0.056809,0.0865976,-195,-978,-10.117,-0.1,-144.282,-0.1,0.976
-0.0406552,-0.044739,0.271381,0.101383,0.0184016,0.000627808,0.0568581,0.086753,-198,-976,-10.2751,-0.1,-144.557,-0.1,0.98
-0.0405813,-0.0447376,0.271609,0.101728,0.0185357,0.000533702,0.0569072,0.0865686,-201,-977,-10.4357,-0.1,-144.83,-0.1,0.984
-0.0405069,-0.0447359,0.271837,0.102077,0.0186701,0.000499756,0.0569565,0.0867913,-203,-975,-10.5983,-0.1,-145.102,-0.1,0.988
-0.0404319,-0.0447342,0.272065,0.102423,0.0188049,0.000477125,0.0570059,0.0866806,-205,-975,-10.7623,-0.1,-145.371,-0.1,0.992
-0.0403564,-0.0447318,0.272293,0.102766,0.01894,0.00051962,0.0570554,0.0864052,-206,-978,-10.9277,-0.1,-145.64,-0.1,0.996
-0.0402804,-0.044729,0.272521,0.103111,0.0190755,0.000576741,0.057105,0.0863368,-207,-978,-11.0937,-0.1,-145.91,-0.1,1
-0.0402038,-0.0447259,0.27275,0.103457,0.0192113,0.000643612,0.0571547,0.0863488,-209,-978,-11.2603,-0.1,-146.178,-0.1,1.004
-0.0401267,-0.0447228,0.272978,0.103799,0.0193475,0.000688193,0.0572046,0.0860689,-210,-980,-11.4273,-0.1,-146.446,-0.1,1.008
-0.040049,-0.044719,0.273207,0.104145,0.019484,0.000775496,0.0572546,0.0862566,-211,-978,-11.595,-0.1,-146.714,-0.1,1.012
-0.0399708,-0.0447145,0.273436,0.104482,0.0196208,0.000891279,0.0573046,0.0856043,-212,-984,-11.7629,-0.1,-146.98,-0.1,1.016
-0.0398921,-0.0447107,0.273666,0.104822,0.019758,0.000910886,0.0573548,0.0853422,-213,-986,-11.9309,-0.1,-147.25,-0.1,1.02
-0.0398128,-0.0447055,0.273895,0.105157,0.0198956,0.00103912,0.0574051,0.084822,-214,-991,-12.0997,-0.1,-147.522,-0.1,1.024
-0.0397329,-0.0447003,0.274125,0.105488,0.0200334,0.00112461,0.0574556,0.0841585,-215,-997,-12.2684,-0.1,-147.797,-0.1,1.028
-0.0396525,-0.0446931,0.274355,0.105819,0.0201717,0.00135435,0.0575061,0.0836586,-214,-1002,-12.4373,-0.1,-148.078,-0.1,1.032
-0.0395715,-0.0446855,0.274585,0.106148,0.0203102,0.0015363,0.0575568,0.0831814,-214,-1006,-12.6051,-0.1,-148.362,-0.1,1.036
-0.03949,-0.0446761,0.274815,0.106473,0.0204491,0.00180156,0.0576075,0.0826041,-214,-1011,-12.7722,-0.1,-148.649,-0.1,1.04
-0.0394079,-0.0446665,0.275046,0.106802,0.0205883,0.00200718,0.0576584,0.0824496,-214,-1013,-12.9378,-0.1,-148.94,-0.1,1.044
-0.0393253,-0.0446568,0.275276,0.107133,0.0207278,0.00214427,0.0577093,0.0825481,-214,-1012,-13.1025,-0.1,-149.232,-0.1,1.048
-0.0392421,-0.0446482,0.275507,0.107462,0.0208677,0.00214928,0.0577604,0.082441,-216,-1012,-13.2672,-0.1,-149.521,-0.1,1.052
-0.0391584,-0.0446413,0.275739,0.107792,0.0210079,0.00200868,0.0578116,0.0824848,-219,-1012,-13.433,-0.1,-149.809,-0.1,1.056
-0.0390741,-0.0446364,0.27597,0.10812,0.0211484,0.00174219,0.0578629,0.0823125,-224,-1013,-13.6016,-0.1,-150.096,-0.1,1.06
-0.0389892,-0.0446343,0.276201,0.108448,0.0212893,0.00133421,0.0579143,0.0821688,-229,-1014,-13.774,-0.1,-150.383,-0.1,1.064
-0.0389037,-0.0446336,0.276433,0.108769,0.0214304,0.000947052,0.0579659,0.0815835,-235,-1020,-13.9517,-0.1,-150.67,-0.1,1.068
-0.0388177,-0.0446333,0.276665,0.109091,0.0215719,0.000660159,0.0580175,0.0811646,-240,-1024,-14.1344,-0.1,-150.961,-0.1,1.072
-0.0387312,-0.0446333,0.276897,0.109412,0.0217137,0.000440106,0.0580692,0.0809141,-244,-1026,-14.3211,-0.1,-151.256,-0.1,1.076
-0.038644,-0.044633,0.27713,0.109726,0.0218559,0.000322195,0.058121,0.0800849,-247,-1034,-14.511,-0.1,-151.551,-0.1,1.08
-0.0385563,-0.0446316,0.277362,0.110042,0.0219983,0.00032996,0.058173,0.0797624,-249,-1037,-14.7032,-0.1,-151.853,-0.1,1.084
-0.038468,-0.0446295,0.277595,0.110361,0.0221411,0.000392719,0.058225,0.0796914,-250,-1038,-14.8964,-0.1,-152.157,-0.1,1.088
-0.0383792,-0.0446271,0.277828,0.11067,0.0222842,0.000463349,0.0582771,0.078953,-251,-1045,-15.0901,-0.1,-152.461,-0.1,1.092
-0.0382898,-0.0446243,0.278061,0.110979,0.0224276,0.000539227,0.0583294,0.0783457,-252,-1050,-15.2843,-0.1,-152.77,-0.1,1.096
-0.0381998,-0.0446209,0.278295,0.111289,0.0225713,0.000647394,0.0583817,0.0780271,-253,-1054,-15.4789,-0.1,-153.084,-0.1,1.1
-0.0381092,-0.0446181,0.278528,0.111592,0.0227153,0.000661923,0.0584342,0.0773253,-255,-1060,-15.6737,-0.1,-153.4,-0.1,1.104
-0.038018,-0.0446153,0.278762,0.111895,0.0228596,0.00067161,0.0584867,0.0767423,-257,-1066,-15.8694,-0.1,-153.721,-0.1,1.108
-0.0379263,-0.0446133,0.278996,0.112193,0.0230043,0.000620485,0.0585394,0.0760081,-259,-1073,-16.0663,-0.1,-154.047,-0.1,1.112
-0.037834,-0.0446112,0.279231,0.112486,0.0231492,0.000586402,0.0585921,0.0750868,-262,-1082,-16.2649,-0.1,-154.379,-0.1,1.116
-0.0377411,-0.0446084,0.279465,0.112785,0.0232945,0.000621262,0.058645,0.0749908,-263,-1083,-16.4649,-0.1,-154.718,-0.1,1.12
-0.0376477,-0.0446064,0.2797,0.113078,0.02344,0.00058692,0.0586979,0.0744086,-266,-1089,-16.6658,-0.1,-155.057,-0.1,1.124
-0.0375536,-0.0446032,0.279935,0.113369,0.0235859,0.000650399,0.0587509,0.0738765,-267,-1094,-16.8681,-0.1,-155.401,-0.1,1.128
-0.037459,-0.0446001,0.28017,0.11366,0.023732,0.000692717,0.0588041,0.0734641,-269,-1098,-17.0711,-0.1,-155.748,-0.1,1.132
-0.0373638,-0.0445956,0.280405,0.113943,0.0238785,0.000836094,0.0588573,0.0726134,-269,-1106,-17.2747,-0.1,-156.098,-0.1,1.136
-0.0372679,-0.0445901,0.280641,0.114228,0.0240253,0.00101805,0.0589107,0.0721039,-270,-1111,-17.478,-0.1,-156.455,-0.1,1.14
-0.0371715,-0.0445839,0.280876,0.114505,0.0241723,0.00119694,0.0589641,0.0712172,-270,-1120,-17.6807,-0.1,-156.816,-0.1,1.144
-0.0370746,-0.044576,0.281112,0.114789,0.0243197,0.00146015,0.0590176,0.0711442,-269,-1121,-17.8828,-0.1,-157.184,-0.1,1.148
-0.036977,-0.044567,0.281348,0.11507,0.0244673,0.001722,0.0590712,0.0708077,-269,-1124,-18.0834,-0.1,-157.552,-0.1,1.152
-0.0368788,-0.0445556,0.281585,0.115356,0.0246152,0.0020981,0.0591249,0.0710152,-267,-1123,-18.2825,-0.1,-157.921,-0.1,1.156
-0.0367801,-0.0445428,0.281821,0.115636,0.0247635,0.002464,0.0591787,0.0706929,-266,-1126,-18.4791,-0.1,-158.287,-0.1,1.16
-0.0366807,-0.044529,0.282058,0.115912,0.024912,0.0027943,0.0592326,0.0701614,-265,-1131,-18.6733,-0.1,-158.654,-0.1,1.164
-0.0365808,-0.0445134,0.282295,0.116192,0.0250608,0.00315846,0.0592866,0.0700949,-263,-1132,-18.8654,-0.1,-159.026,-0.1,1.168
-0.0364802,-0.0444965,0.282533,0.116465,0.0252099,0.00351639,0.0593407,0.0694748,-262,-1138,-19.0551,-0.1,-159.397,-0.1,1.172
-0.0363791,-0.0444792,0.28277,0.116731,0.0253593,0.00378381,0.0593948,0.0684855,-261,-1148,-19.2425,-0.1,-159.773,-0.1,1.176
-0.0362774,-0.0444595,0.283008,0.117002,0.0255089,0.00416362,0.0594491,0.0682291,-259,-1151,-19.4285,-0.1,-160.157,-0.1,1.18
-0.036175,-0.0444391,0.283246,0.117275,0.0256589,0.00447441,0.0595035,0.0682309,-258,-1151,-19.6119,-0.1,-160.542,-0.1,1.184
-0.0360721,-0.0444188,0.283484,0.117544,0.0258091,0.00468161,0.0595579,0.0678866,-258,-1155,-19.7936,-0.1,-160.926,-0.1,1.188
-0.0359685,-0.0443956,0.283722,0.117813,0.0259596,0.00505006,0.0596124,0.0676859,-257,-1157,-19.9743,-0.1,-161.311,-0.1,1.192
-0.0358644,-0.0443707,0.283961,0.118091,0.0261104,0.00543966,0.059667,0.0683006,-255,-1151,-20.1527,-0.1,-161.697,-0.1,1.196
-0.0357597,-0.0443441,0.284199,0.118368,0.0262615,0.00584334,0.0597217,0.0685953,-253,-1149,-20.3284,-0.1,-162.076,-0.1,1.2
-0.0356543,-0.0443155,0.284438,0.11865,0.0264128,0.00628521,0.0597765,0.0692524,-251,-1143,-20.5013,-0.1,-162.45,-0.1,1.204
-0.0355484,-0.0442826,0.284678,0.118927,0.0265644,0.00692527,0.0598314,0.0692874,-247,-1143,-20.671,-0.1,-162.816,-0.1,1.208
-0.0354418,-0.044246,0.284917,0.119207,0.0267163,0.00766869,0.0598863,0.0694834,-242,-1141,-20.8356,-0.1,-163.181,-0.1,1.212
-0.0353346,-0.0442056,0.285157,0.119485,0.0268685,0.008481,0.0599414,0.069499,-236,-1141,-20.994,-0.1,-163.542,-0.1,1.216
-0.0352269,-0.0441607,0.285397,0.119765,0.0270209,0.00939682,0.0599965,0.0696821,-229,-1140,-21.1455,-0.1,-163.902,-0.1,1.22
-0.0351185,-0.0441113,0.285637,0.120045,0.0271736,0.0103816,0.0600517,0.0698042,-221,-1139,-21.2892,-0.1,-164.259,-0.1,1.224
-0.0350095,-0.0440556,0.285877,0.120328,0.0273266,0.0115564,0.060107,0.0700583,-212,-1136,-21.4243,-0.1,-164.613,-0.1,1.228
-0.0348999,-0.0439938,0.286118,0.120613,0.0274798,0.0128579,0.0601624,0.070458,-201,-1133,-21.549,-0.1,-164.963,-0.1,1.232
-0.0347896,-0.0439275,0.286358,0.120899,0.0276333,0.0140998,0.0602179,0.0708397,-191,-1129,-21.6622,-0.1,-165.308,-0.1,1.236
-0.0346788,-0.0438563,0.286599,0.121189,0.0277871,0.0153308,0.0602734,0.0714108,-181,-1124,-21.7643,-0.1,-165.648,-0.1,1.24
-0.0345673,-0.0437789,0.286841,0.121478,0.0279411,0.0166697,0.060329,0.0716764,-170,-1122,-21.8556,-0.1,-165.981,-0.1,1.244
-0.0344553,-0.043696,0.287082,0.121764,0.0280954,0.0180229,0.0603847,0.0716232,-159,-1122,-21.935,-0.1,-166.31,-0.1,1.248
-0.0343426,-0.0436062,0.287324,0.122051,0.0282499,0.0195009,0.0604405,0.0716165,-146,-1123,-22.0023,-0.1,-166.639,-0.1,1.252
-0.0342293,-0.0435122,0.287565,0.12234,0.0284047,0.0208318,0.0604964,0.0718711,-135,-1121,-22.0564,-0.1,-166.966,-0.1,1.256
-0.0341153,-0.0434116,0.287808,0.122634,0.0285598,0.022266,0.0605523,0.0724151,-123,-1115,-22.0988,-0.1,-167.289,-0.1,1.26
-0.0340008,-0.0433045,0.28805,0.122931,0.0287151,0.0237692,0.0606083,0.0729794,-110,-1110,-22.1283,-0.1,-167.606,-0.1,1.264
-0.0338856,-0.0431957,0.288292,0.123226,0.0288707,0.0249153,0.0606644,0.073298,-101,-1107,-22.1447,-0.1,-167.915,-0.1,1.268
-0.0337698,-0.043082,0.288535,0.12353,0.0290265,0.0260824,0.0607206,0.0742013,-91,-1099,-22.1513,-0.1,-168.221,-0.1,1.272
-0.0336534,-0.0429646,0.288778,0.123831,0.0291826,0.0271772,0.0607768,0.0745444,-82,-1096,-22.1479,-0.1,-168.516,-0.1,1.276
-0.0335363,-0.042845,0.289021,0.124131,0.0293389,0.0280798,0.0608332,0.0747156,-75,-1094,-22.1353,-0.1,-168.807,-0.1,1.28
-0.0334187,-0.0427241,0.289265,0.12443,0.0294955,0.0287967,0.0608896,0.0746858,-70,-1095,-22.1156,-0.1,-169.095,-0.1,1.284
-0.0333004,-0.0425997,0.289509,0.124728,0.0296523,0.0295625,0.060946,0.0746371,-64,-1095,-22.0903,-0.1,-169.383,-0.1,1.288
-0.0331815,-0.0424747,0.289752,0.125021,0.0298094,0.0301307,0.0610026,0.0742015,-60,-1100,-22.0592,-0.1,-169.67,-0.1,1.292
-0.0330619,-0.04235,0.289997,0.125314,0.0299667,0.0304806,0.0610592,0.0738824,-58,-1103,-22.0243,-0.1,-169.96,-0.1,1.296
-0.0329417,-0.0422245,0.290241,0.125604,0.0301242,0.0307715,0.0611159,0.0733817,-57,-1108,-21.9877,-0.1,-170.252,-0.1,1.3
-0.0328209,-0.0420971,0.290485,0.125898,0.030282,0.0311382,0.0611727,0.0733934,-55,-1108,-21.9498,-0.1,-170.548,-0.1,1.304
-0.0326995,-0.0419689,0.29073,0.126193,0.0304401,0.0314402,0.0612295,0.0735164,-54,-1107,-21.91,-0.1,-170.843,-0.1,1.308
-0.0325774,-0.0418397,0.290975,0.126486,0.0305984,0.031728,0.0612864,0.0734832,-52,-1108,-21.8689,-0.1,-171.136,-0.1,1.312
-0.0324547,-0.0417118,0.291221,0.126781,0.0307569,0.0318046,0.0613434,0.0735763,-53,-1107,-21.8268,-0.1,-171.427,-0.1,1.316
-0.0323313,-0.041583,0.291466,0.127073,0.0309156,0.0319421,0.0614004,0.0733216,-53,-1110,-21.7856,-0.1,-171.717,-0.1,1.32
-0.0322074,-0.0414499,0.291712,0.127369,0.0310746,0.0323792,0.0614576,0.0736125,-50,-1107,-21.7446,-0.1,-172.009,-0.1,1.324
-0.0320827,-0.0413242,0.291958,0.127655,0.0312339,0.0320661,0.0615148,0.0728563,-55,-1114,-21.7014,-0.1,-172.296,-0.1,1.328
-0.0319575,-0.0411936,0.292204,0.127946,0.0313933,0.0322603,0.061572,0.0728704,-55,-1115,-21.6627,-0.1,-172.59,-0.1,1.332
-0.0318316,-0.0410595,0.29245,0.128246,0.031553,0.0326778,0.0616293,0.0735708,-52,-1108,-21.6237,-0.1,-172.882,-0.1,1.336
-0.0317051,-0.0409321,0.292697,0.128532,0.0317129,0.032409,0.0616867,0.0728285,-56,-1115,-21.5827,-0.1,-173.168,-0.1,1.34
-0.0315779,-0.0408008,0.292944,0.128826,0.0318731,0.0325466,0.0617442,0.073111,-56,-1113,-21.5459,-0.1,-173.458,-0.1,1.344
-0.0314501,-0.0406681,0.293191,0.129126,0.0320335,0.0327534,0.0618017,0.0736736,-56,-1108,-21.5093,-0.1,-173.745,-0.1,1.348
-0.0313216,-0.0405347,0.293438,0.129424,0.0321941,0.0329489,0.0618593,0.0739623,-55,-1105,-21.4724,-0.1,-174.025,-0.1,1.352
-0.0311925,-0.0403993,0.293686,0.129726,0.0323549,0.033252,0.061917,0.0744715,-54,-1100,-21.4352,-0.1,-174.302,-0.1,1.356
-0.0310628,-0.0402653,0.293934,0.130025,0.0325159,0.0333389,0.0619747,0.0745806,-55,-1100,-21.3969,-0.1,-174.572,-0.1,1.36
-0.0309324,-0.0401281,0.294182,0.130326,0.0326772,0.0336559,0.0620325,0.0748261,-53,-1097,-21.3593,-0.1,-174.84,-0.1,1.364
-0.0308014,-0.0399902,0.29443,0.130629,0.0328387,0.0339249,0.0620903,0.0751337,-52,-1095,-21.3203,-0.1,-175.105,-0.1,1.368
-0.0306697,-0.0398548,0.294678,0.130928,0.0330004,0.0339026,0.0621482,0.0750221,-54,-1096,-21.2806,-0.1,-175.366,-0.1,1.372
-0.0305374,-0.0397139,0.294927,0.131234,0.0331623,0.0343484,0.0622062,0.0754659,-51,-1092,-21.2425,-0.1,-175.627,-0.1,1.376
-0.0304044,-0.0395764,0.295176,0.131537,0.0333245,0.0343577,0.0622643,0.0756178,-52,-1091,-21.202,-0.1,-175.883,-0.1,1.38
-0.0302708,-0.0394375,0.295425,0.131844,0.0334869,0.0344791,0.0623224,0.0759206,-53,-1088,-21.163,-0.1,-176.136,-0.1,1.384
-0.0301365,-0.0392975,0.295675,0.132151,0.0336494,0.0346464,0.0623805,0.0762089,-53,-1085,-21.1246,-0.1,-176.385,-0.1,1.388
-0.0300016,-0.0391566,0.295924,0.132458,0.0338122,0.0348443,0.0624387,0.0764298,-52,-1083,-21.0862,-0.1,-176.63,-0.1,1.392
-0.029866,-0.0390146,0.296174,0.132761,0.0339752,0.0350626,0.062497,0.0762029,-52,-1086,-21.0476,-0.1,-176.873,-0.1,1.396
-0.0297298,-0.0388729,0.296424,0.133066,0.0341385,0.0351793,0.0625554,0.0761667,-52,-1086,-21.0087,-0.1,-177.117,-0.1,1.4
-0.0295929,-0.0387299,0.296674,0.133368,0.0343019,0.0353723,0.0626138,0.0759987,-52,-1088,-20.9703,-0.1,-177.36,-0.1,1.404
-0.0294554,-0.0385865,0.296925,0.133672,0.0344655,0.0355298,0.0626722,0.0760018,-52,-1088,-20.9317,-0.1,-177.604,-0.1,1.408
-0.0293172,-0.0384435,0.297176,0.133978,0.0346294,0.035606,0.0627307,0.0761478,-53,-1087,-20.8934,-0.1,-177.848,-0.1,1.412
-0.0291783,-0.0382973,0.297427,0.134285,0.0347934,0.0359159,0.0627893,0.0763316,-51,-1085,-20.8559,-0.1,-178.088,-0.1,1.416
-0.0290388,-0.0381512,0.297678,0.134596,0.0349576,0.0361225,0.0628479,0.0768571,-51,-1080,-20.8172,-0.1,-178.326,-0.1,1.42
-0.0288987,-0.0380057,0.29793,0.134901,0.0351221,0.0362026,0.0629066,0.0766029,-52,-1083,-20.7782,-0.1,-178.558,-0.1,1.424
-0.0287578,-0.0378568,0.298181,0.135208,0.0352867,0.036544,0.0629654,0.0766637,-50,-1083,-20.74,-0.1,-178.792,-0.1,1.428
-0.0286164,-0.037709,0.298433,0.13551,0.0354516,0.0366852,0.0630242,0.0762724,-50,-1087,-20.7004,-0.1,-179.025,-0.1,1.432
-0.0284742,-0.0375601,0.298686,0.135806,0.0356167,0.0368657,0.063083,0.0755221,-50,-1094,-20.661,-0.1,-179.261,-0.1,1.436
-0.0283314,-0.0374118,0.298938,0.136102,0.0357819,0.0369284,0.0631419,0.0750219,-51,-1099,-20.6217,-0.1,-179.503,-0.1,1.44
-0.028188,-0.0372616,0.299191,0.136397,0.0359473,0.037143,0.0632009,0.0745733,-50,-1104,-20.5835,-0.1,-179.75,-0.1,1.444
-0.0280439,-0.0371089,0.299444,0.136697,0.036113,0.0374876,0.0632599,0.074706,-48,-1103,-20.5448,-0.1,-179.999,-0.1,1.448
-0.0278991,-0.0369586,0.299697,0.136986,0.0362788,0.0375158,0.0633189,0.0739308,-50,-1110,-20.5046,-0.1,-180.248,-0.1,1.452
-0.0277536,-0.0368062,0.29995,0.137279,0.0364448,0.0377073,0.0633781,0.0737019,-49,-1113,-20.4659,-0.1,-180.502,-0.1,1.456
-0.0276075,-0.0366549,0.300204,0.137576,0.0366111,0.0377486,0.0634372,0.0738372,-51,-1112,-20.4271,-0.1,-180.759,-0.1,1.46
-0.0274607,-0.0365063,0.300458,0.137866,0.0367775,0.0375459,0.0634964,0.0734092,-54,-1116,-20.3898,-0.1,-181.013,-0.1,1.464
-0.0273133,-0.0363546,0.300712,0.138162,0.0369441,0.0376698,0.0635557,0.0736421,-54,-1114,-20.3561,-0.1,-181.27,-0.1,1.468
-0.0271652,-0.0362023,0.300966,0.138457,0.0371109,0.03781,0.063615,0.0736246,-55,-1115,-20.3229,-0.1,-181.524,-0.1,1.472
-0.0270164,-0.0360503,0.301221,0.138757,0.0372778,0.0378747,0.0636744,0.0741024,-56,-1110,-20.2902,-0.1,-181.778,-0.1,1.476
-0.026867,-0.0358955,0.301476,0.139059,0.037445,0.0381481,0.0637338,0.0745936,-55,-1106,-20.2584,-0.1,-182.025,-0.1,1.48
-0.0267168,-0.0357411,0.301731,0.139363,0.0376123,0.0383016,0.0637933,0.0750651,-55,-1102,-20.2258,-0.1,-182.267,-0.1,1.484
-0.0265661,-0.0355863,0.301986,0.139671,0.0377798,0.0384327,0.0638528,0.0756961,-55,-1096,-20.1934,-0.1,-182.504,-0.1,1.488
-0.0264146,-0.0354267,0.302241,0.139981,0.0379475,0.0389232,0.0639123,0.0762607,-52,-1091,-20.1612,-0.1,-182.733,-0.1,1.492
-0.0262625,-0.0352712,0.302497,0.140289,0.0381154,0.0389047,0.0639719,0.076522,-54,-1088,-20.1263,-0.1,-182.956,-0.1,1.496
-0.0261097,-0.0351136,0.302753,0.140597,0.0382835,0.0390652,0.0640316,0.0766962,-54,-1087,-20.0933,-0.1,-183.176,-0.1,1.5
-0.0259562,-0.0349551,0.303009,0.140905,0.0384517,0.0392585,0.0640913,0.0768411,-53,-1086,-20.0604,-0.1,-183.393,-0.1,1.504
-0.0258021,-0.0347948,0.303266,0.141211,0.0386201,0.0395313,0.064151,0.0766786,-52,-1088,-20.0273,-0.1,-183.609,-0.1,1.508
-0.0256472,-0.0346379,0.303523,0.141512,0.0387887,0.0394253,0.0642108,0.0762247,-55,-1092,-19.9935,-0.1,-183.825,-0.1,1.512
-0.0254918,-0.0344772,0.30378,0.141815,0.0389575,0.0396713,0.0642706,0.0760373,-54,-1094,-19.9623,-0.1,-184.045,-0.1,1.516
-0.0253356,-0.0343173,0.304037,0.142116,0.0391264,0.0397777,0.0643305,0.075826,-55,-1096,-19.9306,-0.1,-184.266,-0.1,1.52
-0.0251787,-0.0341573,0.304294,0.142418,0.0392955,0.0398487,0.0643904,0.075714,-56,-1098,-19.8996,-0.1,-184.489,-0.1,1.524
-0.0250212,-0.0339936,0.304552,0.142718,0.0394648,0.0402127,0.0644503,0.0754089,-54,-1101,-19.8694,-0.1,-184.712,-0.1,1.528
-0.024863,-0.0338322,0.30481,0.143018,0.0396342,0.0402538,0.0645103,0.0753207,-55,-1102,-19.8377,-0.1,-184.938,-0.1,1.532
-0.0247041,-0.0336695,0.305068,0.143316,0.0398038,0.0403964,0.0645704,0.0750316,-55,-1105,-19.8073,-0.1,-185.163,-0.1,1.536
-0.0245446,-0.0335064,0.305326,0.143614,0.0399736,0.0405203,0.0646304,0.0748964,-56,-1107,-19.7772,-0.1,-185.391,-0.1,1.54
-0.0243844,-0.0333409,0.305585,0.143912,0.0401435,0.0408044,0.0646906,0.0747487,-54,-1109,-19.7476,-0.1,-185.62,-0.1,1.544
-0.0242234,-0.0331775,0.305844,0.144208,0.0403136,0.040821,0.0647507,0.0744487,-56,-1112,-19.7172,-0.1,-185.849,-0.1,1.548
-0.0240619,-0.0330099,0.306103,0.144505,0.0404839,0.0411776,0.0648109,0.0743927,-54,-1113,-19.6881,-0.1,-186.08,-0.1,1.552
-0.0238996,-0.0328438,0.306362,0.144801,0.0406543,0.0413002,0.0648711,0.0742689,-54,-1114,-19.6574,-0.1,-186.312,-0.1,1.556
-0.0237366,-0.0326759,0.306622,0.145095,0.0408249,0.0415258,0.0649314,0.0739849,-54,-1117,-19.6273,-0.1,-186.544,-0.1,1.56
-0.023573,-0.0325083,0.306882,0.145392,0.0409956,0.0416475,0.0649917,0.0741123,-54,-1116,-19.5968,-0.1,-186.778,-0.1,1.564
-0.0234087,-0.0323421,0.307142,0.145682,0.0411665,0.0416134,0.0650521,0.073535,-56,-1122,-19.5669,-0.1,-187.01,-0.1,1.568
-0.0232436,-0.0321742,0.307402,0.145976,0.0413376,0.0417347,0.0651125,0.073582,-57,-1122,-19.5391,-0.1,-187.247,-0.1,1.572
-0.0230779,-0.0320042,0.307663,0.146268,0.0415088,0.0419883,0.0651729,0.073383,-56,-1124,-19.5118,-0.1,-187.483,-0.1,1.576
-0.0229116,-0.0318346,0.307924,0.146556,0.0416801,0.0421285,0.0652333,0.0729336,-56,-1129,-19.4838,-0.1,-187.721,-0.1,1.58
-0.0227445,-0.0316636,0.308185,0.146844,0.0418517,0.0423372,0.0652938,0.0726053,-56,-1133,-19.4562,-0.1,-187.962,-0.1,1.584
-0.0225768,-0.0314929,0.308446,0.147128,0.0420233,0.0424475,0.0653544,0.0720984,-56,-1138,-19.4284,-0.1,-188.206,-0.1,1.588
-0.0224083,-0.0313219,0.308708,0.147417,0.0421951,0.0425498,0.0654149,0.0720773,-57,-1138,-19.4013,-0.1,-188.454,-0.1,1.592
-0.0222392,-0.031145,0.308969,0.147711,0.0423671,0.0431075,0.0654755,0.0725814,-53,-1134,-19.3747,-0.1,-188.702,-0.1,1.596
-0.0220694,-0.0309757,0.309231,0.147997,0.0425392,0.0428459,0.0655361,0.0722553,-57,-1138,-19.3449,-0.1,-188.944,-0.1,1.6
-0.0218989,-0.0308016,0.309494,0.148292,0.0427115,0.0430746,0.0655968,0.0727576,-57,-1133,-19.3191,-0.1,-189.188,-0.1,1.604
-0.0217277,-0.0306271,0.309756,0.148588,0.0428839,0.0432558,0.0656575,0.0731789,-57,-1129,-19.2929,-0.1,-189.426,-0.1,1.608
-0.0215558,-0.0304516,0.310019,0.148888,0.0430564,0.043463,0.0657182,0.0737189,-56,-1124,-19.2667,-0.1,-189.66,-0.1,1.612
-0.0213832,-0.0302761,0.310282,0.149188,0.0432291,0.0436011,0.0657789,0.0741364,-57,-1121,-19.2403,-0.1,-189.888,-0.1,1.616
-0.02121,-0.0300995,0.310545,0.149486,0.0434019,0.0437796,0.0658397,0.0742997,-57,-1120,-19.2143,-0.1,-190.111,-0.1,1.62
-0.021036,-0.0299216,0.310809,0.149786,0.0435749,0.0440137,0.0659005,0.0745236,-56,-1118,-19.1883,-0.1,-190.331,-0.1,1.624
-0.0208614,-0.0297426,0.311072,0.150081,0.043748,0.0442562,0.0659614,0.0742699,-55,-1121,-19.1617,-0.1,-190.549,-0.1,1.628
-0.020686,-0.0295647,0.311336,0.150374,0.0439212,0.0443314,0.0660223,0.0739567,-56,-1124,-19.1347,-0.1,-190.769,-0.1,1.632
-0.02051,-0.0293861,0.311601,0.150665,0.0440946,0.0444392,0.0660832,0.0735465,-57,-1128,-19.1087,-0.1,-190.992,-0.1,1.636
-0.0203333,-0.0292064,0.311865,0.150957,0.0442681,0.0445974,0.0661441,0.0733881,-57,-1130,-19.0834,-0.1,-191.218,-0.1,1.64
-0.0201559,-0.0290264,0.31213,0.151245,0.0444418,0.0447317,0.066205,0.0728507,-57,-1136,-19.0584,-0.1,-191.446,-0.1,1.644
-0.0199778,-0.0288454,0.312395,0.151534,0.0446156,0.0449076,0.066266,0.0727227,-57,-1137,-19.0338,-0.1,-191.677,-0.1,1.648
-0.0197989,-0.0286623,0.31266,0.151827,0.0447895,0.0451976,0.066327,0.0728389,-56,-1137,-19.0091,-0.1,-191.91,-0.1,1.652
-0.0196194,-0.0284809,0.312925,0.152117,0.0449635,0.0452469,0.066388,0.0727437,-57,-1138,-18.9836,-0.1,-192.14,-0.1,1.656
-0.0194392,-0.0282957,0.313191,0.152413,0.0451377,0.0455966,0.0664491,0.0731984,-55,-1134,-18.9592,-0.1,-192.371,-0.1,1.66
-0.0192583,-0.0281133,0.313457,0.152707,0.045312,0.0455993,0.0665102,0.0732712,-57,-1134,-18.9334,-0.1,-192.597,-0.1,1.664
-0.0190767,-0.0279319,0.313723,0.153003,0.0454864,0.0455148,0.0665713,0.0735213,-60,-1132,-18.9095,-0.1,-192.821,-0.1,1.668
-0.0188944,-0.0277429,0.313989,0.153307,0.0456609,0.0460918,0.0666324,0.0743502,-56,-1124,-18.8877,-0.1,-193.042,-0.1,1.672
-0.0187114,-0.0275609,0.314256,0.153604,0.0458356,0.0459007,0.0666936,0.0742694,-59,-1125,-18.8625,-0.1,-193.255,-0.1,1.676
-0.0185278,-0.0273733,0.314523,0.153912,0.0460104,0.0462339,0.0667548,0.0752232,-58,-1116,-18.8407,-0.1,-193.467,-0.1,1.68
-0.0183434,-0.0271884,0.31479,0.15422,0.0461853,0.0462258,0.066816,0.0758303,-59,-1111,-18.8176,-0.1,-193.669,-0.1,1.684
-0.0181583,-0.0269991,0.315057,0.154535,0.0463604,0.0465946,0.0668772,0.0767821,-57,-1102,-18.7962,-0.1,-193.865,-0.1,1.688
-0.0179725,-0.0268125,0.315325,0.15485,0.0465355,0.0466102,0.0669384,0.0774742,-59,-1096,-18.7732,-0.1,-194.05,-0.1,1.692
-0.017786,-0.0266242,0.315593,0.155169,0.0467108,0.0467645,0.0669997,0.0782235,-59,-1089,-18.7517,-0.1,-194.229,-0.1,1.696
-0.0175988,-0.0264332,0.315861,0.155491,0.0468862,0.0470977,0.067061,0.0789821,-58,-1082,-18.7304,-0.1,-194.399,-0.1,1.7
-0.0174109,-0.0262459,0.316129,0.155805,0.0470617,0.0470032,0.0671223,0.0787969,-60,-1084,-18.7078,-0.1,-194.561,-0.1,1.704
-0.0172223,-0.0260569,0.316398,0.156122,0.0472373,0.0470841,0.0671836,0.0789326,-61,-1083,-18.6879,-0.1,-194.725,-0.1,1.708
-0.017033,-0.0258648,0.316667,0.156441,0.0474131,0.0473971,0.0672449,0.0791957,-60,-1080,-18.6689,-0.1,-194.887,-0.1,1.712
-0.016843,-0.0256762,0.316936,0.156756,0.0475889,0.0473179,0.0673063,0.0790833,-62,-1082,-18.6488,-0.1,-195.047,-0.1,1.716
-0.0166523,-0.0254855,0.317205,0.157068,0.0477649,0.0474379,0.0673677,0.0786916,-63,-1086,-18.6312,-0.1,-195.207,-0.1,1.72
-0.0164609,-0.0252924,0.317475,0.157379,0.0479409,0.0477194,0.0674291,0.0784305,-62,-1088,-18.6141,-0.1,-195.37,-0.1,1.724
-0.0162688,-0.0251027,0.317745,0.15768,0.0481171,0.0476191,0.0674905,0.0773351,-64,-1099,-18.5963,-0.1,-195.537,-0.1,1.728
-0.0160759,-0.0249106,0.318015,0.157978,0.0482934,0.0477538,0.0675519,0.0763745,-65,-1109,-18.5811,-0.1,-195.713,-0.1,1.732
-0.0158824,-0.0247189,0.318285,0.158274,0.0484698,0.0478149,0.0676134,0.0755902,-66,-1117,-18.5664,-0.1,-195.899,-0.1,1.736
-0.0156882,-0.0245216,0.318556,0.158576,0.0486463,0.0483162,0.0676748,0.0755855,-63,-1117,-18.5527,-0.1,-196.092,-0.1,1.74
-0.0154932,-0.0243316,0.318827,0.158874,0.0488229,0.0480458,0.0677363,0.0751793,-67,-1122,-18.5363,-0.1,-196.284,-0.1,1.744
-0.0152976,-0.0241336,0.319098,0.159177,0.0489996,0.0485277,0.0677978,0.0754268,-64,-1120,-18.5239,-0.1,-196.48,-0.1,1.748
-0.0151012,-0.023938,0.319369,0.159483,0.0491764,0.0486475,0.0678593,0.0757645,-65,-1117,-18.5087,-0.1,-196.672,-0.1,1.752
-0.0149042,-0.0237411,0.319641,0.159789,0.0493533,0.0488425,0.0679208,0.0759608,-64,-1115,-18.4942,-0.1,-196.861,-0.1,1.756
-0.0147064,-0.0235421,0.319912,0.160095,0.0495303,0.0491452,0.0679823,0.0761493,-63,-1114,-18.4795,-0.1,-197.048,-0.1,1.76
-0.0145079,-0.0233431,0.320184,0.160398,0.0497074,0.0493471,0.0680439,0.0760158,-63,-1115,-18.4636,-0.1,-197.232,-0.1,1.764
-0.0143088,-0.0231403,0.320457,0.160702,0.0498846,0.0497983,0.0681054,0.0760708,-60,-1115,-18.4474,-0.1,-197.418,-0.1,1.768
-0.0141089,-0.0229413,0.320729,0.161006,0.0500619,0.0497824,0.068167,0.0760211,-62,-1116,-18.4289,-0.1,-197.602,-0.1,1.772
-0.0139083,-0.0227409,0.321002,0.161307,0.0502392,0.049887,0.0682286,0.0757288,-63,-1119,-18.4122,-0.1,-197.786,-0.1,1.776
-0.013707,-0.0225391,0.321275,0.161612,0.0504167,0.0500719,0.0682902,0.0759371,-63,-1118,-18.3963,-0.1,-197.973,-0.1,1.78
-0.0135049,-0.0223357,0.321548,0.16192,0.0505943,0.0503391,0.0683518,0.0763062,-62,-1114,-18.3803,-0.1,-198.157,-0.1,1.784
-0.0133022,-0.0221353,0.321822,0.162225,0.0507719,0.0502582,0.0684134,0.0762932,-64,-1115,-18.3638,-0.1,-198.337,-0.1,1.788
-0.0130988,-0.0219294,0.322096,0.162536,0.0509497,0.0506648,0.068475,0.0767164,-62,-1111,-18.3495,-0.1,-198.517,-0.1,1.792
-0.0128946,-0.0217266,0.32237,0.162839,0.0511275,0.0506768,0.0685366,0.0764515,-64,-1114,-18.3333,-0.1,-198.692,-0.1,1.796
-0.0126897,-0.0215237,0.322644,0.163145,0.0513055,0.0506848,0.0685982,0.0764188,-65,-1115,-18.3188,-0.1,-198.87,-0.1,1.8
-0.0124842,-0.0213144,0.322919,0.163456,0.0514835,0.0512372,0.0686599,0.0768865,-62,-1111,-18.3056,-0.1,-199.047,-0.1,1.804
-0.0122779,-0.0211102,0.323193,0.163766,0.0516616,0.0511736,0.0687215,0.0770831,-64,-1109,-18.2892,-0.1,-199.219,-0.1,1.808
-0.0120709,-0.020906,0.323468,0.164072,0.0518398,0.0511311,0.0687832,0.0769263,-66,-1111,-18.2753,-0.1,-199.389,-0.1,1.812
-0.0118632,-0.0207011,0.323744,0.164381,0.052018,0.0511604,0.0688449,0.0769657,-68,-1111,-18.2635,-0.1,-199.561,-0.1,1.816
-0.0116547,-0.0204949,0.324019,0.164686,0.0521964,0.0512951,0.0689065,0.0767616,-68,-1113,-18.2532,-0.1,-199.731,-0.1,1.82
-0.0114456,-0.0202827,0.324295,0.164991,0.0523748,0.0518744,0.0689682,0.076568,-64,-1116,-18.2431,-0.1,-199.903,-0.1,1.824
-0.0112357,-0.0200796,0.324571,0.16528,0.0525533,0.051512,0.0690299,0.0751721,-69,-1129,-18.2297,-0.1,-200.078,-0.1,1.828
-0.0110252,-0.019872,0.324847,0.165566,0.0527319,0.0516447,0.0690916,0.0739537,-70,-1142,-18.2213,-0.1,-200.266,-0.1,1.832
-0.0108139,-0.0196647,0.325124,0.165855,0.0529105,0.0517043,0.0691532,0.0734004,-71,-1147,-18.2135,-0.1,-200.466,-0.1,1.836
-0.0106019,-0.0194567,0.3254,0.166145,0.0530893,0.0518017,0.0692149,0.0730892,-72,-1151,-18.2069,-0.1,-200.67,-0.1,1.84
-0.0103892,-0.0192473,0.325677,0.166438,0.0532681,0.0519818,0.0692766,0.0730833,-72,-1151,-18.2011,-0.1,-200.877,-0.1,1.844
-0.0101757,-0.0190414,0.325954,0.166731,0.053447,0.0518139,0.0693383,0.0731945,-75,-1151,-18.1955,-0.1,-201.084,-0.1,1.848
-0.00996158,-0.0188327,0.326232,0.16703,0.0536259,0.0519323,0.0694,0.0736717,-76,-1147,-18.1933,-0.1,-201.289,-0.1,1.852
-0.00974672,-0.0186282,0.32651,0.167332,0.053805,0.0516658,0.0694617,0.0743353,-80,-1141,-18.1919,-0.1,-201.488,-0.1,1.856
-0.00953114,-0.0184157,0.326788,0.167648,0.0539841,0.0521503,0.0695234,0.075843,-77,-1127,-18.1944,-0.1,-201.68,-0.1,1.86
-0.00931484,-0.0182119,0.327066,0.16796,0.0541632,0.0517535,0.0695851,0.0765602,-82,-1120,-18.1945,-0.1,-201.857,-0.1,1.864
-0.00909783,-0.0180084,0.327344,0.168274,0.0543425,0.0514602,0.0696468,0.0771823,-87,-1115,-18.2003,-0.1,-202.026,-0.1,1.868
-0.0088801,-0.0178056,0.327623,0.168584,0.0545218,0.0512071,0.0697085,0.0773379,-91,-1113,-18.2107,-0.1,-202.19,-0.1,1.872
-0.00866166,-0.0176114,0.327902,0.168885,0.0547011,0.0503185,0.0697702,0.0766355,-101,-1121,-18.2258,-0.1,-202.352,-0.1,1.876
-0.0084425,-0.0174065,0.328181,0.169197,0.0548806,0.0506187,0.0698319,0.0771173,-100,-1116,-18.2505,-0.1,-202.519,-0.1,1.88
-0.00822261,-0.0172131,0.328461,0.169499,0.0550601,0.0498687,0.0698936,0.0765172,-109,-1123,-18.2748,-0.1,-202.683,-0.1,1.884
-0.00800201,-0.0170144,0.32874,0.169804,0.0552396,0.0498006,0.0699553,0.0764339,-112,-1124,-18.3078,-0.1,-202.852,-0.1,1.888
-0.0077807,-0.0168192,0.32902,0.170116,0.0554193,0.0494673,0.070017,0.0769829,-117,-1119,-18.3434,-0.1,-203.021,-0.1,1.892
-0.00755866,-0.0166313,0.3293,0.170424,0.0555989,0.0486404,0.0700787,0.0770034,-126,-1119,-18.3843,-0.1,-203.184,-0.1,1.896
-0.00733591,-0.0164416,0.329581,0.170739,0.0557787,0.0482332,0.0701404,0.0775354,-132,-1114,-18.4347,-0.1,-203.347,-0.1,1.9
-0.00711243,-0.0162574,0.329862,0.171048,0.0559585,0.047501,0.0702021,0.0774581,-141,-1115,-18.4912,-0.1,-203.504,-0.1,1.904
-0.00688824,-0.0160726,0.330143,0.171357,0.0561383,0.0470705,0.0702637,0.0774066,-147,-1116,-18.5562,-0.1,-203.662,-0.1,1.908
-0.00666332,-0.0158881,0.330424,0.171667,0.0563182,0.0467547,0.0703254,0.0774587,-152,-1116,-18.6272,-0.1,-203.82,-0.1,1.912
-0.00643769,-0.0157046,0.330705,0.171972,0.0564982,0.0464578,0.0703871,0.0770615,-156,-1120,-18.7029,-0.1,-203.977,-0.1,1.916
-0.00621134,-0.0155219,0.330987,0.172282,0.0566782,0.0462022,0.0704487,0.0771422,-161,-1120,-18.7831,-0.1,-204.138,-0.1,1.92
-0.00598427,-0.0153419,0.331269,0.17259,0.0568583,0.0458016,0.0705104,0.0771096,-167,-1121,-18.8677,-0.1,-204.298,-0.1,1.924
-0.00575647,-0.0151678,0.331551,0.172898,0.0570384,0.045045,0.070572,0.0770879,-176,-1121,-18.958,-0.1,-204.458,-0.1,1.928
-0.00552796,-0.0149933,0.331833,0.173212,0.0572186,0.0445694,0.0706337,0.0775629,-182,-1117,-19.0573,-0.1,-204.617,-0.1,1.932
-0.00529872,-0.0148247,0.332116,0.173526,0.0573988,0.0437629,0.0706953,0.0778796,-192,-1115,-19.1631,-0.1,-204.772,-0.1,1.936
-0.00506877,-0.0146585,0.332399,0.173838,0.057579,0.0430237,0.0707569,0.0779467,-201,-1114,-19.2783,-0.1,-204.923,-0.1,1.94
-0.00483809,-0.0144968,0.332682,0.174149,0.0577594,0.0421566,0.0708185,0.0778187,-211,-1116,-19.4025,-0.1,-205.073,-0.1,1.944
-0.00460669,-0.0143358,0.332965,0.174462,0.0579397,0.041521,0.0708801,0.0779637,-219,-1115,-19.5367,-0.1,-205.225,-0.1,1.948
-0.00437457,-0.0141783,0.333249,0.174773,0.0581201,0.0408093,0.0709417,0.0779164,-228,-1116,-19.6787,-0.1,-205.375,-0.1,1.952
-0.00414173,-0.0140262,0.333533,0.175089,0.0583006,0.0398742,0.0710033,0.078288,-239,-1113,-19.8295,-0.1,-205.524,-0.1,1.956
-0.00390817,-0.013876,0.333817,0.175406,0.058481,0.0391069,0.0710649,0.0785933,-249,-1110,-19.9908,-0.1,-205.67,-0.1,1.96
-0.00367388,-0.0137302,0.334101,0.175724,0.0586616,0.038221,0.0711265,0.0788832,-259,-1108,-20.1613,-0.1,-205.812,-0.1,1.964
-0.00343888,-0.0135864,0.334386,0.176037,0.0588421,0.0374577,0.071188,0.0787309,-269,-1109,-20.3418,-0.1,-205.952,-0.1,1.968
-0.00320315,-0.0134434,0.334671,0.176354,0.0590228,0.0368912,0.0712496,0.078831,-276,-1109,-20.5313,-0.1,-206.093,-0.1,1.972
-0.00296669,-0.0133059,0.334956,0.176659,0.0592034,0.036053,0.0713111,0.078034,-286,-1117,-20.728,-0.1,-206.233,-0.1,1.976
-0.00272952,-0.0131639,0.335241,0.176962,0.0593841,0.0358684,0.0713726,0.0772723,-290,-1125,-20.9339,-0.1,-206.381,-0.1,1.98
-0.00249162,-0.0130126,0.335527,0.17727,0.0595648,0.0365227,0.0714341,0.0771964,-286,-1126,-21.1425,-0.1,-206.536,-0.1,1.984
-0.002253,-0.0128554,0.335813,0.177562,0.0597455,0.0374483,0.0714956,0.0757926,-280,-1140,-21.346,-0.1,-206.692,-0.1,1.988
-0.00201366,-0.0126847,0.336099,0.177863,0.0599263,0.0391883,0.0715571,0.0756053,-266,-1142,-21.5413,-0.1,-206.861,-0.1,1.992
-0.00177359,-0.0125012,0.336385,0.178163,0.0601072,0.0414135,0.0716186,0.0753652,-247,-1145,-21.7207,-0.1,-207.032,-0.1,1.996
-0.0015328,-0.012305,0.336672,0.178468,0.060288,0.0439622,0.07168,0.0756947,-225,-1142,-21.8796,-0.1,-207.205,-0.1,2
-0.00129129,-0.0120974,0.336959,0.178771,0.0604689,0.0466115,0.0717414,0.0757128,-202,-1142,-22.015,-0.1,-207.374,-0.1,2.004
-0.00104905,-0.0118794,0.337246,0.179077,0.0606498,0.0492414,0.0718028,0.0759263,-179,-1141,-22.126,-0.1,-207.543,-0.1,2.008
-0.000806088,-0.0116534,0.337533,0.179381,0.0608307,0.0516569,0.0718642,0.0759536,-159,-1141,-22.2131,-0.1,-207.709,-0.1,2.012
-0.000562403,-0.0114202,0.337821,0.179685,0.0610117,0.0538718,0.0719256,0.0759717,-140,-1141,-22.2782,-0.1,-207.875,-0.1,2.016
-0.000317994,-0.0111804,0.338109,0.179996,0.0611927,0.0558954,0.071987,0.0765597,-122,-1136,-22.3236,-0.1,-208.04,-0.1,2.02
-7.28617e-05,-0.010942,0.338397,0.180303,0.0613737,0.0571294,0.0720483,0.0766349,-112,-1136,-22.3513,-0.1,-208.2,-0.1,2.024
0.000172995,-0.0106971,0.338685,0.180612,0.0615547,0.058499,0.0721097,0.0768578,-101,-1134,-22.3687,-0.1,-208.358,-0.1,2.028
0.000419576,-0.010447,0.338974,0.180927,0.0617358,0.059844,0.072171,0.0774959,-90,-1129,-22.3745,-0.1,-208.514,-0.1,2.032
0.000666881,-0.0102003,0.339262,0.181236,0.0619169,0.0604527,0.0722323,0.0774318,-86,-1130,-22.3694,-0.1,-208.663,-0.1,2.036
0.000914911,-0.00994773,0.339551,0.18155,0.062098,0.061348,0.0722936,0.0777346,-80,-1127,-22.3599,-0.1,-208.813,-0.1,2.04
0.00116367,-0.00969621,0.339841,0.181864,0.0622791,0.0618584,0.0723548,0.0780228,-77,-1125,-22.3438,-0.1,-208.959,-0.1,2.044
0.00141314,-0.00944434,0.34013,0.182181,0.0624602,0.0622275,0.072416,0.0784165,-75,-1121,-22.3247,-0.1,-209.103,-0.1,2.048
0.00166335,-0.00919179,0.34042,0.182495,0.0626414,0.0625312,0.0724773,0.0784198,-74,-1122,-22.3038,-0.1,-209.242,-0.1,2.052
0.00191427,-0.00893889,0.34071,0.18281,0.0628226,0.0627624,0.0725385,0.078566,-73,-1121,-22.2818,-0.1,-209.381,-0.1,2.056
0.00216593,-0.00868461,0.341,0.18313,0.0630037,0.0630317,0.0725996,0.0790377,-72,-1117,-22.2594,-0.1,-209.518,-0.1,2.06
0.0024183,-0.00843447,0.341291,0.183442,0.0631849,0.0628658,0.0726608,0.0787188,-76,-1120,-22.2365,-0.1,-209.651,-0.1,2.064
0.00267141,-0.00818019,0.341582,0.183763,0.0633662,0.0631006,0.0727219,0.079226,-75,-1116,-22.2169,-0.1,-209.787,-0.1,2.068
0.00292523,-0.0079266,0.341873,0.184086,0.0635474,0.0631996,0.072783,0.079708,-76,-1111,-22.1968,-0.1,-209.917,-0.1,2.072
0.00317979,-0.00767612,0.342164,0.184405,0.0637286,0.0630065,0.0728441,0.0797127,-79,-1112,-22.1779,-0.1,-210.043,-0.1,2.076
0.00343506,-0.00741908,0.342455,0.18473,0.0639099,0.0634248,0.0729051,0.0802053,-77,-1107,-22.1622,-0.1,-210.168,-0.1,2.08
0.00369107,-0.00716168,0.342747,0.185054,0.0640911,0.0637324,0.0729662,0.0804761,-76,-1105,-22.1444,-0.1,-210.288,-0.1,2.084
0.00394779,-0.00690879,0.343039,0.185369,0.0642724,0.0635632,0.0730272,0.0799656,-79,-1110,-22.1257,-0.1,-210.405,-0.1,2.088
0.00420524,-0.00665381,0.343331,0.185687,0.0644537,0.0636232,0.0730882,0.0797405,-80,-1113,-22.1104,-0.1,-210.528,-0.1,2.092
0.00446342,-0.00640264,0.343624,0.185997,0.0646349,0.0633465,0.0731491,0.0790146,-85,-1120,-22.0966,-0.1,-210.653,-0.1,2.096
0.00472232,-0.00614801,0.343917,0.186318,0.0648162,0.0634499,0.0732101,0.0794519,-85,-1117,-22.087,-0.1,-210.784,-0.1,2.1
0.00498195,-0.00589961,0.34421,0.186636,0.0649975,0.0630006,0.073271,0.0794844,-91,-1117,-22.0786,-0.1,-210.911,-0.1,2.104
0.0052423,-0.00565431,0.344503,0.186955,0.0651788,0.062442,0.0733318,0.0795636,-98,-1116,-22.0765,-0.1,-211.038,-0.1,2.108
0.00550338,-0.00541212,0.344796,0.187276,0.0653601,0.0618104,0.0733927,0.0797604,-106,-1115,-22.0818,-0.1,-211.164,-0.1,2.112
0.00576518,-0.00517338,0.34509,0.187595,0.0655414,0.0611015,0.0734535,0.0798052,-114,-1115,-22.095,-0.1,-211.287,-0.1,2.116
0.00602771,-0.00493914,0.345384,0.18791,0.0657227,0.0602546,0.0735143,0.079432,-124,-1119,-22.1171,-0.1,-211.411,-0.1,2.12
0.00629097,-0.00470559,0.345678,0.188227,0.0659039,0.0596324,0.0735751,0.0793272,-132,-1120,-22.149,-0.1,-211.538,-0.1,2.124
0.00655494,-0.00447964,0.345972,0.188542,0.0660852,0.0585842,0.0736358,0.0791997,-144,-1122,-22.1891,-0.1,-211.665,-0.1,2.128
0.00681965,-0.00425438,0.346267,0.188859,0.0662665,0.0578278,0.0736965,0.0792011,-153,-1122,-22.2409,-0.1,-211.794,-0.1,2.132
0.00708508,-0.00402808,0.346562,0.189185,0.0664478,0.0574099,0.0737572,0.0799793,-158,-1115,-22.3017,-0.1,-211.922,-0.1,2.136
0.00735123,-0.00380386,0.346857,0.189509,0.066629,0.0569586,0.0738178,0.0803254,-165,-1112,-22.3682,-0.1,-212.043,-0.1,2.14
0.00761811,-0.00357514,0.347153,0.189837,0.0668103,0.057032,0.0738785,0.0808153,-166,-1108,-22.4404,-0.1,-212.16,-0.1,2.144
0.00788571,-0.00334574,0.347448,0.19016,0.0669916,0.0571385,0.0739391,0.0807964,-167,-1108,-22.5137,-0.1,-212.272,-0.1,2.148
0.00815404,-0.00311391,0.347744,0.190482,0.0671728,0.057411,0.0739996,0.0807262,-166,-1110,-22.5874,-0.1,-212.384,-0.1,2.152
0.00842309,-0.00287518,0.34804,0.190802,0.067354,0.0581686,0.0740601,0.0804491,-161,-1113,-22.6598,-0.1,-212.497,-0.1,2.156
0.00869287,-0.00263472,0.348337,0.191123,0.0675353,0.0588175,0.0741206,0.0803795,-157,-1114,-22.7266,-0.1,-212.613,-0.1,2.16
0.00896338,-0.00238873,0.348633,0.191446,0.0677165,0.0597108,0.0741811,0.0805346,-150,-1113,-22.7886,-0.1,-212.729,-0.1,2.164
0.0092346,-0.00214343,0.34893,0.191764,0.0678977,0.0602488,0.0742415,0.0802062,-147,-1116,-22.8438,-0.1,-212.844,-0.1,2.168
0.00950656,-0.00189986,0.349227,0.192086,0.0680788,0.0604634,0.0743019,0.0803327,-147,-1115,-22.8958,-0.1,-212.962,-0.1,2.172
0.00977924,-0.0016587,0.349524,0.192407,0.06826,0.060405,0.0743623,0.0802731,-149,-1116,-22.9475,-0.1,-213.078,-0.1,2.176
0.0100526,-0.00141755,0.349822,0.192725,0.0684412,0.0603661,0.0744226,0.0800319,-152,-1119,-23.0015,-0.1,-213.195,-0.1,2.18
0.0103268,-0.00117502,0.35012,0.193047,0.0686223,0.0604553,0.0744829,0.0801301,-153,-1119,-23.0574,-0.1,-213.314,-0.1,2.184
0.0106016,-0.000939045,0.350418,0.193359,0.0688034,0.0599677,0.0745431,0.0794759,-159,-1125,-23.1147,-0.1,-213.433,-0.1,2.188
0.0108772,-0.000702383,0.350716,0.193672,0.0689845,0.0597003,0.0746034,0.0790109,-164,-1130,-23.1782,-0.1,-213.558,-0.1,2.192
0.0111535,-0.000466758,0.351015,0.193983,0.0691656,0.0594356,0.0746635,0.0786434,-168,-1134,-23.246,-0.1,-213.687,-0.1,2.196
0.0114305,-0.000237698,0.351313,0.194288,0.0693466,0.0587121,0.0747237,0.0778225,-177,-1143,-23.3184,-0.1,-213.821,-0.1,2.2
0.0117083,-3.8004e-06,0.351612,0.194592,0.0695277,0.0586329,0.0747838,0.0772465,-179,-1149,-23.3991,-0.1,-213.962,-0.1,2.204
0.0119867,0.000227333,0.351912,0.194899,0.0697087,0.0583497,0.0748439,0.0770352,-184,-1151,-23.4824,-0.1,-214.109,-0.1,2.208
0.0122659,0.000458467,0.352211,0.195206,0.0698897,0.0581609,0.0749039,0.0769807,-188,-1152,-23.57,-0.1,-214.258,-0.1,2.212
0.0125459,0.000690982,0.352511,0.195516,0.0700706,0.0581502,0.0749639,0.0771459,-190,-1151,-23.661,-0.1,-214.406,-0.1,2.216
0.0128265,0.000923498,0.352811,0.195827,0.0702516,0.0581431,0.0750239,0.0773713,-192,-1150,-23.7538,-0.1,-214.554,-0.1,2.22
0.0131079,0.00115532,0.353111,0.19614,0.0704325,0.0580808,0.0750838,0.0776078,-194,-1148,-23.8483,-0.1,-214.698,-0.1,2.224
0.01339,0.00139509,0.353412,0.196459,0.0706134,0.0587014,0.0751437,0.0783414,-191,-1141,-23.9446,-0.1,-214.84,-0.1,2.228
0.0136728,0.00162588,0.353712,0.196768,0.0707942,0.0583666,0.0752035,0.0779379,-196,-1146,-24.0371,-0.1,-214.975,-0.1,2.232
0.0139563,0.00186082,0.354013,0.197083,0.070975,0.0584889,0.0752633,0.0782447,-197,-1143,-24.1342,-0.1,-215.114,-0.1,2.236
0.0142406,0.00210024,0.354314,0.197403,0.0711558,0.0589447,0.0753231,0.0787947,-194,-1138,-24.2316,-0.1,-215.25,-0.1,2.24
0.0145256,0.00234001,0.354616,0.197726,0.0713366,0.0592774,0.0753828,0.0794781,-193,-1132,-24.3262,-0.1,-215.379,-0.1,2.244
0.0148113,0.00257875,0.354917,0.198047,0.0715173,0.0594128,0.0754425,0.079761,-194,-1130,-24.4194,-0.1,-215.502,-0.1,2.248
0.0150977,0.00281713,0.355219,0.198366,0.071698,0.0594743,0.0755021,0.0797192,-195,-1131,-24.5129,-0.1,-215.623,-0.1,2.252
0.0153849,0.00306071,0.355521,0.19869,0.0718786,0.0599471,0.0755617,0.0801232,-193,-1127,-24.6072,-0.1,-215.743,-0.1,2.256
0.0156727,0.0033022,0.355824,0.199008,0.0720592,0.0600896,0.0756212,0.0799607,-193,-1129,-24.6988,-0.1,-215.86,-0.1,2.26
0.0159613,0.00354405,0.356126,0.19932,0.0722398,0.0602134,0.0756808,0.0793054,-194,-1136,-24.7906,-0.1,-215.978,-0.1,2.264
0.0162506,0.00379073,0.356429,0.199636,0.0724204,0.060699,0.0757402,0.0791851,-192,-1138,-24.8826,-0.1,-216.103,-0.1,2.268
0.0165407,0.00403603,0.356732,0.199952,0.0726009,0.0609075,0.0757996,0.0791338,-192,-1139,-24.9718,-0.1,-216.229,-0.1,2.272
0.0168315,0.00428374,0.357036,0.200271,0.0727813,0.0612481,0.075859,0.0793299,-190,-1137,-25.0604,-0.1,-216.355,-0.1,2.276
0.0171229,0.00453353,0.357339,0.200597,0.0729617,0.0616479,0.0759183,0.0800652,-189,-1131,-25.1474,-0.1,-216.479,-0.1,2.28
0.0174151,0.00478056,0.357643,0.20092,0.0731421,0.0616841,0.0759776,0.0803251,-190,-1128,-25.2323,-0.1,-216.595,-0.1,2.284
0.0177081,0.00502517,0.357947,0.201243,0.0733225,0.0615067,0.0760369,0.0804696,-194,-1127,-25.3188,-0.1,-216.71,-0.1,2.288
0.0180017,0.00526874,0.358251,0.201564,0.0735027,0.0613021,0.0760961,0.0803644,-198,-1129,-25.4085,-0.1,-216.822,-0.1,2.292
0.0182961,0.00550713,0.358556,0.201882,0.073683,0.0607338,0.0761552,0.0800639,-205,-1132,-25.5022,-0.1,-216.936,-0.1,2.296
0.0185912,0.00574828,0.358861,0.202202,0.0738632,0.0605853,0.0762143,0.0800363,-208,-1133,-25.6027,-0.1,-217.053,-0.1,2.3
0.018887,0.00598598,0.359166,0.202523,0.0740433,0.0601983,0.0762734,0.0801331,-214,-1133,-25.7065,-0.1,-217.17,-0.1,2.304
0.0191835,0.00622091,0.359471,0.202843,0.0742234,0.05971,0.0763324,0.0800537,-221,-1134,-25.8157,-0.1,-217.286,-0.1,2.308
0.0194808,0.00645274,0.359776,0.203163,0.0744035,0.0591254,0.0763914,0.0800295,-228,-1134,-25.9313,-0.1,-217.403,-0.1,2.312
0.0197788,0.00668353,0.360082,0.203485,0.0745835,0.0586493,0.0764503,0.0802149,-235,-1133,-26.0541,-0.1,-217.519,-0.1,2.316
0.0200775,0.0069112,0.360388,0.203806,0.0747634,0.0580727,0.0765091,0.0802234,-242,-1133,-26.1832,-0.1,-217.634,-0.1,2.32
0.0203769,0.0071375,0.360694,0.204127,0.0749433,0.0575732,0.076568,0.0802002,-249,-1134,-26.3194,-0.1,-217.749,-0.1,2.324
0.020677,0.00736242,0.361,0.204449,0.0751232,0.057125,0.0766267,0.0803288,-255,-1133,-26.4619,-0.1,-217.864,-0.1,2.328
0.0209779,0.0075818,0.361307,0.204768,0.075303,0.0563656,0.0766854,0.0801553,-264,-1136,-26.6106,-0.1,-217.978,-0.1,2.332
0.0212794,0.00780257,0.361614,0.205091,0.0754827,0.0559745,0.0767441,0.0803852,-270,-1134,-26.7679,-0.1,-218.094,-0.1,2.336
0.0215817,0.00802023,0.361921,0.205415,0.0756624,0.0554546,0.0768027,0.0805384,-277,-1133,-26.9307,-0.1,-218.207,-0.1,2.34
0.0218847,0.00823443,0.362228,0.205739,0.075842,0.0548201,0.0768613,0.0806982,-285,-1132,-27.1,-0.1,-218.318,-0.1,2.344
0.0221885,0.00845106,0.362536,0.206066,0.0760216,0.0545986,0.0769198,0.081035,-290,-1129,-27.2767,-0.1,-218.428,-0.1,2.348
0.0224929,0.00866423,0.362844,0.206395,0.0762011,0.0541631,0.0769783,0.0814323,-296,-1125,-27.4572,-0.1,-218.535,-0.1,2.352
0.0227981,0.00888016,0.363152,0.206733,0.0763806,0.0541031,0.0770367,0.0825033,-299,-1116,-27.6432,-0.1,-218.636,-0.1,2.356
0.0231039,0.00908814,0.36346,0.207059,0.0765599,0.0534008,0.077095,0.082152,-307,-1119,-27.8316,-0.1,-218.729,-0.1,2.36
0.0234105,0.00929647,0.363768,0.207391,0.0767393,0.0529615,0.0771533,0.0824649,-314,-1117,-28.0282,-0.1,-218.824,-0.1,2.364
0.0237179,0.00950861,0.364077,0.207729,0.0769185,0.0529853,0.0772116,0.0830765,-316,-1111,-28.2301,-0.1,-218.916,-0.1,2.368
0.0240259,0.00971832,0.364386,0.208064,0.0770977,0.0527996,0.0772698,0.0833691,-320,-1109,-28.4333,-0.1,-219.002,-0.1,2.372
0.0243346,0.00992665,0.364695,0.208393,0.0772769,0.0525607,0.0773279,0.0829308,-324,-1113,-28.6399,-0.1,-219.086,-0.1,2.376
0.0246441,0.0101374,0.365005,0.20872,0.0774559,0.0526029,0.077386,0.082581,-326,-1117,-28.85,-0.1,-219.174,-0.1,2.38
0.0249543,0.0103423,0.365314,0.209035,0.077635,0.0521416,0.0774441,0.0813113,-333,-1130,-29.0614,-0.1,-219.266,-0.1,2.384
0.0252652,0.0105589,0.365624,0.209355,0.0778139,0.052813,0.077502,0.0808392,-329,-1135,-29.278,-0.1,-219.37,-0.1,2.388
0.0255768,0.010789,0.365934,0.209691,0.0779928,0.0543834,0.07756,0.0819063,-316,-1125,-29.4889,-0.1,-219.478,-0.1,2.392
0.0258891,0.0110008,0.366245,0.209991,0.0781716,0.0539044,0.0776178,0.0796235,-323,-1148,-29.6873,-0.1,-219.578,-0.1,2.396
0.0262022,0.0112254,0.366555,0.210301,0.0783503,0.0546504,0.0776756,0.0789366,-318,-1155,-29.8911,-0.1,-219.699,-0.1,2.4
0.0265159,0.011452,0.366866,0.210611,0.0785289,0.0553204,0.0777334,0.0784211,-314,-1160,-30.0891,-0.1,-219.828,-0.1,2.404
0.0268304,0.011679,0.367177,0.210917,0.0787075,0.0557959,0.0777911,0.0777607,-312,-1167,-30.2822,-0.1,-219.961,-0.1,2.408
0.0271456,0.0119146,0.367488,0.211232,0.078886,0.0568327,0.0778487,0.0781266,-305,-1164,-30.4718,-0.1,-220.1,-0.1,2.412
0.0274615,0.0121388,0.3678,0.211536,0.0790645,0.0565738,0.0779063,0.0773628,-309,-1172,-30.6536,-0.1,-220.237,-0.1,2.416
0.0277781,0.0123675,0.368112,0.211847,0.0792428,0.0567754,0.0779639,0.0775158,-310,-1171,-30.8392,-0.1,-220.38,-0.1,2.42
0.0280954,0.0125949,0.368424,0.21216,0.0794211,0.0567947,0.0780213,0.0777906,-312,-1169,-31.0244,-0.1,-220.522,-0.1,2.424
0.0284135,0.0128191,0.368736,0.212473,0.0795993,0.0565485,0.0780787,0.077945,-316,-1168,-31.211,-0.1,-220.661,-0.1,2.428
0.0287322,0.0130468,0.369048,0.21279,0.0797775,0.0566722,0.0781361,0.0783358,-317,-1165,-31.4012,-0.1,-220.798,-0.1,2.432
0.0290517,0.0132679,0.369361,0.213098,0.0799555,0.0562077,0.0781934,0.0779342,-324,-1169,-31.5921,-0.1,-220.932,-0.1,2.436
0.0293719,0.0134914,0.369674,0.213413,0.0801335,0.0560995,0.0782506,0.0781846,-327,-1167,-31.7887,-0.1,-221.07,-0.1,2.44
0.0296928,0.0137119,0.369987,0.213727,0.0803114,0.0557683,0.0783078,0.0782653,-332,-1167,-31.988,-0.1,-221.205,-0.1,2.444
0.0300144,0.0139278,0.3703,0.214046,0.0804892,0.0551732,0.0783649,0.0787509,-340,-1163,-32.192,-0.1,-221.338,-0.1,2.448
0.0303367,0.0141475,0.370614,0.214372,0.0806669,0.0550931,0.0784219,0.0797368,-343,-1154,-32.4029,-0.1,-221.467,-0.1,2.452
0.0306597,0.0143634,0.370928,0.214703,0.0808446,0.0547231,0.0784789,0.0807396,-349,-1145,-32.6162,-0.1,-221.586,-0.1,2.456
0.0309834,0.014578,0.371242,0.215033,0.0810222,0.0543612,0.0785358,0.0812641,-354,-1140,-32.8345,-0.1,-221.695,-0.1,2.46
0.0313079,0.014797,0.371556,0.215365,0.0811996,0.0544943,0.0785927,0.0818442,-355,-1135,-33.0573,-0.1,-221.799,-0.1,2.464
0.031633,0.0150116,0.371871,0.215692,0.081377,0.0542087,0.0786495,0.0818566,-360,-1135,-33.2805,-0.1,-221.897,-0.1,2.468
0.0319589,0.0152279,0.372185,0.216019,0.0815543,0.0541622,0.0787062,0.0818361,-363,-1136,-33.5077,-0.1,-221.996,-0.1,2.472
0.0322855,0.0154462,0.3725,0.216342,0.0817316,0.054304,0.0787629,0.0814193,-364,-1140,-33.7366,-0.1,-222.095,-0.1,2.476
0.0326127,0.0156639,0.372815,0.216663,0.0819087,0.054341,0.0788195,0.0810839,-366,-1144,-33.9656,-0.1,-222.198,-0.1,2.48
0.0329407,0.0158836,0.373131,0.216983,0.0820857,0.0545383,0.078876,0.0806875,-367,-1148,-34.1955,-0.1,-222.304,-0.1,2.484
0.0332694,0.0161051,0.373446,0.217296,0.0822627,0.0548139,0.0789325,0.0798475,-366,-1157,-34.4248,-0.1,-222.415,-0.1,2.488
0.0335988,0.0163279,0.373762,0.217606,0.0824395,0.0551127,0.0789889,0.0791147,-366,-1165,-34.6528,-0.1,-222.534,-0.1,2.492
0.0339289,0.0165549,0.374078,0.217913,0.0826163,0.0556575,0.0790453,0.0782807,-363,-1173,-34.8791,-0.1,-222.66,-0.1,2.496
0.0342598,0.0167805,0.374395,0.218219,0.082793,0.0559054,0.0791016,0.0777535,-363,-1179,-35.1018,-0.1,-222.795,-0.1,2.5
0.0345913,0.0170068,0.374711,0.218528,0.0829695,0.0561284,0.0791578,0.0775747,-363,-1181,-35.3236,-0.1,-222.935,-0.1,2.504
0.0349235,0.0172331,0.375028,0.218843,0.083146,0.056277,0.0792139,0.0779162,-364,-1179,-35.5446,-0.1,-223.076,-0.1,2.508
0.0352565,0.0174552,0.375345,0.219156,0.0833224,0.0560305,0.07927,0.0780863,-369,-1177,-35.7658,-0.1,-223.214,-0.1,2.512
0.0355901,0.0176822,0.375662,0.219479,0.0834987,0.0562693,0.079326,0.0789771,-369,-1169,-35.9905,-0.1,-223.349,-0.1,2.516
0.0359244,0.0179068,0.375979,0.219801,0.0836749,0.056227,0.079382,0.0794269,-372,-1166,-36.2144,-0.1,-223.476,-0.1,2.52
0.0362595,0.0181269,0.376297,0.220119,0.083851,0.0558245,0.0794379,0.0794389,-378,-1166,-36.4404,-0.1,-223.599,-0.1,2.524
0.0365953,0.0183553,0.376615,0.220445,0.084027,0.0562471,0.0794937,0.0801379,-376,-1160,-36.6711,-0.1,-223.721,-0.1,2.528
0.0369317,0.0185764,0.376933,0.220761,0.0842029,0.0559243,0.0795494,0.079769,-381,-1164,-36.8996,-0.1,-223.837,-0.1,2.532
0.0372689,0.0188023,0.377251,0.221084,0.0843787,0.0561121,0.0796051,0.08007,-382,-1161,-37.1322,-0.1,-223.957,-0.1,2.536
0.0376067,0.0190331,0.37757,0.221409,0.0845544,0.0566404,0.0796607,0.0805011,-379,-1158,-37.3642,-0.1,-224.073,-0.1,2.54
0.0379453,0.019258,0.377889,0.221728,0.0847299,0.0565032,0.0797162,0.0802126,-383,-1161,-37.5929,-0.1,-224.185,-0.1,2.544
0.0382846,0.0194881,0.378208,0.222048,0.0849054,0.0568435,0.0797717,0.0801643,-382,-1162,-37.8239,-0.1,-224.3,-0.1,2.548
0.0386246,0.0197186,0.378527,0.222366,0.0850808,0.0570992,0.0798271,0.0799305,-382,-1165,-38.0532,-0.1,-224.416,-0.1,2.552
0.0389652,0.0199507,0.378846,0.222684,0.0852561,0.0574137,0.0798824,0.0798034,-381,-1167,-38.2812,-0.1,-224.534,-0.1,2.556
0.0393066,0.0201812,0.379166,0.222997,0.0854312,0.0574793,0.0799377,0.0792869,-383,-1172,-38.5078,-0.1,-224.654,-0.1,2.56
0.0396487,0.0204161,0.379486,0.223312,0.0856063,0.0578974,0.0799929,0.0790864,-381,-1175,-38.7349,-0.1,-224.778,-0.1,2.564
0.0399915,0.0206531,0.379806,0.223632,0.0857812,0.0583488,0.080048,0.0793847,-379,-1172,-38.9593,-0.1,-224.904,-0.1,2.568
0.0403349,0.0208898,0.380126,0.223949,0.0859561,0.058621,0.080103,0.079382,-379,-1173,-39.1809,-0.1,-225.028,-0.1,2.572
0.0406791,0.0211282,0.380447,0.224266,0.0861308,0.0589464,0.080158,0.0793514,-378,-1174,-39.4012,-0.1,-225.152,-0.1,2.576
0.041024,0.0213731,0.380767,0.22459,0.0863054,0.0597104,0.0802129,0.079878,-374,-1169,-39.6195,-0.1,-225.275,-0.1,2.58
0.0413695,0.0216226,0.381088,0.224912,0.0864799,0.060594,0.0802677,0.080114,-368,-1167,-39.8317,-0.1,-225.394,-0.1,2.584
0.0417158,0.0218779,0.381409,0.225234,0.0866543,0.0616725,0.0803224,0.0802137,-360,-1167,-40.0367,-0.1,-225.51,-0.1,2.588
0.0420628,0.0221387,0.381731,0.225557,0.0868286,0.0628521,0.0803771,0.0803665,-351,-1166,-40.2327,-0.1,-225.625,-0.1,2.592
0.0424104,0.0223968,0.382052,0.225872,0.0870028,0.0634082,0.0804317,0.0798926,-348,-1171,-40.4191,-0.1,-225.739,-0.1,2.596
0.0427588,0.022668,0.382374,0.226193,0.0871768,0.064873,0.0804862,0.0799509,-337,-1171,-40.6011,-0.1,-225.858,-0.1,2.6
0.0431079,0.0229365,0.382696,0.226505,0.0873508,0.0656192,0.0805407,0.0793276,-332,-1178,-40.7709,-0.1,-225.976,-0.1,2.604
0.0434576,0.0232135,0.383019,0.226821,0.0875246,0.0668365,0.0805951,0.0792,-323,-1179,-40.9346,-0.1,-226.101,-0.1,2.608
0.0438081,0.0234861,0.383341,0.22713,0.0876983,0.0672737,0.0806494,0.0785679,-321,-1186,-41.0887,-0.1,-226.227,-0.1,2.612
0.0441592,0.0237622,0.383664,0.227445,0.0878718,0.0678531,0.0807036,0.0786359,-318,-1186,-41.2399,-0.1,-226.359,-0.1,2.616
0.044511,0.0240445,0.383987,0.227769,0.0880453,0.0687576,0.0807577,0.079401,-311,-1179,-41.3869,-0.1,-226.49,-0.1,2.62
0.0448636,0.0243177,0.38431,0.228094,0.0882186,0.068612,0.0808118,0.0799975,-315,-1174,-41.5274,-0.1,-226.613,-0.1,2.624
0.0452168,0.0245886,0.384633,0.22842,0.0883919,0.0683134,0.0808658,0.0805391,-320,-1169,-41.6709,-0.1,-226.731,-0.1,2.628
0.0455707,0.0248653,0.384957,0.228757,0.088565,0.0686038,0.0809197,0.0817351,-319,-1158,-41.8184,-0.1,-226.842,-0.1,2.632
0.0459253,0.0251352,0.385281,0.229084,0.0887379,0.0682216,0.0809736,0.0817551,-325,-1158,-41.965,-0.1,-226.943,-0.1,2.636
0.0462806,0.0254091,0.385605,0.229419,0.0889108,0.0683123,0.0810273,0.0824018,-326,-1153,-42.1165,-0.1,-227.043,-0.1,2.64
0.0466366,0.0256807,0.385929,0.229756,0.0890835,0.0681712,0.081081,0.0830345,-329,-1147,-42.2687,-0.1,-227.136,-0.1,2.644
0.0469933,0.0259533,0.386253,0.230102,0.0892561,0.0681635,0.0811346,0.084176,-331,-1136,-42.4237,-0.1,-227.223,-0.1,2.648
0.0473506,0.0262269,0.386578,0.230452,0.0894286,0.0682447,0.0811881,0.0853113,-333,-1126,-42.5802,-0.1,-227.299,-0.1,2.652
0.0477087,0.0264985,0.386903,0.230802,0.0896009,0.0681262,0.0812416,0.0860106,-336,-1120,-42.7375,-0.1,-227.364,-0.1,2.656
0.0480674,0.0267669,0.387228,0.231148,0.0897731,0.067788,0.0812949,0.0861889,-341,-1118,-42.8975,-0.1,-227.422,-0.1,2.66
0.0484269,0.0270419,0.387553,0.2315,0.0899452,0.0681096,0.0813482,0.0868548,-340,-1112,-43.0618,-0.1,-227.478,-0.1,2.664
0.048787,0.027308,0.387879,0.23184,0.0901172,0.0675754,0.0814014,0.0861759,-347,-1119,-43.225,-0.1,-227.528,-0.1,2.668
0.0491478,0.0275844,0.388204,0.232189,0.090289,0.068083,0.0814546,0.086587,-345,-1115,-43.3941,-0.1,-227.585,-0.1,2.672
0.0495093,0.0278559,0.38853,0.232533,0.0904607,0.0680183,0.0815076,0.0864004,-347,-1118,-43.5602,-0.1,-227.638,-0.1,2.676
0.0498715,0.028133,0.388856,0.232887,0.0906322,0.0684359,0.0815606,0.0870534,-346,-1112,-43.728,-0.1,-227.693,-0.1,2.68
0.0502344,0.0284122,0.389183,0.233238,0.0908037,0.068887,0.0816134,0.087316,-344,-1109,-43.8933,-0.1,-227.742,-0.1,2.684
0.0505979,0.0286996,0.389509,0.233597,0.0909749,0.0698787,0.0816662,0.0880668,-336,-1103,-44.0553,-0.1,-227.787,-0.1,2.688
0.0509622,0.0289815,0.389836,0.23394,0.0911461,0.0700792,0.0817189,0.0873294,-337,-1110,-44.2097,-0.1,-227.827,-0.1,2.692
0.0513271,0.0292707,0.390163,0.234284,0.0913171,0.0708175,0.0817716,0.0869242,-332,-1114,-44.3633,-0.1,-227.873,-0.1,2.696
0.0516927,0.0295588,0.39049,0.234627,0.091488,0.0712233,0.0818241,0.0864812,-330,-1119,-44.5116,-0.1,-227.924,-0.1,2.7
0.052059,0.0298473,0.390818,0.234967,0.0916588,0.0715226,0.0818766,0.0860132,-329,-1124,-44.6575,-0.1,-227.98,-0.1,2.704
0.052426,0.0301396,0.391145,0.23531,0.0918294,0.0720389,0.081929,0.0859027,-327,-1125,-44.8019,-0.1,-228.04,-0.1,2.708
0.0527936,0.030426,0.391473,0.235643,0.0919998,0.0718936,0.0819813,0.0849942,-330,-1134,-44.9432,-0.1,-228.102,-0.1,2.712
0.053162,0.0307183,0.391801,0.235981,0.0921702,0.0722862,0.0820335,0.0848779,-329,-1136,-45.087,-0.1,-228.173,-0.1,2.716
0.053531,0.0310023,0.392129,0.236307,0.0923403,0.0718569,0.0820856,0.0837639,-335,-1147,-45.2291,-0.1,-228.245,-0.1,2.72
0.0539007,0.0312897,0.392458,0.236637,0.0925104,0.0718587,0.0821377,0.0832803,-337,-1152,-45.3765,-0.1,-228.329,-0.1,2.724
0.0542711,0.0315765,0.392786,0.236965,0.0926803,0.0718022,0.0821896,0.0829004,-339,-1156,-45.5254,-0.1,-228.417,-0.1,2.728
0.0546421,0.0318653,0.393115,0.237295,0.09285,0.0719374,0.0822415,0.0827911,-340,-1158,-45.6761,-0.1,-228.509,-0.1,2.732
0.0550139,0.0321517,0.393444,0.237621,0.0930197,0.0718259,0.0822933,0.0823439,-343,-1163,-45.8272,-0.1,-228.602,-0.1,2.736
0.0553863,0.0324375,0.393774,0.23795,0.0931891,0.071694,0.082345,0.0823337,-346,-1163,-45.9808,-0.1,-228.7,-0.1,2.74
0.0557594,0.032726,0.394103,0.238282,0.0933585,0.0718365,0.0823966,0.0825284,-347,-1162,-46.137,-0.1,-228.798,-0.1,2.744
0.0561332,0.0330169,0.394433,0.238619,0.0935276,0.0721329,0.0824481,0.0830613,-346,-1157,-46.2931,-0.1,-228.894,-0.1,2.748
0.0565076,0.0333126,0.394763,0.238961,0.0936967,0.0727336,0.0824996,0.0839348,-343,-1149,-46.4476,-0.1,-228.984,-0.1,2.752
0.0568827,0.0336139,0.395093,0.239312,0.0938655,0.0735948,0.0825509,0.0851505,-337,-1138,-46.5977,-0.1,-229.065,-0.1,2.756
0.0572585,0.0339162,0.395423,0.239662,0.0940343,0.0742552,0.0826022,0.0859898,-333,-1130,-46.7411,-0.1,-229.135,-0.1,2.76
0.057635,0.0342188,0.395754,0.240014,0.0942029,0.0747244,0.0826533,0.0866645,-331,-1124,-46.8798,-0.1,-229.196,-0.1,2.764
0.0580122,0.0345232,0.396084,0.240368,0.0943713,0.075181,0.0827044,0.0872582,-328,-1119,-47.0155,-0.1,-229.251,-0.1,2.768
0.05839,0.0348227,0.396415,0.240721,0.0945396,0.0750824,0.0827554,0.0875965,-331,-1116,-47.1487,-0.1,-229.3,-0.1,2.772
0.0587685,0.0351264,0.396746,0.241085,0.0947077,0.0753622,0.0828063,0.0887433,-331,-1105,-47.284,-0.1,-229.345,-0.1,2.776
0.0591476,0.035426,0.397078,0.241451,0.0948757,0.0752032,0.0828572,0.089623,-334,-1097,-47.4184,-0.1,-229.38,-0.1,2.78
0.0595275,0.03572,0.397409,0.241819,0.0950435,0.0746365,0.0829079,0.0903822,-341,-1090,-47.556,-0.1,-229.406,-0.1,2.784
0.059908,0.0360174,0.397741,0.242195,0.0952112,0.0745467,0.0829585,0.0916657,-344,-1078,-47.7002,-0.1,-229.424,-0.1,2.788
0.0602892,0.0363146,0.398073,0.242577,0.0953787,0.074458,0.0830091,0.0928669,-347,-1066,-47.8467,-0.1,-229.429,-0.1,2.792
0.060671,0.0366031,0.398405,0.242953,0.095546,0.0736791,0.0830595,0.0932933,-356,-1062,-47.9959,-0.1,-229.423,-0.1,2.796
0.0610535,0.0368971,0.398737,0.243335,0.0957132,0.0736205,0.0831099,0.0940383,-359,-1055,-48.1534,-0.1,-229.413,-0.1,2.8
0.0614367,0.0371859,0.39907,0.243717,0.0958803,0.0731495,0.0831602,0.0944774,-365,-1051,-48.3132,-0.1,-229.396,-0.1,2.804
0.0618206,0.0374754,0.399403,0.244097,0.0960471,0.0728931,0.0832103,0.0946837,-369,-1049,-48.4788,-0.1,-229.375,-0.1,2.808
0.0622051,0.0377708,0.399736,0.244487,0.0962139,0.0732117,0.0832604,0.0955987,-369,-1041,-48.6478,-0.1,-229.352,-0.1,2.812
0.0625903,0.0380617,0.400069,0.244865,0.0963804,0.0730497,0.0833104,0.0952585,-372,-1044,-48.8155,-0.1,-229.32,-0.1,2.816
0.0629761,0.0383602,0.400402,0.245246,0.0965468,0.0735752,0.0833603,0.0952621,-369,-1044,-48.9856,-0.1,-229.292,-0.1,2.82
0.0633627,0.0386608,0.400736,0.245624,0.0967131,0.0740982,0.0834101,0.0950053,-367,-1047,-49.1521,-0.1,-229.265,-0.1,2.824
0.0637499,0.0389662,0.401069,0.246003,0.0968791,0.07485,0.0834599,0.0949205,-362,-1048,-49.3149,-0.1,-229.24,-0.1,2.828
0.0641377,0.0392778,0.401403,0.246388,0.0970451,0.0758694,0.0835095,0.0953246,-354,-1044,-49.4717,-0.1,-229.216,-0.1,2.832
0.0645262,0.0395909,0.401737,0.246772,0.0972108,0.0766642,0.083559,0.0955653,-349,-1042,-49.6204,-0.1,-229.189,-0.1,2.836
0.0649154,0.0399004,0.402072,0.247155,0.0973764,0.0769061,0.0836085,0.0956681,-349,-1041,-49.7633,-0.1,-229.159,-0.1,2.84
0.0653052,0.040211,0.402406,0.247538,0.0975418,0.0771538,0.0836578,0.0956791,-348,-1041,-49.9052,-0.1,-229.129,-0.1,2.844
0.0656957,0.0405216,0.402741,0.24792,0.097707,0.0773189,0.083707,0.0956,-349,-1042,-50.0463,-0.1,-229.099,-0.1,2.848
0.0660869,0.0408301,0.403076,0.248299,0.0978721,0.0772562,0.0837562,0.0952882,-351,-1045,-50.1874,-0.1,-229.07,-0.1,2.852
0.0664787,0.0411397,0.403411,0.248676,0.098037,0.0773008,0.0838052,0.094994,-353,-1048,-50.3304,-0.1,-229.044,-0.1,2.856
0.0668712,0.0414441,0.403746,0.249044,0.0982018,0.0768987,0.0838542,0.0939628,-359,-1058,-50.4747,-0.1,-229.023,-0.1,2.86
0.0672643,0.0417467,0.404082,0.249404,0.0983664,0.0764866,0.0839031,0.0926708,-364,-1071,-50.6242,-0.1,-229.012,-0.1,2.864
0.0676581,0.0420487,0.404418,0.249759,0.0985308,0.0761544,0.0839518,0.0913776,-369,-1084,-50.779,-0.1,-229.014,-0.1,2.868
0.0680526,0.0423482,0.404754,0.250106,0.098695,0.0757313,0.0840005,0.0897957,-375,-1099,-50.9383,-0.1,-229.029,-0.1,2.872
0.0684477,0.0426447,0.40509,0.250442,0.0988591,0.0751902,0.0840491,0.0878486,-382,-1118,-51.1032,-0.1,-229.061,-0.1,2.876
0.0688434,0.0429394,0.405426,0.250774,0.099023,0.0746854,0.0840975,0.0862914,-389,-1134,-51.2745,-0.1,-229.112,-0.1,2.88
0.0692398,0.0432344,0.405762,0.251105,0.0991867,0.0743777,0.0841459,0.0850517,-394,-1146,-51.4519,-0.1,-229.179,-0.1,2.884
0.0696369,0.0435312,0.406099,0.251439,0.0993502,0.0743166,0.0841942,0.084542,-397,-1152,-51.6334,-0.1,-229.258,-0.1,2.888
0.0700346,0.0438269,0.406436,0.251773,0.0995136,0.0741894,0.0842424,0.0842309,-400,-1155,-51.8168,-0.1,-229.342,-0.1,2.892
0.070433,0.0441244,0.406773,0.252119,0.0996768,0.0742486,0.0842905,0.0850025,-401,-1148,-52.0027,-0.1,-229.428,-0.1,2.896
0.0708321,0.0444222,0.40711,0.25247,0.0998398,0.0743168,0.0843385,0.0859199,-403,-1140,-52.1894,-0.1,-229.507,-0.1,2.9
0.0712317,0.0447235,0.407448,0.252832,0.100003,0.0746502,0.0843863,0.0874528,-402,-1125,-52.3765,-0.1,-229.576,-0.1,2.904
0.0716321,0.0450323,0.407785,0.253208,0.100165,0.0755059,0.0844341,0.0895688,-396,-1105,-52.5615,-0.1,-229.63,-0.1,2.908
0.0720331,0.0453243,0.408123,0.253569,0.100328,0.0746656,0.0844818,0.0898566,-406,-1103,-52.7408,-0.1,-229.664,-0.1,2.912
0.0724347,0.0456228,0.408461,0.253945,0.10049,0.0746524,0.0845294,0.0911714,-408,-1090,-52.9288,-0.1,-229.694,-0.1,2.916
0.072837,0.0459178,0.408799,0.254325,0.100652,0.0743557,0.0845769,0.0925085,-413,-1077,-53.1185,-0.1,-229.712,-0.1,2.92
0.0732399,0.0462105,0.409138,0.254709,0.100814,0.0739564,0.0846243,0.0936303,-418,-1067,-53.3123,-0.1,-229.716,-0.1,2.924
0.0736435,0.0465028,0.409476,0.255102,0.100976,0.0736614,0.0846715,0.0951555,-423,-1052,-53.5111,-0.1,-229.71,-0.1,2.928
0.0740477,0.0467899,0.409815,0.255492,0.101137,0.0730329,0.0847187,0.0959995,-431,-1044,-53.7142,-0.1,-229.688,-0.1,2.932
0.0744526,0.0470794,0.410154,0.255892,0.101299,0.0728154,0.0847658,0.097282,-435,-1032,-53.9243,-0.1,-229.658,-0.1,2.936
0.0748581,0.0473713,0.410493,0.256296,0.10146,0.0728719,0.0848128,0.0985112,-437,-1020,-54.1375,-0.1,-229.616,-0.1,2.94
0.0752643,0.0476643,0.410833,0.256704,0.101621,0.072996,0.0848596,0.0996762,-438,-1009,-54.3514,-0.1,-229.562,-0.1,2.944
0.0756711,0.0479559,0.411172,0.257111,0.101782,0.0729635,0.0849064,0.100424,-440,-1002,-54.5654,-0.1,-229.496,-0.1,2.948
0.0760785,0.0482499,0.411512,0.257519,0.101943,0.0731434,0.0849531,0.100951,-440,-997,-54.7808,-0.1,-229.424,-0.1,2.952
0.0764866,0.0485429,0.411852,0.257926,0.102103,0.073177,0.0849997,0.101159,-442,-995,-54.9959,-0.1,-229.347,-0.1,2.956
0.0768954,0.0488369,0.412192,0.258327,0.102263,0.0732857,0.0850461,0.100923,-443,-997,-55.2118,-0.1,-229.268,-0.1,2.96
0.0773047,0.0491413,0.412532,0.258736,0.102423,0.074222,0.0850925,0.101313,-437,-993,-55.4274,-0.1,-229.192,-0.1,2.964
0.0777147,0.0494481,0.412873,0.25914,0.102583,0.0750476,0.0851387,0.101199,-432,-994,-55.6354,-0.1,-229.112,-0.1,2.968
0.0781254,0.0497504,0.413213,0.259529,0.102743,0.0752238,0.0851849,0.0998843,-432,-1007,-55.8372,-0.1,-229.035,-0.1,2.972
0.0785367,0.0500606,0.413554,0.259922,0.102902,0.0760035,0.0852309,0.0993536,-427,-1012,-56.0383,-0.1,-228.971,-0.1,2.976
0.0789486,0.0503781,0.413895,0.260315,0.103062,0.0771278,0.0852769,0.0990286,-419,-1015,-56.233,-0.1,-228.912,-0.1,2.98
0.0793612,0.0506863,0.414236,0.260697,0.103221,0.0771001,0.0853227,0.0977755,-421,-1028,-56.419,-0.1,-228.857,-0.1,2.984
0.0797744,0.0509983,0.414578,0.261078,0.10338,0.0773982,0.0853684,0.0969688,-420,-1035,-56.6065,-0.1,-228.815,-0.1,2.988
0.0801882,0.0513051,0.414919,0.261456,0.103539,0.0771652,0.0854141,0.0961144,-424,-1044,-56.7926,-0.1,-228.782,-0.1,2.992
0.0806027,0.0516119,0.415261,0.26183,0.103697,0.0770098,0.0854596,0.0952568,-428,-1052,-56.9823,-0.1,-228.757,-0.1,2.996
0.0810178,0.0519152,0.415603,0.2622,0.103856,0.0766183,0.085505,0.0943972,-434,-1061,-57.1748,-0.1,-228.741,-0.1,3
0.0814335,0.0522161,0.415945,0.262572,0.104014,0.0761558,0.0855503,0.0939105,-440,-1066,-57.3723,-0.1,-228.734,-0.1,3.004
0.0818499,0.052515,0.416287,0.262942,0.104172,0.0756747,0.0855955,0.0934421,-446,-1070,-57.5754,-0.1,-228.732,-0.1,3.008
0.0822669,0.0528118,0.41663,0.263312,0.104329,0.0751812,0.0856406,0.0931298,-453,-1074,-57.7844,-0.1,-228.734,-0.1,3.012
0.0826845,0.053111,0.416973,0.263686,0.104487,0.0750537,0.0856856,0.0932383,-456,-1073,-57.999,-0.1,-228.74,-0.1,3.016
0.0831028,0.0534098,0.417315,0.264058,0.104644,0.07494,0.0857305,0.0931955,-459,-1073,-58.216,-0.1,-228.745,-0.1,3.02
0.0835217,0.0537121,0.417658,0.26443,0.104801,0.075152,0.0857752,0.0931094,-459,-1074,-58.435,-0.1,-228.75,-0.1,3.024
0.0839412,0.0540086,0.418002,0.264794,0.104958,0.074804,0.0858199,0.0923898,-465,-1082,-58.6536,-0.1,-228.758,-0.1,3.028
0.0843614,0.0543119,0.418345,0.265162,0.105115,0.0751477,0.0858644,0.0922843,-464,-1083,-58.8763,-0.1,-228.772,-0.1,3.032
0.0847821,0.0546101,0.418688,0.26552,0.105272,0.0749451,0.0859089,0.0913503,-467,-1092,-59.0973,-0.1,-228.788,-0.1,3.036
0.0852035,0.0549086,0.419032,0.265874,0.105428,0.0748387,0.0859532,0.0904109,-471,-1101,-59.3212,-0.1,-228.813,-0.1,3.04
0.0856256,0.0552119,0.419376,0.26623,0.105584,0.0751709,0.0859975,0.0899286,-470,-1106,-59.5472,-0.1,-228.848,-0.1,3.044
0.0860482,0.0555177,0.41972,0.266585,0.10574,0.0755939,0.0860416,0.0895207,-468,-1111,-59.7711,-0.1,-228.887,-0.1,3.048
0.0864715,0.0558234,0.420064,0.266939,0.105896,0.0758759,0.0860856,0.0891336,-467,-1115,-59.9923,-0.1,-228.931,-0.1,3.052
0.0868954,0.0561261,0.420409,0.267292,0.106052,0.0758048,0.0861295,0.0888755,-470,-1118,-60.2122,-0.1,-228.979,-0.1,3.056
0.0873199,0.0564266,0.420753,0.267648,0.106207,0.0755846,0.0861733,0.088905,-474,-1118,-60.4341,-0.1,-229.029,-0.1,3.06
0.087745,0.0567265,0.421098,0.268003,0.106362,0.0753803,0.0862169,0.0888958,-478,-1118,-60.6593,-0.1,-229.08,-0.1,3.064
0.0881708,0.057024,0.421443,0.268362,0.106517,0.0750425,0.0862605,0.0891201,-483,-1116,-60.8877,-0.1,-229.13,-0.1,3.068
0.0885972,0.0573225,0.421788,0.268718,0.106672,0.0749037,0.0863039,0.0891256,-487,-1116,-61.1202,-0.1,-229.178,-0.1,3.072
0.0890242,0.0576231,0.422134,0.269079,0.106826,0.0749839,0.0863473,0.0894748,-488,-1113,-61.3551,-0.1,-229.226,-0.1,3.076
0.0894518,0.0579181,0.422479,0.269433,0.10698,0.0745767,0.0863905,0.0891606,-494,-1117,-61.5907,-0.1,-229.272,-0.1,3.08
0.08988,0.0582139,0.422825,0.269786,0.107135,0.0743628,0.0864336,0.0888647,-498,-1120,-61.8312,-0.1,-229.32,-0.1,3.084
0.0903089,0.0585134,0.423171,0.270141,0.107288,0.074537,0.0864766,0.0887826,-499,-1121,-62.0746,-0.1,-229.372,-0.1,3.088
0.0907383,0.0588078,0.423517,0.27049,0.107442,0.0742212,0.0865195,0.088296,-503,-1126,-62.3177,-0.1,-229.424,-0.1,3.092
0.0911684,0.0591045,0.423863,0.270839,0.107596,0.0742122,0.0865623,0.0879717,-506,-1130,-62.5648,-0.1,-229.482,-0.1,3.096
0.0915991,0.0594044,0.424209,0.271189,0.107749,0.0744653,0.086605,0.087813,-506,-1132,-62.8129,-0.1,-229.543,-0.1,3.1
0.0920304,0.0597047,0.424556,0.271538,0.107902,0.0746629,0.0866475,0.087592,-506,-1134,-63.0598,-0.1,-229.606,-0.1,3.104
0.0924623,0.0600128,0.424902,0.271891,0.108055,0.0754567,0.08669,0.0878766,-501,-1132,-63.3056,-0.1,-229.67,-0.1,3.108
0.0928948,0.0603193,0.425249,0.272236,0.108207,0.075842,0.0867323,0.0872602,-499,-1138,-63.5452,-0.1,-229.733,-0.1,3.112
0.093328,0.0606354,0.425596,0.272584,0.10836,0.0769051,0.0867745,0.0871947,-492,-1139,-63.782,-0.1,-229.801,-0.1,3.116
0.0937617,0.0609526,0.425943,0.272923,0.108512,0.0777001,0.0868166,0.0863737,-487,-1147,-64.0101,-0.1,-229.871,-0.1,3.12
0.094196,0.0612694,0.426291,0.273259,0.108664,0.0782014,0.0868586,0.085596,-484,-1155,-64.232,-0.1,-229.949,-0.1,3.124
0.094631,0.0615931,0.426638,0.273598,0.108815,0.0791113,0.0869004,0.0853079,-478,-1159,-64.4502,-0.1,-230.034,-0.1,3.128
0.0950666,0.061913,0.426986,0.273934,0.108967,0.0794013,0.0869422,0.0849143,-478,-1163,-64.6614,-0.1,-230.123,-0.1,3.132
0.0955027,0.0622281,0.427334,0.274269,0.109118,0.0791915,0.0869838,0.0844792,-482,-1167,-64.8713,-0.1,-230.215,-0.1,3.136
0.0959395,0.0625439,0.427682,0.27461,0.109269,0.0791092,0.0870253,0.0847361,-484,-1165,-65.0843,-0.1,-230.312,-0.1,3.14
0.0963769,0.0628597,0.42803,0.274956,0.10942,0.0790544,0.0870667,0.0853104,-487,-1160,-65.2993,-0.1,-230.406,-0.1,3.144
0.0968149,0.063171,0.428378,0.275301,0.109571,0.0786436,0.087108,0.0856645,-493,-1157,-65.5161,-0.1,-230.494,-0.1,3.148
0.0972535,0.0634798,0.428727,0.275647,0.109721,0.0781681,0.0871492,0.0859582,-499,-1155,-65.738,-0.1,-230.579,-0.1,3.152
0.0976926,0.0637904,0.429075,0.275995,0.109871,0.0779951,0.0871903,0.0862979,-503,-1152,-65.9653,-0.1,-230.661,-0.1,3.156
0.0981324,0.0640997,0.429424,0.276347,0.110021,0.0777646,0.0872312,0.0868123,-507,-1147,-66.1954,-0.1,-230.739,-0.1,3.16
0.0985728,0.0644071,0.429773,0.276695,0.110171,0.077467,0.087272,0.0868961,-511,-1147,-66.4288,-0.1,-230.813,-0.1,3.164
0.0990138,0.0647174,0.430122,0.277049,0.110321,0.0774989,0.0873127,0.0874415,-513,-1142,-66.6659,-0.1,-230.886,-0.1,3.168
0.0994554,0.0650314,0.430472,0.277408,0.11047,0.0778369,0.0873533,0.0881793,-512,-1135,-66.9036,-0.1,-230.953,-0.1,3.172
0.0998976,0.0653434,0.430821,0.277763,0.110619,0.0778895,0.0873938,0.0884121,-514,-1133,-67.1394,-0.1,-231.013,-0.1,3.176
0.10034,0.0656571,0.431171,0.278117,0.110768,0.0780685,0.0874341,0.0884521,-514,-1133,-67.3758,-0.1,-231.072,-0.1,3.18
0.100784,0.0659726,0.431521,0.278471,0.110917,0.0783318,0.0874743,0.0884787,-514,-1134,-67.6115,-0.1,-231.129,-0.1,3.184
0.101228,0.0662908,0.431871,0.278828,0.111065,0.0787376,0.0875144,0.0886981,-512,-1132,-67.8457,-0.1,-231.187,-0.1,3.188
0.101672,0.0666096,0.432221,0.279189,0.111213,0.0790658,0.0875544,0.0891898,-511,-1127,-68.0773,-0.1,-231.243,-0.1,3.192
0.102117,0.0669285,0.432571,0.279554,0.111361,0.0792845,0.0875943,0.0899206,-512,-1121,-68.3071,-0.1,-231.293,-0.1,3.196
0.102563,0.0672509,0.432922,0.279929,0.111509,0.0797183,0.087634,0.0911565,-510,-1109,-68.5357,-0.1,-231.336,-0.1,3.2
0.103009,0.0675691,0.433272,0.280303,0.111656,0.079662,0.0876737,0.0919515,-512,-1102,-68.7617,-0.1,-231.367,-0.1,3.204
0.103456,0.0678862,0.433623,0.280678,0.111803,0.079538,0.0877132,0.0925968,-515,-1096,-68.9893,-0.1,-231.39,-0.1,3.208
0.103904,0.068202,0.433974,0.281053,0.11195,0.0793403,0.0877526,0.0929405,-519,-1092,-69.2193,-0.1,-231.407,-0.1,3.212
0.104352,0.0685157,0.434325,0.281421,0.112097,0.0790357,0.0877918,0.0926515,-524,-1095,-69.4522,-0.1,-231.422,-0.1,3.216
