peachynonah/Fire_monitor_KIRO_CDSL/csv_datas/trial12/cdsl_data_t12_13_d.csv
joint1_pos_desired, joint1_pos, joint2_pos_desired, joint2_pos, joint1_vel_desired, joint1_vel_filtered, joint2_vel_desired, joint2_vel_filtered, target_torque_joint1, target_torque_joint2, estimated_disturbance_joint1, saturated_DOB_joint1, estimated_disturbance_joint2, saturated_DOB_joint2, current_time
0.750624,0.749788,0.74122,0.739515,-3.60011e-07,0,-3.55501e-07,0,-5,-48,0,0,17.0339,10,0.004
0.750624,0.749788,0.74122,0.739431,-1.43889e-06,0,-1.42087e-06,-0.00699619,-5,-116,-0.00526314,-0.00526314,16.9797,10,0.008
0.750624,0.749788,0.74122,0.739369,-3.23492e-06,0,-3.19439e-06,-0.0098465,-5,-144,-0.0105208,-0.0105208,16.8578,10,0.012
0.750624,0.749788,0.74122,0.73932,-5.74636e-06,0,-5.67437e-06,-0.0106526,-5,-152,-0.0157688,-0.0157688,16.7086,10,0.016
0.750624,0.749789,0.74122,0.739286,-8.97149e-06,2.87909e-05,-8.8591e-06,-0.00986569,-4,-145,-0.0209916,-0.0209916,16.5525,10,0.02
0.750624,0.749789,0.74122,0.739273,-1.29086e-05,7.67758e-05,-1.27469e-05,-0.00769997,-4,-125,-0.0260278,-0.0260278,16.4052,10,0.024
0.750624,0.74979,0.74122,0.739274,-1.75559e-05,0.000137557,-1.7336e-05,-0.00501815,-4,-99,-0.030768,-0.030768,16.2801,10,0.028
0.750624,0.749792,0.74122,0.739287,-2.29118e-05,0.000206868,-2.26248e-05,-0.00228017,-3,-72,-0.035137,-0.035137,16.1822,10,0.032
0.750624,0.749793,0.74122,0.739308,-2.89745e-05,0.000224285,-2.86115e-05,0.000264924,-3,-48,-0.0391053,-0.0391053,16.1119,10,0.036
0.750624,0.749794,0.74122,0.739335,-3.57423e-05,0.000235896,-3.52945e-05,0.00239352,-3,-27,-0.0429388,-0.0429388,16.0671,10,0.04
0.750623,0.749794,0.741219,0.739364,-4.32134e-05,0.000186055,-4.26721e-05,0.00404291,-4,-11,-0.0466871,-0.0466871,16.0437,10,0.044
0.750623,0.749794,0.741219,0.739395,-5.13862e-05,0.000124037,-5.07425e-05,0.00525766,-4,0,-0.05067,-0.05067,16.0369,10,0.048
0.750623,0.749794,0.741219,0.739424,-6.0259e-05,8.26911e-05,-5.95041e-05,0.00592355,-4,7,-0.0549399,-0.0549399,16.0423,10,0.052
0.750623,0.749794,0.741219,0.739451,-6.983e-05,5.51274e-05,-6.89551e-05,0.00619472,-4,10,-0.0593815,-0.0593815,16.0545,10,0.056
0.750622,0.749794,0.741218,0.739475,-8.00975e-05,3.67516e-05,-7.9094e-05,0.00611639,-4,10,-0.0639166,-0.0639166,16.0695,10,0.06
0.750622,0.749794,0.741218,0.739495,-9.10598e-05,2.45011e-05,-8.9919e-05,0.00574747,-4,7,-0.0684917,-0.0684917,16.0839,10,0.064
0.750622,0.749794,0.741218,0.739511,-0.000102715,1.6334e-05,-0.000101428,0.00518482,-4,2,-0.0730697,-0.0730697,16.0948,10,0.068
0.750621,0.749794,0.741217,0.739524,-0.000115062,1.08894e-05,-0.000113621,0.00452181,-4,-4,-0.0776245,-0.0776245,16.1004,10,0.072
0.750621,0.749794,0.741217,0.739534,-0.000128099,7.25957e-06,-0.000126494,0.00384948,-4,-10,-0.0821375,-0.0821375,16.0996,10,0.076
0.75062,0.749794,0.741216,0.739543,-0.000141823,4.83972e-06,-0.000140046,0.00328609,-4,-15,-0.0865947,-0.0865947,16.0926,10,0.08
0.75062,0.749794,0.741216,0.73955,-0.000156234,3.22648e-06,-0.000154277,0.00279534,-4,-19,-0.0909856,-0.0909856,16.0802,10,0.084
0.750619,0.749794,0.741215,0.739554,-0.000171329,2.15098e-06,-0.000169183,0.00223784,-4,-25,-0.0953016,-0.0953016,16.0633,10,0.088
0.750618,0.749794,0.741214,0.739559,-0.000187108,1.43399e-06,-0.000184763,0.00186618,-4,-28,-0.0995358,-0.0995358,16.0412,10,0.092
0.750617,0.749794,0.741214,0.739563,-0.000203567,2.97469e-05,-0.000201017,0.00156082,-4,-31,-0.103671,-0.103671,16.0158,10,0.096
0.750617,0.749794,0.741213,0.739568,-0.000220706,1.98313e-05,-0.000217941,0.00144362,-4,-32,-0.107567,-0.107567,15.9877,10,0.1
0.750616,0.749794,0.741212,0.739573,-0.000238523,1.32209e-05,-0.000235534,0.00139428,-4,-32,-0.111416,-0.111416,15.959,10,0.104
0.750615,0.749795,0.741211,0.739579,-0.000257016,3.76048e-05,-0.000253796,0.00144775,-3,-31,-0.115185,-0.115185,15.9301,10,0.108
0.750614,0.749794,0.74121,0.739587,-0.000276183,-3.72104e-06,-0.000272723,0.00159857,-4,-29,-0.118734,-0.118734,15.9023,10,0.112
0.750612,0.749794,0.741209,0.739596,-0.000296023,-2.48069e-06,-0.000292314,0.00184307,-3,-27,-0.122385,-0.122385,15.8764,10,0.116
0.750611,0.749794,0.741207,0.739606,-0.000316534,-1.6538e-06,-0.000312568,0.00209244,-3,-24,-0.125911,-0.125911,15.8533,10,0.12
0.75061,0.749794,0.741206,0.739618,-0.000337714,-1.10253e-06,-0.000333483,0.00234506,-3,-21,-0.129312,-0.129312,15.8331,10,0.124
0.750609,0.749794,0.741205,0.739628,-0.000359562,-7.3502e-07,-0.000355057,0.00245589,-3,-20,-0.132585,-0.132585,15.8158,10,0.128
0.750607,0.749794,0.741203,0.739638,-0.000382076,-4.90014e-07,-0.000377289,0.00244341,-3,-20,-0.135727,-0.135727,15.8,10,0.132
0.750606,0.749794,0.741202,0.739646,-0.000405254,-3.26676e-07,-0.000400177,0.00229113,-3,-21,-0.138733,-0.138733,15.7844,10,0.136
0.750604,0.749794,0.7412,0.739653,-0.000429095,-2.17784e-07,-0.000423719,0.00210324,-3,-22,-0.141601,-0.141601,15.7677,10,0.14
0.750602,0.749794,0.741198,0.739658,-0.000453597,-1.45189e-07,-0.000447914,0.00183402,-3,-24,-0.144325,-0.144325,15.7494,10,0.144
0.7506,0.749794,0.741197,0.739662,-0.000478758,-9.67928e-08,-0.00047276,0.00153938,-2,-27,-0.146903,-0.146903,15.7289,10,0.148
0.750598,0.749794,0.741195,0.739666,-0.000504576,-6.45285e-08,-0.000498255,0.00134295,-2,-29,-0.14933,-0.14933,15.706,10,0.152
0.750596,0.749794,0.741193,0.739669,-0.000531051,-4.3019e-08,-0.000524398,0.00118321,-2,-30,-0.151602,-0.151602,15.6815,10,0.156
0.750594,0.749794,0.74119,0.739672,-0.000558179,-2.86793e-08,-0.000551186,0.00104793,-2,-31,-0.153715,-0.153715,15.6559,10,0.16
0.750592,0.749794,0.741188,0.739676,-0.000585961,-1.91196e-08,-0.00057862,0.000986527,-2,-31,-0.155664,-0.155664,15.6295,10,0.164
0.750589,0.749794,0.741186,0.739679,-0.000614393,-1.27464e-08,-0.000606695,0.000945594,-2,-31,-0.157445,-0.157445,15.6029,10,0.168
0.750587,0.749794,0.741183,0.739682,-0.000643474,-8.49758e-09,-0.000635412,0.000889514,-2,-31,-0.159054,-0.159054,15.5763,10,0.172
0.750584,0.749794,0.741181,0.739686,-0.000673203,-5.66506e-09,-0.000664768,0.000938501,-1,-30,-0.160486,-0.160486,15.5497,10,0.176
0.750581,0.749794,0.741178,0.739692,-0.000703577,-3.7767e-09,-0.000694763,0.00105753,-1,-29,-0.161738,-0.161738,15.5242,10,0.18
0.750579,0.749794,0.741175,0.739696,-0.000734596,-2.5178e-09,-0.000725393,0.00110809,-1,-28,-0.162805,-0.162805,15.5002,10,0.184
0.750576,0.749794,0.741172,0.739703,-0.000766257,-1.67854e-09,-0.000756657,0.00131455,-1,-26,-0.163683,-0.163683,15.4774,10,0.188
0.750572,0.749794,0.741169,0.739711,-0.000798559,-1.11902e-09,-0.000788555,0.00148097,-1,-24,-0.164367,-0.164367,15.4571,10,0.192
0.750569,0.749794,0.741166,0.739718,-0.0008315,-7.46016e-10,-0.000821083,0.00162072,0,-22,-0.164852,-0.164852,15.439,10,0.196
0.750566,0.749794,0.741162,0.739726,-0.000865079,-4.97344e-10,-0.000854241,0.00174267,0,-20,-0.165136,-0.165136,15.4227,10,0.2
0.750562,0.749794,0.741159,0.739734,-0.000899294,-3.31563e-10,-0.000888027,0.00182397,0,-19,-0.165213,-0.165213,15.4082,10,0.204
0.750559,0.749794,0.741155,0.739741,-0.000934143,-2.21042e-10,-0.000922439,0.00182059,0,-19,-0.165079,-0.165079,15.3949,10,0.208
0.750555,0.749794,0.741152,0.739748,-0.000969624,-1.47361e-10,-0.000957476,0.00178955,0,-18,-0.16473,-0.16473,15.3822,10,0.212
0.750551,0.749794,0.741148,0.739753,-0.00100574,-9.82407e-11,-0.000993136,0.00162489,0,-20,-0.164161,-0.164161,15.3696,10,0.216
0.750547,0.749794,0.741144,0.739757,-0.00104248,-6.54938e-11,-0.00102942,0.00137117,0,-22,-0.163367,-0.163367,15.3558,10,0.22
0.750542,0.749794,0.741139,0.739759,-0.00107985,-4.36626e-11,-0.00106632,0.00111565,0,-24,-0.162346,-0.162346,15.34,10,0.224
0.750538,0.749794,0.741135,0.73976,-0.00111784,-2.91084e-11,-0.00110384,0.00083014,0,-26,-0.161091,-0.161091,15.3222,10,0.228
0.750533,0.749794,0.741131,0.739761,-0.00115646,-1.94056e-11,-0.00114197,0.000582218,0,-28,-0.159599,-0.159599,15.3021,10,0.232
0.750529,0.749794,0.741126,0.73976,-0.0011957,-1.29371e-11,-0.00118072,0.000359354,1,-30,-0.157865,-0.157865,15.2801,10,0.236
0.750524,0.749794,0.741121,0.73976,-0.00123557,-8.6247e-12,-0.00122009,0.000239569,1,-30,-0.155886,-0.155886,15.2565,10,0.24
0.750519,0.749794,0.741116,0.739761,-0.00127605,-5.7498e-12,-0.00126006,0.000188504,1,-30,-0.153656,-0.153656,15.2323,10,0.244
0.750514,0.749794,0.741111,0.739761,-0.00131715,-3.8332e-12,-0.00130065,0.000125669,2,-31,-0.151171,-0.151171,15.2081,10,0.248
0.750508,0.749794,0.741106,0.739761,-0.00135886,-2.55547e-12,-0.00134184,8.37795e-05,2,-31,-0.148426,-0.148426,15.1839,10,0.252
0.750503,0.749794,0.7411,0.739761,-0.00140119,-1.70364e-12,-0.00138364,8.46439e-05,2,-30,-0.145418,-0.145418,15.1599,10,0.256
0.750497,0.749794,0.741095,0.739761,-0.00144414,-1.13576e-12,-0.00142604,5.64293e-05,2,-30,-0.142141,-0.142141,15.1364,10,0.26
0.750491,0.749794,0.741089,0.739761,-0.00148769,-7.57175e-13,-0.00146905,6.64105e-05,3,-29,-0.138592,-0.138592,15.1133,10,0.264
0.750485,0.749794,0.741083,0.739761,-0.00153185,-5.04784e-13,-0.00151266,1.54827e-05,3,-29,-0.134766,-0.134766,15.0909,10,0.268
0.750479,0.749794,0.741077,0.739761,-0.00157663,-3.36522e-13,-0.00155687,1.03218e-05,3,-29,-0.130658,-0.130658,15.0685,10,0.272
0.750473,0.749794,0.741071,0.739761,-0.001622,-2.24348e-13,-0.00160168,-2.19097e-05,3,-29,-0.126263,-0.126263,15.0468,10,0.276
0.750466,0.749794,0.741064,0.739761,-0.00166799,-1.49566e-13,-0.00164709,4.29754e-05,4,-28,-0.121579,-0.121579,15.0253,10,0.28
0.750459,0.749795,0.741057,0.739761,-0.00171457,2.87909e-05,-0.00169309,2.86502e-05,4,-27,-0.116588,-0.116588,15.0051,10,0.284
0.750452,0.749794,0.74105,0.739761,-0.00176176,-9.59697e-06,-0.00173969,1.91002e-05,4,-27,-0.111163,-0.111163,14.9854,10,0.288
0.750445,0.749794,0.741043,0.739761,-0.00180954,-6.39798e-06,-0.00178687,1.27334e-05,5,-26,-0.105631,-0.105631,14.9662,10,0.292
0.750438,0.749794,0.741036,0.739761,-0.00185793,-4.26532e-06,-0.00183465,8.48896e-06,5,-26,-0.099774,-0.099774,14.9476,10,0.296
0.75043,0.749794,0.741029,0.739761,-0.00190691,-2.84355e-06,-0.00188302,5.65931e-06,5,-25,-0.0935921,-0.0935921,14.9296,10,0.3
0.750423,0.749794,0.741021,0.739761,-0.00195648,-3.06866e-05,-0.00193197,3.77287e-06,6,-25,-0.0870964,-0.0870964,14.9122,10,0.304
0.750415,0.749794,0.741013,0.739761,-0.00200665,-2.04577e-05,-0.00198151,2.51525e-06,6,-24,-0.0804193,-0.0804193,14.8954,10,0.308
0.750407,0.749794,0.741005,0.739761,-0.00205741,-1.36385e-05,-0.00203164,1.67683e-06,6,-24,-0.0733605,-0.0733605,14.8793,10,0.312
0.750398,0.749794,0.740997,0.739761,-0.00210876,-9.09233e-06,-0.00208234,1.11789e-06,7,-23,-0.065934,-0.065934,14.8638,10,0.316
0.75039,0.749794,0.740989,0.739761,-0.0021607,-6.06156e-06,-0.00213363,7.45259e-07,7,-22,-0.0581474,-0.0581474,14.849,10,0.32
0.750381,0.749794,0.74098,0.739761,-0.00221322,-4.04104e-06,-0.0021855,-2.82941e-05,7,-22,-0.0500043,-0.0500043,14.8348,10,0.324
0.750372,0.749794,0.740971,0.739761,-0.00226633,-2.69402e-06,-0.00223794,9.9282e-06,8,-21,-0.0415055,-0.0415055,14.8211,10,0.328
0.750363,0.749794,0.740962,0.739761,-0.00232003,-1.79602e-06,-0.00229096,-2.21721e-05,8,-21,-0.0326503,-0.0326503,14.8084,10,0.332
0.750353,0.749794,0.740953,0.739761,-0.0023743,-1.19734e-06,-0.00234456,-1.47814e-05,9,-20,-0.0234363,-0.0234363,14.7961,10,0.336
0.750344,0.749794,0.740943,0.739761,-0.00242916,-7.98229e-07,-0.00239873,-9.85428e-06,9,-19,-0.0138607,-0.0138607,14.7845,10,0.34
0.750334,0.749794,0.740934,0.739761,-0.00248459,-5.32153e-07,-0.00245346,-6.56952e-06,9,-19,-0.00392002,-0.00392002,14.7737,10,0.344
0.750324,0.749794,0.740924,0.739761,-0.0025406,-3.54769e-07,-0.00250877,-4.37968e-06,10,-18,0.00638968,0.00638968,14.7637,10,0.348
0.750314,0.749794,0.740914,0.739761,-0.00259719,-2.36512e-07,-0.00256465,-2.91979e-06,10,-18,0.0170725,0.0170725,14.7543,10,0.352
0.750303,0.749794,0.740903,0.739761,-0.00265435,-1.57675e-07,-0.0026211,-1.94652e-06,11,-17,0.0281327,0.0281327,14.7457,10,0.356
0.750292,0.749794,0.740893,0.739761,-0.00271208,-1.05117e-07,-0.0026781,-3.00886e-05,11,-16,0.0395746,0.0395746,14.7378,10,0.36
0.750281,0.749794,0.740882,0.739761,-0.00277038,-7.00778e-08,-0.00273568,-2.00591e-05,11,-16,0.0514027,0.0514027,14.7304,10,0.364
0.75027,0.749794,0.740871,0.739761,-0.00282926,-4.67185e-08,-0.00279381,-1.33727e-05,12,-15,0.0636216,0.0636216,14.7238,10,0.368
0.750259,0.749794,0.740859,0.739761,-0.0028887,-3.11457e-08,-0.00285251,-8.91514e-06,12,-14,0.0762357,0.0762357,14.718,10,0.372
0.750247,0.749794,0.740848,0.739761,-0.0029487,-2.07638e-08,-0.00291176,-5.94343e-06,13,-13,0.0892496,0.0892496,14.7129,10,0.376
0.750235,0.749794,0.740836,0.739761,-0.00300927,-1.38425e-08,-0.00297157,-3.96229e-06,13,-13,0.102668,0.102668,14.7087,10,0.38
0.750223,0.749793,0.740824,0.73976,-0.0030704,-5.75911e-05,-0.00303193,-3.14324e-05,13,-12,0.116473,0.116473,14.7052,10,0.384
0.750211,0.749794,0.740812,0.73976,-0.00313209,4.79787e-05,-0.00309285,-2.0955e-05,14,-12,0.130434,0.130434,14.7021,10,0.388
0.750198,0.749793,0.740799,0.73976,-0.00319435,-5.4387e-05,-0.00315433,-1.397e-05,14,-11,0.145319,0.145319,14.7,10,0.392
0.750185,0.749793,0.740787,0.73976,-0.00325715,-9.38398e-05,-0.00321635,-9.31332e-06,15,-10,0.160082,0.160082,14.6987,10,0.396
0.750172,0.749793,0.740774,0.73976,-0.00332052,-6.25599e-05,-0.00327892,-3.49998e-05,15,-9,0.175079,0.175079,14.6982,10,0.4
0.750159,0.749793,0.74076,0.73976,-0.00338444,-4.17066e-05,-0.00334204,-2.33332e-05,16,-9,0.190676,0.190676,14.6982,10,0.404
0.750145,0.749793,0.740747,0.73976,-0.00344891,-2.78044e-05,-0.00340571,-1.55555e-05,16,-8,0.206822,0.206822,14.6991,10,0.408
0.750131,0.749793,0.740733,0.73976,-0.00351394,-1.85363e-05,-0.00346992,-1.03703e-05,17,-7,0.223484,0.223484,14.7008,10,0.412
0.750117,0.749793,0.740719,0.73976,-0.00357951,1.64334e-05,-0.00353467,-3.57045e-05,18,-6,0.240653,0.240653,14.7034,10,0.416
0.750102,0.749792,0.740705,0.73976,-0.00364564,-4.66262e-05,-0.00359996,-2.3803e-05,18,-6,0.25843,0.25843,14.7066,10,0.42
0.750088,0.749792,0.74069,0.73976,-0.00371231,-3.10842e-05,-0.0036658,-1.58687e-05,18,-5,0.276342,0.276342,14.7106,10,0.424
0.750073,0.749792,0.740676,0.73976,-0.00377952,-2.07228e-05,-0.00373217,-1.05791e-05,19,-4,0.294797,0.294797,14.7156,10,0.428
0.750057,0.749792,0.74066,0.739759,-0.00384728,-1.38152e-05,-0.00379908,-3.58437e-05,20,-3,0.313773,0.313773,14.7214,10,0.432
0.750042,0.749792,0.740645,0.739759,-0.00391558,-9.21012e-06,-0.00386652,-2.38958e-05,20,-2,0.333256,0.333256,14.7277,10,0.436
0.750026,0.749792,0.74063,0.739759,-0.00398442,-6.14008e-06,-0.0039345,-4.47214e-05,21,-2,0.353238,0.353238,14.735,10,0.44
0.75001,0.749792,0.740614,0.739758,-0.0040538,-4.09339e-06,-0.00400301,-8.73961e-05,21,-1,0.373715,0.373715,14.7429,10,0.444
0.749994,0.749792,0.740598,0.739759,-0.00412371,-3.15198e-05,-0.00407205,-2.94732e-05,22,0,0.394676,0.394676,14.7512,10,0.448
0.749977,0.749792,0.740581,0.739759,-0.00419416,-4.98042e-05,-0.00414162,-1.96488e-05,22,0,0.415976,0.415976,14.7609,10,0.452
0.74996,0.749791,0.740564,0.739758,-0.00426515,-6.19937e-05,-0.00421171,-4.18901e-05,23,1,0.437668,0.437668,14.7716,10,0.456
0.749943,0.749791,0.740547,0.739758,-0.00433667,-4.13291e-05,-0.00428234,-2.79267e-05,23,2,0.459802,0.459802,14.7829,10,0.46
0.749925,0.749791,0.74053,0.739758,-0.00440872,-5.63437e-05,-0.00435348,-4.74088e-05,24,2,0.482538,0.482538,14.7951,10,0.464
0.749908,0.749791,0.740513,0.739758,-0.00448129,-3.75625e-05,-0.00442515,-3.16058e-05,25,3,0.50571,0.50571,14.808,10,0.468
0.74989,0.749791,0.740495,0.739758,-0.0045544,-2.50416e-05,-0.00449734,-2.10706e-05,25,4,0.529495,0.529495,14.8219,10,0.472
0.749871,0.749791,0.740477,0.739757,-0.00462803,-4.54853e-05,-0.00457005,-7.16289e-05,26,5,0.553853,0.553853,14.8368,10,0.476
0.749852,0.749791,0.740458,0.739758,-0.00470219,-3.03236e-05,-0.00464328,-1.89617e-05,26,6,0.578632,0.578632,14.852,10,0.48
0.749834,0.74979,0.740439,0.739758,-0.00477687,-7.77976e-05,-0.00471702,-1.26411e-05,27,7,0.603996,0.603996,14.8687,10,0.484
0.749814,0.74979,0.74042,0.739758,-0.00485207,-8.0656e-05,-0.00479128,-8.42741e-06,27,8,0.629643,0.629643,14.8862,10,0.488
0.749795,0.749789,0.740401,0.739758,-0.00492779,-0.000111352,-0.00486605,-5.61827e-06,28,9,0.655796,0.655796,14.9047,10,0.492
0.749775,0.749788,0.740381,0.739758,-0.00500403,-0.000131817,-0.00494134,-3.74551e-06,28,10,0.682321,0.682321,14.9241,10,0.496
0.749755,0.749787,0.740362,0.739758,-0.00508079,-0.000203042,-0.00501713,-2.49701e-06,29,11,0.709254,0.709254,14.9444,10,0.5
0.749734,0.749787,0.740341,0.739758,-0.00515806,-0.000164152,-0.00509344,-1.66467e-06,30,12,0.736379,0.736379,14.9656,10,0.504
0.749713,0.749785,0.740321,0.739757,-0.00523584,-0.000195807,-0.00517025,-2.99007e-05,30,13,0.764244,0.764244,14.9877,10,0.508
0.749692,0.749785,0.7403,0.739756,-0.00531414,-0.00018812,-0.00524756,-0.000135098,31,13,0.792503,0.792503,15.0104,10,0.512
0.749671,0.749783,0.740279,0.739754,-0.00539295,-0.000240577,-0.00532538,-0.000262811,31,12,0.821341,0.821341,15.0329,10,0.516
0.749649,0.749783,0.740257,0.739752,-0.00547226,-0.000160385,-0.00540371,-0.000319162,32,13,0.850503,0.850503,15.0551,10,0.52
0.749627,0.749783,0.740236,0.739749,-0.00555209,-0.000135714,-0.00548253,-0.000443102,33,13,0.880658,0.880658,15.0776,10,0.524
0.749605,0.749783,0.740214,0.739748,-0.00563242,-0.000119267,-0.00556185,-0.000410565,34,14,0.911524,0.911524,15.0998,10,0.528
0.749582,0.749782,0.740191,0.739746,-0.00571325,-0.000108302,-0.00564168,-0.000446455,35,15,0.94306,0.94306,15.1233,10,0.532
0.749559,0.749782,0.740168,0.739744,-0.00579459,-0.000100992,-0.00572199,-0.000412801,35,16,0.975241,0.975241,15.1473,10,0.536
0.749536,0.749781,0.740145,0.739744,-0.00587643,-0.00012491,-0.00580281,-0.000303991,36,18,1.00804,1.00804,15.1727,10,0.54
0.749512,0.749781,0.740122,0.739743,-0.00595877,-0.000112064,-0.00588411,-0.000260243,37,19,1.04132,1.04132,15.2001,10,0.544
0.749488,0.74978,0.740098,0.739743,-0.0060416,-0.000132291,-0.00596591,-0.000231077,37,21,1.07525,1.07525,15.2288,10,0.548
0.749464,0.749779,0.740074,0.739742,-0.00612494,-0.000232149,-0.0060482,-0.000211633,37,22,1.10965,1.10965,15.2588,10,0.552
0.749439,0.749778,0.74005,0.739741,-0.00620877,-0.000241139,-0.00613098,-0.000198671,38,23,1.14413,1.14413,15.2899,10,0.556
0.749414,0.749775,0.740025,0.739741,-0.00629309,-0.000362296,-0.00621425,-0.000190029,38,24,1.17913,1.17913,15.3221,10,0.56
0.749389,0.749773,0.74,0.739739,-0.0063779,-0.000443067,-0.006298,-0.000270641,39,25,1.21409,1.21409,15.3552,10,0.564
0.749363,0.749769,0.739975,0.739738,-0.00646321,-0.000583287,-0.00638223,-0.000238009,39,26,1.24919,1.24919,15.3886,10,0.568
0.749337,0.749764,0.739949,0.739737,-0.006549,-0.000791931,-0.00646695,-0.000273836,38,27,1.2841,1.2841,15.4233,10,0.572
0.749311,0.749759,0.739923,0.739735,-0.00663528,-0.0010174,-0.00655215,-0.000355303,38,27,1.31846,1.31846,15.4586,10,0.576
0.749284,0.749751,0.739897,0.739733,-0.00672205,-0.00131167,-0.00663783,-0.000380823,37,28,1.35215,1.35215,15.494,10,0.58
0.749257,0.749742,0.73987,0.739731,-0.0068093,-0.00162301,-0.00672399,-0.000426628,36,28,1.38482,1.38482,15.5301,10,0.584
0.749229,0.749732,0.739843,0.739728,-0.00689703,-0.00188815,-0.00681062,-0.000543537,35,28,1.41638,1.41638,15.5668,10,0.588
0.749202,0.749721,0.739815,0.739725,-0.00698525,-0.00218008,-0.00689773,-0.000563894,34,29,1.44707,1.44707,15.6033,10,0.592
0.749174,0.74971,0.739788,0.739724,-0.00707394,-0.00240349,-0.00698532,-0.000519884,34,31,1.47677,1.47677,15.6406,10,0.596
0.749145,0.749698,0.73976,0.739721,-0.00716311,-0.00255242,-0.00707337,-0.000576917,34,31,1.50586,1.50586,15.6793,10,0.6
0.749116,0.749686,0.739731,0.739719,-0.00725276,-0.00273809,-0.0071619,-0.000586148,34,33,1.53471,1.53471,15.7185,10,0.604
0.749087,0.749673,0.739702,0.739716,-0.00734289,-0.00291945,-0.0072509,-0.000592302,33,34,1.56314,1.56314,15.7586,10,0.608
0.749057,0.74966,0.739673,0.739714,-0.00743349,-0.00298277,-0.00734036,-0.000596404,34,35,1.59122,1.59122,15.7996,10,0.612
0.749028,0.749647,0.739644,0.739711,-0.00752456,-0.00308257,-0.00743029,-0.00062793,34,36,1.61954,1.61954,15.8416,10,0.616
0.748997,0.749634,0.739614,0.739709,-0.0076161,-0.00317789,-0.00752069,-0.000591366,34,37,1.64792,1.64792,15.8843,10,0.62
0.748967,0.749619,0.739583,0.739707,-0.00770811,-0.00332781,-0.00761154,-0.000538198,34,39,1.67636,1.67636,15.9284,10,0.624
0.748936,0.749605,0.739553,0.739705,-0.00780059,-0.00342776,-0.00770286,-0.000502754,34,40,1.70461,1.70461,15.9741,10,0.628
0.748904,0.749591,0.739522,0.739704,-0.00789354,-0.0034656,-0.00779464,-0.000479124,35,42,1.73294,1.73294,16.0212,10,0.632
0.748872,0.749577,0.73949,0.739702,-0.00798695,-0.00343325,-0.00788688,-0.00046337,36,43,1.76171,1.76171,16.0695,10,0.636
0.74884,0.749564,0.739459,0.739699,-0.00808082,-0.00338289,-0.00797958,-0.000539241,37,44,1.7913,1.7913,16.1189,10,0.64
0.748808,0.749551,0.739427,0.739696,-0.00817515,-0.00334931,-0.00807273,-0.000618612,37,44,1.8218,1.8218,16.1687,10,0.644
0.748775,0.749537,0.739394,0.739692,-0.00826995,-0.0034133,-0.00816634,-0.000729108,38,44,1.85308,1.85308,16.2187,10,0.648
0.748742,0.749523,0.739361,0.739688,-0.0083652,-0.00345596,-0.0082604,-0.000860354,38,44,1.88467,1.88467,16.2686,10,0.652
0.748708,0.749507,0.739328,0.739682,-0.00846091,-0.00357078,-0.00835491,-0.00103422,39,44,1.91663,1.91663,16.3182,10,0.656
0.748674,0.749491,0.739294,0.739676,-0.00855707,-0.00373369,-0.00844987,-0.00117893,38,44,1.94859,1.94859,16.3672,10,0.66
0.74864,0.749473,0.73926,0.739669,-0.00865369,-0.00398626,-0.00854528,-0.00141935,38,42,1.98025,1.98025,16.4157,10,0.664
0.748605,0.749454,0.739226,0.739659,-0.00875077,-0.00421221,-0.00864113,-0.00172359,37,41,2.01117,2.01117,16.4629,10,0.668
0.74857,0.749435,0.739191,0.739649,-0.00884829,-0.00439164,-0.00873744,-0.00204158,37,39,2.0415,2.0415,16.5081,10,0.672
0.748534,0.749416,0.739156,0.739636,-0.00894626,-0.00456884,-0.00883418,-0.00245511,37,36,2.07149,2.07149,16.5511,10,0.676
0.748498,0.749396,0.739121,0.739622,-0.00904468,-0.00465819,-0.00893137,-0.00278838,37,34,2.10117,2.10117,16.5911,10,0.68
0.748462,0.749377,0.739085,0.739608,-0.00914355,-0.00471775,-0.009029,-0.00301055,38,33,2.13102,2.13102,16.6288,10,0.684
0.748425,0.749358,0.739048,0.739594,-0.00924286,-0.00475746,-0.00912707,-0.00318746,38,33,2.1612,2.1612,16.6655,10,0.688
0.748388,0.749338,0.739012,0.73958,-0.00934262,-0.00481272,-0.00922557,-0.0033054,39,33,2.19182,2.19182,16.7015,10,0.692
0.74835,0.749319,0.738975,0.739565,-0.00944282,-0.00479198,-0.00932452,-0.00341282,40,33,2.22282,2.22282,16.7375,10,0.696
0.748312,0.7493,0.738937,0.739551,-0.00954346,-0.00474936,-0.00942389,-0.00342685,41,34,2.25462,2.25462,16.7735,10,0.7
0.748274,0.749281,0.738899,0.739538,-0.00964453,-0.00480733,-0.0095237,-0.0034362,41,35,2.28729,2.28729,16.8104,10,0.704
0.748235,0.749259,0.738861,0.739523,-0.00974605,-0.0050475,-0.00962395,-0.00347123,41,36,2.32024,2.32024,16.8484,10,0.708
0.748196,0.749237,0.738822,0.73951,-0.009848,-0.00517883,-0.00972462,-0.00340821,41,38,2.35258,2.35258,16.8872,10,0.712
0.748156,0.749214,0.738783,0.739496,-0.00995039,-0.00538155,-0.00982573,-0.00348136,40,38,2.38483,2.38483,16.9276,10,0.716
0.748116,0.74919,0.738744,0.739482,-0.0100532,-0.00554548,-0.00992726,-0.00350133,40,39,2.41666,2.41666,16.9685,10,0.72
0.748076,0.749166,0.738704,0.739467,-0.0101565,-0.00571235,-0.0100292,-0.00351465,40,40,2.44825,2.44825,17.0102,10,0.724
0.748035,0.749142,0.738663,0.739453,-0.0102601,-0.0058236,-0.0101316,-0.00358111,40,41,2.47962,2.47962,17.053,10,0.728
0.747994,0.749116,0.738623,0.739438,-0.0103643,-0.00601293,-0.0102344,-0.00359663,40,42,2.51102,2.51102,17.0962,10,0.732
0.747952,0.74909,0.738581,0.739422,-0.0104688,-0.00619673,-0.0103376,-0.00375092,40,42,2.54205,2.54205,17.1404,10,0.736
0.74791,0.749063,0.73854,0.739405,-0.0105738,-0.00640564,-0.0104413,-0.00391137,40,42,2.57273,2.57273,17.1841,10,0.74
0.747867,0.749035,0.738498,0.739388,-0.0106791,-0.0065737,-0.0105453,-0.00404713,40,42,2.60295,2.60295,17.2273,10,0.744
0.747824,0.749007,0.738456,0.73937,-0.010785,-0.00671453,-0.0106498,-0.00416642,40,42,2.63293,2.63293,17.2704,10,0.748
0.747781,0.748979,0.738413,0.739351,-0.0108912,-0.00683721,-0.0107547,-0.00436112,40,41,2.66282,2.66282,17.3134,10,0.752
0.747737,0.748951,0.73837,0.739333,-0.0109978,-0.0068902,-0.0108601,-0.00443333,40,42,2.69274,2.69274,17.3556,10,0.756
0.747693,0.748923,0.738326,0.739315,-0.0111049,-0.00692553,-0.0109658,-0.00445268,41,43,2.72307,2.72307,17.3983,10,0.76
0.747649,0.748894,0.738282,0.739296,-0.0112124,-0.00697788,-0.0110719,-0.00452316,41,43,2.75388,2.75388,17.4419,10,0.764
0.747603,0.748865,0.738237,0.739278,-0.0113203,-0.00707036,-0.0111785,-0.00454136,42,45,2.7851,2.7851,17.486,10,0.768
0.747558,0.748837,0.738192,0.739258,-0.0114286,-0.00707443,-0.0112854,-0.00466866,42,45,2.81653,2.81653,17.5311,10,0.772
0.747512,0.748809,0.738147,0.73924,-0.0115373,-0.00701956,-0.0113928,-0.00463836,44,46,2.84867,2.84867,17.5761,10,0.776
0.747466,0.748783,0.738101,0.739222,-0.0116465,-0.00686782,-0.0115006,-0.00458937,45,48,2.88187,2.88187,17.6226,10,0.78
0.747419,0.748759,0.738055,0.739206,-0.011756,-0.00656512,-0.0116087,-0.00438396,48,51,2.91669,2.91669,17.6708,10,0.784
0.747372,0.748737,0.738008,0.739192,-0.011866,-0.00621936,-0.0117173,-0.00410307,50,56,2.95395,2.95395,17.7224,10,0.788
0.747324,0.748718,0.737961,0.739179,-0.0119764,-0.00575853,-0.0118263,-0.00382943,54,60,2.99394,2.99394,17.7779,10,0.792
0.747276,0.748702,0.737914,0.739166,-0.0120871,-0.0051922,-0.0119357,-0.00356064,58,64,3.03729,3.03729,17.8373,10,0.796
0.747227,0.748688,0.737866,0.739155,-0.0121983,-0.0046131,-0.0120455,-0.00329507,62,68,3.08458,3.08458,17.9007,10,0.8
0.747178,0.748676,0.737817,0.739146,-0.0123099,-0.00408308,-0.0121557,-0.00297407,66,72,3.13589,3.13589,17.9679,10,0.804
0.747129,0.748665,0.737769,0.739138,-0.0124219,-0.00361457,-0.0122662,-0.00267369,69,77,3.19094,3.19094,18.0395,10,0.808
0.747079,0.748657,0.737719,0.739131,-0.0125342,-0.0031007,-0.0123772,-0.00235828,73,81,3.24946,3.24946,18.1154,10,0.812
0.747028,0.74865,0.73767,0.739126,-0.012647,-0.00261416,-0.0124886,-0.00197526,77,86,3.31168,3.31168,18.1957,10,0.816
0.746978,0.748646,0.737619,0.739122,-0.0127602,-0.00211706,-0.0126003,-0.00166233,81,91,3.37749,3.37749,18.2809,10,0.82
0.746926,0.748643,0.737569,0.739119,-0.0128737,-0.00167049,-0.0127125,-0.00133855,84,96,3.44694,3.44694,18.3706,10,0.824
0.746875,0.748641,0.737518,0.739116,-0.0129877,-0.0012864,-0.012825,-0.00115148,88,99,3.51976,3.51976,18.4646,10,0.828
0.746822,0.74864,0.737466,0.739114,-0.0131021,-0.000915185,-0.0129379,-0.000940401,91,103,3.59564,3.59564,18.5617,10,0.832
0.74677,0.74864,0.737414,0.739111,-0.0132168,-0.000610123,-0.0130512,-0.000857262,94,105,3.67449,3.67449,18.6621,10,0.836
0.746717,0.748639,0.737362,0.739109,-0.0133319,-0.00043554,-0.0131649,-0.000773044,96,108,3.75594,3.75594,18.7646,10,0.84
0.746663,0.748639,0.737309,0.739106,-0.0134475,-0.000319151,-0.013279,-0.00074569,98,109,3.8393,3.8393,18.8691,10,0.844
0.746609,0.748638,0.737255,0.739103,-0.0135634,-0.000270349,-0.0133934,-0.000756245,99,111,3.92424,3.92424,18.9752,10,0.848
0.746555,0.748637,0.737202,0.7391,-0.0136797,-0.000295396,-0.0135083,-0.000734491,100,113,4.01041,4.01041,19.0823,10,0.852
0.7465,0.748635,0.737147,0.739097,-0.0137963,-0.000340886,-0.0136235,-0.000719988,102,115,4.0974,4.0974,19.191,10,0.856
0.746444,0.748633,0.737093,0.739094,-0.0139134,-0.000400003,-0.0137391,-0.000767901,103,116,4.18512,4.18512,19.301,10,0.86
0.746388,0.748631,0.737037,0.73909,-0.0140308,-0.000468205,-0.013855,-0.000857425,104,117,4.27349,4.27349,19.4117,10,0.864
0.746332,0.748628,0.736982,0.739085,-0.0141486,-0.000542464,-0.0139714,-0.00097469,104,117,4.36246,4.36246,19.5228,10,0.868
0.746275,0.748625,0.736926,0.739078,-0.0142668,-0.000620761,-0.0140881,-0.00119682,105,117,4.45202,4.45202,19.6339,10,0.872
0.746218,0.748622,0.736869,0.739071,-0.0143854,-0.000644168,-0.0142052,-0.0013737,107,117,4.54216,4.54216,19.7441,10,0.876
0.74616,0.74862,0.736812,0.739064,-0.0145044,-0.000630982,-0.0143227,-0.00152041,108,117,4.63318,4.63318,19.8538,10,0.88
0.746102,0.748618,0.736755,0.739057,-0.0146237,-0.0005934,-0.0144405,-0.00164701,110,118,4.72529,4.72529,19.9633,10,0.884
0.746043,0.748616,0.736697,0.739049,-0.0147434,-0.000539555,-0.0145587,-0.00170261,111,119,4.81862,4.81862,20.0729,10,0.888
0.745984,0.748615,0.736638,0.739041,-0.0148634,-0.000474867,-0.0146772,-0.00182606,113,119,4.91329,4.91329,20.1831,10,0.892
0.745924,0.748613,0.736579,0.739034,-0.0149839,-0.000431742,-0.0147962,-0.00179319,115,121,5.00932,5.00932,20.2935,10,0.896
0.745864,0.748613,0.73652,0.739029,-0.0151047,-0.00034541,-0.0149154,-0.00165612,117,124,5.10665,5.10665,20.4055,10,0.9
0.745803,0.748611,0.73646,0.739024,-0.0152258,-0.000316646,-0.0150351,-0.00150715,118,127,5.20547,5.20547,20.5202,10,0.904
0.745742,0.74861,0.736399,0.73902,-0.0153474,-0.00029747,-0.0151551,-0.00132147,120,131,5.30549,5.30549,20.6377,10,0.908
0.745681,0.748609,0.736339,0.739018,-0.0154693,-0.000284686,-0.0152755,-0.00105372,121,135,5.40667,5.40667,20.7583,10,0.912
0.745619,0.748608,0.736277,0.739015,-0.0155915,-0.000276164,-0.0153962,-0.000904019,123,139,5.50897,5.50897,20.8829,10,0.916
0.745556,0.748607,0.736215,0.739014,-0.0157142,-0.000299273,-0.0155173,-0.000689052,124,142,5.61237,5.61237,21.0104,10,0.92
0.745493,0.748606,0.736153,0.739013,-0.0158371,-0.000285888,-0.0156387,-0.000603323,126,145,5.71671,5.71671,21.1412,10,0.924
0.745429,0.748605,0.73609,0.739011,-0.0159605,-0.000305756,-0.0157605,-0.00054617,127,148,5.82219,5.82219,21.2742,10,0.928
0.745365,0.748603,0.736027,0.739009,-0.0160842,-0.000319001,-0.0158827,-0.000536859,128,149,5.92863,5.92863,21.409,10,0.932
0.745301,0.748601,0.735963,0.739008,-0.0162082,-0.000356622,-0.0160052,-0.000473069,130,152,6.03607,6.03607,21.5453,10,0.936
0.745235,0.7486,0.735899,0.739005,-0.0163326,-0.000352912,-0.016128,-0.000516916,131,153,6.1444,6.1444,21.6835,10,0.94
0.74517,0.748598,0.735834,0.739002,-0.0164574,-0.000379229,-0.0162512,-0.000603729,133,154,6.25382,6.25382,21.8225,10,0.944
0.745104,0.748596,0.735769,0.738999,-0.0165825,-0.000454356,-0.0163747,-0.000690395,134,155,6.36418,6.36418,21.962,10,0.948
0.745037,0.748594,0.735703,0.738995,-0.0167079,-0.00050444,-0.0164986,-0.000719382,135,157,6.47522,6.47522,22.102,10,0.952
0.74497,0.748591,0.735637,0.738992,-0.0168337,-0.000566621,-0.0166228,-0.000767497,136,158,6.58707,6.58707,22.243,10,0.956
0.744903,0.748588,0.73557,0.738988,-0.0169599,-0.000608075,-0.0167474,-0.000857156,138,159,6.6997,6.6997,22.3848,10,0.96
0.744834,0.748585,0.735503,0.738985,-0.0170864,-0.000693292,-0.0168723,-0.000830556,139,162,6.81318,6.81318,22.5271,10,0.964
0.744766,0.748581,0.735435,0.738981,-0.0172132,-0.000778895,-0.0169976,-0.000899195,140,163,6.9273,6.9273,22.671,10,0.968
0.744697,0.748576,0.735367,0.738976,-0.0173404,-0.000922336,-0.0171232,-0.00100254,141,164,7.04203,7.04203,22.8155,10,0.972
0.744627,0.748571,0.735298,0.73897,-0.0174679,-0.00101796,-0.0172491,-0.00112901,142,164,7.1571,7.1571,22.9604,10,0.976
0.744557,0.748566,0.735229,0.738964,-0.0175958,-0.00108172,-0.0173754,-0.0012997,143,165,7.27277,7.27277,23.1052,10,0.98
0.744486,0.74856,0.735159,0.738957,-0.017724,-0.00121059,-0.0175019,-0.0014135,144,166,7.38918,7.38918,23.2498,10,0.984
0.744415,0.748554,0.735089,0.738948,-0.0178525,-0.0013253,-0.0176289,-0.0016621,145,165,7.506,7.506,23.3945,10,0.988
0.744344,0.748548,0.735018,0.738939,-0.0179814,-0.00140177,-0.0177561,-0.00188542,146,165,7.62332,7.62332,23.538,10,0.992
0.744271,0.748542,0.734947,0.738929,-0.0181106,-0.00142396,-0.0178837,-0.00209189,147,165,7.74137,7.74137,23.6807,10,0.996
0.744199,0.748537,0.734875,0.738919,-0.0182402,-0.00135238,-0.0180116,-0.00222953,149,165,7.86046,7.86046,23.8228,10,1
0.744125,0.748533,0.734803,0.738909,-0.01837,-0.00127587,-0.0181399,-0.0022925,151,167,7.9811,7.9811,23.9648,10,1.004
0.744052,0.748529,0.73473,0.738901,-0.0185002,-0.00116728,-0.0182685,-0.0022481,154,169,8.10333,8.10333,24.1077,10,1.008
0.743977,0.748525,0.734657,0.738894,-0.0186308,-0.00106609,-0.0183974,-0.00207456,156,173,8.22731,8.22731,24.2524,10,1.012
0.743903,0.748523,0.734583,0.738889,-0.0187616,-0.000912266,-0.0185266,-0.0018149,158,177,8.35304,8.35304,24.4003,10,1.016
0.743827,0.748521,0.734508,0.738884,-0.0188928,-0.000809714,-0.0186561,-0.00161301,160,181,8.48079,8.48079,24.5521,10,1.02
0.743752,0.748518,0.734434,0.73888,-0.0190243,-0.000741346,-0.018786,-0.00142083,163,185,8.61026,8.61026,24.7074,10,1.024
0.743675,0.748516,0.734358,0.738876,-0.0191562,-0.000638185,-0.0189162,-0.00126392,165,188,8.74132,8.74132,24.8659,10,1.028
0.743598,0.748514,0.734282,0.738873,-0.0192883,-0.000598202,-0.0190467,-0.00110173,167,192,8.87413,8.87413,25.0274,10,1.032
0.743521,0.748513,0.734206,0.738869,-0.0194208,-0.000542756,-0.0191775,-0.0010224,169,195,9.00836,9.00836,25.1919,10,1.036
0.743443,0.748511,0.734129,0.738865,-0.0195536,-0.000505792,-0.0193086,-0.00102709,171,197,9.1441,9.1441,25.3585,10,1.04
0.743364,0.748509,0.734051,0.73886,-0.0196867,-0.000481149,-0.0194401,-0.00114538,173,198,9.28125,9.28125,25.5264,10,1.044
0.743285,0.748507,0.733973,0.738854,-0.0198201,-0.000464721,-0.0195718,-0.00125303,174,199,9.41976,9.41976,25.6945,10,1.048
0.743206,0.748506,0.733895,0.738847,-0.0199539,-0.000424978,-0.0197039,-0.00141117,176,199,9.55959,9.55959,25.8629,10,1.052
0.743126,0.748504,0.733816,0.738838,-0.0200879,-0.000456064,-0.0198363,-0.00166056,178,199,9.70085,9.70085,26.0311,10,1.056
0.743045,0.748501,0.733736,0.738828,-0.0202223,-0.00053437,-0.0199689,-0.00197076,179,198,9.84315,9.84315,26.1982,10,1.06
0.742964,0.748498,0.733656,0.738816,-0.020357,-0.000615365,-0.0201019,-0.00229273,181,197,9.98625,9.98625,26.3635,10,1.064
0.742882,0.748494,0.733575,0.738803,-0.020492,-0.000755734,-0.0202352,-0.00265134,181,196,10.1301,10,26.5271,10,1.068
0.7428,0.748488,0.733494,0.738789,-0.0206273,-0.000993269,-0.0203688,-0.0028904,181,195,10.2738,10,26.6885,10,1.072
0.742717,0.748482,0.733412,0.738776,-0.0207629,-0.00120921,-0.0205027,-0.00302099,181,196,10.4169,10,26.849,10,1.076
0.742634,0.748473,0.73333,0.738764,-0.0208988,-0.00149712,-0.020637,-0.00302168,181,198,10.5592,10,27.0096,10,1.08
0.74255,0.748464,0.733247,0.738754,-0.021035,-0.00180423,-0.0207715,-0.00284939,181,202,10.7006,10,27.1718,10,1.084
0.742466,0.748452,0.733164,0.738743,-0.0211715,-0.00218171,-0.0209063,-0.00279211,180,204,10.8409,10,27.3371,10,1.088
0.742381,0.748439,0.73308,0.738733,-0.0213083,-0.00254853,-0.0210414,-0.00275393,179,207,10.9797,10,27.5043,10,1.092
0.742295,0.748425,0.732996,0.738722,-0.0214454,-0.00285066,-0.0211768,-0.00272847,178,209,11.1171,10,27.6734,10,1.096
0.742209,0.748411,0.732911,0.738711,-0.0215829,-0.00302328,-0.0213125,-0.00274029,179,211,11.2534,10,27.8441,10,1.1
0.742123,0.748401,0.732825,0.738699,-0.0217206,-0.00290804,-0.0214485,-0.00280575,181,213,11.3896,10,28.0162,10,1.104
0.742035,0.748393,0.732739,0.738687,-0.0218586,-0.00260089,-0.0215847,-0.00287818,183,214,11.5271,10,28.189,10,1.108
0.741948,0.748388,0.732652,0.738674,-0.0219969,-0.00210821,-0.0217213,-0.00298405,187,215,11.667,10,28.3625,10,1.112
0.741859,0.748386,0.732565,0.738661,-0.0221355,-0.00157822,-0.0218582,-0.00311221,191,216,11.8103,10,28.5364,10,1.116
0.741771,0.748386,0.732478,0.738646,-0.0222744,-0.00105214,-0.0219953,-0.00328403,195,217,11.9573,10,28.7104,10,1.12
0.741681,0.748386,0.732389,0.738631,-0.0224136,-0.000701429,-0.0221328,-0.00342736,199,217,12.1077,10,28.8842,10,1.124
0.741591,0.748386,0.7323,0.738615,-0.022553,-0.000467619,-0.0222705,-0.00360929,201,218,12.2607,10,29.0579,10,1.128
0.741501,0.748386,0.732211,0.738597,-0.0226928,-0.000311746,-0.0224085,-0.00390332,203,217,12.4157,10,29.2313,10,1.132
0.74141,0.748386,0.732121,0.738577,-0.0228328,-0.000236622,-0.0225468,-0.00427209,205,216,12.5721,10,29.4031,10,1.136
0.741318,0.748386,0.732031,0.738556,-0.0229732,-0.000186539,-0.0226854,-0.0046331,207,214,12.7296,10,29.5726,10,1.14
0.741226,0.748386,0.73194,0.738533,-0.0231138,-0.000124359,-0.0228242,-0.00498893,208,213,12.888,10,29.7401,10,1.144
0.741133,0.748385,0.731848,0.73851,-0.0232547,-0.000140488,-0.0229633,-0.00525495,209,212,13.0474,10,29.9054,10,1.148
0.74104,0.748384,0.731756,0.738487,-0.0233959,-0.000151241,-0.0231027,-0.0054035,211,213,13.2074,10,30.0696,10,1.152
0.740946,0.748383,0.731663,0.738464,-0.0235373,-0.0001872,-0.0232424,-0.00553132,212,214,13.368,10,30.2339,10,1.156
0.740852,0.748381,0.73157,0.73844,-0.023679,-0.000268754,-0.0233824,-0.00567412,213,215,13.529,10,30.3983,10,1.16
0.740757,0.74838,0.731476,0.738417,-0.0238211,-0.000323124,-0.0235226,-0.00574053,214,216,13.6903,10,30.5627,10,1.164
0.740661,0.748378,0.731382,0.738393,-0.0239633,-0.000388162,-0.0236631,-0.0058136,215,218,13.8519,10,30.728,10,1.168
0.740565,0.748375,0.731287,0.738369,-0.0241059,-0.000489102,-0.0238039,-0.00583351,216,220,14.0138,10,30.8941,10,1.172
0.740468,0.748372,0.731191,0.738346,-0.0242487,-0.000527604,-0.023945,-0.00584679,217,222,14.1758,10,31.0615,10,1.176
0.740371,0.748369,0.731095,0.738323,-0.0243919,-0.000610855,-0.0240863,-0.00579806,218,224,14.3383,10,31.2302,10,1.18
0.740273,0.748366,0.730999,0.738301,-0.0245352,-0.000666355,-0.0242279,-0.00573678,219,227,14.501,10,31.4009,10,1.184
0.740175,0.748362,0.730902,0.738282,-0.0246789,-0.000760937,-0.0243697,-0.00537923,219,233,14.6641,10,31.5739,10,1.188
0.740076,0.748358,0.730804,0.738267,-0.0248228,-0.000881573,-0.0245118,-0.00485296,220,240,14.8273,10,31.752,10,1.192
0.739976,0.748352,0.730705,0.738256,-0.024967,-0.00104837,-0.0246542,-0.00415661,221,249,14.9905,10,31.937,10,1.196
0.739876,0.748346,0.730607,0.738247,-0.0251114,-0.00118836,-0.0247968,-0.00351964,221,257,15.1535,10,32.1305,10,1.2
0.739775,0.74834,0.730507,0.73824,-0.0252561,-0.00131048,-0.0249397,-0.00295104,222,265,15.3163,10,32.3317,10,1.204
0.739674,0.748332,0.730407,0.738233,-0.0254011,-0.00156463,-0.0250829,-0.00251438,222,272,15.4792,10,32.5402,10,1.208
0.739572,0.748323,0.730306,0.738227,-0.0255464,-0.00176286,-0.0252263,-0.00219449,222,277,15.6413,10,32.7544,10,1.212
0.739469,0.748313,0.730205,0.738221,-0.0256919,-0.00201018,-0.02537,-0.00192365,222,282,15.8029,10,32.9733,10,1.216
0.739366,0.748303,0.730103,0.738215,-0.0258376,-0.00217506,-0.0255139,-0.00177188,223,286,15.964,10,33.1964,10,1.22
0.739263,0.748293,0.730001,0.738209,-0.0259836,-0.00228497,-0.0256581,-0.00169949,223,289,16.1248,10,33.4225,10,1.224
0.739159,0.748283,0.729898,0.738202,-0.0261299,-0.00235825,-0.0258025,-0.00170881,224,292,16.2857,10,33.6508,10,1.228
0.739054,0.748274,0.729795,0.738196,-0.0262764,-0.00237831,-0.0259472,-0.00165744,226,295,16.4469,10,33.8806,10,1.232
0.738948,0.748264,0.729691,0.73819,-0.0264232,-0.00242048,-0.0260922,-0.0016232,227,297,16.6087,10,34.1124,10,1.236
0.738842,0.748253,0.729586,0.738185,-0.0265702,-0.00250617,-0.0262373,-0.00148521,228,301,16.7709,10,34.3461,10,1.24
0.738736,0.74824,0.729481,0.738181,-0.0267175,-0.00276484,-0.0263828,-0.00133563,228,305,16.9333,10,34.5827,10,1.244
0.738629,0.748224,0.729375,0.738178,-0.026865,-0.00313882,-0.0265285,-0.00112075,227,310,17.0949,10,34.8224,10,1.248
0.738521,0.748206,0.729268,0.738176,-0.0270128,-0.00358967,-0.0266744,-0.000891119,226,314,17.2551,10,35.0657,10,1.252
0.738412,0.748185,0.729161,0.738175,-0.0271608,-0.00417815,-0.0268206,-0.000680452,224,319,17.4134,10,35.3129,10,1.256
0.738304,0.748161,0.729054,0.738174,-0.0273091,-0.00477201,-0.026967,-0.000540007,222,323,17.5692,10,35.5638,10,1.26
0.738194,0.748134,0.728946,0.738174,-0.0274576,-0.00545582,-0.0271136,-0.000417587,220,327,17.7222,10,35.8175,10,1.264
0.738084,0.748103,0.728837,0.738172,-0.0276064,-0.0062284,-0.0272605,-0.000364764,217,330,17.8722,10,36.074,10,1.268
0.737973,0.748066,0.728728,0.738171,-0.0277554,-0.00723289,-0.0274077,-0.000329549,213,333,18.0184,10,36.3326,10,1.272
0.737862,0.748022,0.728618,0.73817,-0.0279046,-0.0084208,-0.027555,-0.000363654,208,335,18.1597,10,36.593,10,1.276
0.73775,0.747973,0.728507,0.738168,-0.0280541,-0.00970217,-0.0277026,-0.00038639,202,337,18.2949,10,36.8546,10,1.28
0.737637,0.747918,0.728396,0.738166,-0.0282038,-0.0111035,-0.0278505,-0.00045913,196,339,18.4237,10,37.1175,10,1.284
0.737524,0.747855,0.728284,0.738162,-0.0283538,-0.0126135,-0.0279986,-0.000593996,189,341,18.5453,10,37.3813,10,1.288
0.737411,0.747783,0.728172,0.738157,-0.028504,-0.0144551,-0.0281469,-0.00079907,180,341,18.6591,10,37.6452,10,1.292
0.737296,0.747703,0.728059,0.738153,-0.0286544,-0.0162586,-0.0282954,-0.000906996,172,343,18.7632,10,37.9086,10,1.296
0.737181,0.747618,0.727946,0.738147,-0.0288051,-0.0179217,-0.0284442,-0.00109411,164,344,18.8581,10,38.1725,10,1.3
0.737066,0.747526,0.727832,0.738139,-0.028956,-0.0196349,-0.0285932,-0.00136281,156,344,18.9443,10,38.4361,10,1.304
0.73695,0.747427,0.727717,0.73813,-0.0291071,-0.021353,-0.0287424,-0.0016571,147,343,19.0217,10,38.6985,10,1.308
0.736833,0.747321,0.727602,0.738119,-0.0292584,-0.0230741,-0.0288919,-0.00205484,139,342,19.0902,10,38.9594,10,1.312
0.736716,0.747209,0.727486,0.738106,-0.02941,-0.0246534,-0.0290416,-0.00243515,131,341,19.1498,10,39.218,10,1.316
0.736598,0.747093,0.727369,0.738092,-0.0295618,-0.0261382,-0.0291915,-0.00277507,124,340,19.2014,10,39.4743,10,1.32
0.736479,0.746967,0.727252,0.738078,-0.0297138,-0.0279341,-0.0293416,-0.00303048,116,341,19.2452,10,39.7288,10,1.324
0.73636,0.746841,0.727135,0.738064,-0.0298661,-0.0291026,-0.0294919,-0.00317195,110,342,19.28,10,39.9824,10,1.328
0.73624,0.74671,0.727016,0.738052,-0.0300186,-0.0303423,-0.0296425,-0.00315111,104,345,19.3089,10,40.2363,10,1.332
0.73612,0.746574,0.726898,0.738042,-0.0301713,-0.0315143,-0.0297933,-0.00296447,99,349,19.3316,10,40.492,10,1.336
0.735999,0.746437,0.726778,0.738034,-0.0303242,-0.0324971,-0.0299443,-0.0026385,94,355,19.3486,10,40.7512,10,1.34
0.735877,0.746297,0.726658,0.738028,-0.0304773,-0.0332963,-0.0300955,-0.00224845,91,361,19.361,10,41.0154,10,1.344
0.735755,0.746151,0.726537,0.738023,-0.0306307,-0.0343473,-0.0302469,-0.00190204,86,367,19.3694,10,41.2849,10,1.348
0.735632,0.746005,0.726416,0.738018,-0.0307842,-0.0350767,-0.0303986,-0.00164231,83,373,19.3729,10,41.5595,10,1.352
0.735509,0.745855,0.726294,0.738015,-0.030938,-0.0358798,-0.0305504,-0.00141157,79,377,19.373,10,41.8383,10,1.356
0.735385,0.745705,0.726172,0.73801,-0.031092,-0.0364439,-0.0307025,-0.00128654,77,381,19.3694,10,42.1209,10,1.36
0.73526,0.74555,0.726048,0.738006,-0.0312462,-0.0372231,-0.0308548,-0.00126077,73,384,19.3633,10,42.4063,10,1.364
0.735135,0.745396,0.725925,0.737999,-0.0314007,-0.0376561,-0.0310073,-0.00135875,71,386,19.3537,10,42.6935,10,1.368
0.735009,0.745239,0.7258,0.737993,-0.0315553,-0.0381752,-0.03116,-0.00145286,69,388,19.3424,10,42.9813,10,1.372
0.734882,0.74508,0.725675,0.737986,-0.0317101,-0.0386939,-0.0313129,-0.0015156,67,390,19.329,10,43.2698,10,1.376
0.734755,0.744922,0.72555,0.737979,-0.0318652,-0.0389822,-0.031466,-0.00158622,66,392,19.3134,10,43.5593,10,1.38
0.734627,0.744759,0.725424,0.737972,-0.0320204,-0.0395774,-0.0316193,-0.00169088,64,394,19.2969,10,43.8496,10,1.384
0.734499,0.744593,0.725297,0.737964,-0.0321759,-0.040147,-0.0317728,-0.00176065,61,396,19.2779,10,44.1405,10,1.388
0.73437,0.74443,0.72517,0.737957,-0.0323316,-0.040354,-0.0319265,-0.00174959,61,399,19.2565,10,44.4323,10,1.392
0.73424,0.744269,0.725042,0.737951,-0.0324874,-0.0403768,-0.0320804,-0.00165584,61,403,19.2348,10,44.7259,10,1.396
0.73411,0.7441,0.724913,0.737946,-0.0326435,-0.0409391,-0.0322345,-0.00153576,59,407,19.2135,10,45.0221,10,1.4
0.733979,0.743934,0.724784,0.737942,-0.0327998,-0.0411411,-0.0323888,-0.00134054,58,412,19.19,10,45.3211,10,1.404
0.733848,0.743759,0.724654,0.73794,-0.0329562,-0.0419956,-0.0325433,-0.00112402,54,417,19.1659,10,45.6237,10,1.408
0.733716,0.743597,0.724523,0.737938,-0.0331129,-0.0415576,-0.032698,-0.000922091,57,421,19.1382,10,45.9301,10,1.412
0.733583,0.743426,0.724392,0.737937,-0.0332698,-0.0419566,-0.0328529,-0.0007011,56,426,19.1134,10,46.2401,10,1.416
0.733449,0.743255,0.724261,0.737936,-0.0334268,-0.0422226,-0.033008,-0.000496191,55,431,19.0872,10,46.5539,10,1.42
0.733315,0.743082,0.724128,0.737936,-0.0335841,-0.042515,-0.0331633,-0.000359585,54,436,19.0603,10,46.8714,10,1.424
0.733181,0.742911,0.723995,0.737935,-0.0337415,-0.0426237,-0.0333188,-0.000268514,54,439,19.0325,10,47.1919,10,1.428
0.733045,0.742736,0.723862,0.737935,-0.0338991,-0.0429552,-0.0334744,-0.000236591,53,443,19.0049,10,47.5148,10,1.432
0.732909,0.742563,0.723727,0.737933,-0.034057,-0.043061,-0.0336303,-0.000272891,53,445,18.9762,10,47.8397,10,1.436
0.732773,0.742388,0.723593,0.737933,-0.034215,-0.0433044,-0.0337863,-0.000239509,52,448,18.9477,10,48.1659,10,1.44
0.732636,0.742213,0.723457,0.737931,-0.0343732,-0.0434954,-0.0339425,-0.000274837,52,451,18.9186,10,48.494,10,1.444
0.732498,0.742039,0.723321,0.737931,-0.0345316,-0.0435075,-0.0340989,-0.000240806,52,454,18.8893,10,48.8234,10,1.448
0.73236,0.741862,0.723184,0.737929,-0.0346901,-0.0437172,-0.0342555,-0.000304492,52,457,18.8606,10,49.1547,10,1.452
0.73222,0.741686,0.723047,0.737926,-0.0348489,-0.0437706,-0.0344123,-0.000433322,52,459,18.8315,10,49.487,10,1.456
0.732081,0.741511,0.722909,0.737922,-0.0350078,-0.0438062,-0.0345692,-0.000605582,53,460,18.803,10,49.8197,10,1.46
0.73194,0.741334,0.72277,0.737916,-0.0351669,-0.0439451,-0.0347264,-0.000950749,53,460,18.775,10,50.1521,10,1.464
0.731799,0.741157,0.722631,0.737907,-0.0353262,-0.0440665,-0.0348837,-0.00135361,53,459,18.747,10,50.4827,10,1.468
0.731658,0.74098,0.722491,0.737896,-0.0354857,-0.0441186,-0.0350412,-0.00179492,53,457,18.7191,10,50.8109,10,1.472
0.731516,0.7408,0.722351,0.737883,-0.0356454,-0.0443837,-0.0351988,-0.00229067,52,455,18.6916,10,51.1363,10,1.476
0.731373,0.740624,0.72221,0.737868,-0.0358052,-0.0442437,-0.0353566,-0.00276512,54,454,18.6636,10,51.4583,10,1.48
0.731229,0.740446,0.722068,0.73785,-0.0359652,-0.0443519,-0.0355146,-0.00339813,54,451,18.6371,10,51.7772,10,1.484
0.731085,0.740267,0.721926,0.737826,-0.0361254,-0.0444816,-0.0356728,-0.0042232,54,445,18.6107,10,52.0913,10,1.488
0.73094,0.740089,0.721783,0.737799,-0.0362858,-0.0444818,-0.0358312,-0.00506116,54,440,18.5845,10,52.3987,10,1.492
0.730795,0.739907,0.721639,0.737767,-0.0364463,-0.0448561,-0.0359897,-0.00608045,53,433,18.5589,10,52.6993,10,1.496
0.730648,0.739729,0.721495,0.737727,-0.036607,-0.0447026,-0.0361484,-0.0073358,54,424,18.5322,10,52.9912,10,1.5
0.730502,0.73955,0.72135,0.73768,-0.0367679,-0.044773,-0.0363072,-0.00886368,55,412,18.5071,10,53.272,10,1.504
0.730354,0.73937,0.721204,0.737623,-0.0369289,-0.0448488,-0.0364662,-0.010602,55,398,18.4823,10,53.5391,10,1.508
0.730206,0.739188,0.721058,0.737559,-0.0370901,-0.0450144,-0.0366254,-0.0124519,55,382,18.4579,10,53.7903,10,1.512
0.730058,0.739008,0.720911,0.737484,-0.0372515,-0.0450097,-0.0367848,-0.0145489,55,364,18.4334,10,54.0245,10,1.516
0.729908,0.738827,0.720764,0.737397,-0.037413,-0.0450929,-0.0369443,-0.0169834,56,343,18.4097,10,54.2391,10,1.52
0.729758,0.738646,0.720616,0.737295,-0.0375747,-0.0451772,-0.037104,-0.0197868,56,318,18.3864,10,54.4308,10,1.524
0.729608,0.738462,0.720467,0.737182,-0.0377366,-0.0454349,-0.0372638,-0.022577,55,294,18.3633,10,54.5961,10,1.528
0.729456,0.738281,0.720318,0.73706,-0.0378986,-0.0454052,-0.0374238,-0.0252433,56,270,18.3397,10,54.7351,10,1.532
0.729305,0.738097,0.720168,0.736927,-0.0380608,-0.0455869,-0.0375839,-0.0279422,56,246,18.317,10,54.849,10,1.536
0.729152,0.737914,0.720017,0.736784,-0.0382231,-0.0455929,-0.0377442,-0.03049,56,223,18.2941,10,54.9376,10,1.54
0.728999,0.737726,0.719866,0.73663,-0.0383856,-0.0460863,-0.0379047,-0.033225,54,198,18.2718,10,55.0022,10,1.544
0.728845,0.737544,0.719714,0.736471,-0.0385482,-0.045897,-0.0380653,-0.0353938,56,179,18.2479,10,55.0413,10,1.548
0.72869,0.737359,0.719561,0.736308,-0.038711,-0.0460299,-0.0382261,-0.0371852,56,163,18.2257,10,55.0605,10,1.552
0.728535,0.737175,0.719408,0.73614,-0.038874,-0.0460322,-0.038387,-0.0387537,57,149,18.2037,10,55.0635,10,1.556
0.728379,0.736983,0.719254,0.735968,-0.0390371,-0.0466671,-0.0385481,-0.0402025,54,137,18.1822,10,55.0525,10,1.56
0.728223,0.736802,0.7191,0.735798,-0.0392004,-0.0461978,-0.0387093,-0.0409092,57,131,18.1585,10,55.0289,10,1.564
0.728066,0.736615,0.718944,0.735625,-0.0393638,-0.0463744,-0.0388706,-0.0416971,57,125,18.1379,10,54.9999,10,1.568
0.727908,0.736428,0.718789,0.73545,-0.0395274,-0.0464922,-0.0390322,-0.0424238,57,119,18.1172,10,54.9647,10,1.572
0.72775,0.736239,0.718632,0.735272,-0.0396911,-0.0467146,-0.0391938,-0.0430811,57,114,18.0966,10,54.9239,10,1.576
0.72759,0.736052,0.718475,0.735089,-0.0398549,-0.0467766,-0.0393556,-0.0439799,57,107,18.0757,10,54.8779,10,1.58
0.727431,0.735865,0.718317,0.734906,-0.0400189,-0.0467891,-0.0395176,-0.0446079,58,102,18.0553,10,54.8248,10,1.584
0.72727,0.735673,0.718159,0.734714,-0.0401831,-0.0472005,-0.0396797,-0.04566,56,93,18.0354,10,54.7668,10,1.588
0.727109,0.735484,0.718,0.734525,-0.0403474,-0.0472156,-0.0398419,-0.0462174,57,89,18.0143,10,54.7001,10,1.592
0.726947,0.735294,0.71784,0.734332,-0.0405118,-0.0472545,-0.0400043,-0.0469057,57,84,17.9939,10,54.6294,10,1.596
0.726785,0.735105,0.71768,0.734139,-0.0406764,-0.0472516,-0.0401668,-0.0473358,58,81,17.9741,10,54.5536,10,1.6
0.726622,0.734909,0.717519,0.733942,-0.0408411,-0.0478831,-0.0403294,-0.0479968,55,76,17.9549,10,54.475,10,1.604
0.726458,0.734721,0.717357,0.733748,-0.0410059,-0.0475556,-0.0404922,-0.0481496,58,75,17.9334,10,54.3916,10,1.608
0.726294,0.73453,0.717195,0.733553,-0.0411709,-0.0476251,-0.0406551,-0.0483666,58,75,17.9145,10,54.3084,10,1.612
0.726129,0.734338,0.717032,0.733356,-0.041336,-0.047729,-0.0408182,-0.0486552,58,73,17.896,10,54.2246,10,1.616
0.725963,0.734142,0.716868,0.733159,-0.0415013,-0.0482014,-0.0409814,-0.0488476,56,72,17.8775,10,54.1396,10,1.62
0.725797,0.733952,0.716704,0.732962,-0.0416667,-0.0479693,-0.0411447,-0.0490047,58,72,17.8576,10,54.0543,10,1.624
0.72563,0.733758,0.716539,0.732767,-0.0418322,-0.0481312,-0.0413081,-0.0488791,58,74,17.8396,10,53.9692,10,1.628
0.725462,0.733564,0.716374,0.732571,-0.0419979,-0.0482392,-0.0414717,-0.0489105,58,75,17.8216,10,53.887,10,1.632
0.725294,0.733368,0.716207,0.732374,-0.0421637,-0.0484839,-0.0416354,-0.0490178,58,76,17.8038,10,53.8061,10,1.636
0.725125,0.733173,0.716041,0.732179,-0.0423296,-0.0485607,-0.0417993,-0.049003,58,77,17.7856,10,53.7258,10,1.64
0.724955,0.732979,0.715873,0.731981,-0.0424956,-0.0485831,-0.0419632,-0.0491659,59,77,17.7677,10,53.6472,10,1.644
0.724785,0.73278,0.715705,0.731786,-0.0426618,-0.0489435,-0.0421273,-0.0490153,58,79,17.7505,10,53.5688,10,1.648
0.724614,0.732585,0.715536,0.731587,-0.0428281,-0.0488671,-0.0422915,-0.0492605,59,78,17.7322,10,53.4934,10,1.652
0.724442,0.732386,0.715366,0.731392,-0.0429945,-0.0491616,-0.0424559,-0.0491072,58,81,17.7151,10,53.4173,10,1.656
0.72427,0.732189,0.715196,0.731199,-0.043161,-0.0492428,-0.0426203,-0.0487747,58,85,17.6973,10,53.3446,10,1.66
0.724097,0.73199,0.715026,0.731012,-0.0433277,-0.0494121,-0.0427849,-0.0481211,58,93,17.6799,10,53.277,10,1.664
0.723924,0.731788,0.714854,0.730822,-0.0434945,-0.0497265,-0.0429496,-0.0479158,57,96,17.6623,10,53.2174,10,1.668
0.723749,0.73159,0.714682,0.730639,-0.0436614,-0.0496482,-0.0431144,-0.0471454,58,105,17.6439,10,53.1618,10,1.672
0.723574,0.73139,0.714509,0.730459,-0.0438284,-0.0497975,-0.0432793,-0.0464592,58,113,17.6268,10,53.1156,10,1.676
0.723399,0.731191,0.714336,0.730281,-0.0439956,-0.0497531,-0.0434444,-0.0458001,59,121,17.6097,10,53.0779,10,1.68
0.723222,0.730989,0.714162,0.730101,-0.0441628,-0.0500115,-0.0436095,-0.0455623,59,125,17.5936,10,53.0482,10,1.684
0.723045,0.730787,0.713987,0.729922,-0.0443302,-0.0501549,-0.0437748,-0.045231,59,130,17.577,10,53.0226,10,1.688
0.722868,0.730584,0.713811,0.729745,-0.0444977,-0.0503656,-0.0439402,-0.0449813,58,134,17.5604,10,53.002,10,1.692
0.722689,0.730381,0.713635,0.729565,-0.0446653,-0.0504774,-0.0441057,-0.0449588,58,135,17.5435,10,52.9855,10,1.696
0.72251,0.730179,0.713459,0.729384,-0.044833,-0.0504943,-0.0442713,-0.0450302,59,136,17.5269,10,52.9708,10,1.7
0.722331,0.729974,0.713281,0.729202,-0.0450008,-0.0507647,-0.044437,-0.0452217,58,136,17.511,10,52.957,10,1.704
0.72215,0.72977,0.713103,0.729019,-0.0451687,-0.050801,-0.0446029,-0.0453782,59,136,17.4945,10,52.943,10,1.708
0.721969,0.729566,0.712924,0.728837,-0.0453368,-0.0508827,-0.0447688,-0.0453962,59,137,17.4786,10,52.9291,10,1.712
0.721788,0.729362,0.712745,0.728652,-0.0455049,-0.0509085,-0.0449348,-0.0457248,60,136,17.4632,10,52.9166,10,1.716
0.721605,0.729156,0.712565,0.728468,-0.0456732,-0.051156,-0.045101,-0.0457712,59,137,17.4484,10,52.9027,10,1.72
0.721422,0.728948,0.712384,0.728281,-0.0458415,-0.0514073,-0.0452672,-0.0461188,59,135,17.4331,10,52.8898,10,1.724
0.721239,0.728744,0.712203,0.728095,-0.04601,-0.051287,-0.0454336,-0.0462354,60,135,17.4174,10,52.8752,10,1.728
0.721054,0.728537,0.712021,0.727909,-0.0461786,-0.0514371,-0.0456,-0.0463131,60,136,17.4031,10,52.8611,10,1.732
0.720869,0.728331,0.711838,0.727719,-0.0463472,-0.0514508,-0.0457666,-0.0467392,61,134,17.3889,10,52.8478,10,1.736
0.720683,0.728121,0.711654,0.727529,-0.046516,-0.0518342,-0.0459332,-0.0469945,60,133,17.3754,10,52.832,10,1.74
0.720497,0.727912,0.71147,0.727334,-0.0466849,-0.0519458,-0.0461,-0.0475389,60,129,17.3607,10,52.8151,10,1.744
0.72031,0.727705,0.711286,0.727145,-0.0468538,-0.0518475,-0.0462668,-0.0474413,61,131,17.3463,10,52.7948,10,1.748
0.720122,0.727495,0.7111,0.726951,-0.0470229,-0.0520987,-0.0464338,-0.047808,60,129,17.3333,10,52.777,10,1.752
0.719934,0.727287,0.710914,0.726759,-0.047192,-0.0520358,-0.0466008,-0.0479086,62,130,17.3198,10,52.7573,10,1.756
0.719745,0.727076,0.710727,0.726564,-0.0473613,-0.0522818,-0.0467679,-0.0481483,61,129,17.3074,10,52.7382,10,1.76
0.719555,0.726867,0.71054,0.72637,-0.0475306,-0.052273,-0.0469352,-0.0482794,62,129,17.2947,10,52.7184,10,1.764
0.719364,0.726657,0.710352,0.726177,-0.0477001,-0.0524112,-0.0471025,-0.0482804,62,131,17.2828,10,52.6991,10,1.768
0.719173,0.726445,0.710163,0.725983,-0.0478696,-0.052532,-0.0472699,-0.0483674,62,132,17.271,10,52.6815,10,1.772
0.718981,0.72623,0.709974,0.725785,-0.0480392,-0.0529869,-0.0474374,-0.0487134,60,130,17.2593,10,52.6645,10,1.776
0.718789,0.726019,0.709784,0.725595,-0.0482089,-0.0528583,-0.0476049,-0.0483394,62,135,17.2462,10,52.6461,10,1.78
0.718596,0.725809,0.709593,0.725409,-0.0483787,-0.0528013,-0.0477726,-0.0477158,63,143,17.2346,10,52.6333,10,1.784
0.718402,0.725597,0.709402,0.725226,-0.0485486,-0.0528209,-0.0479404,-0.0470985,64,150,17.2243,10,52.6285,10,1.788
0.718207,0.725382,0.709209,0.725048,-0.0487186,-0.0531507,-0.0481082,-0.0462263,63,160,17.2146,10,52.6316,10,1.792
0.718012,0.725172,0.709017,0.724876,-0.0488886,-0.0529675,-0.0482761,-0.0451554,65,172,17.2042,10,52.6453,10,1.796
0.717816,0.724956,0.708823,0.724711,-0.0490587,-0.0532772,-0.0484441,-0.0437793,64,188,17.1955,10,52.6716,10,1.8
0.71762,0.724743,0.708629,0.724548,-0.049229,-0.0533109,-0.0486122,-0.0427755,64,199,17.186,10,52.7132,10,1.804
0.717422,0.724527,0.708434,0.724389,-0.0493993,-0.0535349,-0.0487804,-0.0417608,64,211,17.1772,10,52.7666,10,1.808
0.717224,0.72431,0.708239,0.724233,-0.0495696,-0.0537419,-0.0489486,-0.0409116,64,221,17.168,10,52.8318,10,1.812
0.717026,0.724094,0.708043,0.724075,-0.0497401,-0.0538222,-0.0491169,-0.0403743,64,228,17.1586,10,52.907,10,1.816
0.716827,0.723873,0.707846,0.723914,-0.0499106,-0.0542789,-0.0492853,-0.0403328,62,231,17.1494,10,52.9891,10,1.82
0.716627,0.723655,0.707648,0.72375,-0.0500812,-0.054353,-0.0494538,-0.040593,63,230,17.1387,10,53.0731,10,1.824
0.716426,0.723435,0.70745,0.723584,-0.0502519,-0.0546327,-0.0496224,-0.0408816,62,229,17.1284,10,53.1563,10,1.828
0.716225,0.723214,0.707251,0.723412,-0.0504227,-0.0548192,-0.049791,-0.0415635,62,225,17.1174,10,53.238,10,1.832
0.716022,0.722993,0.707052,0.723242,-0.0505935,-0.0549148,-0.0499597,-0.0418741,62,224,17.1063,10,53.3148,10,1.836
0.71582,0.722769,0.706852,0.723066,-0.0507644,-0.0553239,-0.0501285,-0.0425995,61,218,17.0954,10,53.3901,10,1.84
0.715616,0.722549,0.706651,0.722898,-0.0509354,-0.0551649,-0.0502973,-0.042392,62,222,17.0833,10,53.4602,10,1.844
0.715412,0.722329,0.706449,0.72273,-0.0511065,-0.055174,-0.0504662,-0.0423113,63,225,17.073,10,53.534,10,1.848
0.715208,0.722105,0.706247,0.722565,-0.0512776,-0.0554392,-0.0506352,-0.0419408,63,231,17.0634,10,53.6106,10,1.852
0.715002,0.721883,0.706044,0.7224,-0.0514488,-0.0554144,-0.0508042,-0.0417226,64,235,17.0534,10,53.6925,10,1.856
0.714796,0.721661,0.705841,0.722239,-0.05162,-0.0554555,-0.0509733,-0.0412029,64,242,17.0444,10,53.7785,10,1.86
0.714589,0.721436,0.705637,0.722077,-0.0517914,-0.055742,-0.0511425,-0.0410003,63,246,17.036,10,53.8712,10,1.864
0.714382,0.721214,0.705432,0.721917,-0.0519628,-0.0556739,-0.0513118,-0.0406637,65,251,17.027,10,53.9677,10,1.868
0.714173,0.720988,0.705226,0.721753,-0.0521342,-0.0559164,-0.0514811,-0.0407848,64,252,17.0192,10,54.0691,10,1.872
0.713965,0.720762,0.70502,0.721585,-0.0523057,-0.0561069,-0.0516504,-0.0411247,64,251,17.0109,10,54.1709,10,1.876
0.713755,0.720466,0.704813,0.721363,-0.0524773,-0.0621072,-0.0518198,-0.0459866,31,206,16.9997,10,54.2689,10,1.88
0.713545,0.720312,0.704605,0.721245,-0.0526489,-0.054188,-0.0519893,-0.0404179,76,262,16.9613,10,54.3248,10,1.884
0.713334,0.720086,0.704397,0.721072,-0.0528206,-0.0549834,-0.0521589,-0.0413983,73,254,16.9654,10,54.4351,10,1.888
0.713122,0.719861,0.704188,0.720896,-0.0529924,-0.0554273,-0.0523285,-0.0422534,71,248,16.9661,10,54.5374,10,1.892
0.71291,0.719632,0.703978,0.72072,-0.0531642,-0.0560111,-0.0524981,-0.0428811,69,244,16.965,10,54.633,10,1.896
0.712697,0.719404,0.703768,0.720543,-0.0533361,-0.056314,-0.0526679,-0.0432708,68,242,16.9617,10,54.7241,10,1.9
0.712483,0.719175,0.703557,0.720368,-0.053508,-0.056631,-0.0528376,-0.043473,67,242,16.9575,10,54.8131,10,1.904
0.712269,0.718942,0.703345,0.72019,-0.05368,-0.0571591,-0.0530074,-0.0437805,65,242,16.9524,10,54.9018,10,1.908
0.712054,0.718717,0.703133,0.720022,-0.053852,-0.0569065,-0.0531773,-0.0431794,67,249,16.9455,10,54.9896,10,1.912
0.711838,0.718488,0.70292,0.719854,-0.0540241,-0.0570261,-0.0533472,-0.0428074,68,255,16.9408,10,55.085,10,1.916
0.711622,0.718263,0.702706,0.71969,-0.0541962,-0.0567603,-0.0535172,-0.0422428,70,263,16.9365,10,55.186,10,1.92
0.711404,0.718039,0.702492,0.719523,-0.0543684,-0.0565255,-0.0536872,-0.0420679,72,266,16.9347,10,55.2941,10,1.924
0.711187,0.717815,0.702277,0.719358,-0.0545406,-0.0563402,-0.0538573,-0.0418073,74,271,16.9351,10,55.4058,10,1.928
0.710968,0.717594,0.702061,0.719188,-0.0547129,-0.0559287,-0.0540274,-0.0419791,77,272,16.9377,10,55.5216,10,1.932
0.710749,0.717379,0.701844,0.719019,-0.0548852,-0.0552514,-0.0541976,-0.0421224,82,272,16.9437,10,55.6374,10,1.936
0.710529,0.717165,0.701627,0.718842,-0.0550576,-0.0546558,-0.0543678,-0.0427938,86,268,16.9545,10,55.7532,10,1.94
0.710308,0.71696,0.701409,0.718667,-0.05523,-0.0534814,-0.0545381,-0.043155,94,267,16.9699,10,55.8642,10,1.944
0.710087,0.716762,0.701191,0.718489,-0.0554025,-0.0521803,-0.0547084,-0.0435685,102,265,16.9932,10,55.9732,10,1.948
0.709865,0.716573,0.700972,0.718311,-0.055575,-0.0505643,-0.0548787,-0.0439018,112,264,17.025,10,56.0799,10,1.952
0.709643,0.716391,0.700752,0.718127,-0.0557475,-0.0488535,-0.0550491,-0.0446134,123,259,17.0673,10,56.1847,10,1.956
0.709419,0.716224,0.700531,0.717948,-0.0559201,-0.046475,-0.0552195,-0.044656,137,260,17.1207,10,56.2845,10,1.96
0.709195,0.716072,0.70031,0.717767,-0.0560927,-0.0436802,-0.05539,-0.0447995,154,261,17.1891,10,56.3855,10,1.964
0.70897,0.715931,0.700088,0.717588,-0.0562654,-0.0408092,-0.0555605,-0.0448376,172,263,17.2747,10,56.4869,10,1.968
0.708745,0.715801,0.699866,0.717401,-0.0564381,-0.0380891,-0.055731,-0.0454388,188,259,17.3779,10,56.5894,10,1.972
0.708519,0.715684,0.699642,0.717218,-0.0566108,-0.0351529,-0.0559016,-0.045523,206,260,17.498,10,56.6878,10,1.976
0.708292,0.715573,0.699419,0.717034,-0.0567836,-0.0326771,-0.0560722,-0.0457518,222,260,17.636,10,56.7871,10,1.98
0.708065,0.715462,0.699194,0.716845,-0.0569564,-0.0310266,-0.0562428,-0.0461922,232,258,17.7889,10,56.8857,10,1.984
0.707837,0.71535,0.698969,0.71665,-0.0571292,-0.0300127,-0.0564135,-0.0470905,240,251,17.9522,10,56.9814,10,1.988
0.707608,0.715238,0.698743,0.716457,-0.0573021,-0.0293655,-0.0565842,-0.0474878,245,250,18.1222,10,57.0701,10,1.992
0.707378,0.715121,0.698516,0.716262,-0.057475,-0.0293371,-0.0567549,-0.0478678,247,248,18.2968,10,57.1565,10,1.996
0.707148,0.714999,0.698289,0.716064,-0.0576479,-0.0296925,-0.0569257,-0.0484091,247,245,18.4724,10,57.2409,10,2
0.706917,0.714872,0.69806,0.715865,-0.0578209,-0.0303613,-0.0570965,-0.0488275,245,243,18.6468,10,57.3215,10,2.004
0.706685,0.714735,0.697832,0.715663,-0.0579939,-0.031642,-0.0572673,-0.0494519,239,238,18.8181,10,57.3997,10,2.008
0.706453,0.7146,0.697602,0.715469,-0.0581669,-0.0324095,-0.0574382,-0.0491197,237,244,18.9831,10,57.4738,10,2.012
0.70622,0.714451,0.697372,0.715266,-0.0583399,-0.0339577,-0.057609,-0.0496467,230,241,19.1444,10,57.5525,10,2.016
0.705986,0.714298,0.697141,0.715065,-0.058513,-0.0354504,-0.0577799,-0.0498253,223,241,19.2977,10,57.6279,10,2.02
0.705752,0.714138,0.69691,0.714862,-0.0586861,-0.036935,-0.0579508,-0.0502035,216,239,19.4434,10,57.7031,10,2.024
0.705517,0.713972,0.696678,0.714658,-0.0588592,-0.0385006,-0.0581218,-0.0503981,209,239,19.5813,10,57.7763,10,2.028
0.705281,0.713802,0.696445,0.714455,-0.0590323,-0.0397746,-0.0582927,-0.0505278,203,240,19.7113,10,57.8494,10,2.032
0.705045,0.713624,0.696212,0.714254,-0.0592055,-0.0414013,-0.0584637,-0.0504127,196,243,19.8347,10,57.923,10,2.036
0.704807,0.713442,0.695977,0.714055,-0.0593786,-0.0427449,-0.0586347,-0.0502208,189,247,19.9497,10,57.9995,10,2.04
0.704569,0.713254,0.695742,0.713855,-0.0595518,-0.0441301,-0.0588057,-0.0501217,183,250,20.0579,10,58.0797,10,2.044
0.704331,0.71306,0.695507,0.713659,-0.059725,-0.0456005,-0.0589768,-0.0497965,176,255,20.159,10,58.1627,10,2.048
0.704092,0.71286,0.695271,0.713462,-0.0598982,-0.0470415,-0.0591478,-0.0496085,169,259,20.2525,10,58.2506,10,2.052
0.703852,0.712652,0.695034,0.713262,-0.0600715,-0.0486931,-0.0593189,-0.0497423,162,260,20.3385,10,58.342,10,2.056
0.703611,0.712445,0.694796,0.713063,-0.0602447,-0.0497367,-0.05949,-0.0497451,157,262,20.4161,10,58.4338,10,2.06
0.70337,0.712225,0.694558,0.71286,-0.060418,-0.0514688,-0.0596611,-0.0500925,148,260,20.4882,10,58.5272,10,2.064
0.703128,0.712003,0.694319,0.712655,-0.0605913,-0.0528539,-0.0598322,-0.0504968,142,258,20.5514,10,58.6187,10,2.068
0.702885,0.711774,0.694079,0.712442,-0.0607646,-0.0542955,-0.0600033,-0.0513421,135,252,20.6074,10,58.7078,10,2.072
0.702642,0.711538,0.693839,0.712231,-0.0609379,-0.05589,-0.0601744,-0.0518194,127,250,20.6559,10,58.7903,10,2.076
0.702398,0.711298,0.693598,0.71202,-0.0611112,-0.0572409,-0.0603456,-0.0521663,121,248,20.6962,10,58.8698,10,2.08
0.702153,0.711051,0.693356,0.711806,-0.0612845,-0.0587749,-0.0605167,-0.0525703,113,246,20.7295,10,58.9475,10,2.084
0.701907,0.710796,0.693114,0.711594,-0.0614578,-0.0603734,-0.0606879,-0.0527245,105,247,20.7547,10,59.0231,10,2.088
0.701661,0.710527,0.692871,0.711375,-0.0616312,-0.0626771,-0.060859,-0.0533743,93,242,20.7712,10,59.0986,10,2.092
0.701414,0.710277,0.692627,0.711176,-0.0618045,-0.0626581,-0.0610302,-0.0521665,94,256,20.7763,10,59.1702,10,2.096
0.701167,0.71001,0.692382,0.710968,-0.0619778,-0.0639987,-0.0612014,-0.0521674,87,258,20.7818,10,59.2551,10,2.1
0.700918,0.70974,0.692137,0.710761,-0.0621512,-0.0651803,-0.0613725,-0.052024,82,262,20.7805,10,59.3418,10,2.104
0.700669,0.709464,0.691891,0.710554,-0.0623245,-0.0664287,-0.0615437,-0.0518996,75,265,20.7732,10,59.4316,10,2.108
0.70042,0.709187,0.691645,0.710344,-0.0624979,-0.0674049,-0.0617149,-0.0521622,71,264,20.7596,10,59.5243,10,2.112
0.700169,0.708915,0.691398,0.710138,-0.0626712,-0.0676238,-0.0618861,-0.0519054,70,269,20.7417,10,59.6162,10,2.116
0.699918,0.708631,0.69115,0.709925,-0.0628446,-0.0686911,-0.0620573,-0.0523388,65,267,20.723,10,59.7121,10,2.12
0.699667,0.708355,0.690901,0.709713,-0.0630179,-0.0688268,-0.0622284,-0.052599,65,266,20.6994,10,59.8055,10,2.124
0.699414,0.708071,0.690652,0.709493,-0.0631913,-0.0695507,-0.0623996,-0.0533482,62,261,20.6757,10,59.8978,10,2.128
0.699161,0.707795,0.690402,0.709277,-0.0633646,-0.0693711,-0.0625708,-0.0536174,64,260,20.6491,10,59.9845,10,2.132
0.698907,0.707514,0.690151,0.709058,-0.063538,-0.0696544,-0.0627419,-0.0539408,63,259,20.6243,10,60.0702,10,2.136
0.698653,0.707231,0.6899,0.708835,-0.0637113,-0.0699872,-0.0629131,-0.0545883,62,255,20.5988,10,60.1543,10,2.14
0.698398,0.70695,0.689648,0.708613,-0.0638846,-0.0700652,-0.0630842,-0.0548759,62,254,20.5725,10,60.2338,10,2.144
0.698142,0.706669,0.689395,0.70839,-0.0640579,-0.0701459,-0.0632554,-0.0551829,63,253,20.5466,10,60.3121,10,2.148
0.697885,0.706387,0.689142,0.708164,-0.0642312,-0.0703149,-0.0634265,-0.0555891,63,251,20.5212,10,60.389,10,2.152
0.697628,0.706106,0.688888,0.707941,-0.0644045,-0.0702836,-0.0635976,-0.0556871,64,252,20.4959,10,60.4638,10,2.156
0.69737,0.705823,0.688633,0.707719,-0.0645778,-0.0704067,-0.0637688,-0.0556085,64,255,20.4716,10,60.5393,10,2.16
0.697111,0.70554,0.688378,0.70749,-0.0647511,-0.0705176,-0.0639399,-0.0561031,64,252,20.4476,10,60.6171,10,2.164
0.696852,0.705259,0.688122,0.707264,-0.0649244,-0.0704188,-0.064111,-0.0562314,65,253,20.424,10,60.6919,10,2.168
0.696592,0.704976,0.687865,0.707036,-0.0650976,-0.0705544,-0.064282,-0.0565184,65,252,20.4019,10,60.767,10,2.172
0.696331,0.704692,0.687607,0.706802,-0.0652708,-0.0707312,-0.0644531,-0.0571992,65,247,20.3799,10,60.8408,10,2.176
0.69607,0.70441,0.687349,0.706571,-0.0654441,-0.0706187,-0.0646242,-0.0573651,67,248,20.3579,10,60.9098,10,2.18
0.695808,0.704123,0.68709,0.706335,-0.0656173,-0.0710332,-0.0647952,-0.0579076,65,244,20.3374,10,60.9786,10,2.184
0.695545,0.703842,0.686831,0.7061,-0.0657904,-0.0707625,-0.0649662,-0.0582405,68,243,20.3157,10,61.0438,10,2.188
0.695281,0.703556,0.686571,0.705863,-0.0659636,-0.0709563,-0.0651372,-0.05852,67,242,20.2964,10,61.1074,10,2.192
0.695017,0.703274,0.68631,0.705627,-0.0661368,-0.0708264,-0.0653082,-0.0587351,69,242,20.277,10,61.17,10,2.196
0.694752,0.702989,0.686048,0.705387,-0.0663099,-0.0709413,-0.0654791,-0.0591376,69,240,20.2593,10,61.2321,10,2.2
0.694487,0.702694,0.685786,0.705136,-0.066483,-0.0719104,-0.0656501,-0.0603273,65,231,20.2415,10,61.2915,10,2.204
0.69422,0.702422,0.685523,0.704905,-0.0666561,-0.07057,-0.065821,-0.0594505,73,241,20.22,10,61.3417,10,2.208
0.693953,0.702139,0.685259,0.704659,-0.0668291,-0.0706264,-0.0659919,-0.060104,74,236,20.2067,10,61.4016,10,2.212
0.693686,0.701863,0.684995,0.70442,-0.0670022,-0.070117,-0.0661628,-0.0600503,77,239,20.1944,10,61.4571,10,2.216
0.693417,0.701585,0.68473,0.704179,-0.0671752,-0.0699502,-0.0663336,-0.0601296,79,240,20.186,10,61.5148,10,2.22
0.693148,0.701308,0.684464,0.703933,-0.0673482,-0.0696662,-0.0665044,-0.0605279,82,238,20.1795,10,61.5732,10,2.224
0.692879,0.701034,0.684198,0.703688,-0.0675211,-0.0692753,-0.0666752,-0.0608223,85,237,20.1758,10,61.6294,10,2.228
0.692608,0.700761,0.683931,0.703442,-0.0676941,-0.0689572,-0.066846,-0.0610473,88,237,20.1754,10,61.6845,10,2.232
0.692337,0.700493,0.683663,0.703191,-0.067867,-0.0682844,-0.0670167,-0.0615716,93,234,20.178,10,61.7388,10,2.236
0.692065,0.700225,0.683395,0.70294,-0.0680398,-0.0678647,-0.0671874,-0.06195,96,232,20.1854,10,61.7897,10,2.24
0.691793,0.699962,0.683126,0.702688,-0.0682127,-0.067153,-0.0673581,-0.0623462,101,230,20.1965,10,61.8385,10,2.244
0.69152,0.6997,0.682856,0.702432,-0.0683855,-0.0665922,-0.0675287,-0.0628406,105,227,20.2128,10,61.885,10,2.248
0.691246,0.69944,0.682586,0.702175,-0.0685582,-0.0660744,-0.0676993,-0.063343,109,224,20.2334,10,61.9282,10,2.252
0.690971,0.699182,0.682314,0.701916,-0.068731,-0.0655852,-0.0678699,-0.063793,113,221,20.2581,10,61.9682,10,2.256
0.690696,0.698927,0.682043,0.701657,-0.0689037,-0.0649424,-0.0680405,-0.0641507,118,219,20.2868,10,62.0054,10,2.26
0.69042,0.698676,0.68177,0.701399,-0.0690764,-0.0641971,-0.068211,-0.0642164,124,221,20.3204,10,62.0409,10,2.264
0.690143,0.698426,0.681497,0.701139,-0.069249,-0.0636427,-0.0683814,-0.0645193,128,219,20.3593,10,62.0774,10,2.268
0.689866,0.698181,0.681223,0.700878,-0.0694216,-0.0628412,-0.0685519,-0.06475,134,219,20.4027,10,62.1126,10,2.272
0.689588,0.697938,0.680948,0.700618,-0.0695942,-0.0621918,-0.0687223,-0.0648462,139,220,20.4518,10,62.1472,10,2.276
0.689309,0.697697,0.680673,0.700352,-0.0697667,-0.0614997,-0.0688926,-0.0654286,144,216,20.5058,10,62.1823,10,2.28
0.68903,0.69746,0.680397,0.700089,-0.0699391,-0.0607216,-0.0690629,-0.065529,149,217,20.5651,10,62.2136,10,2.284
0.68875,0.697228,0.680121,0.699824,-0.0701116,-0.0598861,-0.0692332,-0.065711,156,217,20.63,10,62.2455,10,2.288
0.688469,0.696998,0.679843,0.69956,-0.070284,-0.0590413,-0.0694034,-0.0658036,162,218,20.701,10,62.2774,10,2.292
0.688187,0.696777,0.679566,0.699298,-0.0704563,-0.057787,-0.0695736,-0.0657214,170,220,20.7783,10,62.3102,10,2.296
0.687905,0.696559,0.679287,0.699034,-0.0706286,-0.0566918,-0.0697438,-0.0658105,178,221,20.8641,10,62.3454,10,2.3
0.687622,0.696346,0.679008,0.698769,-0.0708009,-0.0555873,-0.0699139,-0.0659563,186,222,20.9575,10,62.3813,10,2.304
0.687339,0.69614,0.678728,0.698506,-0.0709731,-0.0541888,-0.0700839,-0.0659096,195,224,21.0586,10,62.4177,10,2.308
0.687054,0.695933,0.678447,0.698235,-0.0711453,-0.0533716,-0.070254,-0.066483,202,220,21.169,10,62.4559,10,2.312
0.68677,0.695742,0.678166,0.697973,-0.0713174,-0.0515313,-0.0704239,-0.0661743,214,225,21.2857,10,62.4905,10,2.316
0.686484,0.695546,0.677883,0.697704,-0.0714895,-0.050621,-0.0705938,-0.0665731,221,223,21.4142,10,62.5296,10,2.32
0.686198,0.695358,0.677601,0.697431,-0.0716615,-0.0494672,-0.0707637,-0.0670981,229,219,21.5493,10,62.5663,10,2.324
0.685911,0.695179,0.677317,0.697169,-0.0718335,-0.0479206,-0.0709335,-0.0666132,239,226,21.6926,10,62.6,10,2.328
0.685623,0.694999,0.677033,0.696895,-0.0720054,-0.0469184,-0.0711033,-0.06724,247,222,21.846,10,62.6396,10,2.332
0.685335,0.694827,0.676749,0.696628,-0.0721773,-0.0456168,-0.071273,-0.0670533,256,225,22.0067,10,62.6752,10,2.336
0.685046,0.694654,0.676463,0.696354,-0.0723491,-0.0448067,-0.0714427,-0.0675334,263,222,22.176,10,62.714,10,2.34
0.684756,0.694489,0.676177,0.696085,-0.0725208,-0.0436044,-0.0716123,-0.0674504,272,225,22.3515,10,62.7499,10,2.344
0.684465,0.694326,0.67589,0.69581,-0.0726925,-0.0426877,-0.0717818,-0.0678269,279,223,22.5352,10,62.7882,10,2.348
0.684174,0.694165,0.675603,0.695534,-0.0728642,-0.0419038,-0.0719513,-0.0682507,285,221,22.7255,10,62.8244,10,2.352
0.683882,0.694006,0.675315,0.695255,-0.0730358,-0.0411509,-0.0721208,-0.0687923,291,217,22.9216,10,62.858,10,2.356
0.68359,0.693847,0.675026,0.694975,-0.0732073,-0.040649,-0.0722901,-0.0691534,296,216,23.1232,10,62.8879,10,2.36
0.683297,0.693692,0.674736,0.694691,-0.0733788,-0.040084,-0.0724595,-0.0697972,302,211,23.329,10,62.9158,10,2.364
0.683003,0.693537,0.674446,0.694409,-0.0735502,-0.0395922,-0.0726287,-0.0699961,306,211,23.5393,10,62.9392,10,2.368
0.682708,0.693385,0.674155,0.694128,-0.0737215,-0.0390628,-0.0727979,-0.0701286,311,211,23.7537,10,62.9623,10,2.372
0.682413,0.693233,0.673864,0.693846,-0.0738928,-0.0387099,-0.0729671,-0.070217,316,212,23.9724,10,62.9859,10,2.376
0.682117,0.693083,0.673572,0.693566,-0.0740641,-0.0383019,-0.0731362,-0.070132,320,215,24.1943,10,63.0103,10,2.38
0.681821,0.692935,0.673279,0.693282,-0.0742352,-0.0379147,-0.0733052,-0.070392,324,214,24.4198,10,63.0371,10,2.384
0.681523,0.692784,0.672985,0.693001,-0.0744063,-0.0378005,-0.0734742,-0.0703638,327,216,24.6487,10,63.0632,10,2.388
0.681225,0.692637,0.672691,0.692717,-0.0745774,-0.0374653,-0.073643,-0.0706329,331,215,24.8796,10,63.0911,10,2.392
0.680927,0.692491,0.672396,0.692435,-0.0747483,-0.0371554,-0.0738119,-0.070582,335,217,25.1135,10,63.1181,10,2.396
0.680627,0.692345,0.6721,0.692151,-0.0749192,-0.03692,-0.0739806,-0.0707208,338,218,25.3505,10,63.1473,10,2.4
0.680327,0.692202,0.671804,0.69186,-0.0750901,-0.0365328,-0.0741493,-0.0713316,343,213,25.5901,10,63.1765,10,2.404
0.680027,0.69206,0.671507,0.691572,-0.0752608,-0.0361595,-0.074318,-0.0716236,347,212,25.8332,10,63.2015,10,2.408
0.679725,0.691922,0.67121,0.69128,-0.0754315,-0.0356227,-0.0744865,-0.0720486,352,210,26.0798,10,63.2251,10,2.412
0.679423,0.691782,0.670911,0.690986,-0.0756022,-0.0354376,-0.074655,-0.0725623,356,207,26.3306,10,63.2462,10,2.416
0.679121,0.691649,0.670612,0.690698,-0.0757727,-0.0347383,-0.0748234,-0.0723577,362,210,26.584,10,63.2642,10,2.42
0.678817,0.691515,0.670313,0.690402,-0.0759432,-0.0342722,-0.0749918,-0.0729123,367,207,26.8426,10,63.2855,10,2.424
0.678513,0.691382,0.670012,0.690108,-0.0761136,-0.0339614,-0.07516,-0.0730517,371,207,27.1052,10,63.3032,10,2.428
0.678208,0.691252,0.669711,0.689814,-0.0762839,-0.0334951,-0.0753282,-0.0732598,376,207,27.3709,10,63.3211,10,2.432
0.677903,0.69112,0.66941,0.68952,-0.0764542,-0.0332706,-0.0754964,-0.0732833,380,208,27.6405,10,63.3387,10,2.436
0.677597,0.690988,0.669107,0.689224,-0.0766244,-0.0332361,-0.0756644,-0.0735582,382,207,27.9125,10,63.3577,10,2.44
0.67729,0.690862,0.668804,0.688932,-0.0767945,-0.0326661,-0.0758324,-0.0733671,388,211,28.1862,10,63.3759,10,2.444
0.676982,0.690734,0.668501,0.68864,-0.0769645,-0.0324013,-0.0760003,-0.0732685,392,213,28.4644,10,63.3976,10,2.448
0.676674,0.690606,0.668196,0.688341,-0.0771345,-0.0322535,-0.0761681,-0.0737498,395,210,28.7454,10,63.4216,10,2.452
0.676365,0.690477,0.667891,0.688041,-0.0773043,-0.0322413,-0.0763358,-0.0741283,397,208,29.0283,10,63.4426,10,2.456
0.676056,0.690346,0.667586,0.687745,-0.0774741,-0.0324636,-0.0765035,-0.0741215,398,210,29.3124,10,63.4617,10,2.46
0.675745,0.690213,0.667279,0.687445,-0.0776438,-0.0327269,-0.0766711,-0.0744336,399,209,29.5963,10,63.4824,10,2.464
0.675434,0.690075,0.666972,0.687143,-0.0778134,-0.0333055,-0.0768386,-0.0747857,398,207,29.8796,10,63.5016,10,2.468
0.675123,0.689932,0.666665,0.686839,-0.077983,-0.0341519,-0.077006,-0.0751643,395,205,30.1605,10,63.519,10,2.472
0.674811,0.689788,0.666356,0.686533,-0.0781524,-0.034745,-0.0771733,-0.0756471,394,202,30.4375,10,63.5342,10,2.476
0.674498,0.689639,0.666047,0.686221,-0.0783218,-0.035601,-0.0773406,-0.076372,392,197,30.7119,10,63.5461,10,2.48
0.674184,0.689488,0.665738,0.685911,-0.0784911,-0.036258,-0.0775077,-0.0767689,390,194,30.9824,10,63.5526,10,2.484
0.67387,0.689335,0.665427,0.685594,-0.0786603,-0.036984,-0.0776748,-0.0776382,388,188,31.25,10,63.5566,10,2.488
0.673555,0.689179,0.665116,0.685273,-0.0788294,-0.0376119,-0.0778418,-0.078448,387,181,31.5144,10,63.5535,10,2.492
0.673239,0.689031,0.664805,0.684971,-0.0789984,-0.0374259,-0.0780087,-0.0774619,390,192,31.7765,10,63.545,10,2.496
0.672923,0.688875,0.664492,0.684658,-0.0791674,-0.0379065,-0.0781755,-0.0777834,389,191,32.0407,10,63.5473,10,2.5
0.672606,0.688723,0.664179,0.684345,-0.0793362,-0.0379966,-0.0783423,-0.0778826,391,192,32.3032,10,63.5482,10,2.504
0.672288,0.688567,0.663865,0.684035,-0.079505,-0.0383158,-0.0785089,-0.0778048,391,194,32.5663,10,63.5498,10,2.508
0.67197,0.688413,0.663551,0.683727,-0.0796736,-0.0383558,-0.0786755,-0.0775514,393,198,32.8288,10,63.554,10,2.512
0.671651,0.688255,0.663236,0.683418,-0.0798422,-0.0387568,-0.0788419,-0.07744,393,201,33.092,10,63.5624,10,2.516
0.671331,0.688098,0.66292,0.683113,-0.0800107,-0.0389377,-0.0790083,-0.0769915,395,207,33.3541,10,63.5737,10,2.52
0.671011,0.687936,0.662604,0.6828,-0.0801791,-0.0394614,-0.0791746,-0.077441,394,204,33.616,10,63.5907,10,2.524
0.670689,0.687781,0.662287,0.682505,-0.0803474,-0.039206,-0.0793407,-0.076186,397,218,33.8763,10,63.6058,10,2.528
0.670368,0.687621,0.661969,0.682203,-0.0805155,-0.0394675,-0.0795068,-0.0759827,398,222,34.1391,10,63.6346,10,2.532
0.670045,0.687458,0.661651,0.681895,-0.0806836,-0.039901,-0.0796728,-0.0763367,398,220,34.4014,10,63.6668,10,2.536
0.669722,0.687296,0.661332,0.681586,-0.0808516,-0.040046,-0.0798387,-0.0766302,399,219,34.6623,10,63.6971,10,2.54
0.669399,0.687132,0.661012,0.681273,-0.0810195,-0.0404018,-0.0800045,-0.0771714,399,215,34.9234,10,63.726,10,2.544
0.669074,0.68697,0.660692,0.680958,-0.0811873,-0.0404087,-0.0801702,-0.0776761,402,212,35.1837,10,63.7512,10,2.548
0.668749,0.686806,0.660371,0.68064,-0.081355,-0.0406724,-0.0803358,-0.0783005,402,208,35.445,10,63.773,10,2.552
0.668423,0.686641,0.660049,0.68032,-0.0815226,-0.0407906,-0.0805013,-0.078832,404,204,35.7059,10,63.7902,10,2.556
0.668097,0.686475,0.659727,0.679993,-0.0816901,-0.0410422,-0.0806667,-0.0798484,405,196,35.9672,10,63.8034,10,2.56
0.66777,0.686313,0.659404,0.67967,-0.0818575,-0.0408644,-0.080832,-0.0800942,408,195,36.2284,10,63.8086,10,2.564
0.667442,0.686149,0.65908,0.679348,-0.0820248,-0.0408898,-0.0809972,-0.0802869,410,195,36.4918,10,63.8129,10,2.568
0.667114,0.685985,0.658756,0.679022,-0.082192,-0.0409644,-0.0811623,-0.0806456,412,193,36.7562,10,63.8169,10,2.572
0.666784,0.685822,0.658431,0.678703,-0.0823591,-0.0409277,-0.0813272,-0.0803666,414,197,37.0214,10,63.8194,10,2.576
0.666455,0.685653,0.658105,0.678379,-0.082526,-0.0413063,-0.0814921,-0.0805836,414,197,37.2878,10,63.826,10,2.58
0.666124,0.685485,0.657779,0.678057,-0.0826929,-0.0415875,-0.0816569,-0.0805268,415,199,37.5532,10,63.8322,10,2.584
0.665793,0.685312,0.657452,0.677734,-0.0828596,-0.0421493,-0.0818216,-0.080604,414,200,37.8178,10,63.8406,10,2.588
0.665461,0.685139,0.657124,0.677414,-0.0830263,-0.0424662,-0.0819861,-0.080454,414,203,38.0803,10,63.85,10,2.592
0.665129,0.684964,0.656796,0.677092,-0.0831928,-0.0429078,-0.0821506,-0.0804116,414,205,38.3419,10,63.8625,10,2.596
0.664796,0.684782,0.656467,0.676758,-0.0833593,-0.0437492,-0.0823149,-0.0814485,411,196,38.6018,10,63.8765,10,2.6
0.664462,0.684611,0.656138,0.676447,-0.0835256,-0.0434752,-0.0824791,-0.0802108,415,210,38.8583,10,63.8829,10,2.604
0.664128,0.684434,0.655807,0.676123,-0.0836918,-0.0437244,-0.0826433,-0.0805086,416,209,39.1173,10,63.9026,10,2.608
0.663793,0.684255,0.655476,0.675797,-0.0838579,-0.0440633,-0.0828073,-0.0808222,416,207,39.376,10,63.921,10,2.612
0.663457,0.684077,0.655145,0.675467,-0.0840238,-0.0441741,-0.0829712,-0.0814344,418,203,39.6338,10,63.9377,10,2.616
0.66312,0.683899,0.654813,0.675138,-0.0841897,-0.0443343,-0.083135,-0.0816986,419,202,39.8922,10,63.9501,10,2.62
0.662783,0.683723,0.65448,0.674804,-0.0843555,-0.0441532,-0.0832986,-0.0823065,422,198,40.1509,10,63.9613,10,2.624
0.662445,0.683544,0.654146,0.67446,-0.0845211,-0.0444067,-0.0834622,-0.0834892,423,188,40.4117,10,63.9677,10,2.628
0.662107,0.683372,0.653812,0.674125,-0.0846866,-0.0439424,-0.0836256,-0.0835579,428,189,40.6725,10,63.9645,10,2.632
0.661768,0.683197,0.653477,0.673789,-0.084852,-0.0438343,-0.083789,-0.0837476,431,188,40.9372,10,63.9622,10,2.636
0.661428,0.683031,0.653142,0.673461,-0.0850173,-0.0431001,-0.0839522,-0.0831543,438,196,41.2042,10,63.9601,10,2.64
0.661088,0.682858,0.652806,0.673128,-0.0851824,-0.0431577,-0.0841152,-0.0831619,440,197,41.4765,10,63.9652,10,2.644
0.660747,0.682683,0.652469,0.672793,-0.0853475,-0.0433112,-0.0842782,-0.0833684,441,197,41.7497,10,63.9718,10,2.648
0.660405,0.682504,0.652131,0.672458,-0.0855124,-0.0437878,-0.0844411,-0.0834774,441,197,42.0229,10,63.978,10,2.652
0.660063,0.682325,0.651793,0.67212,-0.0856772,-0.0441632,-0.0846038,-0.0838091,441,196,42.2944,10,63.9847,10,2.656
0.65972,0.682143,0.651455,0.671782,-0.0858419,-0.0445861,-0.0847664,-0.0840878,441,195,42.5648,10,63.9897,10,2.66
0.659376,0.681961,0.651115,0.671446,-0.0860064,-0.0448393,-0.0849289,-0.0840146,441,197,42.8338,10,63.9937,10,2.664
0.659032,0.681775,0.650775,0.671108,-0.0861708,-0.0454688,-0.0850913,-0.084196,440,197,43.1023,10,63.9999,10,2.668
0.658687,0.681583,0.650434,0.670762,-0.0863351,-0.0462627,-0.0852535,-0.0849792,437,191,43.3679,10,64.0056,10,2.672
0.658341,0.681394,0.650093,0.670426,-0.0864993,-0.0466192,-0.0854156,-0.0846664,437,195,43.63,10,64.0057,10,2.676
0.657995,0.681205,0.649751,0.670094,-0.0866633,-0.0467993,-0.0855776,-0.0840547,439,203,43.8912,10,64.0107,10,2.68
0.657648,0.681011,0.649408,0.669757,-0.0868273,-0.04738,-0.0857395,-0.0841364,437,204,44.1522,10,64.0231,10,2.684
0.6573,0.680812,0.649065,0.669412,-0.0869911,-0.0481991,-0.0859012,-0.0848819,435,198,44.4107,10,64.036,10,2.688
0.656952,0.680613,0.648721,0.669068,-0.0871547,-0.0486587,-0.0860628,-0.0852061,434,196,44.6654,10,64.0432,10,2.692
0.656603,0.680419,0.648377,0.668742,-0.0873182,-0.0486196,-0.0862243,-0.0840115,437,210,44.9187,10,64.0496,10,2.696
0.656253,0.680217,0.648031,0.668403,-0.0874816,-0.0492846,-0.0863857,-0.0842803,435,209,45.173,10,64.0689,10,2.7
0.655903,0.680005,0.647686,0.668056,-0.0876449,-0.0504764,-0.0865469,-0.0850642,430,203,45.4242,10,64.0868,10,2.704
0.655552,0.67979,0.647339,0.667704,-0.0878081,-0.0516165,-0.086708,-0.0860474,425,195,45.669,10,64.0983,10,2.708
0.6552,0.679575,0.646992,0.667363,-0.0879711,-0.0522614,-0.0868689,-0.0857528,423,199,45.9081,10,64.1023,10,2.712
0.654848,0.679356,0.646644,0.667017,-0.0881339,-0.0531519,-0.0870298,-0.086017,420,198,46.1443,10,64.1106,10,2.716
0.654495,0.67913,0.646296,0.666665,-0.0882967,-0.0542063,-0.0871905,-0.0866539,416,193,46.3759,10,64.1176,10,2.72
0.654142,0.678894,0.645947,0.6663,-0.0884593,-0.0558593,-0.087351,-0.0882588,408,179,46.6017,10,64.1194,10,2.724
0.653788,0.678658,0.645597,0.665941,-0.0886217,-0.0569037,-0.0875114,-0.0886954,404,177,46.8187,10,64.1073,10,2.728
0.653433,0.678431,0.645247,0.6656,-0.088784,-0.0568515,-0.0876717,-0.0876045,406,189,47.0308,10,64.0932,10,2.732
0.653077,0.678191,0.644896,0.665246,-0.0889462,-0.0578819,-0.0878319,-0.0879137,402,187,47.2439,10,64.0909,10,2.736
0.652721,0.677949,0.644544,0.66489,-0.0891083,-0.0587416,-0.0879919,-0.0882638,399,185,47.4517,10,64.0871,10,2.74
0.652365,0.677707,0.644192,0.664538,-0.0892702,-0.0593435,-0.0881518,-0.0881517,397,188,47.6554,10,64.0817,10,2.744
0.652007,0.67746,0.643839,0.664183,-0.089432,-0.0601766,-0.0883115,-0.0883073,394,188,47.8563,10,64.0788,10,2.748
0.651649,0.677211,0.643485,0.66383,-0.0895936,-0.060876,-0.0884711,-0.0883246,392,189,48.0532,10,64.0761,10,2.752
0.65129,0.676961,0.643131,0.663476,-0.0897551,-0.0613711,-0.0886306,-0.0884226,390,190,48.247,10,64.0747,10,2.756
0.650931,0.676705,0.642776,0.663119,-0.0899164,-0.0622481,-0.0887899,-0.0886606,387,189,48.4386,10,64.0739,10,2.76
0.650571,0.676455,0.642421,0.66277,-0.0900776,-0.0623434,-0.0889491,-0.0881859,388,195,48.6262,10,64.0727,10,2.764
0.65021,0.676199,0.642064,0.662418,-0.0902387,-0.0629251,-0.0891081,-0.0881286,387,197,48.8141,10,64.0776,10,2.768
0.649849,0.675941,0.641708,0.662062,-0.0903996,-0.0634281,-0.089267,-0.088407,386,196,48.9996,10,64.0845,10,2.772
0.649487,0.675672,0.64135,0.661696,-0.0905604,-0.064656,-0.0894258,-0.0894276,380,188,49.1826,10,64.0898,10,2.776
0.649125,0.67542,0.640992,0.661353,-0.090721,-0.0641501,-0.0895844,-0.0882078,385,201,49.3599,10,64.0877,10,2.78
0.648761,0.675161,0.640634,0.661001,-0.0908814,-0.0643599,-0.0897429,-0.0881719,386,203,49.5412,10,64.0987,10,2.784
0.648398,0.674891,0.640274,0.660634,-0.0910418,-0.0653923,-0.0899012,-0.0893285,381,193,49.7219,10,64.1111,10,2.788
0.648033,0.674632,0.639914,0.660292,-0.0912019,-0.0651881,-0.0900593,-0.0881129,384,207,49.8978,10,64.1147,10,2.792
0.647668,0.674362,0.639554,0.659939,-0.091362,-0.0659156,-0.0902174,-0.0880799,382,209,50.0758,10,64.1315,10,2.796
0.647302,0.674091,0.639193,0.659588,-0.0915218,-0.0665159,-0.0903752,-0.0879715,380,211,50.2503,10,64.1502,10,2.8
0.646936,0.673816,0.638831,0.659234,-0.0916816,-0.0672615,-0.090533,-0.0881584,377,211,50.422,10,64.1715,10,2.804
0.646569,0.67354,0.638468,0.658881,-0.0918411,-0.0679025,-0.0906905,-0.0882254,375,212,50.5902,10,64.1925,10,2.808
0.646201,0.673259,0.638105,0.658527,-0.0920006,-0.0686466,-0.090848,-0.0882988,372,213,50.7554,10,64.2145,10,2.812
0.645833,0.672977,0.637742,0.658169,-0.0921598,-0.0693154,-0.0910052,-0.0886933,370,211,50.917,10,64.2371,10,2.816
0.645464,0.672695,0.637377,0.657809,-0.0923189,-0.0697036,-0.0911623,-0.089129,369,208,51.0757,10,64.2573,10,2.82
0.645094,0.672408,0.637012,0.657448,-0.0924779,-0.0703656,-0.0913193,-0.0895346,367,206,51.2328,10,64.2747,10,2.824
0.644724,0.672122,0.636647,0.657083,-0.0926367,-0.0707493,-0.0914761,-0.0901218,366,201,51.3871,10,64.2896,10,2.828
0.644353,0.671836,0.636281,0.656721,-0.0927953,-0.0710051,-0.0916328,-0.0902253,367,202,51.5401,10,64.3003,10,2.832
0.643982,0.671548,0.635914,0.656352,-0.0929538,-0.0713483,-0.0917893,-0.0909277,366,197,51.6925,10,64.3113,10,2.836
0.64361,0.671259,0.635546,0.655982,-0.0931122,-0.071606,-0.0919456,-0.0914535,366,193,51.8439,10,64.317,10,2.84
0.643237,0.670971,0.635178,0.65561,-0.0932703,-0.071749,-0.0921018,-0.0918905,367,190,51.9949,10,64.3189,10,2.844
0.642863,0.670686,0.634809,0.655241,-0.0934284,-0.0715851,-0.0922579,-0.092009,370,191,52.1463,10,64.3182,10,2.848
0.642489,0.6704,0.63444,0.654869,-0.0935862,-0.0715623,-0.0924137,-0.0923472,372,189,52.2998,10,64.3178,10,2.852
0.642115,0.670113,0.63407,0.654497,-0.0937439,-0.0715759,-0.0925694,-0.0926014,374,188,52.4546,10,64.3156,10,2.856
0.641739,0.669827,0.6337,0.654123,-0.0939014,-0.0715561,-0.092725,-0.0928573,375,187,52.6104,10,64.3124,10,2.86
0.641363,0.669541,0.633328,0.653749,-0.0940588,-0.0716006,-0.0928804,-0.0930854,377,186,52.7675,10,64.3082,10,2.864
0.640987,0.669253,0.632956,0.653377,-0.094216,-0.0716878,-0.0930356,-0.0930936,378,187,52.9255,10,64.3034,10,2.868
0.64061,0.668962,0.632584,0.653002,-0.094373,-0.0720338,-0.0931907,-0.0933293,378,187,53.0839,10,64.3,10,2.872
0.640232,0.668668,0.632211,0.652625,-0.0945299,-0.0725236,-0.0933456,-0.0936017,377,185,53.2412,10,64.2957,10,2.876
0.639853,0.668374,0.631837,0.65225,-0.0946866,-0.0728789,-0.0935004,-0.0936968,376,186,53.3965,10,64.2904,10,2.88
0.639474,0.668078,0.631463,0.651875,-0.0948432,-0.073231,-0.093655,-0.0936739,376,188,53.5507,10,64.2857,10,2.884
0.639095,0.667778,0.631088,0.651495,-0.0949996,-0.07384,-0.0938094,-0.0940905,374,185,53.7036,10,64.2826,10,2.888
0.638714,0.667468,0.630712,0.651107,-0.0951558,-0.0750809,-0.0939636,-0.0950592,368,177,53.8533,10,64.2766,10,2.892
0.638333,0.667175,0.630336,0.650741,-0.0953118,-0.0744398,-0.0941177,-0.0938624,373,190,53.9973,10,64.2635,10,2.896
0.637952,0.66687,0.62996,0.650365,-0.0954677,-0.0750202,-0.0942716,-0.093957,371,191,54.1459,10,64.2633,10,2.9
0.63757,0.666566,0.629582,0.649987,-0.0956234,-0.075407,-0.0944254,-0.0941353,371,190,54.2919,10,64.2636,10,2.904
0.637187,0.666249,0.629204,0.649595,-0.0957789,-0.0766438,-0.094579,-0.095377,365,180,54.4361,10,64.2632,10,2.908
0.636804,0.665956,0.628825,0.649227,-0.0959343,-0.0755682,-0.0947324,-0.0943046,373,192,54.5748,10,64.253,10,2.912
0.636419,0.665657,0.628446,0.64885,-0.0960895,-0.0752254,-0.0948856,-0.0942806,377,193,54.7211,10,64.2546,10,2.916
0.636035,0.665357,0.628066,0.648472,-0.0962445,-0.0751983,-0.0950387,-0.0943798,379,194,54.8706,10,64.2578,10,2.92
0.63565,0.665059,0.627686,0.648094,-0.0963993,-0.0749788,-0.0951916,-0.0944171,382,195,55.0215,10,64.2617,10,2.924
0.635264,0.664759,0.627305,0.647716,-0.096554,-0.0749188,-0.0953444,-0.0944132,384,197,55.1749,10,64.2667,10,2.928
0.634877,0.664462,0.626923,0.647336,-0.0967085,-0.0747636,-0.0954969,-0.0946122,387,196,55.3298,10,64.2732,10,2.932
0.63449,0.664162,0.626541,0.646955,-0.0968628,-0.0747754,-0.0956493,-0.09486,389,195,55.4869,10,64.2792,10,2.936
0.634102,0.663861,0.626158,0.646569,-0.097017,-0.0749271,-0.0958015,-0.0953419,389,192,55.6449,10,64.2842,10,2.94
0.633714,0.663564,0.625774,0.64619,-0.097171,-0.0747692,-0.0959536,-0.0951449,392,195,55.8033,10,64.2862,10,2.944
0.633325,0.663261,0.62539,0.645809,-0.0973247,-0.0750382,-0.0961054,-0.0952439,392,196,55.9636,10,64.2915,10,2.948
0.632935,0.662957,0.625006,0.645427,-0.0974784,-0.0754191,-0.0962571,-0.0952811,392,197,56.1232,10,64.2975,10,2.952
0.632545,0.662639,0.62462,0.645032,-0.0976318,-0.076767,-0.0964086,-0.0964288,385,187,56.281,10,64.304,10,2.956
0.632154,0.662329,0.624234,0.644651,-0.097785,-0.0769747,-0.09656,-0.0960422,385,192,56.4318,10,64.3013,10,2.96
0.631763,0.662023,0.623848,0.644279,-0.0979381,-0.0767964,-0.0967111,-0.0950072,388,204,56.5825,10,64.3043,10,2.964
0.631371,0.661709,0.623461,0.643898,-0.098091,-0.0773974,-0.0968621,-0.0951521,386,204,56.7352,10,64.3186,10,2.968
0.630978,0.661391,0.623073,0.643514,-0.0982437,-0.0781147,-0.0970129,-0.0954215,384,203,56.8849,10,64.333,10,2.972
0.630585,0.661062,0.622685,0.643119,-0.0983963,-0.0795142,-0.0971635,-0.0965223,376,194,57.0308,10,64.3457,10,2.976
0.630191,0.660748,0.622296,0.642744,-0.0985486,-0.0791228,-0.097314,-0.0956152,381,204,57.1696,10,64.3499,10,2.98
0.629796,0.660426,0.621906,0.642357,-0.0987008,-0.0796393,-0.0974642,-0.0959605,379,202,57.3116,10,64.3641,10,2.984
0.629401,0.660099,0.621516,0.641971,-0.0988527,-0.0802715,-0.0976143,-0.0961619,377,202,57.4513,10,64.3764,10,2.988
0.629005,0.659773,0.621125,0.641582,-0.0990045,-0.0807505,-0.0977642,-0.0964689,375,200,57.588,10,64.3881,10,2.992
0.628609,0.659449,0.620734,0.641195,-0.0991561,-0.0808396,-0.0979139,-0.0966448,376,200,57.7229,10,64.3983,10,2.996
0.628212,0.659125,0.620342,0.640803,-0.0993076,-0.0808414,-0.0980634,-0.0970212,378,198,57.8585,10,64.4081,10,3
0.627815,0.658802,0.619949,0.640412,-0.0994588,-0.0808138,-0.0982127,-0.0972721,380,197,57.9951,10,64.4157,10,3.004
0.627417,0.65848,0.619556,0.640021,-0.0996098,-0.0807378,-0.0983619,-0.097497,382,196,58.1331,10,64.4224,10,3.008
0.627018,0.658157,0.619162,0.639628,-0.0997607,-0.0806871,-0.0985109,-0.0976757,384,196,58.2727,10,64.4282,10,3.012
0.626618,0.657833,0.618768,0.639237,-0.0999114,-0.0807973,-0.0986596,-0.0977085,385,197,58.4137,10,64.4339,10,3.016
0.626219,0.657509,0.618373,0.638844,-0.100062,-0.0808995,-0.0988082,-0.0978743,386,197,58.555,10,64.4407,10,3.02
0.625818,0.657181,0.617978,0.638452,-0.100212,-0.0812556,-0.0989566,-0.097956,386,197,58.6967,10,64.4473,10,3.024
0.625417,0.656843,0.617581,0.638049,-0.100362,-0.0823567,-0.0991048,-0.098903,380,190,58.8368,10,64.4542,10,3.028
0.625015,0.656503,0.617185,0.637647,-0.100512,-0.0832348,-0.0992529,-0.0994192,376,186,58.9708,10,64.4533,10,3.032
0.624613,0.656186,0.616787,0.637275,-0.100662,-0.0818623,-0.0994007,-0.0973161,387,208,59.1016,10,64.4501,10,3.036
0.62421,0.655851,0.61639,0.636881,-0.100811,-0.0825021,-0.0995483,-0.0976415,384,206,59.2412,10,64.4682,10,3.04
0.623806,0.655514,0.615991,0.636487,-0.100961,-0.0831301,-0.0996958,-0.0979447,382,205,59.3778,10,64.4845,10,3.044
0.623402,0.65518,0.615592,0.636097,-0.10111,-0.0832033,-0.099843,-0.0978015,383,208,59.5117,10,64.4994,10,3.048
0.622997,0.654844,0.615192,0.635703,-0.101259,-0.0835112,-0.0999901,-0.0980514,383,207,59.6461,10,64.5171,10,3.052
0.622592,0.654495,0.614792,0.635294,-0.101407,-0.084753,-0.100137,-0.0994273,377,195,59.779,10,64.5332,10,3.056
0.622186,0.654161,0.614391,0.634903,-0.101556,-0.0842852,-0.100284,-0.0988474,381,202,59.9058,10,64.5379,10,3.06
0.62178,0.653827,0.61399,0.63451,-0.101704,-0.084031,-0.10043,-0.0986911,384,205,60.0367,10,64.5498,10,3.064
0.621372,0.653487,0.613588,0.634112,-0.101852,-0.0843509,-0.100576,-0.0989612,384,204,60.17,10,64.5644,10,3.068
0.620965,0.653146,0.613185,0.63371,-0.102,-0.0846794,-0.100723,-0.0994292,383,200,60.3023,10,64.5777,10,3.072
0.620556,0.652803,0.612782,0.633311,-0.102148,-0.0850711,-0.100868,-0.0995972,383,200,60.4336,10,64.5879,10,3.076
0.620148,0.652458,0.612378,0.632908,-0.102296,-0.0854762,-0.101014,-0.0999396,382,198,60.5633,10,64.5979,10,3.08
0.619738,0.65211,0.611974,0.632506,-0.102443,-0.0859478,-0.10116,-0.10011,380,198,60.6914,10,64.6059,10,3.084
0.619328,0.65175,0.611569,0.632095,-0.10259,-0.0872987,-0.101305,-0.10103,373,191,60.817,10,64.6134,10,3.088
0.618917,0.65141,0.611163,0.631708,-0.102737,-0.0865294,-0.10145,-0.0995993,380,206,60.936,10,64.6142,10,3.092
0.618506,0.651056,0.610757,0.631311,-0.102884,-0.087197,-0.101595,-0.0994515,377,209,61.0604,10,64.6302,10,3.096
0.618094,0.650702,0.610351,0.630915,-0.10303,-0.0876132,-0.10174,-0.0992954,376,212,61.1815,10,64.6492,10,3.1
0.617682,0.650344,0.609943,0.630521,-0.103177,-0.0882362,-0.101884,-0.099105,373,215,61.3009,10,64.6712,10,3.104
0.617269,0.649988,0.609536,0.630127,-0.103323,-0.0885364,-0.102028,-0.0988628,373,219,61.4174,10,64.6966,10,3.108
0.616855,0.649631,0.609127,0.629731,-0.103469,-0.0887077,-0.102172,-0.0988742,374,220,61.533,10,64.7257,10,3.112
0.616441,0.649275,0.608718,0.629336,-0.103614,-0.0888219,-0.102316,-0.0988529,374,222,61.6486,10,64.7561,10,3.116
0.616026,0.64892,0.608309,0.628938,-0.10376,-0.0888117,-0.10246,-0.0990979,376,221,61.7646,10,64.7881,10,3.12
0.615611,0.648564,0.607899,0.628538,-0.103905,-0.0888624,-0.102603,-0.0993764,377,220,61.8818,10,64.819,10,3.124
0.615195,0.6482,0.607488,0.628124,-0.10405,-0.0895873,-0.102747,-0.1008,374,208,61.9992,10,64.848,10,3.128
0.614779,0.647855,0.607077,0.627732,-0.104195,-0.0884582,-0.10289,-0.0998489,383,218,62.114,10,64.8654,10,3.132
0.614362,0.647502,0.606665,0.627326,-0.10434,-0.0883964,-0.103033,-0.100366,385,215,62.2368,10,64.893,10,3.136
0.613944,0.647146,0.606252,0.626917,-0.104484,-0.0886144,-0.103175,-0.100971,385,210,62.361,10,64.9168,10,3.14
0.613526,0.646792,0.605839,0.62651,-0.104629,-0.088587,-0.103318,-0.101258,387,209,62.4849,10,64.9362,10,3.144
0.613107,0.646435,0.605426,0.6261,-0.104773,-0.0888278,-0.10346,-0.10168,387,206,62.61,10,64.954,10,3.148
0.612688,0.646076,0.605012,0.62569,-0.104916,-0.0891323,-0.103602,-0.101962,386,205,62.7345,10,64.9691,10,3.152
0.612268,0.645712,0.604597,0.625274,-0.10506,-0.0897384,-0.103744,-0.10261,384,200,62.8579,10,64.9826,10,3.156
0.611847,0.645338,0.604182,0.624849,-0.105203,-0.0910062,-0.103885,-0.103848,377,189,62.978,10,64.9908,10,3.16
0.611426,0.644984,0.603766,0.624446,-0.105347,-0.0901527,-0.104027,-0.102774,385,201,63.0919,10,64.9891,10,3.164
0.611004,0.644617,0.603349,0.624032,-0.10549,-0.090649,-0.104168,-0.103036,383,200,63.2118,10,64.9989,10,3.168
0.610582,0.644231,0.602933,0.623602,-0.105632,-0.0926209,-0.104309,-0.104507,372,187,63.3286,10,65.007,10,3.172
0.610159,0.643872,0.602515,0.623207,-0.105775,-0.0916322,-0.10445,-0.102608,380,207,63.435,10,65.0034,10,3.176
0.609736,0.643497,0.602097,0.622798,-0.105917,-0.0923551,-0.10459,-0.102465,376,210,63.5481,10,65.0194,10,3.18
0.609312,0.643116,0.601678,0.622388,-0.106059,-0.0933265,-0.104731,-0.102514,372,211,63.6572,10,65.0381,10,3.184
0.608887,0.642719,0.601259,0.621966,-0.106201,-0.0952984,-0.104871,-0.103525,360,202,63.7604,10,65.0573,10,3.188
0.608462,0.642332,0.600839,0.621555,-0.106343,-0.0958357,-0.105011,-0.103249,358,206,63.8521,10,65.0684,10,3.192
0.608037,0.641955,0.600419,0.621157,-0.106484,-0.0953014,-0.10515,-0.102,363,220,63.9419,10,65.0841,10,3.196
0.60761,0.641563,0.599998,0.620749,-0.106626,-0.0961256,-0.10529,-0.102002,359,221,64.0355,10,65.1132,10,3.2
0.607184,0.641163,0.599577,0.620333,-0.106767,-0.0974524,-0.105429,-0.102666,352,216,64.1244,10,65.1433,10,3.204
0.606756,0.640773,0.599155,0.619927,-0.106907,-0.0974444,-0.105568,-0.102244,353,222,64.2061,10,65.1687,10,3.208
0.606328,0.640378,0.598732,0.619514,-0.107048,-0.0979286,-0.105707,-0.102654,351,219,64.2886,10,65.1992,10,3.212
0.6059,0.63998,0.598309,0.619098,-0.107188,-0.0984241,-0.105845,-0.103101,350,216,64.3689,10,65.227,10,3.216
0.605471,0.639582,0.597885,0.618681,-0.107328,-0.098812,-0.105984,-0.103484,348,214,64.4469,10,65.2518,10,3.22
0.605041,0.63918,0.597461,0.618259,-0.107468,-0.0993297,-0.106122,-0.104143,346,209,64.5233,10,65.274,10,3.224
0.604611,0.638777,0.597036,0.617837,-0.107608,-0.09979,-0.10626,-0.104583,345,206,64.5972,10,65.291,10,3.228
0.60418,0.638366,0.596611,0.617406,-0.107747,-0.100845,-0.106398,-0.105595,339,198,64.6687,10,65.3048,10,3.232
0.603749,0.637957,0.596185,0.616976,-0.107887,-0.10129,-0.106535,-0.10627,337,192,64.7345,10,65.3099,10,3.236
0.603317,0.637568,0.595759,0.616563,-0.108026,-0.099974,-0.106672,-0.105223,347,204,64.7993,10,65.3105,10,3.24
0.602885,0.637172,0.595332,0.616141,-0.108164,-0.0996437,-0.106809,-0.105331,351,204,64.8735,10,65.3224,10,3.244
0.602452,0.636777,0.594904,0.615719,-0.108303,-0.0992796,-0.106946,-0.105432,355,205,64.951,10,65.3346,10,3.248
0.602019,0.636392,0.594476,0.615303,-0.108441,-0.0982883,-0.107083,-0.104952,362,211,65.0323,10,65.3474,10,3.252
0.601584,0.636005,0.594048,0.614886,-0.108579,-0.0977714,-0.107219,-0.10469,367,215,65.1212,10,65.3664,10,3.256
0.60115,0.63562,0.593619,0.614474,-0.108717,-0.097254,-0.107355,-0.104141,372,221,65.2147,10,65.3894,10,3.26
0.600715,0.635234,0.593189,0.614059,-0.108855,-0.0969955,-0.107491,-0.104034,375,224,65.3126,10,65.4192,10,3.264
0.600279,0.634852,0.592759,0.613648,-0.108992,-0.0965352,-0.107627,-0.103588,380,230,65.4134,10,65.4515,10,3.268
0.599843,0.634469,0.592328,0.613231,-0.10913,-0.0962859,-0.107762,-0.10381,383,229,65.5183,10,65.4893,10,3.272
0.599406,0.63408,0.591896,0.612802,-0.109266,-0.0966092,-0.107898,-0.104965,382,219,65.6255,10,65.5258,10,3.276
0.598969,0.633706,0.591465,0.612387,-0.109403,-0.0955579,-0.108033,-0.104554,390,224,65.7325,10,65.5529,10,3.28
0.598531,0.633319,0.591032,0.611954,-0.10954,-0.0959511,-0.108167,-0.105807,389,214,65.8467,10,65.5846,10,3.284
0.598092,0.632936,0.590599,0.611528,-0.109676,-0.0958678,-0.108302,-0.106008,391,213,65.9597,10,65.6056,10,3.288
0.597653,0.632545,0.590166,0.611092,-0.109812,-0.0964744,-0.108436,-0.107006,389,205,66.0739,10,65.6256,10,3.292
0.597214,0.632133,0.589732,0.610636,-0.109948,-0.0986926,-0.10857,-0.109313,376,184,66.184,10,65.6362,10,3.296
0.596774,0.631749,0.589297,0.610217,-0.110083,-0.097753,-0.108704,-0.107799,383,200,66.2819,10,65.627,10,3.3
0.596333,0.631351,0.588862,0.609787,-0.110219,-0.0983934,-0.108838,-0.107682,381,202,66.3864,10,65.6337,10,3.304
0.595892,0.630945,0.588427,0.609353,-0.110354,-0.0993961,-0.108971,-0.107978,375,201,66.4873,10,65.6426,10,3.308
0.59545,0.630542,0.58799,0.608919,-0.110488,-0.0998919,-0.109104,-0.108118,373,200,66.5826,10,65.65,10,3.312
0.595008,0.63014,0.587554,0.608488,-0.110623,-0.10005,-0.109237,-0.10801,374,203,66.6758,10,65.6575,10,3.316
0.594565,0.629738,0.587117,0.608057,-0.110757,-0.100212,-0.10937,-0.107966,374,205,66.7689,10,65.6673,10,3.32
0.594122,0.629337,0.586679,0.607625,-0.110892,-0.100206,-0.109502,-0.107937,376,206,66.8621,10,65.6789,10,3.324
0.593678,0.628942,0.58624,0.607196,-0.111025,-0.0997119,-0.109634,-0.107688,380,210,66.9566,10,65.6921,10,3.328
0.593234,0.628544,0.585802,0.606763,-0.111159,-0.0996993,-0.109766,-0.107924,382,209,67.0552,10,65.709,10,3.332
0.592789,0.628149,0.585362,0.606331,-0.111292,-0.0993454,-0.109898,-0.107938,386,210,67.1551,10,65.7249,10,3.336
0.592344,0.627754,0.584923,0.605899,-0.111426,-0.0991671,-0.11003,-0.107919,388,212,67.2585,10,65.7421,10,3.34
0.591898,0.627358,0.584482,0.605467,-0.111559,-0.0991346,-0.110161,-0.108021,390,212,67.364,10,65.7607,10,3.344
0.591451,0.626959,0.584041,0.605034,-0.111691,-0.0993145,-0.110292,-0.108089,390,213,67.4706,10,65.7796,10,3.348
0.591004,0.626558,0.5836,0.604598,-0.111824,-0.0996071,-0.110423,-0.108336,390,212,67.577,10,65.7991,10,3.352
0.590556,0.626155,0.583158,0.604162,-0.111956,-0.100004,-0.110553,-0.108558,388,211,67.6823,10,65.8174,10,3.356
0.590108,0.625746,0.582715,0.603725,-0.112088,-0.100729,-0.110684,-0.10885,385,209,67.7857,10,65.8348,10,3.36
0.58966,0.625344,0.582272,0.603292,-0.11222,-0.100665,-0.110814,-0.108613,387,213,67.8856,10,65.8508,10,3.364
0.589211,0.624938,0.581829,0.602856,-0.112351,-0.100939,-0.110943,-0.108772,386,213,67.9868,10,65.8703,10,3.368
0.588761,0.62453,0.581385,0.602418,-0.112482,-0.101266,-0.111073,-0.108964,386,212,68.087,10,65.8895,10,3.372
0.588311,0.624124,0.58094,0.601982,-0.112613,-0.101369,-0.111202,-0.108977,386,213,68.1862,10,65.9081,10,3.376
0.58786,0.623718,0.580495,0.601545,-0.112744,-0.101437,-0.111331,-0.1091,387,213,68.2857,10,65.9279,10,3.38
0.587409,0.623314,0.58005,0.601105,-0.112874,-0.101282,-0.11146,-0.109356,390,212,68.3858,10,65.9476,10,3.384
0.586957,0.622906,0.579604,0.600658,-0.113005,-0.101494,-0.111589,-0.110217,390,205,68.4878,10,65.9658,10,3.388
0.586505,0.62251,0.579157,0.600221,-0.113135,-0.100715,-0.111717,-0.109841,396,210,68.5899,10,65.9772,10,3.392
0.586052,0.622111,0.57871,0.599775,-0.113264,-0.100397,-0.111845,-0.110454,400,205,68.6982,10,65.9932,10,3.396
