peachynonah/Fire_monitor_KIRO_CDSL/csv_datas/trial12/cdsl_data_t12_11_d.csv
joint1_pos_desired, joint1_pos, joint2_pos_desired, joint2_pos, joint1_vel_desired, joint1_vel_filtered, joint2_vel_desired, joint2_vel_filtered, target_torque_joint1, target_torque_joint2, estimated_disturbance_joint1, saturated_DOB_joint1, estimated_disturbance_joint2, saturated_DOB_joint2, current_time
0.73868,0.737681,0.73491,0.733206,-3.54283e-07,0,-3.52475e-07,0,-6,-87,0,0,17.1315,1,0.004
0.73868,0.737682,0.73491,0.733116,-1.416e-06,2.87909e-05,-1.40877e-06,-0.00748564,-5,-160,-0.00635005,-0.00635005,17.0369,1,0.008
0.73868,0.737682,0.73491,0.73305,-3.18344e-06,4.79849e-05,-3.1672e-06,-0.0105183,-5,-190,-0.0125359,-0.0125359,16.8699,1,0.012
0.73868,0.737681,0.73491,0.732998,-5.65492e-06,-2.55919e-05,-5.62606e-06,-0.0113596,-6,-198,-0.0186407,-0.0186407,16.6741,1,0.016
0.73868,0.737682,0.73491,0.732966,-8.82874e-06,6.93115e-05,-8.78368e-06,-0.0101931,-5,-187,-0.0250784,-0.0250784,16.4714,1,0.02
0.73868,0.737682,0.73491,0.732957,-1.27032e-05,4.62077e-05,-1.26384e-05,-0.00760152,-5,-163,-0.0310103,-0.0310103,16.2815,1,0.024
0.73868,0.737683,0.73491,0.732966,-1.72766e-05,5.9596e-05,-1.71884e-05,-0.00431911,-5,-131,-0.0370342,-0.0370342,16.1183,1,0.028
0.73868,0.737683,0.73491,0.732989,-2.25473e-05,3.97307e-05,-2.24322e-05,-0.000921626,-5,-98,-0.0429684,-0.0429684,15.9886,1,0.032
0.73868,0.737683,0.73491,0.733023,-2.85135e-05,2.64871e-05,-2.83679e-05,0.0021783,-6,-68,-0.0489801,-0.0489801,15.8931,1,0.036
0.73868,0.737683,0.73491,0.733064,-3.51736e-05,4.6449e-05,-3.4994e-05,0.00490711,-5,-41,-0.055018,-0.055018,15.829,1,0.04
0.738679,0.737684,0.734909,0.73311,-4.25258e-05,8.85479e-05,-4.23088e-05,0.00712939,-5,-19,-0.0608951,-0.0608951,15.7925,1,0.044
0.738679,0.737683,0.734909,0.733158,-5.05686e-05,3.0241e-05,-5.03105e-05,0.00872608,-5,-3,-0.0665298,-0.0665298,15.7783,1,0.048
0.738679,0.737684,0.734909,0.733204,-5.93002e-05,4.89516e-05,-5.89975e-05,0.00961779,-5,5,-0.0724146,-0.0724146,15.7803,1,0.052
0.738679,0.737683,0.734909,0.733247,-6.87188e-05,3.84346e-06,-6.83681e-05,0.0100107,-6,9,-0.0781671,-0.0781671,15.7914,1,0.056
0.738678,0.737684,0.734908,0.733287,-7.8823e-05,3.13532e-05,-7.84207e-05,0.0100136,-5,10,-0.08409,-0.08409,15.8067,1,0.06
0.738678,0.737684,0.734908,0.733324,-8.96109e-05,2.09022e-05,-8.91535e-05,0.00972755,-5,7,-0.0898133,-0.0898133,15.8224,1,0.064
0.738678,0.737684,0.734908,0.733355,-0.000101081,4.27257e-05,-0.000100565,0.0091338,-5,2,-0.0955193,-0.0955193,15.8356,1,0.068
0.738677,0.737684,0.734907,0.733384,-0.000113231,5.72747e-05,-0.000112653,0.00845005,-5,-3,-0.101037,-0.101037,15.8433,1,0.072
0.738677,0.737684,0.734907,0.733408,-0.00012606,9.39222e-06,-0.000125417,0.00767752,-5,-10,-0.106426,-0.106426,15.8446,1,0.076
0.738676,0.737685,0.734906,0.73343,-0.000139566,6.38433e-05,-0.000138854,0.00690339,-5,-17,-0.111968,-0.111968,15.8386,1,0.08
0.738676,0.737685,0.734906,0.733449,-0.000153748,4.25622e-05,-0.000152963,0.00621455,-5,-23,-0.117153,-0.117153,15.8254,1,0.084
0.738675,0.737685,0.734905,0.733468,-0.000168603,2.83748e-05,-0.000167743,0.00569774,-5,-28,-0.12237,-0.12237,15.806,1,0.088
0.738674,0.737685,0.734904,0.733486,-0.00018413,1.89165e-05,-0.000183191,0.00532441,-5,-31,-0.127577,-0.127577,15.782,1,0.092
0.738674,0.737685,0.734904,0.733502,-0.000200328,1.2611e-05,-0.000199305,0.00493157,-5,-34,-0.132745,-0.132745,15.7547,1,0.096
0.738673,0.737685,0.734903,0.733519,-0.000217194,8.40735e-06,-0.000216086,0.00469847,-5,-36,-0.137851,-0.137851,15.7241,1,0.1
0.738672,0.737685,0.734902,0.733535,-0.000234727,5.6049e-06,-0.000233529,0.00439911,-5,-39,-0.14288,-0.14288,15.6917,1,0.104
0.738671,0.737685,0.734901,0.733552,-0.000252926,3.7366e-06,-0.000251635,0.0043435,-5,-39,-0.147821,-0.147821,15.6569,1,0.108
0.73867,0.737684,0.7349,0.733568,-0.000271788,-2.62999e-05,-0.000270401,0.00427763,-5,-39,-0.152675,-0.152675,15.6222,1,0.112
0.738669,0.737685,0.734899,0.733585,-0.000291312,6.88395e-05,-0.000289826,0.0042913,-4,-39,-0.157537,-0.157537,15.5873,1,0.116
0.738667,0.737685,0.734898,0.733603,-0.000311497,1.71021e-05,-0.000309907,0.0043292,-4,-38,-0.161804,-0.161804,15.5532,1,0.12
0.738666,0.737685,0.734896,0.733619,-0.00033234,1.14014e-05,-0.000330644,0.00423931,-4,-38,-0.166223,-0.166223,15.52,1,0.124
0.738665,0.737685,0.734895,0.733637,-0.000353841,7.60093e-06,-0.000352035,0.00426575,-4,-38,-0.170548,-0.170548,15.4864,1,0.128
0.738663,0.737685,0.734893,0.733654,-0.000375996,5.06729e-06,-0.000374077,0.00434096,-4,-37,-0.174765,-0.174765,15.4538,1,0.132
0.738662,0.737685,0.734892,0.733672,-0.000398806,3.37819e-06,-0.00039677,0.00436231,-4,-36,-0.178863,-0.178863,15.4224,1,0.136
0.73866,0.737684,0.73489,0.733691,-0.000422267,-5.53297e-05,-0.000420112,0.00449171,-4,-34,-0.182855,-0.182855,15.3919,1,0.14
0.738658,0.737685,0.734889,0.733709,-0.000446379,4.94863e-05,-0.000444101,0.0044916,-4,-34,-0.186972,-0.186972,15.3632,1,0.144
0.738657,0.737685,0.734887,0.733727,-0.00047114,3.29909e-05,-0.000468735,0.00446274,-4,-34,-0.190402,-0.190402,15.335,1,0.148
0.738655,0.737685,0.734885,0.733744,-0.000496548,-3.55879e-05,-0.000494013,0.0044147,-4,-34,-0.193793,-0.193793,15.3072,1,0.152
0.738653,0.737685,0.734883,0.73376,-0.000522601,3.38566e-05,-0.000519934,0.00429631,-3,-34,-0.197363,-0.197363,15.2795,1,0.156
0.73865,0.737685,0.734881,0.733775,-0.000549298,-3.50108e-05,-0.000546494,0.00413101,-4,-36,-0.200437,-0.200437,15.2511,1,0.16
0.738648,0.737685,0.734878,0.733791,-0.000576637,-2.33405e-05,-0.000573694,0.00402081,-3,-36,-0.203705,-0.203705,15.2217,1,0.164
0.738646,0.737685,0.734876,0.733804,-0.000604616,4.20215e-05,-0.000601531,0.00383217,-3,-37,-0.20672,-0.20672,15.1918,1,0.168
0.738643,0.737685,0.734874,0.733819,-0.000633235,2.80143e-05,-0.000630003,0.00373521,-3,-38,-0.209226,-0.209226,15.1607,1,0.172
0.738641,0.737685,0.734871,0.733832,-0.00066249,-3.89056e-05,-0.000659109,0.0035842,-3,-39,-0.211656,-0.211656,15.1292,1,0.176
0.738638,0.737685,0.734868,0.733843,-0.000692382,3.16448e-05,-0.000688848,0.00336836,-2,-41,-0.214229,-0.214229,15.0967,1,0.18
0.738635,0.737684,0.734865,0.733854,-0.000722907,-6.52763e-05,-0.000719217,0.0031093,-3,-43,-0.216287,-0.216287,15.0628,1,0.184
0.738632,0.737685,0.734863,0.733862,-0.000754064,-1.47266e-05,-0.000750216,0.00279264,-2,-45,-0.218645,-0.218645,15.0268,1,0.188
0.738629,0.737685,0.734859,0.73387,-0.000785852,-9.81772e-06,-0.000781842,0.00246637,-2,-48,-0.220544,-0.220544,14.9883,1,0.192
0.738626,0.737685,0.734856,0.733875,-0.000818269,-6.54515e-06,-0.000814093,0.0021049,-2,-51,-0.22222,-0.22222,14.9471,1,0.196
0.738623,0.737685,0.734853,0.733879,-0.000851314,5.32184e-05,-0.000846969,0.00174876,-1,-54,-0.223654,-0.223654,14.903,1,0.2
0.738619,0.737685,0.73485,0.733882,-0.000884984,-2.21029e-05,-0.000880467,0.00139617,-2,-57,-0.224599,-0.224599,14.856,1,0.204
0.738616,0.737685,0.734846,0.733883,-0.000919278,-1.47353e-05,-0.000914587,0.00101715,-1,-60,-0.225725,-0.225725,14.8061,1,0.208
0.738612,0.737685,0.734842,0.733883,-0.000954195,-9.82351e-06,-0.000949325,0.0006781,-1,-63,-0.226596,-0.226596,14.753,1,0.212
0.738608,0.737685,0.734838,0.733884,-0.000989733,-6.54901e-06,-0.000984682,0.000480858,-1,-65,-0.227223,-0.227223,14.6973,1,0.216
0.738604,0.737685,0.734834,0.733884,-0.00102589,-4.36601e-06,-0.00102065,0.000349363,-1,-66,-0.227609,-0.227609,14.6404,1,0.22
0.7386,0.737685,0.73483,0.733885,-0.00106266,-2.91067e-06,-0.00105724,0.00029049,0,-66,-0.227756,-0.227756,14.5828,1,0.224
0.738595,0.737685,0.734826,0.733885,-0.00110005,-1.94045e-06,-0.00109444,0.000251242,0,-66,-0.227663,-0.227663,14.5254,1,0.228
0.738591,0.737685,0.734821,0.733886,-0.00113806,-1.29363e-06,-0.00113225,0.000253867,0,-65,-0.227329,-0.227329,14.4682,1,0.232
0.738586,0.737685,0.734817,0.733888,-0.00117668,-8.62421e-07,-0.00117067,0.000284409,0,-64,-0.226751,-0.226751,14.4118,1,0.236
0.738582,0.737685,0.734812,0.733889,-0.00121591,-5.74947e-07,-0.0012097,0.000275979,0,-64,-0.225927,-0.225927,14.3564,1,0.24
0.738577,0.737685,0.734807,0.73389,-0.00125574,-3.83298e-07,-0.00124933,0.000270358,0,-64,-0.224851,-0.224851,14.3016,1,0.244
0.738571,0.737685,0.734802,0.73389,-0.00129619,-2.55532e-07,-0.00128957,0.00020903,0,-64,-0.223521,-0.223521,14.2474,1,0.248
0.738566,0.737685,0.734797,0.73389,-0.00133724,-1.70355e-07,-0.00133042,0.000168144,0,-64,-0.221932,-0.221932,14.1933,1,0.252
0.738561,0.737685,0.734791,0.733891,-0.0013789,-1.1357e-07,-0.00137186,0.000140887,1,-64,-0.22008,-0.22008,14.1396,1,0.256
0.738555,0.737685,0.734786,0.733891,-0.00142116,-7.57132e-08,-0.0014139,9.39247e-05,1,-64,-0.217962,-0.217962,14.0862,1,0.26
0.738549,0.737685,0.73478,0.733891,-0.00146402,-5.04755e-08,-0.00145655,9.14074e-05,1,-63,-0.215572,-0.215572,14.0332,1,0.264
0.738543,0.737685,0.734774,0.733891,-0.00150748,-3.36503e-08,-0.00149979,6.09383e-05,1,-63,-0.212906,-0.212906,13.9808,1,0.268
0.738537,0.737685,0.734768,0.733891,-0.00155154,-2.24335e-08,-0.00154362,4.06255e-05,2,-63,-0.20996,-0.20996,13.9289,1,0.272
0.738531,0.737685,0.734762,0.733891,-0.00159619,-1.49557e-08,-0.00158805,2.70837e-05,2,-62,-0.20673,-0.20673,13.8775,1,0.276
0.738525,0.737685,0.734755,0.733891,-0.00164144,-9.97047e-09,-0.00163307,1.80558e-05,2,-62,-0.20321,-0.20321,13.8267,1,0.28
0.738518,0.737685,0.734749,0.733891,-0.00168729,-6.64698e-09,-0.00167868,1.20372e-05,3,-61,-0.199397,-0.199397,13.7766,1,0.284
0.738511,0.737685,0.734742,0.733891,-0.00173372,-4.43132e-09,-0.00172488,8.02479e-06,3,-61,-0.195286,-0.195286,13.7271,1,0.288
0.738504,0.737685,0.734735,0.733891,-0.00178075,-2.95421e-09,-0.00177166,5.34986e-06,3,-60,-0.190873,-0.190873,13.6784,1,0.292
0.738497,0.737684,0.734728,0.733891,-0.00182836,-5.75838e-05,-0.00181903,3.23575e-05,3,-60,-0.186176,-0.186176,13.6304,1,0.296
0.738489,0.737685,0.73472,0.733891,-0.00187656,1.91926e-05,-0.00186699,2.15717e-05,4,-59,-0.181439,-0.181439,13.5835,1,0.3
0.738482,0.737684,0.734713,0.733891,-0.00192535,-1.59958e-05,-0.00191552,1.43811e-05,4,-59,-0.175999,-0.175999,13.5372,1,0.304
0.738474,0.737684,0.734705,0.733891,-0.00197472,-1.06639e-05,-0.00196464,9.58741e-06,4,-58,-0.170421,-0.170421,13.4916,1,0.308
0.738466,0.737684,0.734697,0.733891,-0.00202467,-7.10926e-06,-0.00201434,6.3916e-06,5,-58,-0.164489,-0.164489,13.4468,1,0.312
0.738458,0.737684,0.734689,0.733891,-0.00207521,-4.73951e-06,-0.00206462,4.26107e-06,5,-57,-0.158209,-0.158209,13.4027,1,0.316
0.738449,0.737685,0.734681,0.733891,-0.00212632,5.44222e-05,-0.00211547,2.84071e-06,6,-57,-0.151558,-0.151558,13.3594,1,0.32
0.738441,0.737684,0.734672,0.733891,-0.00217801,-2.13004e-05,-0.00216689,1.89381e-06,6,-56,-0.14429,-0.14429,13.3168,1,0.324
0.738432,0.737684,0.734663,0.733891,-0.00223027,-1.42003e-05,-0.00221889,1.26254e-06,6,-55,-0.137071,-0.137071,13.2751,1,0.328
0.738423,0.737684,0.734654,0.733891,-0.00228311,-9.46684e-06,-0.00227146,8.41693e-07,7,-55,-0.129467,-0.129467,13.2341,1,0.332
0.738414,0.737684,0.734645,0.733891,-0.00233652,-6.31123e-06,-0.0023246,5.61129e-07,7,-54,-0.121485,-0.121485,13.1939,1,0.336
0.738404,0.737684,0.734636,0.733891,-0.00239051,-3.29984e-05,-0.0023783,3.74086e-07,7,-54,-0.113141,-0.113141,13.1546,1,0.34
0.738395,0.737684,0.734626,0.733891,-0.00244506,-2.19989e-05,-0.00243258,2.4939e-07,8,-53,-0.104572,-0.104572,13.116,1,0.344
0.738385,0.737684,0.734616,0.733891,-0.00250018,1.4125e-05,-0.00248742,-2.86247e-05,8,-53,-0.0955658,-0.0955658,13.0783,1,0.348
0.738375,0.737684,0.734606,0.733891,-0.00255586,9.41664e-06,-0.00254282,9.70782e-06,9,-52,-0.0860026,-0.0860026,13.0411,1,0.352
0.738364,0.737684,0.734596,0.733891,-0.00261211,-5.13041e-05,-0.00259878,-2.2319e-05,9,-51,-0.0761132,-0.0761132,13.0052,1,0.356
0.738354,0.737683,0.734585,0.733891,-0.00266893,-6.29936e-05,-0.00265531,1.39116e-05,9,-50,-0.0661676,-0.0661676,12.9697,1,0.36
0.738343,0.737684,0.734575,0.733891,-0.0027263,-1.32048e-05,-0.00271239,9.27437e-06,10,-50,-0.0558811,-0.0558811,12.9355,1,0.364
0.738332,0.737684,0.734564,0.733891,-0.00278424,-8.80323e-06,-0.00277003,6.18292e-06,10,-49,-0.0449448,-0.0449448,12.902,1,0.368
0.738321,0.737684,0.734552,0.733891,-0.00284273,-5.86882e-06,-0.00282822,4.12194e-06,11,-48,-0.0335917,-0.0335917,12.8694,1,0.372
0.738309,0.737684,0.734541,0.733891,-0.00290178,-3.91255e-06,-0.00288697,-2.6043e-05,11,-48,-0.0218251,-0.0218251,12.8375,1,0.376
0.738297,0.737684,0.734529,0.733891,-0.00296139,-2.60836e-06,-0.00294627,1.14289e-05,12,-47,-0.00964563,-0.00964563,12.8063,1,0.38
0.738285,0.737684,0.734517,0.733891,-0.00302154,-1.73891e-06,-0.00300612,7.6193e-06,12,-46,0.00294762,0.00294762,12.7763,1,0.384
0.738273,0.737683,0.734505,0.733891,-0.00308226,-2.99502e-05,-0.00306652,5.07953e-06,12,-45,0.0159455,0.0159455,12.7471,1,0.388
0.738261,0.737683,0.734493,0.733891,-0.00314352,-1.99668e-05,-0.00312747,3.38636e-06,13,-45,0.0292152,0.0292152,12.7187,1,0.392
0.738248,0.737683,0.73448,0.733891,-0.00320533,-1.33112e-05,-0.00318897,-2.65334e-05,13,-44,0.0429598,0.0429598,12.6912,1,0.396
0.738235,0.737683,0.734467,0.733891,-0.00326768,-8.87413e-06,-0.00325101,-1.76889e-05,14,-44,0.0571657,0.0571657,12.6643,1,0.4
0.738222,0.737683,0.734454,0.733891,-0.00333059,-5.91609e-06,-0.00331359,-1.17926e-05,14,-43,0.0718256,0.0718256,12.6383,1,0.404
0.738209,0.737683,0.734441,0.733891,-0.00339403,-3.94406e-06,-0.00337671,-7.86173e-06,15,-42,0.0869361,0.0869361,12.6133,1,0.408
0.738195,0.737683,0.734427,0.733891,-0.00345802,-3.14203e-05,-0.00344038,-5.24116e-06,15,-41,0.102485,0.102485,12.5893,1,0.412
0.738181,0.737683,0.734413,0.733891,-0.00352256,-2.09469e-05,-0.00350458,-3.4941e-06,16,-40,0.118337,0.118337,12.5661,1,0.416
0.738167,0.737683,0.734399,0.733891,-0.00358763,-1.39646e-05,-0.00356932,-2.3294e-06,16,-40,0.134695,0.134695,12.5439,1,0.42
0.738152,0.737683,0.734385,0.733891,-0.00365323,-9.30972e-06,-0.00363459,-1.55294e-06,17,-39,0.151544,0.151544,12.5226,1,0.424
0.738137,0.737683,0.73437,0.733891,-0.00371938,-3.49974e-05,-0.0037004,-1.03529e-06,17,-38,0.168864,0.168864,12.5022,1,0.428
0.738122,0.737683,0.734355,0.733891,-0.00378606,-2.33316e-05,-0.00376674,-6.90193e-07,18,-37,0.186516,0.186516,12.4827,1,0.432
0.738107,0.737683,0.73434,0.733891,-0.00385327,-1.55544e-05,-0.00383361,-4.60129e-07,18,-36,0.204699,0.204699,12.4641,1,0.436
0.738092,0.737683,0.734325,0.733891,-0.00392102,-1.03696e-05,-0.00390101,-2.90977e-05,19,-36,0.223396,0.223396,12.4465,1,0.44
0.738076,0.737683,0.734309,0.733891,-0.00398929,-6.91307e-06,-0.00396893,-1.93985e-05,20,-35,0.242597,0.242597,12.4295,1,0.444
0.73806,0.737682,0.734293,0.733891,-0.0040581,-3.33996e-05,-0.00403738,-1.29323e-05,20,-34,0.262287,0.262287,12.4135,1,0.448
0.738043,0.737682,0.734277,0.733891,-0.00412743,-2.22664e-05,-0.00410636,-8.62153e-06,21,-33,0.282327,0.282327,12.3985,1,0.452
0.738027,0.737682,0.73426,0.733891,-0.00419728,-4.36352e-05,-0.00417586,-5.74769e-06,21,-32,0.302908,0.302908,12.3845,1,0.456
0.73801,0.737682,0.734243,0.733891,-0.00426766,-5.78811e-05,-0.00424588,-3.83179e-06,21,-31,0.323864,0.323864,12.3715,1,0.46
0.737992,0.737681,0.734226,0.733891,-0.00433856,-6.73783e-05,-0.00431642,-2.55453e-06,22,-31,0.345242,0.345242,12.3594,1,0.464
0.737975,0.737681,0.734209,0.733891,-0.00440999,-4.49189e-05,-0.00438748,-1.70302e-06,23,-30,0.367081,0.367081,12.3483,1,0.468
0.737957,0.737681,0.734191,0.733891,-0.00448193,-2.99459e-05,-0.00445906,-1.13535e-06,23,-29,0.389552,0.389552,12.3382,1,0.472
0.737939,0.737681,0.734173,0.73389,-0.00455439,-1.99639e-05,-0.00453115,-2.95478e-05,24,-28,0.412618,0.412618,12.329,1,0.476
0.737921,0.737681,0.734155,0.73389,-0.00462737,-4.21002e-05,-0.00460375,-1.96985e-05,25,-27,0.436245,0.436245,12.3205,1,0.48
0.737902,0.737681,0.734136,0.73389,-0.00470086,-2.80668e-05,-0.00467687,-1.31324e-05,25,-26,0.460285,0.460285,12.3131,1,0.484
0.737883,0.737681,0.734117,0.73389,-0.00477486,-1.87112e-05,-0.00475049,-8.75491e-06,26,-25,0.48493,0.48493,12.3067,1,0.488
0.737864,0.73768,0.734098,0.73389,-0.00484938,-4.12651e-05,-0.00482463,-3.46275e-05,26,-25,0.510146,0.510146,12.3013,1,0.492
0.737844,0.73768,0.734079,0.73389,-0.00492441,-5.6301e-05,-0.00489927,-2.3085e-05,27,-24,0.535776,0.535776,12.2967,1,0.496
0.737825,0.73768,0.734059,0.73389,-0.00499994,-6.63249e-05,-0.00497442,-1.539e-05,28,-22,0.561864,0.561864,12.2931,1,0.5
0.737804,0.737679,0.734039,0.73389,-0.00507598,-7.30075e-05,-0.00505008,-1.026e-05,28,-22,0.588442,0.588442,12.2906,1,0.504
0.737784,0.737679,0.734018,0.73389,-0.00515253,-4.86717e-05,-0.00512623,-6.84001e-06,29,-21,0.615545,0.615545,12.2892,1,0.508
0.737763,0.737679,0.733998,0.73389,-0.00522958,-6.12387e-05,-0.00520289,-4.56e-06,30,-20,0.643326,0.643326,12.2888,1,0.512
0.737742,0.737679,0.733977,0.73389,-0.00530713,-6.96167e-05,-0.00528005,-3.18309e-05,30,-19,0.671597,0.671597,12.2893,1,0.516
0.737721,0.737678,0.733956,0.733889,-0.00538519,-7.52021e-05,-0.0053577,-5.00115e-05,31,-18,0.700387,0.700387,12.2907,1,0.52
0.737699,0.737678,0.733934,0.733889,-0.00546374,-0.000107717,-0.00543586,-3.3341e-05,31,-17,0.729704,0.729704,12.2928,1,0.524
0.737677,0.737676,0.733912,0.733889,-0.0055428,-0.000186975,-0.00551451,-5.10183e-05,32,-16,0.759392,0.759392,12.2962,1,0.528
0.737655,0.737675,0.73389,0.733889,-0.00562234,-0.000239814,-0.00559365,-5.22126e-06,32,-15,0.789221,0.789221,12.3004,1,0.532
0.737632,0.737673,0.733867,0.733889,-0.00570239,-0.00030383,-0.00567328,-3.22718e-05,32,-14,0.819329,0.819329,12.306,1,0.536
0.737609,0.737672,0.733844,0.733889,-0.00578292,-0.000288926,-0.00575341,-5.03054e-05,33,-13,0.84969,0.84969,12.3124,1,0.54
0.737586,0.737672,0.733821,0.733889,-0.00586395,-0.000250199,-0.00583402,-3.3537e-05,34,-12,0.880731,0.880731,12.3197,1,0.544
0.737562,0.737671,0.733798,0.733888,-0.00594547,-0.000224381,-0.00591513,-5.11489e-05,35,-11,0.912579,0.912579,12.3281,1,0.548
0.737538,0.73767,0.733774,0.733888,-0.00602748,-0.000207169,-0.00599671,-6.28902e-05,36,-10,0.945167,0.945167,12.3374,1,0.552
0.737514,0.737669,0.73375,0.733888,-0.00610997,-0.000195695,-0.00607879,-7.07177e-05,36,-9,0.978453,0.978453,12.3477,1,0.556
0.737489,0.737669,0.733725,0.733887,-0.00619295,-0.000188045,-0.00616134,-7.59361e-05,37,-8,1.01241,1,12.3589,1,0.56
0.737464,0.737667,0.733701,0.733887,-0.00627642,-0.000240527,-0.00624438,-7.9415e-05,37,-7,1.04695,1,12.371,1,0.564
0.737439,0.737666,0.733675,0.733886,-0.00636036,-0.000275515,-0.0063279,-0.000110525,38,-6,1.08166,1,12.3842,1,0.568
0.737413,0.737664,0.73365,0.733885,-0.00644479,-0.000327631,-0.0064119,-0.000160056,38,-6,1.11664,1,12.3982,1,0.572
0.737388,0.737662,0.733624,0.733885,-0.0065297,-0.000391166,-0.00649637,-0.000164286,38,-5,1.15179,1,12.4127,1,0.576
0.737361,0.73766,0.733598,0.733884,-0.00661508,-0.000433523,-0.00658132,-0.000167106,39,-4,1.18706,1,12.4282,1,0.58
0.737335,0.737658,0.733571,0.733884,-0.00670095,-0.000490552,-0.00666675,-0.000140195,39,-2,1.22257,1,12.4448,1,0.584
0.737308,0.737655,0.733545,0.733883,-0.00678728,-0.000586153,-0.00675264,-0.000122254,39,-1,1.25822,1,12.4627,1,0.588
0.73728,0.737651,0.733517,0.733883,-0.0068741,-0.000678678,-0.00683901,-8.15028e-05,39,0,1.29381,1,12.4819,1,0.592
0.737253,0.737647,0.73349,0.733883,-0.00696138,-0.000769152,-0.00692585,-5.43352e-05,39,1,1.32937,1,12.5026,1,0.596
0.737225,0.737643,0.733462,0.733883,-0.00704913,-0.000858259,-0.00701316,-3.62234e-05,40,2,1.3649,1,12.5246,1,0.6
0.737196,0.737638,0.733434,0.733883,-0.00713736,-0.000975246,-0.00710093,-5.29399e-05,40,3,1.40041,1,12.5479,1,0.604
0.737168,0.737633,0.733405,0.733883,-0.00722605,-0.00111082,-0.00718917,-3.52933e-05,39,5,1.43575,1,12.5721,1,0.608
0.737138,0.737626,0.733376,0.733882,-0.00731521,-0.00131636,-0.00727787,-8.11107e-05,39,5,1.47079,1,12.5976,1,0.612
0.737109,0.737617,0.733347,0.733881,-0.00740483,-0.00162614,-0.00736704,-0.000140447,38,6,1.50512,1,12.6237,1,0.616
0.737079,0.737608,0.733317,0.733881,-0.00749491,-0.00183266,-0.00745666,-9.3631e-05,37,8,1.53825,1,12.6503,1,0.62
0.737049,0.737597,0.733287,0.73388,-0.00758546,-0.00211429,-0.00754675,-0.000120003,37,9,1.57069,1,12.6785,1,0.624
0.737018,0.737584,0.733257,0.73388,-0.00767647,-0.00250358,-0.00763729,-8.00017e-05,35,10,1.602,1,12.7075,1,0.628
0.736988,0.737571,0.733226,0.73388,-0.00776793,-0.0027919,-0.00772829,-8.21254e-05,34,11,1.63166,1,12.7381,1,0.632
0.736956,0.737555,0.733195,0.733879,-0.00785986,-0.00312807,-0.00781974,-0.000112332,33,12,1.66019,1,12.7697,1,0.636
0.736925,0.737539,0.733164,0.733879,-0.00795224,-0.00346734,-0.00791165,-0.00013247,32,13,1.68733,1,12.8022,1,0.64
0.736893,0.737522,0.733132,0.733878,-0.00804507,-0.00375111,-0.00800401,-0.000174686,31,14,1.71309,1,12.8355,1,0.644
0.73686,0.737503,0.7331,0.733876,-0.00813835,-0.00405545,-0.00809682,-0.000260412,30,14,1.73777,1,12.8696,1,0.648
0.736828,0.737484,0.733067,0.733873,-0.00823209,-0.00425834,-0.00819008,-0.000403935,29,14,1.76128,1,12.9039,1,0.652
0.736795,0.737466,0.733034,0.73387,-0.00832628,-0.00433602,-0.00828378,-0.000528409,29,14,1.78423,1,12.9379,1,0.656
0.736761,0.737448,0.733001,0.733866,-0.00842091,-0.00438781,-0.00837794,-0.000668973,30,14,1.80727,1,12.9717,1,0.66
0.736727,0.737431,0.732967,0.733862,-0.008516,-0.00436475,-0.00847253,-0.000762682,30,15,1.83058,1,13.0054,1,0.664
0.736693,0.737414,0.732933,0.733858,-0.00861152,-0.00432059,-0.00856757,-0.000882737,31,15,1.85455,1,13.0392,1,0.668
0.736658,0.737399,0.732899,0.733854,-0.00870749,-0.00417599,-0.00866305,-0.000905191,33,16,1.87935,1,13.073,1,0.672
0.736623,0.737383,0.732864,0.73385,-0.00880391,-0.00405079,-0.00875898,-0.000920161,34,17,1.90549,1,13.1078,1,0.676
0.736588,0.737367,0.732828,0.733847,-0.00890076,-0.00408249,-0.00885534,-0.000930141,34,18,1.93282,1,13.1435,1,0.68
0.736552,0.737349,0.732793,0.733844,-0.00899806,-0.00419,-0.00895213,-0.000850421,35,20,1.96048,1,13.1804,1,0.684
0.736516,0.73733,0.732757,0.733841,-0.00909579,-0.00440562,-0.00904937,-0.000768484,34,22,1.98803,1,13.2193,1,0.688
0.736479,0.73731,0.73272,0.73384,-0.00919396,-0.00457817,-0.00914704,-0.000627486,34,25,2.01493,1,13.2601,1,0.692
0.736442,0.737289,0.732684,0.733839,-0.00929256,-0.00477957,-0.00924514,-0.000475906,33,28,2.04139,1,13.3035,1,0.696
0.736405,0.737269,0.732647,0.733839,-0.0093916,-0.00485625,-0.00934367,-0.000346062,33,30,2.06731,1,13.3497,1,0.7
0.736367,0.73725,0.732609,0.733839,-0.00949107,-0.004821,-0.00944263,-0.000230708,34,33,2.0934,1,13.3983,1,0.704
0.736329,0.737231,0.732571,0.733838,-0.00959097,-0.00485508,-0.00954202,-0.000240178,35,34,2.12022,1,13.4491,1,0.708
0.73629,0.73721,0.732533,0.733836,-0.0096913,-0.00493539,-0.00964184,-0.000332864,35,34,2.14738,1,13.501,1,0.712
0.736251,0.73719,0.732494,0.733833,-0.00979206,-0.00498892,-0.00974208,-0.000481028,35,34,2.17466,1,13.5532,1,0.716
0.736212,0.737169,0.732455,0.733829,-0.00989324,-0.00508219,-0.00984275,-0.000637385,36,34,2.20218,1,13.605,1,0.72
0.736172,0.737147,0.732415,0.733824,-0.00999485,-0.00520196,-0.00994384,-0.000799206,36,34,2.22974,1,13.6565,1,0.724
0.736132,0.737124,0.732375,0.73382,-0.0100969,-0.00539696,-0.0100453,-0.000907086,35,34,2.25715,1,13.7076,1,0.728
0.736092,0.737098,0.732335,0.733815,-0.0101993,-0.0057285,-0.0101473,-0.0010078,34,35,2.28399,1,13.7588,1,0.732
0.736051,0.737074,0.732294,0.73381,-0.0103022,-0.00586316,-0.0102496,-0.00113252,34,35,2.3096,1,13.8102,1,0.736
0.736009,0.73705,0.732253,0.733804,-0.0104055,-0.00589535,-0.0103524,-0.00121567,34,35,2.33506,1,13.8616,1,0.74
0.735967,0.737027,0.732211,0.733797,-0.0105092,-0.00585922,-0.0104556,-0.00141505,35,35,2.36095,1,13.9132,1,0.744
0.735925,0.737003,0.732169,0.73379,-0.0106133,-0.00589272,-0.0105592,-0.00154798,36,35,2.3876,1,13.9642,1,0.748
0.735882,0.73698,0.732127,0.733781,-0.0107179,-0.00585747,-0.0106632,-0.00178055,37,34,2.41467,1,14.015,1,0.752
0.735839,0.736956,0.732084,0.733771,-0.0108228,-0.00586277,-0.0107676,-0.00199318,37,33,2.4425,1,14.0646,1,0.756
0.735796,0.736933,0.732041,0.733762,-0.0109282,-0.00589508,-0.0108724,-0.00210614,38,34,2.47088,1,14.1135,1,0.76
0.735752,0.736909,0.731997,0.733751,-0.011034,-0.00591663,-0.0109777,-0.00229661,38,33,2.49967,1,14.1623,1,0.764
0.735708,0.736884,0.731953,0.733739,-0.0111402,-0.00598858,-0.0110833,-0.00248118,39,33,2.52892,1,14.2105,1,0.768
0.735663,0.73686,0.731908,0.733727,-0.0112468,-0.00597896,-0.0111894,-0.00271938,39,32,2.55838,1,14.2581,1,0.772
0.735618,0.736839,0.731863,0.733714,-0.0113538,-0.00574222,-0.0112958,-0.00287819,41,32,2.58858,1,14.3046,1,0.776
0.735572,0.73682,0.731818,0.7337,-0.0114612,-0.00541165,-0.0114027,-0.00309922,44,31,2.62076,1,14.3506,1,0.78
0.735526,0.736804,0.731772,0.733685,-0.011569,-0.00496094,-0.0115099,-0.00327536,47,31,2.65546,1,14.3957,1,0.784
0.735479,0.73679,0.731726,0.733673,-0.0116772,-0.00448772,-0.0116176,-0.00319126,50,33,2.69331,1,14.4405,1,0.788
0.735432,0.736777,0.731679,0.733661,-0.0117858,-0.00402829,-0.0117256,-0.0031064,54,35,2.73443,1,14.4873,1,0.792
0.735385,0.736766,0.731632,0.733649,-0.0118948,-0.00363562,-0.0118341,-0.0031362,57,36,2.77874,1,14.5362,1,0.796
0.735337,0.736756,0.731584,0.733636,-0.0120042,-0.00328748,-0.0119429,-0.00312727,59,38,2.82585,1,14.5861,1,0.8
0.735289,0.736747,0.731536,0.733624,-0.012114,-0.00294022,-0.0120522,-0.00309253,62,40,2.87554,1,14.6373,1,0.804
0.73524,0.736738,0.731488,0.733611,-0.0122242,-0.00267992,-0.0121618,-0.00315574,64,40,2.92778,1,14.6901,1,0.808
0.735191,0.73673,0.731439,0.733597,-0.0123348,-0.00242001,-0.0122718,-0.00328426,67,41,2.9821,1,14.7434,1,0.812
0.735142,0.736724,0.73139,0.73358,-0.0124458,-0.00216037,-0.0123822,-0.00360026,69,39,3.03852,1,14.7967,1,0.816
0.735092,0.736718,0.73134,0.733563,-0.0125571,-0.00192969,-0.0124931,-0.00383972,71,38,3.09701,1,14.8481,1,0.82
0.735041,0.736713,0.73129,0.733544,-0.0126689,-0.00166074,-0.0126042,-0.00408573,73,37,3.15745,1,14.8984,1,0.824
0.73499,0.73671,0.731239,0.733526,-0.012781,-0.00142386,-0.0127158,-0.00424974,75,37,3.22002,1,14.9476,1,0.828
0.734939,0.736706,0.731188,0.733506,-0.0128936,-0.00123715,-0.0128278,-0.00453182,77,36,3.28455,1,14.9963,1,0.832
0.734887,0.736704,0.731137,0.733485,-0.0130065,-0.0010263,-0.0129401,-0.00477746,79,35,3.35077,1,15.0435,1,0.836
0.734835,0.736702,0.731085,0.733463,-0.0131198,-0.000856948,-0.0130528,-0.00497001,81,34,3.41881,1,15.0895,1,0.84
0.734782,0.7367,0.731032,0.733441,-0.0132335,-0.000686462,-0.0131659,-0.00512717,83,34,3.48845,1,15.135,1,0.844
0.734729,0.736699,0.730979,0.733421,-0.0133475,-0.000544014,-0.0132794,-0.00514557,85,36,3.55967,1,15.1802,1,0.848
0.734675,0.736699,0.730926,0.733401,-0.013462,-0.000391467,-0.0133933,-0.00510025,86,37,3.63236,1,15.2266,1,0.852
0.734621,0.736699,0.730872,0.73338,-0.0135768,-0.000260978,-0.0135075,-0.00509883,88,39,3.70654,1,15.2747,1,0.856
0.734567,0.736699,0.730818,0.733359,-0.013692,-0.000202776,-0.0136221,-0.00518426,89,40,3.78208,1,15.3241,1,0.86
0.734512,0.736698,0.730763,0.733337,-0.0138076,-0.000192766,-0.0137371,-0.00529879,90,40,3.85858,1,15.3739,1,0.864
0.734456,0.736697,0.730708,0.733314,-0.0139235,-0.000186093,-0.0138525,-0.00540394,91,40,3.93579,1,15.4238,1,0.868
0.7344,0.736697,0.730652,0.733293,-0.0140398,-0.000181644,-0.0139682,-0.00538766,92,42,4.0137,1,15.4742,1,0.872
0.734344,0.736696,0.730596,0.73327,-0.0141565,-0.000207468,-0.0140843,-0.00552077,93,42,4.09227,1,15.5259,1,0.876
0.734287,0.736694,0.73054,0.733247,-0.0142736,-0.000253476,-0.0142007,-0.00555192,94,43,4.17136,1,15.5776,1,0.88
0.73423,0.736693,0.730483,0.733225,-0.014391,-0.000284148,-0.0143175,-0.00557269,95,45,4.25085,1,15.6304,1,0.884
0.734172,0.736691,0.730425,0.733202,-0.0145088,-0.000304596,-0.0144347,-0.00561533,96,46,4.33084,1,15.6842,1,0.888
0.734114,0.73669,0.730367,0.733178,-0.0146269,-0.000318227,-0.0145523,-0.00573013,97,46,4.41139,1,15.7389,1,0.892
0.734055,0.736688,0.730309,0.733153,-0.0147455,-0.000356106,-0.0146702,-0.00592182,97,46,4.49251,1,15.7938,1,0.896
0.733996,0.736687,0.73025,0.733127,-0.0148643,-0.000381359,-0.0147885,-0.0061072,98,46,4.5741,1,15.8481,1,0.9
0.733936,0.736685,0.73019,0.733101,-0.0149836,-0.000398194,-0.0149071,-0.00623079,99,46,4.65623,1,15.9019,1,0.904
0.733876,0.736683,0.73013,0.733074,-0.0151032,-0.000409417,-0.0150261,-0.00637076,100,46,4.73894,1,15.9558,1,0.908
0.733815,0.736682,0.73007,0.733047,-0.0152231,-0.000388108,-0.0151454,-0.00652166,101,46,4.82228,1,16.0096,1,0.912
0.733754,0.73668,0.730009,0.73302,-0.0153434,-0.000373903,-0.0152651,-0.00662225,102,47,4.90642,1,16.0633,1,0.916
0.733693,0.736679,0.729948,0.732993,-0.0154641,-0.000335641,-0.0153852,-0.00663174,104,48,4.99133,1,16.1174,1,0.92
0.73363,0.736679,0.729886,0.732966,-0.0155851,-0.000252552,-0.0155056,-0.00666685,105,49,5.07716,1,16.1727,1,0.924
0.733568,0.736679,0.729824,0.732938,-0.0157065,-0.000168368,-0.0156263,-0.00677663,106,50,5.16415,1,16.2289,1,0.928
0.733505,0.736679,0.729761,0.732911,-0.0158282,-0.000112245,-0.0157475,-0.00682103,108,51,5.2523,1,16.2855,1,0.932
0.733441,0.736679,0.729698,0.732882,-0.0159503,-7.48301e-05,-0.0158689,-0.006937,109,51,5.34144,1,16.3429,1,0.936
0.733377,0.736678,0.729634,0.732855,-0.0160727,-0.000107469,-0.0159907,-0.00684157,110,54,5.43147,1,16.4007,1,0.94
0.733313,0.736678,0.72957,0.73283,-0.0161955,-0.000129228,-0.0161128,-0.00663399,111,57,5.52201,1,16.4608,1,0.944
0.733248,0.736677,0.729505,0.732808,-0.0163186,-0.000143734,-0.0162353,-0.00632286,112,62,5.61312,1,16.5245,1,0.948
0.733182,0.736676,0.72944,0.732787,-0.0164421,-0.000153404,-0.0163582,-0.0059427,113,67,5.70486,1,16.5927,1,0.952
0.733116,0.736675,0.729374,0.732768,-0.0165659,-0.000217433,-0.0164813,-0.00551651,114,73,5.79722,1,16.666,1,0.956
0.73305,0.736674,0.729308,0.732753,-0.01669,-0.000231328,-0.0166048,-0.00497326,115,80,5.88995,1,16.7451,1,0.96
0.732983,0.736672,0.729242,0.732739,-0.0168145,-0.000298173,-0.0167287,-0.00443836,115,87,5.98327,1,16.831,1,0.964
0.732915,0.73667,0.729174,0.732728,-0.0169393,-0.000342737,-0.0168529,-0.00388021,116,94,6.07694,1,16.9237,1,0.968
0.732847,0.736668,0.729107,0.732719,-0.0170645,-0.000401237,-0.0169774,-0.00333537,117,101,6.17105,1,17.0233,1,0.972
0.732779,0.736667,0.729039,0.732711,-0.01719,-0.000382655,-0.0171022,-0.00288577,118,107,6.26557,1,17.1298,1,0.976
0.73271,0.736665,0.72897,0.732704,-0.0173158,-0.000370267,-0.0172274,-0.00252846,119,113,6.36091,1,17.2421,1,0.98
0.73264,0.736664,0.728901,0.732697,-0.017442,-0.000362008,-0.017353,-0.00229025,120,117,6.45703,1,17.3593,1,0.984
0.73257,0.736663,0.728831,0.732691,-0.0175685,-0.000356503,-0.0174788,-0.00204507,122,121,6.5539,1,17.4803,1,0.988
0.732499,0.736661,0.728761,0.732684,-0.0176953,-0.000381623,-0.017605,-0.00191041,123,124,6.65151,1,17.6052,1,0.992
0.732428,0.736659,0.72869,0.732678,-0.0178224,-0.00039837,-0.0177315,-0.00179184,124,127,6.74971,1,17.7327,1,0.996
0.732357,0.736658,0.728619,0.732672,-0.0179499,-0.000380744,-0.0178583,-0.0017128,125,130,6.84853,1,17.8629,1,1
0.732285,0.736656,0.728547,0.732666,-0.0180777,-0.000426575,-0.0179855,-0.00163131,126,133,6.94816,1,17.9952,1,1.004
0.732212,0.736654,0.728475,0.73266,-0.0182059,-0.000399547,-0.0181129,-0.00157699,127,135,7.04828,1,18.1298,1,1.008
0.732139,0.736652,0.728403,0.732655,-0.0183343,-0.00043911,-0.0182407,-0.00148319,128,138,7.14925,1,18.2664,1,1.012
0.732066,0.736651,0.728329,0.73265,-0.0184631,-0.000436695,-0.0183689,-0.00136307,129,141,7.25074,1,18.4053,1,1.016
0.731991,0.736649,0.728256,0.732646,-0.0185922,-0.000435084,-0.0184973,-0.00122542,130,145,7.35297,1,18.5469,1,1.02
0.731917,0.736647,0.728181,0.732644,-0.0187216,-0.000462802,-0.0186261,-0.00098969,131,149,7.45594,1,18.6913,1,1.024
0.731842,0.736645,0.728107,0.732642,-0.0188513,-0.000452489,-0.0187551,-0.00086133,132,152,7.55949,1,18.8395,1,1.028
0.731766,0.736643,0.728031,0.732639,-0.0189814,-0.000445614,-0.0188845,-0.000804547,134,155,7.66383,1,18.9904,1,1.032
0.73169,0.736641,0.727956,0.732637,-0.0191118,-0.000469822,-0.0190142,-0.000737901,135,157,7.76893,1,19.1432,1,1.036
0.731613,0.73664,0.727879,0.732634,-0.0192424,-0.000428378,-0.0191442,-0.000693471,136,160,7.87467,1,19.2982,1,1.04
0.731536,0.736638,0.727802,0.732632,-0.0193734,-0.00042954,-0.0192746,-0.00066385,137,162,7.98135,1,19.455,1,1.044
0.731458,0.736636,0.727725,0.73263,-0.0195047,-0.000430315,-0.0194052,-0.000586521,138,165,8.08878,1,19.6137,1,1.048
0.73138,0.736635,0.727647,0.732628,-0.0196364,-0.000373249,-0.0195361,-0.00056376,140,167,8.19696,1,19.7745,1,1.052
0.731301,0.736634,0.727569,0.732625,-0.0197683,-0.000363996,-0.0196674,-0.000663749,141,168,8.3062,1,19.9369,1,1.056
0.731222,0.736633,0.72749,0.732621,-0.0199005,-0.000357828,-0.019799,-0.000701618,142,170,8.41623,1,20.0998,1,1.06
0.731142,0.736631,0.72741,0.732618,-0.0200331,-0.000382507,-0.0199308,-0.000755654,143,172,8.52703,1,20.2638,1,1.064
0.731061,0.73663,0.72733,0.732614,-0.0201659,-0.000341377,-0.020063,-0.00082047,145,173,8.63847,1,20.4286,1,1.068
0.730981,0.736628,0.72725,0.732609,-0.020299,-0.000371539,-0.0201954,-0.000950053,146,174,8.75087,1,20.5943,1,1.072
0.730899,0.736627,0.727169,0.732604,-0.0204325,-0.000362857,-0.0203282,-0.00106523,147,175,8.86387,1,20.7601,1,1.076
0.730817,0.736625,0.727087,0.732598,-0.0205662,-0.000385859,-0.0204613,-0.00125718,148,175,8.97766,1,20.9262,1,1.08
0.730735,0.736623,0.727005,0.732591,-0.0207003,-0.000429985,-0.0205946,-0.00138515,149,176,9.09207,1,21.0919,1,1.084
0.730651,0.736622,0.726922,0.732583,-0.0208346,-0.00040182,-0.0207283,-0.00155683,150,177,9.20702,1,21.2578,1,1.088
0.730568,0.73662,0.726839,0.732575,-0.0209693,-0.000383044,-0.0208622,-0.00172887,152,177,9.32288,1,21.4234,1,1.092
0.730484,0.736619,0.726756,0.732567,-0.0211042,-0.000341735,-0.0209965,-0.00187235,153,178,9.43963,1,21.5887,1,1.096
0.730399,0.736618,0.726671,0.732557,-0.0212394,-0.000342987,-0.021131,-0.00205438,154,178,9.55736,1,21.7541,1,1.1
0.730314,0.736616,0.726587,0.732548,-0.021375,-0.000343822,-0.0212659,-0.00214694,156,179,9.67585,1,21.9192,1,1.104
0.730228,0.736615,0.726501,0.732538,-0.0215108,-0.000315587,-0.021401,-0.00220865,157,181,9.79512,1,22.0849,1,1.108
0.730142,0.736614,0.726415,0.732529,-0.0216469,-0.000325555,-0.0215364,-0.00227858,158,182,9.9153,1,22.2514,1,1.112
0.730055,0.736612,0.726329,0.732519,-0.0217833,-0.000360991,-0.0216721,-0.00235399,159,184,10.0362,1,22.4187,1,1.116
0.729967,0.736611,0.726242,0.732509,-0.02192,-0.000384616,-0.0218081,-0.00237547,161,186,10.1577,1,22.5867,1,1.12
0.72988,0.736608,0.726154,0.7325,-0.0220569,-0.000429156,-0.0219443,-0.00233221,162,188,10.2798,1,22.7561,1,1.124
0.729791,0.736606,0.726066,0.732492,-0.0221942,-0.00048764,-0.0220809,-0.00224579,163,191,10.4024,1,22.9274,1,1.128
0.729702,0.736603,0.725978,0.732483,-0.0223317,-0.000555421,-0.0222177,-0.00224576,163,194,10.5255,1,23.1011,1,1.132
0.729612,0.7366,0.725889,0.732474,-0.0224695,-0.000629399,-0.0223548,-0.00218815,164,196,10.6489,1,23.2762,1,1.136
0.729522,0.736597,0.725799,0.732466,-0.0226076,-0.000649927,-0.0224922,-0.00212096,166,199,10.7728,1,23.4535,1,1.14
0.729431,0.736595,0.725709,0.732458,-0.022746,-0.000634821,-0.0226299,-0.00207616,167,202,10.8973,1,23.6329,1,1.144
0.72934,0.736592,0.725618,0.732451,-0.0228846,-0.000653541,-0.0227678,-0.00195993,168,205,11.0227,1,23.8143,1,1.148
0.729248,0.736589,0.725527,0.732444,-0.0230236,-0.000666022,-0.0229061,-0.00194002,169,208,11.1488,1,23.9983,1,1.152
0.729156,0.736587,0.725435,0.732436,-0.0231628,-0.000645551,-0.0230446,-0.00195554,171,210,11.2756,1,24.1841,1,1.156
0.729063,0.736584,0.725342,0.732428,-0.0233023,-0.000689486,-0.0231833,-0.00196588,172,212,11.4033,1,24.3712,1,1.16
0.72897,0.736581,0.725249,0.732419,-0.023442,-0.000661194,-0.0233224,-0.00203036,173,214,11.5315,1,24.5596,1,1.164
0.728876,0.736579,0.725156,0.73241,-0.023582,-0.000642332,-0.0234617,-0.00213093,175,215,11.6607,1,24.7489,1,1.168
0.728781,0.736577,0.725061,0.732398,-0.0237223,-0.000629758,-0.0236013,-0.00239951,176,215,11.7909,1,24.9387,1,1.172
0.728686,0.736573,0.724967,0.732386,-0.0238629,-0.000707748,-0.0237411,-0.00266494,177,214,11.9218,1,25.1273,1,1.176
0.72859,0.736571,0.724872,0.732371,-0.0240037,-0.000673368,-0.0238812,-0.00301464,178,213,12.0531,1,25.3147,1,1.18
0.728494,0.736567,0.724776,0.732355,-0.0241448,-0.000765612,-0.0240216,-0.00333414,179,212,12.1854,1,25.5001,1,1.184
0.728397,0.736563,0.724679,0.732337,-0.0242862,-0.000827108,-0.0241622,-0.0036911,180,211,12.318,1,25.6838,1,1.188
0.728299,0.736558,0.724582,0.732318,-0.0244278,-0.00098327,-0.0243031,-0.00407302,181,210,12.451,1,25.8655,1,1.192
0.728201,0.736553,0.724485,0.732297,-0.0245697,-0.00108738,-0.0244443,-0.0044716,182,208,12.584,1,26.0449,1,1.196
0.728103,0.736547,0.724387,0.732276,-0.0247119,-0.00121436,-0.0245857,-0.00470852,182,208,12.7172,1,26.2219,1,1.2
0.728004,0.73654,0.724288,0.732254,-0.0248543,-0.00138539,-0.0247274,-0.00498163,183,207,12.8504,1,26.398,1,1.204
0.727904,0.736533,0.724189,0.732231,-0.0249969,-0.00149941,-0.0248694,-0.00522129,183,207,12.9835,1,26.573,1,1.208
0.727804,0.736526,0.724089,0.732208,-0.0251399,-0.00160422,-0.0250116,-0.00538106,184,208,13.1168,1,26.7471,1,1.212
0.727703,0.736518,0.723989,0.732185,-0.025283,-0.00173167,-0.025154,-0.00554516,185,209,13.2503,1,26.9212,1,1.216
0.727602,0.736511,0.723888,0.732159,-0.0254265,-0.00173027,-0.0252967,-0.00585609,186,208,13.384,1,27.0951,1,1.22
0.7275,0.736504,0.723787,0.732132,-0.0255702,-0.00172933,-0.0254397,-0.00614975,188,207,13.5185,1,27.2674,1,1.224
0.727397,0.736498,0.723685,0.732102,-0.0257141,-0.00164233,-0.0255829,-0.00657585,189,205,13.6538,1,27.4383,1,1.228
0.727294,0.736495,0.723582,0.732072,-0.0258583,-0.0013828,-0.0257263,-0.00688871,192,204,13.7906,1,27.6065,1,1.232
0.72719,0.736493,0.723479,0.732042,-0.0260027,-0.00106582,-0.02587,-0.00712608,195,204,13.9296,1,27.7731,1,1.236
0.727086,0.736493,0.723375,0.732011,-0.0261474,-0.000739337,-0.026014,-0.00728432,199,205,14.0713,1,27.939,1,1.24
0.726981,0.736493,0.723271,0.731982,-0.0262924,-0.000492891,-0.0261582,-0.00727465,201,207,14.2156,1,28.1049,1,1.244
0.726875,0.736493,0.723166,0.731954,-0.0264376,-0.000328594,-0.0263026,-0.00718183,204,210,14.3622,1,28.2726,1,1.248
0.726769,0.736492,0.72306,0.731928,-0.026583,-0.000276645,-0.0264473,-0.00694721,205,215,14.5104,1,28.4428,1,1.252
0.726663,0.736492,0.722954,0.731906,-0.0267287,-0.000155639,-0.0265922,-0.00647409,207,222,14.6598,1,28.617,1,1.256
0.726556,0.736492,0.722847,0.731889,-0.0268746,-0.00013255,-0.0267374,-0.0057844,209,231,14.8107,1,28.7976,1,1.26
0.726448,0.736492,0.72274,0.731876,-0.0270207,-0.000117158,-0.0268828,-0.00495032,211,241,14.9626,1,28.9868,1,1.264
0.726339,0.736491,0.722632,0.731866,-0.0271671,-0.000106896,-0.0270285,-0.00407757,212,252,15.1153,1,29.186,1,1.268
0.72623,0.73649,0.722524,0.73186,-0.0273137,-0.000186428,-0.0271743,-0.00320782,213,263,15.269,1,29.3954,1,1.272
0.726121,0.736489,0.722415,0.731857,-0.0274606,-0.000181867,-0.0273205,-0.00245525,215,273,15.423,1,29.6151,1,1.276
0.726011,0.736488,0.722305,0.731855,-0.0276077,-0.000236408,-0.0274668,-0.00178079,216,282,15.5779,1,29.8439,1,1.28
0.7259,0.736486,0.722195,0.731855,-0.0277551,-0.000272769,-0.0276134,-0.00118719,217,290,15.7333,1,30.081,1,1.284
0.725789,0.736486,0.722085,0.731855,-0.0279026,-0.000239428,-0.0277602,-0.000791461,219,296,15.8894,1,30.3255,1,1.288
0.725677,0.736484,0.721973,0.731854,-0.0280504,-0.000274782,-0.0279073,-0.000585223,220,301,16.0465,1,30.5754,1,1.292
0.725564,0.736483,0.721861,0.731853,-0.0281985,-0.000327143,-0.0280545,-0.000505312,221,304,16.2042,1,30.829,1,1.296
0.725451,0.736482,0.721749,0.731851,-0.0283467,-0.000304468,-0.028202,-0.00050962,223,307,16.3625,1,31.0848,1,1.3
0.725338,0.73648,0.721636,0.731848,-0.0284952,-0.000375724,-0.0283498,-0.000541283,224,309,16.5217,1,31.3423,1,1.304
0.725223,0.736479,0.721522,0.731845,-0.0286439,-0.000308065,-0.0284977,-0.000619974,226,311,16.6814,1,31.6009,1,1.308
0.725108,0.736478,0.721408,0.731841,-0.0287929,-0.000262958,-0.0286459,-0.000730016,228,313,16.8423,1,31.8604,1,1.312
0.724993,0.736477,0.721293,0.731836,-0.028942,-0.000232887,-0.0287943,-0.000918541,229,314,17.0043,1,32.1203,1,1.316
0.724877,0.736477,0.721177,0.731831,-0.0290914,-0.00021284,-0.0289429,-0.00101543,231,315,17.1674,1,32.38,1,1.32
0.72476,0.736476,0.721061,0.731825,-0.029241,-0.000199475,-0.0290918,-0.00119519,232,316,17.3314,1,32.6402,1,1.324
0.724643,0.736475,0.720945,0.731819,-0.0293909,-0.000190565,-0.0292409,-0.00131503,234,318,17.4963,1,32.9003,1,1.328
0.724525,0.736475,0.720827,0.731812,-0.0295409,-0.000184625,-0.0293901,-0.00142372,236,319,17.6622,1,33.1608,1,1.332
0.724407,0.736474,0.720709,0.731805,-0.0296912,-0.000209456,-0.0295396,-0.00158254,237,321,17.8289,1,33.4218,1,1.336
0.724288,0.736473,0.720591,0.731796,-0.0298417,-0.00022601,-0.0296894,-0.00174601,238,322,17.9963,1,33.6828,1,1.34
0.724168,0.736471,0.720472,0.731788,-0.0299924,-0.000323419,-0.0298393,-0.00188378,239,323,18.1645,1,33.9438,1,1.344
0.724048,0.736469,0.720352,0.731777,-0.0301433,-0.000388358,-0.0299894,-0.00211958,241,323,18.333,1,34.205,1,1.348
0.723927,0.736467,0.720232,0.731767,-0.0302944,-0.00040286,-0.0301398,-0.00230557,242,324,18.502,1,34.4654,1,1.352
0.723805,0.736464,0.720111,0.731756,-0.0304457,-0.000527692,-0.0302904,-0.00242957,243,326,18.6717,1,34.7257,1,1.356
0.723683,0.73646,0.71999,0.731745,-0.0305973,-0.000697286,-0.0304411,-0.00256981,244,327,18.8416,1,34.9863,1,1.36
0.72356,0.736455,0.719868,0.731734,-0.030749,-0.00086793,-0.0305921,-0.00263452,244,329,19.0114,1,35.2471,1,1.364
0.723437,0.736449,0.719745,0.731723,-0.030901,-0.00103927,-0.0307433,-0.00264886,245,331,19.1811,1,35.509,1,1.368
0.723313,0.736442,0.719622,0.731713,-0.0310532,-0.00126867,-0.0308947,-0.00260085,245,335,19.3507,1,35.7723,1,1.372
0.723189,0.736434,0.719498,0.731705,-0.0312056,-0.00153676,-0.0310463,-0.00242488,245,339,19.5198,1,36.0378,1,1.376
0.723064,0.736424,0.719373,0.731697,-0.0313581,-0.00183065,-0.0311981,-0.00224999,245,343,19.6882,1,36.3067,1,1.38
0.722938,0.736414,0.719248,0.73169,-0.0315109,-0.00208416,-0.0313501,-0.00204702,245,348,19.8559,1,36.5791,1,1.384
0.722812,0.736403,0.719123,0.731683,-0.0316639,-0.00233954,-0.0315023,-0.0019405,246,352,20.023,1,36.855,1,1.388
0.722685,0.73639,0.718996,0.731676,-0.0318171,-0.00256738,-0.0316547,-0.00189827,246,355,20.1896,1,37.1336,1,1.392
0.722557,0.736379,0.718869,0.731669,-0.0319705,-0.00266169,-0.0318073,-0.00187013,247,358,20.3558,1,37.4142,1,1.396
0.722429,0.736368,0.718742,0.73166,-0.0321241,-0.00266698,-0.0319601,-0.00196652,248,360,20.5223,1,37.6967,1,1.4
0.7223,0.736358,0.718614,0.731651,-0.0322779,-0.00261292,-0.0321131,-0.00208837,250,362,20.6898,1,37.9798,1,1.404
0.722171,0.736349,0.718485,0.731642,-0.0324318,-0.00254809,-0.0322663,-0.0021696,252,364,20.8584,1,38.2634,1,1.408
0.722041,0.736338,0.718355,0.731632,-0.032586,-0.00262004,-0.0324197,-0.00222376,253,366,21.0282,1,38.5478,1,1.412
0.72191,0.736326,0.718226,0.731623,-0.0327404,-0.00272558,-0.0325733,-0.00225986,254,368,21.1985,1,38.8333,1,1.416
0.721779,0.736311,0.718095,0.731614,-0.0328949,-0.00302627,-0.032727,-0.00225514,254,371,21.369,1,39.1201,1,1.42
0.721647,0.736294,0.717964,0.731606,-0.0330497,-0.00342827,-0.032881,-0.00219441,254,375,21.5386,1,39.4087,1,1.424
0.721514,0.736274,0.717832,0.731597,-0.0332046,-0.00395539,-0.0330351,-0.00215392,252,378,21.7068,1,39.6995,1,1.428
0.721381,0.736252,0.717699,0.731589,-0.0333597,-0.00453713,-0.0331895,-0.00209814,251,381,21.8728,1,39.9923,1,1.432
0.721247,0.736228,0.717566,0.731582,-0.033515,-0.00501132,-0.033344,-0.00200337,250,385,22.0365,1,40.2874,1,1.436
0.721113,0.736202,0.717433,0.731575,-0.0336705,-0.00547141,-0.0334987,-0.00194019,249,388,22.1984,1,40.585,1,1.44
0.720978,0.73617,0.717298,0.731567,-0.0338262,-0.00629637,-0.0336536,-0.00192686,246,391,22.3584,1,40.885,1,1.444
0.720842,0.736131,0.717163,0.731559,-0.0339821,-0.00745096,-0.0338087,-0.00197555,241,394,22.5145,1,41.1866,1,1.448
0.720706,0.736086,0.717028,0.731551,-0.0341381,-0.00873892,-0.0339639,-0.00200802,235,396,22.6649,1,41.4895,1,1.452
0.720569,0.736032,0.716892,0.731541,-0.0342944,-0.0103173,-0.0341193,-0.00214483,228,398,22.8088,1,41.7936,1,1.456
0.720432,0.735972,0.716755,0.73153,-0.0344508,-0.0119166,-0.034275,-0.0023224,221,399,22.9446,1,42.098,1,1.46
0.720294,0.735902,0.716618,0.731518,-0.0346074,-0.013789,-0.0344307,-0.00255595,212,400,23.0721,1,42.4023,1,1.464
0.720155,0.735824,0.716479,0.731506,-0.0347641,-0.0156418,-0.0345867,-0.00276923,203,401,23.1899,1,42.7058,1,1.468
0.720016,0.735736,0.716341,0.731492,-0.0349211,-0.0177696,-0.0347428,-0.00294021,193,402,23.298,1,43.009,1,1.472
0.719876,0.735639,0.716202,0.731479,-0.0350782,-0.0199366,-0.0348992,-0.00308299,183,403,23.3949,1,43.3121,1,1.476
0.719735,0.735533,0.716062,0.731464,-0.0352355,-0.0221587,-0.0350557,-0.00332212,172,404,23.4804,1,43.6154,1,1.48
0.719594,0.735421,0.715921,0.731446,-0.0353929,-0.0240719,-0.0352123,-0.0036543,162,404,23.5543,1,43.9179,1,1.484
0.719452,0.7353,0.71578,0.731426,-0.0355506,-0.0261248,-0.0353691,-0.00416365,152,402,23.6182,1,44.2186,1,1.488
0.719309,0.735171,0.715638,0.731401,-0.0357084,-0.0281555,-0.0355261,-0.00481992,142,398,23.6714,1,44.5159,1,1.492
0.719166,0.735033,0.715496,0.73137,-0.0358664,-0.0302867,-0.0356833,-0.00577568,132,392,23.7139,1,44.808,1,1.496
0.719022,0.734892,0.715353,0.731335,-0.0360245,-0.0319378,-0.0358406,-0.00678712,124,385,23.7454,1,45.0923,1,1.5
0.718878,0.734743,0.715209,0.731291,-0.0361828,-0.0337008,-0.0359981,-0.0081812,115,374,23.7683,1,45.3678,1,1.504
0.718733,0.734589,0.715065,0.731241,-0.0363413,-0.0353367,-0.0361558,-0.0096864,107,362,23.7823,1,45.6311,1,1.508
0.718587,0.734431,0.71492,0.731182,-0.0364999,-0.0367153,-0.0363136,-0.0113521,100,348,23.7879,1,45.8808,1,1.512
0.718441,0.734266,0.714774,0.731113,-0.0366587,-0.0381813,-0.0364716,-0.0132974,93,332,23.7866,1,46.1153,1,1.516
0.718294,0.734101,0.714628,0.731034,-0.0368177,-0.0392451,-0.0366298,-0.0154293,88,314,23.7781,1,46.3319,1,1.52
0.718146,0.733932,0.714481,0.730944,-0.0369768,-0.0402421,-0.0367881,-0.0178294,84,293,23.7644,1,46.5286,1,1.524
0.717998,0.73376,0.714334,0.730843,-0.0371361,-0.041166,-0.0369466,-0.0202644,79,272,23.746,1,46.703,1,1.528
0.717849,0.733586,0.714186,0.730734,-0.0372955,-0.0419258,-0.0371052,-0.0225788,76,251,23.7233,1,46.8547,1,1.532
0.7177,0.733406,0.714037,0.730613,-0.0374551,-0.0429218,-0.037264,-0.0251581,71,228,23.6971,1,46.9847,1,1.536
0.71755,0.733233,0.713887,0.73049,-0.0376149,-0.0430676,-0.0374229,-0.0269929,71,213,23.6665,1,47.0908,1,1.54
0.717399,0.733055,0.713737,0.730362,-0.0377748,-0.0435391,-0.037582,-0.0286767,69,198,23.6359,1,47.1804,1,1.544
0.717247,0.732875,0.713587,0.730228,-0.0379349,-0.0440549,-0.0377413,-0.0303175,67,184,23.6035,1,47.2547,1,1.548
0.717095,0.73269,0.713436,0.73009,-0.0380951,-0.0447443,-0.0379006,-0.0316992,64,173,23.569,1,47.3144,1,1.552
0.716943,0.732512,0.713284,0.729958,-0.0382554,-0.0446569,-0.0380602,-0.0321309,65,170,23.5319,1,47.3624,1,1.556
0.716789,0.732329,0.713131,0.729824,-0.038416,-0.0450592,-0.0382199,-0.0325915,64,168,23.496,1,47.4078,1,1.56
0.716635,0.732144,0.712978,0.729688,-0.0385766,-0.0454714,-0.0383797,-0.0330713,62,165,23.4586,1,47.4501,1,1.564
0.716481,0.73196,0.712824,0.729552,-0.0387374,-0.0456023,-0.0385397,-0.0333912,62,163,23.42,1,47.4894,1,1.568
0.716325,0.731775,0.71267,0.729409,-0.0388984,-0.0458046,-0.0386999,-0.0341226,62,158,23.3815,1,47.5269,1,1.572
0.71617,0.731591,0.712514,0.729264,-0.0390595,-0.0459396,-0.0388602,-0.0348982,62,152,23.3428,1,47.5588,1,1.576
0.716013,0.7314,0.712359,0.729107,-0.0392208,-0.046519,-0.0390206,-0.0363077,60,140,23.304,1,47.5842,1,1.58
0.715856,0.731214,0.712202,0.728951,-0.0393821,-0.0465022,-0.0391812,-0.0371899,60,133,23.2631,1,47.5974,1,1.584
0.715698,0.731028,0.712045,0.72879,-0.0395437,-0.0464622,-0.0393419,-0.0382674,61,124,23.2233,1,47.6033,1,1.588
0.715539,0.730842,0.711887,0.728623,-0.0397054,-0.0465219,-0.0395027,-0.03936,62,115,23.1845,1,47.6001,1,1.592
0.71538,0.730649,0.711729,0.728453,-0.0398672,-0.0470511,-0.0396637,-0.0404627,59,106,23.1461,1,47.5876,1,1.596
0.71522,0.730463,0.71157,0.728282,-0.0400291,-0.0468857,-0.0398248,-0.0411691,61,101,23.106,1,47.5659,1,1.6
0.71506,0.730272,0.711411,0.728105,-0.0401912,-0.0471785,-0.0399861,-0.0422158,60,92,23.0675,1,47.5386,1,1.604
0.714899,0.730082,0.71125,0.727928,-0.0403534,-0.0472586,-0.0401475,-0.0429136,61,87,23.0283,1,47.5027,1,1.608
0.714737,0.72989,0.711089,0.727747,-0.0405158,-0.0475135,-0.040309,-0.0436955,60,81,22.9896,1,47.4614,1,1.612
0.714575,0.729699,0.710928,0.727566,-0.0406783,-0.0476546,-0.0404707,-0.044188,60,77,22.9503,1,47.4141,1,1.616
0.714412,0.729506,0.710766,0.727382,-0.0408409,-0.0478351,-0.0406325,-0.0447754,60,73,22.9112,1,47.3635,1,1.62
0.714248,0.729313,0.710603,0.727199,-0.0410037,-0.0479842,-0.0407944,-0.0451671,59,70,22.872,1,47.3087,1,1.624
0.714084,0.729115,0.710439,0.727012,-0.0411666,-0.0484867,-0.0409565,-0.0456585,57,67,22.8328,1,47.2517,1,1.628
0.713919,0.728921,0.710275,0.72683,-0.0413296,-0.0484761,-0.0411187,-0.0456406,58,68,22.7918,1,47.1916,1,1.632
0.713753,0.728729,0.71011,0.726647,-0.0414928,-0.0483252,-0.041281,-0.0456575,60,70,22.7519,1,47.1334,1,1.636
0.713587,0.728529,0.709945,0.726463,-0.041656,-0.0488292,-0.0414434,-0.0457263,58,70,22.7134,1,47.0767,1,1.64
0.71342,0.728335,0.709779,0.72628,-0.0418194,-0.0487333,-0.041606,-0.045801,59,71,22.6733,1,47.0209,1,1.644
0.713252,0.728137,0.709612,0.726099,-0.041983,-0.048986,-0.0417687,-0.0455916,58,74,22.6346,1,46.9662,1,1.648
0.713084,0.727941,0.709445,0.725914,-0.0421466,-0.0489818,-0.0419315,-0.0457688,59,74,22.5954,1,46.9151,1,1.652
0.712915,0.727741,0.709277,0.725731,-0.0423104,-0.0493533,-0.0420944,-0.0458005,58,75,22.557,1,46.8639,1,1.656
0.712745,0.727543,0.709108,0.725549,-0.0424743,-0.0493706,-0.0422575,-0.0457353,58,77,22.5176,1,46.8142,1,1.66
0.712575,0.727344,0.708938,0.725365,-0.0426383,-0.0495261,-0.0424207,-0.0457782,58,78,22.479,1,46.7667,1,1.664
0.712404,0.727145,0.708768,0.725182,-0.0428024,-0.049601,-0.042584,-0.0457492,59,80,22.4405,1,46.7205,1,1.668
0.712233,0.726946,0.708598,0.725002,-0.0429667,-0.0496797,-0.0427474,-0.0454995,59,84,22.4025,1,46.6764,1,1.672
0.712061,0.726744,0.708427,0.724824,-0.043131,-0.0499049,-0.0429109,-0.0452179,58,88,22.3649,1,46.6365,1,1.676
0.711888,0.726544,0.708255,0.724649,-0.0432955,-0.0499975,-0.0430745,-0.0447423,59,94,22.327,1,46.6012,1,1.68
0.711714,0.726338,0.708082,0.72447,-0.0434601,-0.0504622,-0.0432383,-0.0446843,57,96,22.2894,1,46.5722,1,1.684
0.71154,0.72614,0.707909,0.724302,-0.0436248,-0.0501099,-0.0434022,-0.0437819,60,106,22.2504,1,46.5458,1,1.688
0.711365,0.725938,0.707735,0.724134,-0.0437896,-0.0502493,-0.0435661,-0.0432379,60,113,22.2141,1,46.53,1,1.692
0.71119,0.725734,0.70756,0.723967,-0.0439546,-0.0504862,-0.0437302,-0.0427025,59,120,22.178,1,46.5214,1,1.696
0.711014,0.725529,0.707385,0.723796,-0.0441196,-0.0508168,-0.0438944,-0.0427198,58,121,22.1414,1,46.5195,1,1.7
0.710837,0.725327,0.707209,0.723635,-0.0442848,-0.0506342,-0.0440587,-0.041954,60,130,22.1041,1,46.5195,1,1.704
0.710659,0.725124,0.707032,0.723466,-0.04445,-0.050714,-0.0442232,-0.0419905,60,132,22.0686,1,46.5285,1,1.708
0.710481,0.724919,0.706855,0.723302,-0.0446154,-0.0509111,-0.0443877,-0.041727,60,136,22.0336,1,46.5389,1,1.712
0.710302,0.724707,0.706677,0.723127,-0.0447809,-0.0515608,-0.0445523,-0.0423862,57,131,21.9982,1,46.5533,1,1.716
0.710123,0.724509,0.706499,0.722963,-0.0449464,-0.0509287,-0.044717,-0.0419331,61,137,21.9606,1,46.5632,1,1.72
0.709943,0.724301,0.70632,0.722795,-0.0451121,-0.0512846,-0.0448819,-0.0419478,60,139,21.9271,1,46.5792,1,1.724
0.709762,0.724096,0.70614,0.722626,-0.0452779,-0.0512627,-0.0450468,-0.0419864,61,140,21.8927,1,46.5967,1,1.728
0.709581,0.723878,0.705959,0.722448,-0.0454438,-0.0523134,-0.0452118,-0.0428758,56,133,21.8589,1,46.6152,1,1.732
0.709399,0.723673,0.705778,0.722277,-0.0456097,-0.0519774,-0.045377,-0.0428066,58,136,21.8206,1,46.6268,1,1.736
0.709216,0.723469,0.705596,0.722107,-0.0457758,-0.0516671,-0.0455422,-0.0427317,61,138,21.7852,1,46.6409,1,1.74
0.709032,0.72326,0.705414,0.721931,-0.045942,-0.0518632,-0.0457075,-0.0431136,61,136,21.7523,1,46.6572,1,1.744
0.708848,0.723051,0.70523,0.721752,-0.0461083,-0.051994,-0.045873,-0.0436561,61,132,21.7192,1,46.6713,1,1.748
0.708663,0.722834,0.705047,0.721566,-0.0462746,-0.0526858,-0.0460385,-0.0445936,58,125,21.6861,1,46.6814,1,1.752
0.708478,0.722629,0.704862,0.721389,-0.0464411,-0.0522257,-0.0462041,-0.0445564,61,127,21.6506,1,46.6844,1,1.756
0.708292,0.722418,0.704677,0.721206,-0.0466077,-0.0524372,-0.0463698,-0.0448771,60,126,21.6183,1,46.6892,1,1.76
0.708105,0.722205,0.704491,0.72102,-0.0467743,-0.0527221,-0.0465356,-0.0454364,60,122,21.5857,1,46.6924,1,1.764
0.707918,0.721986,0.704305,0.720829,-0.0469411,-0.0534015,-0.0467015,-0.0462123,57,116,21.5522,1,46.6917,1,1.768
0.70773,0.721779,0.704118,0.720647,-0.0471079,-0.0528468,-0.0468675,-0.0459522,61,120,21.5164,1,46.6853,1,1.772
0.707541,0.721565,0.70393,0.720463,-0.0472748,-0.0529952,-0.0470335,-0.0460092,60,121,21.4844,1,46.6831,1,1.776
0.707351,0.721347,0.703741,0.720272,-0.0474418,-0.0535548,-0.0471997,-0.0466229,58,117,21.4523,1,46.6818,1,1.78
0.707161,0.721127,0.703552,0.720081,-0.0476089,-0.0539854,-0.0473659,-0.0469458,57,115,21.4181,1,46.6762,1,1.784
0.706971,0.720919,0.703362,0.719899,-0.0477761,-0.0533512,-0.0475322,-0.0464412,61,122,21.3827,1,46.6694,1,1.788
0.706779,0.720701,0.703172,0.719714,-0.0479433,-0.0537058,-0.0476987,-0.0464503,60,123,21.3516,1,46.6692,1,1.792
0.706587,0.720485,0.702981,0.719526,-0.0481107,-0.053827,-0.0478651,-0.0466291,60,123,21.3195,1,46.6705,1,1.796
0.706394,0.72026,0.702789,0.719334,-0.0482781,-0.0546275,-0.0480317,-0.0470363,56,121,21.2873,1,46.6716,1,1.8
0.706201,0.720049,0.702597,0.719159,-0.0484456,-0.0540096,-0.0481984,-0.0459257,60,133,21.2522,1,46.6711,1,1.804
0.706007,0.719834,0.702403,0.718984,-0.0486132,-0.0539432,-0.0483651,-0.0452141,62,142,21.2213,1,46.6833,1,1.808
0.705812,0.719614,0.70221,0.718809,-0.0487809,-0.0542731,-0.0485319,-0.044711,61,148,21.1917,1,46.7042,1,1.812
0.705616,0.719396,0.702015,0.718643,-0.0489486,-0.0543492,-0.0486988,-0.0436845,61,160,21.1612,1,46.7321,1,1.816
0.70542,0.719176,0.70182,0.71848,-0.0491165,-0.0545438,-0.0488658,-0.0426836,61,172,21.1312,1,46.7721,1,1.82
0.705224,0.718956,0.701624,0.718321,-0.0492843,-0.0547024,-0.0490328,-0.0417283,61,183,21.101,1,46.8237,1,1.824
0.705026,0.718738,0.701428,0.718161,-0.0494523,-0.0546929,-0.0491999,-0.0411779,61,190,21.0709,1,46.8864,1,1.828
0.704828,0.718516,0.701231,0.718002,-0.0496204,-0.0548881,-0.0493671,-0.0406382,61,197,21.0418,1,46.9564,1,1.832
0.704629,0.718295,0.701033,0.71784,-0.0497885,-0.0550759,-0.0495344,-0.0406238,61,200,21.0125,1,47.0332,1,1.836
0.70443,0.718076,0.700834,0.717678,-0.0499567,-0.0549707,-0.0497017,-0.0406143,62,202,20.9833,1,47.1119,1,1.84
0.704229,0.717852,0.700635,0.71751,-0.0501249,-0.0552461,-0.0498691,-0.041011,62,200,20.9554,1,47.1922,1,1.844
0.704029,0.717623,0.700435,0.717333,-0.0502933,-0.0559479,-0.0500366,-0.0421392,58,191,20.9267,1,47.2699,1,1.848
0.703827,0.717409,0.700235,0.717167,-0.0504617,-0.0551202,-0.0502041,-0.0419124,64,195,20.8956,1,47.3387,1,1.852
0.703625,0.717186,0.700034,0.716995,-0.0506301,-0.0553745,-0.0503717,-0.0422795,63,193,20.8698,1,47.4112,1,1.856
0.703422,0.716963,0.699832,0.716823,-0.0507987,-0.0554865,-0.0505394,-0.042553,63,193,20.8435,1,47.4817,1,1.86
0.703219,0.716739,0.699629,0.71665,-0.0509673,-0.0556763,-0.0507071,-0.0427641,63,192,20.8176,1,47.5513,1,1.864
0.703014,0.716513,0.699426,0.716479,-0.0511359,-0.055918,-0.0508749,-0.0427034,63,195,20.7915,1,47.6207,1,1.868
0.702809,0.716288,0.699222,0.716312,-0.0513046,-0.0560504,-0.0510428,-0.0424325,63,200,20.7651,1,47.6925,1,1.872
0.702604,0.716062,0.699018,0.716147,-0.0514734,-0.0561386,-0.0512107,-0.0420216,63,206,20.7388,1,47.7688,1,1.876
0.702398,0.715834,0.698813,0.71598,-0.0516423,-0.0564277,-0.0513787,-0.0419204,62,209,20.713,1,47.8508,1,1.88
0.702191,0.715606,0.698607,0.715815,-0.0518112,-0.0566781,-0.0515467,-0.0416802,62,213,20.6865,1,47.9356,1,1.884
0.701983,0.715382,0.6984,0.715656,-0.0519801,-0.0564131,-0.0517149,-0.0410306,64,221,20.6597,1,48.0248,1,1.888
0.701775,0.715156,0.698193,0.715494,-0.0521492,-0.0564956,-0.051883,-0.0408855,65,225,20.6353,1,48.1219,1,1.892
0.701566,0.714922,0.697985,0.715323,-0.0523182,-0.0570976,-0.0520512,-0.0414797,62,221,20.6111,1,48.2219,1,1.896
0.701356,0.714695,0.697777,0.715158,-0.0524874,-0.0569807,-0.0522195,-0.041444,63,224,20.5848,1,48.3179,1,1.9
0.701146,0.71447,0.697568,0.714989,-0.0526566,-0.0567876,-0.0523878,-0.0417081,65,223,20.5601,1,48.4159,1,1.904
0.700935,0.714242,0.697358,0.714821,-0.0528258,-0.0568604,-0.0525562,-0.0417978,66,224,20.5374,1,48.5131,1,1.908
0.700723,0.714008,0.697147,0.714648,-0.0529951,-0.0573408,-0.0527246,-0.0423182,64,221,20.5151,1,48.6108,1,1.912
0.700511,0.713784,0.696936,0.714482,-0.0531644,-0.0569413,-0.0528931,-0.042003,67,226,20.4914,1,48.7056,1,1.916
0.700298,0.713555,0.696724,0.714319,-0.0533338,-0.057078,-0.0530616,-0.0416201,67,232,20.4708,1,48.8052,1,1.92
0.700084,0.713323,0.696511,0.714156,-0.0535033,-0.0573707,-0.0532302,-0.0413073,66,237,20.4503,1,48.9104,1,1.924
0.69987,0.713099,0.696298,0.714001,-0.0536728,-0.0568461,-0.0533988,-0.0404365,70,248,20.4295,1,49.0208,1,1.928
0.699655,0.71287,0.696084,0.713846,-0.0538423,-0.0570434,-0.0535675,-0.0399136,70,255,20.4124,1,49.1414,1,1.932
0.699439,0.71264,0.69587,0.713694,-0.0540119,-0.0571461,-0.0537362,-0.0392771,70,264,20.3952,1,49.2691,1,1.936
0.699223,0.712411,0.695654,0.71354,-0.0541815,-0.0571858,-0.053905,-0.0390255,71,268,20.3784,1,49.4047,1,1.94
0.699006,0.71218,0.695438,0.713388,-0.0543512,-0.057385,-0.0540738,-0.038685,71,274,20.3622,1,49.5447,1,1.944
0.698788,0.711949,0.695222,0.71323,-0.0545209,-0.057489,-0.0542426,-0.0389187,71,274,20.3459,1,49.6894,1,1.948
0.69857,0.71172,0.695004,0.713071,-0.0546907,-0.0574144,-0.0544115,-0.0392184,72,273,20.3301,1,49.8335,1,1.952
0.698351,0.711487,0.694786,0.712909,-0.0548605,-0.0577101,-0.0545805,-0.0396197,72,272,20.3156,1,49.9764,1,1.956
0.698131,0.711251,0.694568,0.712742,-0.0550303,-0.0581088,-0.0547494,-0.0403192,70,267,20.3002,1,50.1168,1,1.96
0.69791,0.711023,0.694348,0.712576,-0.0552002,-0.0577988,-0.0549184,-0.0406991,73,266,20.2838,1,50.252,1,1.964
0.697689,0.710788,0.694128,0.712406,-0.0553701,-0.0581104,-0.0550875,-0.0413554,72,262,20.27,1,50.3851,1,1.968
0.697467,0.710554,0.693908,0.712235,-0.05554,-0.0582029,-0.0552566,-0.0418218,72,259,20.2554,1,50.5134,1,1.972
0.697245,0.710321,0.693686,0.712064,-0.05571,-0.0582646,-0.0554257,-0.0421327,73,258,20.2413,1,50.6389,1,1.976
0.697022,0.710082,0.693464,0.711894,-0.05588,-0.0587088,-0.0555948,-0.0422536,71,259,20.2277,1,50.7631,1,1.98
0.696798,0.709847,0.693242,0.711722,-0.0560501,-0.0587746,-0.055764,-0.0424782,72,259,20.2127,1,50.8878,1,1.984
0.696573,0.70961,0.693018,0.711554,-0.0562202,-0.0589049,-0.0559332,-0.04234,72,263,20.1982,1,51.0122,1,1.988
0.696348,0.709371,0.692794,0.711386,-0.0563903,-0.0591932,-0.0561025,-0.0422478,71,266,20.1839,1,51.1396,1,1.992
0.696122,0.709133,0.692569,0.711217,-0.0565604,-0.0593279,-0.0562718,-0.042244,71,268,20.169,1,51.2697,1,1.996
0.695896,0.708896,0.692344,0.711045,-0.0567306,-0.0593025,-0.0564411,-0.0425005,72,268,20.1543,1,51.4014,1,2
0.695668,0.708655,0.692118,0.710874,-0.0569008,-0.0595447,-0.0566104,-0.0425564,72,270,20.1407,1,51.5324,1,2.004
0.69544,0.708417,0.691891,0.710701,-0.0570711,-0.0595334,-0.0567798,-0.0427376,73,270,20.1268,1,51.6646,1,2.008
0.695212,0.70818,0.691664,0.710531,-0.0572413,-0.0594971,-0.0569492,-0.0427145,74,273,20.1139,1,51.7967,1,2.012
0.694983,0.70794,0.691436,0.710357,-0.0574116,-0.0596456,-0.0571186,-0.0429869,74,272,20.1022,1,51.9307,1,2.016
0.694753,0.7077,0.691207,0.710184,-0.0575819,-0.0597447,-0.057288,-0.0430246,75,274,20.0906,1,52.0638,1,2.02
0.694522,0.707463,0.690977,0.710013,-0.0577522,-0.0595803,-0.0574575,-0.0429346,76,277,20.0796,1,52.1983,1,2.024
0.694291,0.70722,0.690747,0.709839,-0.0579226,-0.0600178,-0.057627,-0.0431337,75,278,20.0703,1,52.3354,1,2.028
0.694058,0.70698,0.690516,0.709665,-0.058093,-0.059964,-0.0577965,-0.0432952,76,278,20.0596,1,52.4722,1,2.032
0.693826,0.706745,0.690285,0.709493,-0.0582634,-0.0595826,-0.057966,-0.0431726,79,282,20.0504,1,52.6092,1,2.036
0.693592,0.706505,0.690052,0.709316,-0.0584338,-0.0597026,-0.0581356,-0.0434939,79,281,20.0442,1,52.749,1,2.04
0.693358,0.706267,0.68982,0.709142,-0.0586042,-0.0596387,-0.0583051,-0.0435353,81,283,20.0384,1,52.8875,1,2.044
0.693124,0.706029,0.689586,0.708961,-0.0587747,-0.0596249,-0.0584747,-0.0441388,82,279,20.034,1,53.027,1,2.048
0.692888,0.705788,0.689352,0.708777,-0.0589451,-0.0598172,-0.0586443,-0.0447426,82,276,20.0305,1,53.1622,1,2.052
0.692652,0.705555,0.689117,0.708596,-0.0591156,-0.059312,-0.0588139,-0.0448861,85,276,20.0273,1,53.2934,1,2.056
0.692415,0.705323,0.688881,0.708412,-0.0592861,-0.05886,-0.0589835,-0.0452984,89,275,20.028,1,53.4246,1,2.06
0.692178,0.705087,0.688645,0.708222,-0.0594566,-0.0589042,-0.0591532,-0.0460339,90,270,20.0321,1,53.5534,1,2.064
0.69194,0.704861,0.688408,0.708039,-0.0596272,-0.0580988,-0.0593228,-0.0459197,95,273,20.0375,1,53.6769,1,2.068
0.691701,0.704643,0.68817,0.707856,-0.0597977,-0.0568996,-0.0594925,-0.0458723,103,276,20.0487,1,53.8033,1,2.072
0.691461,0.704424,0.687932,0.707673,-0.0599682,-0.0562153,-0.0596622,-0.0458119,108,278,20.0678,1,53.9319,1,2.076
0.691221,0.70421,0.687693,0.707483,-0.0601388,-0.0552984,-0.0598319,-0.0463763,114,275,20.0921,1,54.0625,1,2.08
0.69098,0.704007,0.687453,0.707299,-0.0603093,-0.0537371,-0.0600015,-0.0462631,124,278,20.1231,1,54.1895,1,2.084
0.690738,0.703812,0.687213,0.707111,-0.0604799,-0.0520628,-0.0601712,-0.0464467,135,279,20.1645,1,54.3193,1,2.088
0.690496,0.703627,0.686972,0.70692,-0.0606505,-0.0501693,-0.0603409,-0.0469435,147,276,20.2168,1,54.4488,1,2.092
0.690253,0.703458,0.68673,0.706729,-0.0608211,-0.0475537,-0.0605107,-0.0471882,163,276,20.2817,1,54.5752,1,2.096
0.69001,0.703302,0.686488,0.706535,-0.0609916,-0.0446872,-0.0606804,-0.0476393,181,274,20.3632,1,54.7007,1,2.1
0.689765,0.703159,0.686245,0.706342,-0.0611622,-0.0416533,-0.0608501,-0.0478537,200,274,20.4628,1,54.8236,1,2.104
0.68952,0.703031,0.686001,0.706145,-0.0613328,-0.0384791,-0.0610198,-0.0482845,220,272,20.5815,1,54.9459,1,2.108
0.689275,0.702914,0.685757,0.705949,-0.0615034,-0.0353553,-0.0611895,-0.0485717,239,271,20.7201,1,55.0658,1,2.112
0.689028,0.7028,0.685512,0.705749,-0.061674,-0.0331,-0.0613592,-0.0489935,254,269,20.8778,1,55.1845,1,2.116
0.688781,0.702691,0.685266,0.705556,-0.0618446,-0.0311646,-0.061529,-0.0487565,266,274,21.0498,1,55.3011,1,2.12
0.688534,0.702581,0.685019,0.705356,-0.0620152,-0.0299319,-0.0616987,-0.0491455,275,272,21.2341,1,55.4214,1,2.124
0.688285,0.702466,0.684772,0.705157,-0.0621858,-0.0295132,-0.0618684,-0.049376,280,272,21.4264,1,55.5397,1,2.128
0.688036,0.702344,0.684525,0.704955,-0.0623564,-0.0298962,-0.0620381,-0.0497888,279,270,21.6219,1,55.6574,1,2.132
0.687786,0.702217,0.684276,0.704751,-0.0625269,-0.0305259,-0.0622078,-0.0501216,278,269,21.8162,1,55.7726,1,2.136
0.687536,0.702084,0.684027,0.704549,-0.0626975,-0.0314063,-0.0623775,-0.0503147,274,270,22.0077,1,55.8864,1,2.14
0.687285,0.701941,0.683777,0.704343,-0.0628681,-0.032857,-0.0625472,-0.0507025,268,268,22.1949,1,55.9999,1,2.144
0.687033,0.701789,0.683526,0.704134,-0.0630386,-0.0345727,-0.0627169,-0.0511626,260,266,22.3744,1,56.1112,1,2.148
0.68678,0.701629,0.683275,0.703926,-0.0632092,-0.0364074,-0.0628866,-0.0514693,251,265,22.5447,1,56.2197,1,2.152
0.686527,0.701462,0.683023,0.703715,-0.0633797,-0.0381201,-0.0630562,-0.0519041,243,263,22.7054,1,56.3268,1,2.156
0.686273,0.701284,0.682771,0.703503,-0.0635502,-0.0402695,-0.0632259,-0.0522804,233,261,22.8567,1,56.4313,1,2.16
0.686019,0.701099,0.682518,0.703284,-0.0637208,-0.0422495,-0.0633956,-0.053107,223,255,22.9964,1,56.5336,1,2.164
0.685764,0.700904,0.682264,0.703065,-0.0638913,-0.044462,-0.0635652,-0.0536581,212,252,23.1253,1,56.6294,1,2.168
0.685508,0.700704,0.682009,0.702846,-0.0640618,-0.0463113,-0.0637348,-0.0540255,203,250,23.2423,1,56.7216,1,2.172
0.685251,0.700495,0.681754,0.702624,-0.0642322,-0.0482351,-0.0639044,-0.0545008,193,248,23.3494,1,56.8117,1,2.176
0.684994,0.700278,0.681498,0.702402,-0.0644027,-0.0502374,-0.064074,-0.0547888,183,247,23.4461,1,56.8989,1,2.18
0.684736,0.700055,0.681241,0.702177,-0.0645731,-0.0520618,-0.0642436,-0.0552976,174,244,23.5319,1,56.9849,1,2.184
0.684477,0.699827,0.680984,0.701958,-0.0647436,-0.0537099,-0.0644131,-0.0551185,166,248,23.6081,1,57.0678,1,2.188
0.684218,0.699595,0.680726,0.701735,-0.064914,-0.0552117,-0.0645827,-0.0553158,159,248,23.6755,1,57.1541,1,2.192
0.683958,0.699351,0.680467,0.70151,-0.0650844,-0.0571054,-0.0647522,-0.0556201,149,247,23.7349,1,57.24,1,2.196
0.683697,0.699105,0.680208,0.701287,-0.0652548,-0.0585694,-0.0649217,-0.055679,142,248,23.7843,1,57.3248,1,2.2
0.683436,0.698854,0.679948,0.701062,-0.0654251,-0.0599485,-0.0650912,-0.0558622,135,249,23.826,1,57.4106,1,2.204
0.683174,0.698598,0.679687,0.700835,-0.0655954,-0.0613573,-0.0652607,-0.0561859,128,248,23.8605,1,57.4963,1,2.208
0.682911,0.698334,0.679426,0.700608,-0.0657657,-0.0629011,-0.0654301,-0.0563729,120,248,23.8876,1,57.5805,1,2.212
0.682648,0.698063,0.679164,0.700374,-0.065936,-0.0644486,-0.0655995,-0.0570446,112,243,23.9064,1,57.6643,1,2.216
0.682384,0.697783,0.678901,0.700138,-0.0661063,-0.066344,-0.0657689,-0.0576939,103,239,23.9169,1,57.7431,1,2.22
0.682119,0.697512,0.678638,0.699915,-0.0662765,-0.0668014,-0.0659383,-0.0570616,101,247,23.9179,1,57.8178,1,2.224
0.681853,0.697229,0.678373,0.699684,-0.0664467,-0.068114,-0.0661076,-0.057331,94,246,23.9167,1,57.9001,1,2.228
0.681587,0.696941,0.678109,0.699454,-0.0666169,-0.0694498,-0.0662769,-0.0573666,88,248,23.9086,1,57.9816,1,2.232
0.68132,0.69665,0.677843,0.699228,-0.066787,-0.0705418,-0.0664462,-0.0570449,82,253,23.8938,1,58.0646,1,2.236
0.681053,0.696357,0.677577,0.698998,-0.0669572,-0.0714426,-0.0666154,-0.0572335,78,253,23.8735,1,58.1523,1,2.24
0.680785,0.696062,0.67731,0.69877,-0.0671273,-0.072187,-0.0667847,-0.0571864,75,256,23.8489,1,58.2399,1,2.244
0.680516,0.695765,0.677043,0.698541,-0.0672973,-0.0728561,-0.0669538,-0.0572127,72,258,23.8209,1,58.3297,1,2.248
0.680246,0.695467,0.676775,0.698308,-0.0674673,-0.0733885,-0.067123,-0.0575181,69,257,23.7899,1,58.4208,1,2.252
0.679976,0.695166,0.676506,0.698075,-0.0676373,-0.0740314,-0.0672921,-0.0577505,66,257,23.7567,1,58.5106,1,2.256
0.679705,0.694867,0.676236,0.697841,-0.0678073,-0.0742872,-0.0674612,-0.0580494,66,256,23.7209,1,58.5997,1,2.26
0.679434,0.694561,0.675966,0.697598,-0.0679772,-0.0750048,-0.0676303,-0.0589108,62,249,23.6843,1,58.6873,1,2.264
0.679162,0.69426,0.675695,0.697358,-0.0681471,-0.0751089,-0.0677993,-0.0593123,63,247,23.6448,1,58.7682,1,2.268
0.678889,0.693962,0.675424,0.697119,-0.068317,-0.0748903,-0.0679683,-0.0593785,65,249,23.6057,1,58.847,1,2.272
0.678615,0.69366,0.675152,0.696876,-0.0684868,-0.075119,-0.0681372,-0.0599121,64,246,23.5688,1,58.9265,1,2.276
0.678341,0.693358,0.674879,0.696632,-0.0686565,-0.0752426,-0.0683061,-0.0602678,64,244,23.5316,1,59.0026,1,2.28
0.678066,0.693056,0.674605,0.696389,-0.0688263,-0.075325,-0.068475,-0.0603897,65,245,23.4947,1,59.0769,1,2.284
0.67779,0.692753,0.674331,0.69614,-0.068996,-0.0754663,-0.0686438,-0.0609893,65,241,23.4583,1,59.1515,1,2.288
0.677514,0.692449,0.674056,0.695893,-0.0691656,-0.0755893,-0.0688126,-0.061245,65,240,23.4221,1,59.2219,1,2.292
0.677237,0.69214,0.67378,0.695638,-0.0693352,-0.0761607,-0.0689814,-0.0621353,62,234,23.3859,1,59.2912,1,2.296
0.676959,0.691842,0.673504,0.695388,-0.0695048,-0.0756204,-0.0691501,-0.0622394,66,235,23.3478,1,59.3537,1,2.3
0.676681,0.691542,0.673227,0.695134,-0.0696743,-0.0754041,-0.0693187,-0.0626255,68,233,23.3138,1,59.4167,1,2.304
0.676402,0.691239,0.67295,0.69488,-0.0698438,-0.0755191,-0.0694873,-0.0629404,69,232,23.2821,1,59.4776,1,2.308
0.676122,0.690933,0.672671,0.694622,-0.0700132,-0.0758548,-0.0696559,-0.0634383,67,229,23.2505,1,59.5369,1,2.312
0.675842,0.690629,0.672392,0.694368,-0.0701826,-0.0758771,-0.0698244,-0.0634823,68,230,23.2181,1,59.5933,1,2.316
0.675561,0.690325,0.672113,0.694112,-0.0703519,-0.0759783,-0.0699929,-0.0636556,68,230,23.1866,1,59.6508,1,2.32
0.675279,0.69002,0.671832,0.693858,-0.0705212,-0.0760458,-0.0701613,-0.0635984,69,233,23.1555,1,59.7084,1,2.324
0.674996,0.689716,0.671551,0.693605,-0.0706904,-0.0760332,-0.0703297,-0.0634739,70,236,23.125,1,59.7683,1,2.328
0.674713,0.689412,0.67127,0.693351,-0.0708596,-0.0760248,-0.070498,-0.0635348,71,237,23.0957,1,59.8311,1,2.332
0.674429,0.689103,0.670987,0.693093,-0.0710288,-0.0764223,-0.0706663,-0.0638346,69,236,23.0672,1,59.8949,1,2.336
0.674145,0.688806,0.670704,0.692845,-0.0711978,-0.0756796,-0.0708345,-0.0631995,75,244,23.0379,1,59.9578,1,2.34
0.67386,0.688505,0.670421,0.692589,-0.0713669,-0.07553,-0.0710026,-0.0634383,76,244,23.0138,1,60.0284,1,2.344
0.673574,0.688201,0.670136,0.692326,-0.0715358,-0.0757181,-0.0711707,-0.0642309,76,238,22.9915,1,60.098,1,2.348
0.673288,0.687908,0.669851,0.692071,-0.0717048,-0.0748934,-0.0713388,-0.0640971,82,241,22.9696,1,60.1619,1,2.352
0.673,0.687613,0.669566,0.691807,-0.0718736,-0.0745452,-0.0715068,-0.0647564,85,237,22.9534,1,60.2283,1,2.356
0.672713,0.687319,0.669279,0.691543,-0.0720424,-0.0741979,-0.0716747,-0.0651672,88,235,22.9404,1,60.29,1,2.36
0.672424,0.687028,0.668992,0.691277,-0.0722112,-0.0737072,-0.0718426,-0.0656138,92,232,22.9306,1,60.3493,1,2.364
0.672135,0.686739,0.668705,0.69101,-0.0723799,-0.0732361,-0.0720105,-0.0659404,95,231,22.9248,1,60.4058,1,2.368
0.671845,0.686452,0.668416,0.690742,-0.0725485,-0.072663,-0.0721782,-0.066302,100,229,22.923,1,60.4608,1,2.372
0.671555,0.686172,0.668127,0.690471,-0.072717,-0.0718202,-0.0723459,-0.0667734,106,226,22.9258,1,60.5138,1,2.376
0.671263,0.685894,0.667837,0.690202,-0.0728856,-0.0709993,-0.0725136,-0.0669725,111,226,22.9347,1,60.5639,1,2.38
0.670971,0.68562,0.667547,0.689932,-0.073054,-0.0702216,-0.0726811,-0.0671053,117,227,22.9497,1,60.6137,1,2.384
0.670679,0.68535,0.667256,0.689663,-0.0732224,-0.0693001,-0.0728487,-0.067165,124,228,22.9705,1,60.664,1,2.388
0.670386,0.685086,0.666964,0.689393,-0.0733907,-0.0682251,-0.0730161,-0.0673199,131,228,22.9981,1,60.7153,1,2.392
0.670092,0.684819,0.666672,0.689112,-0.0735589,-0.0677388,-0.0731835,-0.068287,135,221,23.0329,1,60.7663,1,2.396
0.669797,0.684563,0.666379,0.688842,-0.0737271,-0.0664933,-0.0733508,-0.0680392,144,225,23.0722,1,60.8099,1,2.4
0.669502,0.684315,0.666085,0.688574,-0.0738952,-0.0650007,-0.0735181,-0.0676724,154,231,23.1203,1,60.8578,1,2.404
0.669206,0.684069,0.665791,0.688299,-0.0740633,-0.0637754,-0.0736853,-0.0680037,162,229,23.1783,1,60.9107,1,2.408
0.668909,0.683826,0.665496,0.688021,-0.0742313,-0.0627569,-0.0738524,-0.0685413,169,226,23.2448,1,60.9619,1,2.412
0.668612,0.683592,0.6652,0.687744,-0.0743992,-0.0613582,-0.0740195,-0.0687557,179,226,23.3188,1,61.0095,1,2.416
0.668314,0.683362,0.664903,0.687462,-0.074567,-0.0600514,-0.0741864,-0.0693018,188,222,23.4023,1,61.0565,1,2.42
0.668016,0.68314,0.664606,0.687184,-0.0747348,-0.0585469,-0.0743534,-0.0694067,198,223,23.4951,1,61.1,1,2.424
0.667716,0.682921,0.664309,0.6869,-0.0749025,-0.0573135,-0.0745202,-0.0699372,207,219,23.5979,1,61.1439,1,2.428
0.667416,0.682704,0.66401,0.686608,-0.0750701,-0.0562897,-0.074687,-0.0709244,215,212,23.7093,1,61.1839,1,2.432
0.667116,0.682493,0.663711,0.686323,-0.0752376,-0.0550601,-0.0748537,-0.071093,224,212,23.8282,1,61.2161,1,2.436
0.666815,0.68229,0.663411,0.686036,-0.0754051,-0.0536934,-0.0750203,-0.0712918,233,212,23.9558,1,61.2484,1,2.44
0.666513,0.682088,0.663111,0.685747,-0.0755725,-0.0525807,-0.0751868,-0.0716259,241,210,24.0927,1,61.2802,1,2.444
0.66621,0.681886,0.66281,0.68545,-0.0757398,-0.0519253,-0.0753533,-0.0724532,247,204,24.2373,1,61.3102,1,2.448
0.665907,0.681692,0.662508,0.685158,-0.0759071,-0.0507398,-0.0755197,-0.0726593,256,203,24.3874,1,61.3338,1,2.452
0.665603,0.681504,0.662206,0.684872,-0.0760743,-0.0494888,-0.075686,-0.0722784,265,209,24.5459,1,61.3574,1,2.456
0.665298,0.681318,0.661903,0.684582,-0.0762413,-0.048482,-0.0758522,-0.0723412,273,210,24.713,1,61.3863,1,2.46
0.664993,0.681132,0.661599,0.684291,-0.0764083,-0.0478685,-0.0760184,-0.0724982,278,210,24.8873,1,61.4161,1,2.464
0.664687,0.680954,0.661294,0.684005,-0.0765753,-0.0467684,-0.0761845,-0.0721134,287,216,25.0668,1,61.4464,1,2.468
0.66438,0.680776,0.660989,0.683719,-0.0767421,-0.0459487,-0.0763504,-0.0719145,293,219,25.254,1,61.4821,1,2.472
0.664073,0.680603,0.660684,0.683433,-0.0769089,-0.0450567,-0.0765164,-0.0718395,300,222,25.4474,1,61.5214,1,2.476
0.663765,0.680429,0.660377,0.683148,-0.0770756,-0.0445772,-0.0766822,-0.0716167,305,226,25.6472,1,61.5633,1,2.48
0.663456,0.680259,0.66007,0.682865,-0.0772421,-0.0438545,-0.0768479,-0.0712954,312,231,25.8513,1,61.6091,1,2.484
0.663147,0.680089,0.659762,0.682581,-0.0774087,-0.043459,-0.0770136,-0.0711964,316,234,26.0608,1,61.6596,1,2.488
0.662837,0.679921,0.659454,0.682297,-0.0775751,-0.0429075,-0.0771792,-0.071188,321,235,26.274,1,61.7129,1,2.492
0.662526,0.679754,0.659145,0.682007,-0.0777414,-0.042511,-0.0773446,-0.0715567,326,234,26.4917,1,61.7676,1,2.496
0.662215,0.679584,0.658835,0.68171,-0.0779077,-0.0425058,-0.07751,-0.0724934,328,226,26.7127,1,61.8201,1,2.5
0.661903,0.679426,0.658525,0.681425,-0.0780738,-0.0415522,-0.0776753,-0.0721103,335,232,26.9355,1,61.8655,1,2.504
0.66159,0.679265,0.658214,0.681129,-0.0782399,-0.0411469,-0.0778406,-0.0726897,340,228,27.165,1,61.916,1,2.508
0.661277,0.679105,0.657902,0.680831,-0.0784059,-0.0407614,-0.0780057,-0.0732776,344,224,27.3982,1,61.9623,1,2.512
0.660963,0.678946,0.65759,0.680526,-0.0785718,-0.0403893,-0.0781707,-0.0742741,349,216,27.6349,1,62.0041,1,2.516
0.660649,0.678794,0.657277,0.680228,-0.0787375,-0.0395654,-0.0783357,-0.0743339,356,217,27.8754,1,62.0382,1,2.52
0.660333,0.67864,0.656963,0.679924,-0.0789032,-0.0392465,-0.0785005,-0.0748919,360,214,28.1218,1,62.073,1,2.524
0.660017,0.678488,0.656649,0.67962,-0.0790689,-0.0388035,-0.0786653,-0.0753215,365,211,28.3715,1,62.104,1,2.528
0.659701,0.678338,0.656334,0.679316,-0.0792344,-0.0383643,-0.07883,-0.0754928,370,211,28.6252,1,62.1325,1,2.532
0.659384,0.678189,0.656018,0.679012,-0.0793998,-0.0379851,-0.0789946,-0.0757221,374,211,28.8827,1,62.1609,1,2.536
0.659066,0.678042,0.655702,0.678709,-0.0795651,-0.0376171,-0.079159,-0.0757023,379,213,29.1438,1,62.1889,1,2.54
0.658747,0.677895,0.655385,0.678405,-0.0797303,-0.037343,-0.0793234,-0.075833,383,213,29.4083,1,62.2185,1,2.544
0.658428,0.677748,0.655067,0.6781,-0.0798955,-0.0371027,-0.0794877,-0.0759201,386,214,29.6756,1,62.2486,1,2.548
0.658108,0.6776,0.654749,0.677796,-0.0800605,-0.0371152,-0.0796519,-0.0759494,389,215,29.9456,1,62.2795,1,2.552
0.657787,0.677453,0.65443,0.677494,-0.0802254,-0.0369796,-0.079816,-0.075825,392,218,30.2168,1,62.3119,1,2.556
0.657466,0.677305,0.654111,0.677192,-0.0803903,-0.0369468,-0.07998,-0.0756845,394,221,30.4899,1,62.3471,1,2.56
0.657144,0.677156,0.65379,0.676885,-0.080555,-0.0370689,-0.0801439,-0.0760802,396,219,30.7644,1,62.3852,1,2.564
0.656822,0.677013,0.653469,0.676584,-0.0807196,-0.0366608,-0.0803076,-0.0757683,401,224,31.0396,1,62.4213,1,2.568
0.656498,0.676864,0.653148,0.676276,-0.0808841,-0.0367919,-0.0804713,-0.0762225,402,221,31.3183,1,62.4618,1,2.572
0.656175,0.676715,0.652826,0.675964,-0.0810485,-0.0369368,-0.0806349,-0.0767844,404,218,31.5973,1,62.4993,1,2.576
0.65585,0.676569,0.652503,0.675656,-0.0812129,-0.0368319,-0.0807984,-0.0768711,407,219,31.8768,1,62.5331,1,2.58
0.655525,0.676419,0.652179,0.67534,-0.0813771,-0.0370498,-0.0809617,-0.0775911,408,213,32.158,1,62.5674,1,2.584
0.655199,0.676267,0.651855,0.675026,-0.0815412,-0.0373967,-0.081125,-0.0778696,408,212,32.4391,1,62.5963,1,2.588
0.654872,0.67611,0.65153,0.674706,-0.0817052,-0.0380022,-0.0812882,-0.0785734,407,207,32.719,1,62.6239,1,2.592
0.654545,0.675957,0.651205,0.674394,-0.0818691,-0.0380892,-0.0814512,-0.0784093,409,210,32.9967,1,62.6465,1,2.596
0.654218,0.675798,0.650879,0.67408,-0.0820328,-0.0386078,-0.0816142,-0.078415,408,212,33.2748,1,62.6724,1,2.6
0.653889,0.67564,0.650552,0.673762,-0.0821965,-0.0389536,-0.081777,-0.0787643,408,210,33.551,1,62.6996,1,2.604
0.65356,0.675479,0.650224,0.673443,-0.0823601,-0.0393568,-0.0819397,-0.0790836,408,209,33.8262,1,62.725,1,2.608
0.65323,0.675316,0.649896,0.673121,-0.0825235,-0.0398272,-0.0821023,-0.0795843,408,206,34.1001,1,62.7487,1,2.612
0.6529,0.675153,0.649568,0.672803,-0.0826869,-0.0401408,-0.0822648,-0.0795151,408,208,34.3723,1,62.7694,1,2.616
0.652569,0.674988,0.649238,0.672483,-0.0828501,-0.0405226,-0.0824272,-0.0796992,408,208,34.6438,1,62.7923,1,2.62
0.652237,0.674818,0.648908,0.672162,-0.0830132,-0.0411514,-0.0825895,-0.0798796,407,208,34.914,1,62.8149,1,2.624
0.651905,0.674645,0.648577,0.67184,-0.0831762,-0.0418297,-0.0827517,-0.0801438,405,207,35.1814,1,62.8374,1,2.628
0.651572,0.674469,0.648246,0.671514,-0.0833391,-0.0425986,-0.0829137,-0.080579,402,204,35.4458,1,62.8588,1,2.632
0.651238,0.674294,0.647914,0.671193,-0.0835018,-0.0429961,-0.0830757,-0.0804373,402,207,35.7068,1,62.8777,1,2.636
0.650904,0.674115,0.647582,0.670872,-0.0836645,-0.0435778,-0.0832375,-0.0804004,401,209,35.9664,1,62.8996,1,2.64
0.650569,0.673933,0.647248,0.670548,-0.083827,-0.0441671,-0.0833992,-0.0805774,400,209,36.2235,1,62.9235,1,2.644
0.650233,0.67375,0.646914,0.670225,-0.0839894,-0.0446751,-0.0835608,-0.080609,399,211,36.4782,1,62.9472,1,2.648
0.649897,0.673565,0.64658,0.669897,-0.0841517,-0.0452729,-0.0837222,-0.0810907,398,208,36.7309,1,62.9721,1,2.652
0.64956,0.673385,0.646245,0.669585,-0.0843139,-0.045182,-0.0838836,-0.0800587,400,219,36.9814,1,62.9945,1,2.656
0.649222,0.673203,0.645909,0.669264,-0.0844759,-0.0452654,-0.0840448,-0.0801192,402,220,37.2336,1,63.0283,1,2.66
0.648884,0.673019,0.645572,0.668943,-0.0846379,-0.0454937,-0.0842059,-0.0801596,403,222,37.4863,1,63.0632,1,2.664
0.648545,0.672837,0.645235,0.668621,-0.0847997,-0.0455019,-0.0843669,-0.0803304,405,222,37.739,1,63.0992,1,2.668
0.648206,0.672653,0.644897,0.668295,-0.0849614,-0.0456802,-0.0845277,-0.0806747,406,220,37.9927,1,63.1351,1,2.672
0.647865,0.672471,0.644559,0.667968,-0.0851229,-0.0456263,-0.0846885,-0.0810193,409,218,38.2467,1,63.1691,1,2.676
0.647525,0.672287,0.64422,0.667637,-0.0852844,-0.0457055,-0.0848491,-0.0816522,411,214,38.5021,1,63.2011,1,2.68
0.647183,0.672103,0.64388,0.6673,-0.0854457,-0.0458159,-0.0850096,-0.0824771,412,208,38.7582,1,63.2283,1,2.684
0.646841,0.67192,0.64354,0.666969,-0.0856068,-0.0458319,-0.0851699,-0.0825953,414,208,39.0149,1,63.2492,1,2.688
0.646498,0.671737,0.643199,0.666631,-0.0857679,-0.045785,-0.0853302,-0.083221,417,204,39.2727,1,63.2703,1,2.692
0.646155,0.671552,0.642857,0.666291,-0.0859288,-0.0459553,-0.0854903,-0.083811,418,200,39.5319,1,63.2868,1,2.696
0.645811,0.671368,0.642515,0.66595,-0.0860896,-0.0459824,-0.0856503,-0.0843194,420,196,39.7914,1,63.299,1,2.7
0.645466,0.671182,0.642172,0.665609,-0.0862503,-0.0461445,-0.0858101,-0.084572,422,195,40.0518,1,63.3079,1,2.704
0.645121,0.671,0.641828,0.665272,-0.0864108,-0.0458782,-0.0859698,-0.0845101,426,197,40.3127,1,63.316,1,2.708
0.644775,0.670819,0.641484,0.66493,-0.0865713,-0.0457007,-0.0861294,-0.0848143,429,196,40.5764,1,63.3261,1,2.712
0.644428,0.670639,0.641139,0.664592,-0.0867315,-0.045496,-0.0862889,-0.084758,433,198,40.8425,1,63.335,1,2.716
0.644081,0.670457,0.640794,0.664253,-0.0868917,-0.0454459,-0.0864482,-0.0847492,435,200,41.111,1,63.346,1,2.72
0.643733,0.67028,0.640448,0.663913,-0.0870517,-0.045067,-0.0866074,-0.0848009,440,201,41.3812,1,63.3587,1,2.724
0.643385,0.670103,0.640101,0.663574,-0.0872116,-0.0448144,-0.0867665,-0.0848067,444,203,41.655,1,63.3725,1,2.728
0.643035,0.669928,0.639754,0.663233,-0.0873713,-0.0444733,-0.0869254,-0.0849256,448,203,41.9317,1,63.3878,1,2.732
0.642686,0.669751,0.639406,0.662893,-0.0875309,-0.044361,-0.0870842,-0.0849186,451,205,42.2117,1,63.4036,1,2.736
0.642335,0.669576,0.639057,0.662552,-0.0876904,-0.044171,-0.0872428,-0.085029,455,205,42.4936,1,63.421,1,2.74
0.641984,0.669397,0.638708,0.66221,-0.0878497,-0.0443322,-0.0874014,-0.085189,456,205,42.7778,1,63.4389,1,2.744
0.641632,0.669213,0.638358,0.661865,-0.0880089,-0.0448716,-0.0875597,-0.0856124,455,203,43.0621,1,63.4566,1,2.748
0.64128,0.669025,0.638007,0.661517,-0.088168,-0.0456342,-0.087718,-0.0860098,453,200,43.344,1,63.4717,1,2.752
0.640927,0.668844,0.637656,0.661185,-0.0883269,-0.0455093,-0.0878761,-0.0850367,456,211,43.6228,1,63.4851,1,2.756
0.640573,0.668654,0.637304,0.660846,-0.0884857,-0.0461745,-0.0880341,-0.0849063,455,214,43.9032,1,63.5095,1,2.76
0.640219,0.668457,0.636952,0.660499,-0.0886443,-0.0472226,-0.0881919,-0.0855678,450,210,44.1804,1,63.5363,1,2.764
0.639864,0.668258,0.636599,0.660162,-0.0888028,-0.0480365,-0.0883496,-0.0851164,448,216,44.4522,1,63.5587,1,2.768
0.639509,0.668063,0.636245,0.659835,-0.0889611,-0.0482624,-0.0885071,-0.0839517,449,228,44.7205,1,63.5876,1,2.772
0.639153,0.667861,0.63589,0.659502,-0.0891193,-0.0490464,-0.0886645,-0.0837222,446,232,44.9882,1,63.6292,1,2.776
0.638796,0.667651,0.635536,0.659166,-0.0892774,-0.0501737,-0.0888218,-0.0838284,442,233,45.2519,1,63.6746,1,2.78
0.638438,0.667436,0.63518,0.658822,-0.0894353,-0.0513859,-0.0889789,-0.0845901,436,227,45.5096,1,63.7202,1,2.784
0.63808,0.667222,0.634824,0.658487,-0.0895931,-0.0520501,-0.0891358,-0.084263,435,232,45.7611,1,63.7602,1,2.788
0.637722,0.667003,0.634467,0.658145,-0.0897507,-0.0529535,-0.0892927,-0.0846784,431,230,46.0094,1,63.8048,1,2.792
0.637362,0.666779,0.634109,0.657797,-0.0899082,-0.0539588,-0.0894493,-0.0854447,427,224,46.2531,1,63.8466,1,2.796
0.637002,0.666553,0.633751,0.657451,-0.0900655,-0.0548594,-0.0896059,-0.0858692,424,222,46.4916,1,63.8824,1,2.8
0.636642,0.666321,0.633393,0.657099,-0.0902227,-0.0558629,-0.0897623,-0.0865265,420,217,46.7255,1,63.9155,1,2.804
0.636281,0.666089,0.633033,0.656748,-0.0903798,-0.0566182,-0.0899185,-0.0869647,417,214,46.9543,1,63.9437,1,2.808
0.635919,0.665849,0.632673,0.656389,-0.0905366,-0.0576688,-0.0900746,-0.0878615,413,207,47.1794,1,63.9688,1,2.812
0.635556,0.665608,0.632313,0.656031,-0.0906934,-0.0585707,-0.0902305,-0.0884593,409,203,47.3989,1,63.9866,1,2.816
0.635193,0.665367,0.631951,0.655677,-0.09085,-0.0590856,-0.0903863,-0.088426,408,205,47.6142,1,64.0004,1,2.82
0.634829,0.665124,0.631589,0.655321,-0.0910064,-0.0597168,-0.0905419,-0.0886629,406,204,47.8272,1,64.0159,1,2.824
0.634465,0.664875,0.631227,0.654962,-0.0911627,-0.0605119,-0.0906974,-0.0889936,404,202,48.0373,1,64.0306,1,2.828
0.6341,0.664628,0.630864,0.654605,-0.0913188,-0.0609556,-0.0908527,-0.0890413,403,203,48.2436,1,64.0436,1,2.832
0.633735,0.664378,0.6305,0.654249,-0.0914747,-0.0614529,-0.0910079,-0.0890731,402,205,48.4483,1,64.0578,1,2.836
0.633368,0.664126,0.630136,0.653891,-0.0916306,-0.061986,-0.0911629,-0.0891807,401,205,48.651,1,64.0732,1,2.84
0.633002,0.663874,0.629771,0.65353,-0.0917862,-0.0623413,-0.0913178,-0.0895691,400,203,48.8515,1,64.0888,1,2.844
0.632634,0.663621,0.629405,0.653169,-0.0919417,-0.0626359,-0.0914725,-0.089828,400,202,49.0509,1,64.1023,1,2.848
0.632266,0.663366,0.629039,0.652806,-0.0920971,-0.0629761,-0.091627,-0.0901158,400,201,49.2496,1,64.1146,1,2.852
0.631897,0.66311,0.628672,0.652441,-0.0922522,-0.063347,-0.0917814,-0.0905092,400,198,49.4473,1,64.1256,1,2.856
0.631528,0.662854,0.628305,0.652075,-0.0924073,-0.0635366,-0.0919356,-0.0907715,401,197,49.6438,1,64.1343,1,2.86
0.631158,0.662592,0.627937,0.651708,-0.0925621,-0.0641525,-0.0920897,-0.0911479,399,195,49.8401,1,64.1418,1,2.864
0.630787,0.66233,0.627568,0.65134,-0.0927168,-0.0646782,-0.0922436,-0.0914276,398,194,50.0337,1,64.1472,1,2.868
0.630416,0.662064,0.627199,0.650974,-0.0928714,-0.0652878,-0.0923974,-0.0914701,396,195,50.225,1,64.1515,1,2.872
0.630044,0.661795,0.626829,0.650605,-0.0930258,-0.0658958,-0.092551,-0.0916712,394,195,50.4136,1,64.1568,1,2.876
0.629672,0.661522,0.626458,0.650235,-0.09318,-0.0667041,-0.0927044,-0.091978,391,193,50.5993,1,64.1615,1,2.88
0.629299,0.66124,0.626087,0.64986,-0.093334,-0.067934,-0.0928577,-0.0925568,385,189,50.7807,1,64.1646,1,2.884
0.628925,0.66097,0.625716,0.649501,-0.0934879,-0.0677751,-0.0930108,-0.0916183,388,200,50.9561,1,64.1643,1,2.888
0.628551,0.660691,0.625343,0.649136,-0.0936416,-0.0684464,-0.0931637,-0.0915109,386,202,51.1332,1,64.1744,1,2.892
0.628176,0.660406,0.62497,0.648765,-0.0937952,-0.0693835,-0.0933165,-0.0919287,382,200,51.307,1,64.1869,1,2.896
0.627801,0.660118,0.624597,0.648396,-0.0939486,-0.0702961,-0.0934691,-0.0920633,378,200,51.476,1,64.1969,1,2.9
0.627425,0.659837,0.624222,0.648039,-0.0941018,-0.0702423,-0.0936216,-0.091059,380,211,51.6407,1,64.2077,1,2.904
0.627048,0.65955,0.623848,0.647676,-0.0942549,-0.0707247,-0.0937738,-0.0909652,379,214,51.8066,1,64.2296,1,2.908
0.626671,0.659261,0.623472,0.647308,-0.0944078,-0.0712478,-0.0939259,-0.0913634,377,211,51.9705,1,64.2537,1,2.912
0.626293,0.658975,0.623096,0.646941,-0.0945605,-0.0713374,-0.0940779,-0.0914273,379,212,52.1324,1,64.2755,1,2.916
0.625914,0.658688,0.62272,0.646571,-0.094713,-0.0714547,-0.0942297,-0.0918442,380,210,52.2948,1,64.298,1,2.92
0.625535,0.658398,0.622342,0.646201,-0.0948654,-0.0718209,-0.0943813,-0.0920358,379,209,52.4575,1,64.318,1,2.924
0.625155,0.658108,0.621965,0.645829,-0.0950176,-0.0720937,-0.0945327,-0.0923362,379,208,52.619,1,64.3376,1,2.928
0.624775,0.657816,0.621586,0.645459,-0.0951697,-0.072362,-0.094684,-0.0923926,379,209,52.7799,1,64.3558,1,2.932
0.624394,0.657526,0.621207,0.64509,-0.0953215,-0.0723969,-0.0948351,-0.0924013,381,210,52.9404,1,64.3749,1,2.936
0.624012,0.657229,0.620828,0.644716,-0.0954732,-0.072996,-0.094986,-0.0927239,379,209,53.1015,1,64.3954,1,2.94
0.62363,0.656937,0.620447,0.644351,-0.0956248,-0.0730499,-0.0951367,-0.0922479,380,215,53.2601,1,64.4145,1,2.944
0.623247,0.656625,0.620066,0.64396,-0.0957761,-0.0746694,-0.0952873,-0.0940612,372,199,53.4186,1,64.4388,1,2.948
0.622864,0.656328,0.619685,0.64359,-0.0959273,-0.074511,-0.0954377,-0.0935425,375,205,53.5687,1,64.4476,1,2.952
0.62248,0.656041,0.619303,0.643232,-0.0960783,-0.0735992,-0.0955879,-0.0921891,382,220,53.7215,1,64.4635,1,2.956
0.622095,0.655743,0.61892,0.642857,-0.0962291,-0.0738839,-0.095738,-0.0926975,382,217,53.8806,1,64.4936,1,2.96
0.62171,0.655442,0.618537,0.642481,-0.0963797,-0.0743616,-0.0958878,-0.0931229,381,214,54.0389,1,64.5201,1,2.964
0.621324,0.655141,0.618153,0.642104,-0.0965302,-0.0746513,-0.0960375,-0.0935216,381,212,54.1954,1,64.5439,1,2.968
0.620938,0.65484,0.617769,0.641727,-0.0966805,-0.074902,-0.096187,-0.0938162,381,210,54.3511,1,64.5653,1,2.972
0.620551,0.654538,0.617384,0.641349,-0.0968306,-0.075098,-0.0963364,-0.0939838,382,210,54.5064,1,64.5852,1,2.976
0.620163,0.654235,0.616998,0.640968,-0.0969805,-0.0752862,-0.0964855,-0.0944123,382,208,54.6615,1,64.6049,1,2.98
0.619775,0.653932,0.616612,0.640589,-0.0971302,-0.0754692,-0.0966345,-0.094554,383,208,54.8166,1,64.6219,1,2.984
0.619386,0.653629,0.616225,0.640209,-0.0972798,-0.0755049,-0.0967833,-0.0946772,384,208,54.9716,1,64.639,1,2.988
0.618997,0.653325,0.615838,0.639831,-0.0974292,-0.0757302,-0.0969319,-0.094673,385,210,55.1275,1,64.6564,1,2.992
0.618607,0.653018,0.615449,0.639449,-0.0975784,-0.0760531,-0.0970803,-0.0949293,384,209,55.283,1,64.6753,1,2.996
0.618216,0.652708,0.615061,0.639071,-0.0977274,-0.0765563,-0.0972286,-0.0947547,383,212,55.4375,1,64.6933,1,3
0.617825,0.652396,0.614672,0.63869,-0.0978762,-0.0769782,-0.0973767,-0.0948974,382,212,55.5898,1,64.7144,1,3.004
0.617433,0.652083,0.614282,0.638311,-0.0980248,-0.0774034,-0.0975245,-0.0948774,381,214,55.7405,1,64.7356,1,3.008
0.617041,0.651769,0.613891,0.637929,-0.0981733,-0.0777732,-0.0976722,-0.0951231,381,213,55.8895,1,64.7584,1,3.012
0.616648,0.651441,0.6135,0.637533,-0.0983216,-0.0791714,-0.0978197,-0.096381,373,202,56.0367,1,64.7797,1,3.016
0.616254,0.651123,0.613109,0.637153,-0.0984696,-0.0792974,-0.0979671,-0.0959528,374,208,56.1765,1,64.7907,1,3.02
0.61586,0.650812,0.612717,0.636781,-0.0986175,-0.0788055,-0.0981142,-0.0949188,379,219,56.317,1,64.8078,1,3.024
0.615465,0.65049,0.612324,0.636401,-0.0987652,-0.0793414,-0.0982612,-0.0949492,377,220,56.4612,1,64.8362,1,3.028
0.61507,0.650167,0.611931,0.636019,-0.0989127,-0.0798138,-0.0984079,-0.095171,376,220,56.6031,1,64.8657,1,3.032
0.614674,0.649837,0.611537,0.635631,-0.0990601,-0.0807045,-0.0985545,-0.0957796,372,215,56.7427,1,64.8943,1,3.036
0.614277,0.649521,0.611142,0.635252,-0.0992072,-0.0801467,-0.0987009,-0.0954079,377,221,56.8784,1,64.9187,1,3.04
0.61388,0.649198,0.610747,0.634865,-0.0993542,-0.0803219,-0.0988471,-0.0958223,378,218,57.0185,1,64.9479,1,3.044
0.613482,0.648879,0.610351,0.634479,-0.0995009,-0.0801795,-0.0989931,-0.0960698,380,217,57.1587,1,64.9745,1,3.048
0.613084,0.648557,0.609955,0.634088,-0.0996475,-0.0803149,-0.0991389,-0.0966379,381,213,57.3009,1,64.9999,1,3.052
0.612685,0.64824,0.609558,0.633701,-0.0997938,-0.079887,-0.0992845,-0.0966999,386,214,57.4436,1,65.0214,1,3.056
0.612286,0.647923,0.609161,0.633312,-0.09994,-0.0797456,-0.0994299,-0.0968564,388,214,57.5901,1,65.0437,1,3.06
0.611886,0.647602,0.608763,0.632919,-0.100086,-0.0798817,-0.0995752,-0.0973062,389,211,57.7385,1,65.0657,1,3.064
0.611485,0.647273,0.608364,0.632518,-0.100232,-0.0806922,-0.0997202,-0.0983258,386,203,57.8867,1,65.0844,1,3.068
0.611084,0.646958,0.607965,0.63214,-0.100377,-0.0800522,-0.0998651,-0.097019,392,217,58.0316,1,65.0955,1,3.072
0.610682,0.646634,0.607565,0.631754,-0.100523,-0.080374,-0.10001,-0.0968964,391,220,58.1813,1,65.1206,1,3.076
0.61028,0.646303,0.607165,0.631367,-0.100668,-0.0811068,-0.100154,-0.0967859,388,222,58.3298,1,65.1484,1,3.08
0.609877,0.645973,0.606764,0.630983,-0.100813,-0.0816241,-0.100298,-0.0965682,387,226,58.4746,1,65.1788,1,3.084
0.609473,0.645636,0.606363,0.630599,-0.100958,-0.0824584,-0.100442,-0.0963367,383,230,58.617,1,65.2128,1,3.088
0.609069,0.6453,0.605961,0.630215,-0.101102,-0.0829571,-0.100586,-0.0962112,381,232,58.7551,1,65.2506,1,3.092
0.608664,0.644962,0.605558,0.62983,-0.101247,-0.0835198,-0.10073,-0.0962427,379,234,58.8909,1,65.291,1,3.096
0.608259,0.644622,0.605155,0.629441,-0.101391,-0.0839526,-0.100873,-0.0965804,378,232,59.0241,1,65.3324,1,3.1
0.607853,0.644281,0.604751,0.629053,-0.101535,-0.084385,-0.101017,-0.0967479,377,232,59.1556,1,65.3719,1,3.104
0.607447,0.64394,0.604347,0.628663,-0.101679,-0.0847021,-0.10116,-0.0970036,377,231,59.2854,1,65.4111,1,3.108
0.60704,0.643594,0.603942,0.62827,-0.101822,-0.0853454,-0.101303,-0.0973755,374,229,59.4139,1,65.4492,1,3.112
0.606632,0.643246,0.603536,0.627876,-0.101966,-0.0858894,-0.101445,-0.0977675,372,226,59.5394,1,65.4849,1,3.116
0.606224,0.642893,0.60313,0.627479,-0.102109,-0.0866263,-0.101588,-0.0983167,369,223,59.6621,1,65.5181,1,3.12
0.605815,0.642548,0.602724,0.627088,-0.102252,-0.086513,-0.10173,-0.0980782,371,226,59.7816,1,65.5476,1,3.124
0.605406,0.642197,0.602316,0.62669,-0.102395,-0.0868981,-0.101872,-0.0985814,371,223,59.9026,1,65.5805,1,3.128
0.604996,0.641847,0.601909,0.626293,-0.102537,-0.0871549,-0.102014,-0.0987729,370,223,60.0222,1,65.61,1,3.132
0.604586,0.641489,0.6015,0.62589,-0.10268,-0.0879307,-0.102156,-0.0994188,367,218,60.1409,1,65.6388,1,3.136
0.604175,0.641136,0.601091,0.625495,-0.102822,-0.0880448,-0.102297,-0.0992448,368,221,60.2559,1,65.6629,1,3.14
0.603763,0.640768,0.600682,0.625089,-0.102964,-0.08933,-0.102438,-0.0999638,361,215,60.3705,1,65.6898,1,3.144
0.603351,0.640411,0.600272,0.624694,-0.103105,-0.0892944,-0.102579,-0.0995793,363,221,60.4784,1,65.7115,1,3.148
0.602938,0.640045,0.599861,0.624294,-0.103247,-0.0900192,-0.10272,-0.0997261,360,221,60.5872,1,65.7381,1,3.152
0.602525,0.639679,0.59945,0.623891,-0.103388,-0.09056,-0.102861,-0.100025,358,219,60.6923,1,65.7646,1,3.156
0.602111,0.639309,0.599038,0.623491,-0.103529,-0.0911796,-0.103001,-0.100024,355,221,60.7948,1,65.7897,1,3.16
0.601697,0.638936,0.598626,0.623089,-0.10367,-0.0918806,-0.103141,-0.100224,352,220,60.8941,1,65.8162,1,3.164
0.601282,0.63856,0.598213,0.622687,-0.103811,-0.092607,-0.103281,-0.100271,349,221,60.9898,1,65.8421,1,3.168
0.600866,0.638182,0.5978,0.622285,-0.103952,-0.0932353,-0.103421,-0.100331,346,222,61.0818,1,65.8689,1,3.172
0.60045,0.637803,0.597386,0.621884,-0.104092,-0.0937405,-0.103561,-0.100342,344,223,61.1706,1,65.8966,1,3.176
0.600034,0.637427,0.596971,0.621485,-0.104232,-0.0937894,-0.1037,-0.10012,345,227,61.2574,1,65.9257,1,3.18
0.599616,0.637055,0.596556,0.621087,-0.104372,-0.0935341,-0.103839,-0.0999136,348,230,61.3451,1,65.9583,1,3.184
0.599199,0.63669,0.596141,0.62069,-0.104511,-0.0927881,-0.103978,-0.0997474,355,234,61.4358,1,65.9944,1,3.188
0.59878,0.636326,0.595724,0.620291,-0.104651,-0.0921756,-0.104117,-0.0997518,360,235,61.5325,1,66.0335,1,3.192
0.598362,0.635966,0.595308,0.619891,-0.10479,-0.0914793,-0.104255,-0.0998123,366,236,61.6345,1,66.0739,1,3.196
0.597942,0.635607,0.59489,0.619491,-0.104929,-0.0909,-0.104393,-0.0998814,371,237,61.7422,1,66.1151,1,3.2
0.597522,0.635247,0.594472,0.619087,-0.105068,-0.0905713,-0.104531,-0.100215,375,235,61.8548,1,66.1569,1,3.204
0.597102,0.634891,0.594054,0.618684,-0.105206,-0.0900931,-0.104669,-0.100438,380,234,61.9707,1,66.1967,1,3.208
0.59668,0.634533,0.593635,0.618274,-0.105345,-0.0898607,-0.104807,-0.101105,383,229,62.0908,1,66.2355,1,3.212
0.596259,0.634175,0.593216,0.617863,-0.105483,-0.0897345,-0.104944,-0.101636,385,226,62.2135,1,66.2691,1,3.216
0.595837,0.633819,0.592796,0.617449,-0.105621,-0.0895065,-0.105082,-0.102306,388,221,62.3382,1,66.2986,1,3.22
0.595414,0.633461,0.592375,0.617035,-0.105758,-0.0894696,-0.105219,-0.102696,390,218,62.4655,1,66.323,1,3.224
0.59499,0.6331,0.591954,0.616618,-0.105896,-0.0897329,-0.105355,-0.103157,390,215,62.5939,1,66.3448,1,3.228
0.594567,0.632734,0.591532,0.616202,-0.106033,-0.0903691,-0.105492,-0.103435,387,214,62.7214,1,66.3635,1,3.232
0.594142,0.63236,0.59111,0.615786,-0.10617,-0.0913979,-0.105628,-0.103621,382,213,62.8455,1,66.3809,1,3.236
0.593717,0.63199,0.590687,0.615381,-0.106307,-0.0917958,-0.105764,-0.102853,381,222,62.964,1,66.3982,1,3.24
0.593292,0.631611,0.590264,0.614975,-0.106443,-0.0927232,-0.1059,-0.102427,376,228,63.0806,1,66.4245,1,3.244
0.592866,0.631224,0.58984,0.614564,-0.10658,-0.0940613,-0.106036,-0.102546,369,228,63.1918,1,66.4561,1,3.248
0.592439,0.630847,0.589416,0.614166,-0.106716,-0.0941185,-0.106171,-0.101473,370,240,63.2956,1,66.4885,1,3.252
0.592012,0.630464,0.588991,0.613761,-0.106852,-0.0946748,-0.106306,-0.101392,368,242,63.3997,1,66.5325,1,3.256
0.591584,0.630081,0.588565,0.613355,-0.106987,-0.0950169,-0.106441,-0.101481,367,243,63.5013,1,66.5786,1,3.26
0.591156,0.629699,0.588139,0.612944,-0.107123,-0.0952449,-0.106576,-0.101916,367,240,63.6016,1,66.6249,1,3.264
0.590727,0.629321,0.587712,0.61253,-0.107258,-0.0949939,-0.106711,-0.102378,370,237,63.7016,1,66.6682,1,3.268
0.590298,0.628944,0.587285,0.612115,-0.107393,-0.0947114,-0.106845,-0.102887,374,234,63.8044,1,66.7082,1,3.272
0.589868,0.628569,0.586858,0.611694,-0.107528,-0.0943791,-0.106979,-0.103688,377,227,63.9103,1,66.7443,1,3.276
0.589438,0.628194,0.58643,0.611266,-0.107662,-0.0941575,-0.107113,-0.104739,380,218,64.0193,1,66.7735,1,3.28
0.589007,0.62781,0.586001,0.610828,-0.107797,-0.094816,-0.107246,-0.106333,377,204,64.1305,1,66.7933,1,3.284
0.588575,0.627447,0.585572,0.610413,-0.107931,-0.0934411,-0.10738,-0.105467,388,214,64.2395,1,66.7997,1,3.288
0.588143,0.627072,0.585142,0.609988,-0.108065,-0.0935898,-0.107513,-0.105724,388,213,64.358,1,66.8157,1,3.292
0.587711,0.626694,0.584711,0.609564,-0.108198,-0.0938905,-0.107646,-0.105867,388,213,64.4765,1,66.8304,1,3.296
0.587278,0.626301,0.584281,0.609128,-0.108332,-0.0953289,-0.107779,-0.106854,380,204,64.5934,1,66.8446,1,3.3
0.586844,0.625931,0.583849,0.608723,-0.108465,-0.0943877,-0.107911,-0.105008,388,224,64.7029,1,66.8517,1,3.304
0.58641,0.625548,0.583417,0.608304,-0.108598,-0.0947967,-0.108043,-0.1049,387,226,64.819,1,66.8778,1,3.308
0.585975,0.625165,0.582985,0.607892,-0.10873,-0.0951269,-0.108175,-0.104338,386,233,64.9335,1,66.9066,1,3.312
0.58554,0.624779,0.582552,0.607476,-0.108863,-0.0955774,-0.108307,-0.104194,384,236,65.0467,1,66.942,1,3.316
0.585105,0.624394,0.582118,0.607062,-0.108995,-0.0958489,-0.108439,-0.103926,384,240,65.1579,1,66.9804,1,3.32
0.584668,0.62401,0.581684,0.60665,-0.109127,-0.0958284,-0.10857,-0.103631,386,244,65.2685,1,67.0227,1,3.324
0.584232,0.623625,0.58125,0.606236,-0.109259,-0.0960163,-0.108701,-0.103637,386,246,65.3801,1,67.0691,1,3.328
0.583794,0.623241,0.580815,0.605818,-0.10939,-0.0960264,-0.108832,-0.103899,387,244,65.4915,1,67.1167,1,3.332
0.583356,0.622858,0.580379,0.605396,-0.109522,-0.0958891,-0.108963,-0.104391,390,241,65.604,1,67.1628,1,3.336
0.582918,0.622481,0.579943,0.604976,-0.109653,-0.0953946,-0.109093,-0.104633,394,240,65.7187,1,67.2055,1,3.34
0.582479,0.622104,0.579506,0.604552,-0.109783,-0.0950073,-0.109223,-0.105082,399,237,65.8378,1,67.2469,1,3.344
0.58204,0.621725,0.579069,0.604123,-0.109914,-0.094893,-0.109353,-0.105813,401,232,65.9604,1,67.2849,1,3.348
0.5816,0.621347,0.578632,0.603698,-0.110044,-0.0947881,-0.109483,-0.105955,403,232,66.0849,1,67.3173,1,3.352
0.581159,0.620965,0.578193,0.603267,-0.110174,-0.0949772,-0.109612,-0.106568,403,227,66.211,1,67.3493,1,3.356
0.580719,0.620584,0.577755,0.602836,-0.110304,-0.0950746,-0.109741,-0.106947,404,225,66.3369,1,67.3766,1,3.36
0.580277,0.6202,0.577315,0.602403,-0.110434,-0.0953985,-0.10987,-0.107373,404,222,66.463,1,67.4014,1,3.364
0.579835,0.619804,0.576876,0.601956,-0.110563,-0.0966222,-0.109999,-0.108866,397,209,66.5874,1,67.4227,1,3.368
0.579393,0.61943,0.576436,0.601534,-0.110692,-0.0955954,-0.110127,-0.107731,405,221,66.7058,1,67.4316,1,3.372
0.57895,0.619035,0.575995,0.60109,-0.110821,-0.0966383,-0.110256,-0.108846,400,211,66.831,1,67.452,1,3.376
0.578506,0.618648,0.575553,0.600657,-0.11095,-0.0966714,-0.110384,-0.108639,401,215,66.9507,1,67.4633,1,3.38
0.578062,0.618256,0.575112,0.600221,-0.111078,-0.0971253,-0.110511,-0.10876,400,215,67.0709,1,67.4777,1,3.384
0.577617,0.617859,0.574669,0.599778,-0.111206,-0.0977734,-0.110639,-0.109417,397,210,67.1889,1,67.492,1,3.388
0.577172,0.617467,0.574227,0.599339,-0.111334,-0.0978887,-0.110766,-0.109538,398,210,67.3038,1,67.5012,1,3.392
0.576727,0.617074,0.573783,0.598898,-0.111462,-0.0979944,-0.110893,-0.109734,398,209,67.4188,1,67.5104,1,3.396
0.576281,0.616668,0.573339,0.598444,-0.111589,-0.099159,-0.11102,-0.111016,392,198,67.5336,1,67.5184,1,3.4
0.575834,0.616284,0.572895,0.598016,-0.111717,-0.0980927,-0.111147,-0.109654,401,212,67.6426,1,67.5161,1,3.404
0.575387,0.615888,0.57245,0.597576,-0.111844,-0.0984471,-0.111273,-0.109753,400,213,67.7593,1,67.5281,1,3.408
0.574939,0.615491,0.572005,0.597139,-0.11197,-0.0987122,-0.111399,-0.109589,400,215,67.8745,1,67.5404,1,3.412
0.574491,0.615083,0.571559,0.596695,-0.112097,-0.0997526,-0.111525,-0.110114,394,212,67.9885,1,67.5553,1,3.416
0.574042,0.614691,0.571113,0.596267,-0.112223,-0.0992082,-0.11165,-0.109023,399,223,68.0972,1,67.5671,1,3.42
0.573593,0.61429,0.570666,0.595833,-0.112349,-0.0995651,-0.111775,-0.108872,398,226,68.2101,1,67.5906,1,3.424
0.573144,0.613886,0.570218,0.595397,-0.112475,-0.100005,-0.111901,-0.108887,397,227,68.3216,1,67.6167,1,3.428
0.572693,0.613482,0.569771,0.594962,-0.1126,-0.100355,-0.112025,-0.108897,396,229,68.431,1,67.644,1,3.432
0.572243,0.613075,0.569322,0.594529,-0.112725,-0.100819,-0.11215,-0.108644,394,232,68.5389,1,67.6726,1,3.436
0.571792,0.612673,0.568873,0.5941,-0.11285,-0.100697,-0.112274,-0.108159,396,238,68.645,1,67.7051,1,3.44
0.57134,0.612263,0.568424,0.593667,-0.112975,-0.101277,-0.112398,-0.108181,394,240,68.7524,1,67.7434,1,3.444
0.570888,0.61185,0.567974,0.593233,-0.113099,-0.101981,-0.112522,-0.108311,390,240,68.8568,1,67.7828,1,3.448
0.570435,0.611433,0.567524,0.592797,-0.113223,-0.102709,-0.112646,-0.108513,387,239,68.9572,1,67.822,1,3.452
0.569982,0.611016,0.567073,0.592363,-0.113347,-0.103281,-0.112769,-0.108561,384,240,69.0535,1,67.8605,1,3.456
0.569528,0.610595,0.566622,0.591922,-0.113471,-0.103921,-0.112892,-0.109082,381,236,69.1468,1,67.8996,1,3.46
0.569074,0.610164,0.56617,0.591473,-0.113595,-0.105154,-0.113015,-0.110178,374,227,69.2362,1,67.9343,1,3.464
0.56862,0.609743,0.565718,0.591033,-0.113718,-0.10517,-0.113137,-0.110074,376,229,69.3187,1,67.9599,1,3.468
