peachynonah/Fire_monitor_KIRO_CDSL/csv_datas/trial12/cdsl_data_t12_14_d.csv
joint1_pos_desired, joint1_pos, joint2_pos_desired, joint2_pos, joint1_vel_desired, joint1_vel_filtered, joint2_vel_desired, joint2_vel_filtered, target_torque_joint1, target_torque_joint2, estimated_disturbance_joint1, saturated_DOB_joint1, estimated_disturbance_joint2, saturated_DOB_joint2, current_time
0.7786,0.777767,0.6487,0.647053,-3.73429e-07,0,-3.11127e-07,0,-5,-18,-0,-0,-78.4694,-78.4694,0.004
0.7786,0.777767,0.6487,0.646961,-1.49252e-06,0,-1.24351e-06,-0.00768718,-5,-92,0.0260267,0.0260267,-78.3717,-78.3717,0.008
0.7786,0.777768,0.6487,0.646894,-3.35548e-06,2.87909e-05,-2.79566e-06,-0.010739,-5,-123,0.0519676,0.0519676,-77.9559,-77.9559,0.012
0.7786,0.777768,0.6487,0.646835,-5.96053e-06,1.91939e-05,-4.96609e-06,-0.012025,-5,-136,0.0771356,0.0771356,-77.4122,-77.4122,0.016
0.7786,0.777768,0.6487,0.646791,-9.30586e-06,1.2796e-05,-7.75329e-06,-0.0117307,-5,-135,0.102489,0.102489,-76.8151,-76.8151,0.02
0.7786,0.777768,0.6487,0.646761,-1.33897e-05,8.53064e-06,-1.11558e-05,-0.0103253,-5,-122,0.127921,0.127921,-76.231,-76.231,0.024
0.7786,0.777768,0.6487,0.646749,-1.82103e-05,5.6871e-06,-1.51721e-05,-0.0078912,-5,-99,0.153353,0.153353,-75.7073,-75.7073,0.028
0.7786,0.777768,0.6487,0.646749,-2.37658e-05,3.7914e-06,-1.98007e-05,-0.00523201,-5,-74,0.178727,0.178727,-75.2864,-75.2864,0.032
0.7786,0.777768,0.6487,0.646759,-3.00544e-05,2.5276e-06,-2.50402e-05,-0.00262428,-5,-49,0.203994,0.203994,-74.9778,-74.9778,0.036
0.7786,0.777767,0.6487,0.646776,-3.70744e-05,-5.58968e-05,-3.0889e-05,-0.000367555,-6,-28,0.229231,0.229231,-74.7793,-74.7793,0.04
0.778599,0.777767,0.648699,0.646796,-4.4824e-05,-3.72645e-05,-3.73457e-05,0.00139605,-6,-10,0.25574,0.25574,-74.6759,-74.6759,0.044
0.778599,0.777768,0.648699,0.646816,-5.33014e-05,3.27388e-05,-4.44087e-05,0.00265815,-5,1,0.281419,0.281419,-74.647,-74.647,0.048
0.778599,0.777768,0.648699,0.646836,-6.25049e-05,2.18259e-05,-5.20767e-05,0.00344198,-5,9,0.305078,0.305078,-74.6715,-74.6715,0.052
0.778599,0.777768,0.648699,0.646853,-7.24326e-05,1.45506e-05,-6.03481e-05,0.00370541,-5,12,0.328767,0.328767,-74.7293,-74.7293,0.056
0.778598,0.777768,0.648699,0.646866,-8.30828e-05,9.7004e-06,-6.92214e-05,0.00356433,-5,11,0.352368,0.352368,-74.7984,-74.7984,0.06
0.778598,0.777768,0.648698,0.646876,-9.44537e-05,6.46693e-06,-7.86952e-05,0.00318236,-5,7,0.375795,0.375795,-74.8621,-74.8621,0.064
0.778598,0.777768,0.648698,0.646883,-0.000106543,4.31129e-06,-8.8768e-05,0.0026686,-5,2,0.398985,0.398985,-74.9102,-74.9102,0.068
0.778597,0.777768,0.648698,0.646887,-0.00011935,2.87419e-06,-9.94383e-05,0.00215335,-5,-1,0.421887,0.421887,-74.9374,-74.9374,0.072
0.778597,0.777768,0.648697,0.646889,-0.000132873,1.91613e-06,-0.000110705,0.00157952,-5,-7,0.444462,0.444462,-74.9434,-74.9434,0.076
0.778596,0.777768,0.648697,0.646889,-0.000147109,1.27742e-06,-0.000122566,0.00105301,-5,-12,0.466674,0.466674,-74.9258,-74.9258,0.08
0.778595,0.777768,0.648696,0.646888,-0.000162057,8.51612e-07,-0.00013502,0.000644428,-5,-15,0.488495,0.488495,-74.8869,-74.8869,0.084
0.778595,0.777768,0.648696,0.646888,-0.000177715,5.67741e-07,-0.000148065,0.000429619,-5,-17,0.509898,0.509898,-74.8316,-74.8316,0.088
0.778594,0.777768,0.648695,0.646889,-0.000194081,3.78494e-07,-0.000161701,0.000343994,-5,-18,0.530857,0.530857,-74.7682,-74.7682,0.092
0.778593,0.777768,0.648694,0.646889,-0.000211154,2.5233e-07,-0.000175926,0.00025812,-5,-19,0.551348,0.551348,-74.7018,-74.7018,0.096
0.778592,0.777768,0.648694,0.64689,-0.000228932,1.6822e-07,-0.000190737,0.000229662,-4,-19,0.571349,0.571349,-74.6326,-74.6326,0.1
0.778591,0.777768,0.648693,0.646891,-0.000247413,1.12146e-07,-0.000206135,0.00021069,-4,-19,0.590836,0.590836,-74.5629,-74.5629,0.104
0.77859,0.777768,0.648692,0.646892,-0.000266595,7.47643e-08,-0.000222117,0.000255624,-4,-19,0.609788,0.609788,-74.4933,-74.4933,0.108
0.778589,0.777768,0.648691,0.646893,-0.000286476,4.98429e-08,-0.000238681,0.000256789,-4,-18,0.628182,0.628182,-74.4262,-74.4262,0.112
0.778588,0.777768,0.64869,0.646895,-0.000307056,3.32286e-08,-0.000255827,0.000343938,-4,-18,0.645996,0.645996,-74.3602,-74.3602,0.116
0.778587,0.777768,0.648689,0.646897,-0.000328331,2.21524e-08,-0.000273553,0.000373247,-4,-17,0.66321,0.66321,-74.2987,-74.2987,0.12
0.778585,0.777768,0.648688,0.646898,-0.000350301,1.47683e-08,-0.000291857,0.000363995,-4,-17,0.679799,0.679799,-74.2391,-74.2391,0.124
0.778584,0.777768,0.648687,0.6469,-0.000372963,9.84551e-09,-0.000310739,0.000357827,-4,-17,0.695744,0.695744,-74.1801,-74.1801,0.128
0.778582,0.777768,0.648685,0.646901,-0.000396316,6.56367e-09,-0.000330196,0.000353715,-4,-17,0.711022,0.711022,-74.1218,-74.1218,0.132
0.778581,0.777768,0.648684,0.646902,-0.000420358,4.37578e-09,-0.000350227,0.000350974,-3,-17,0.725611,0.725611,-74.0642,-74.0642,0.136
0.778579,0.777768,0.648683,0.646904,-0.000445088,2.91719e-09,-0.00037083,0.000349146,-3,-17,0.73949,0.73949,-74.0075,-74.0075,0.14
0.778577,0.777768,0.648681,0.646905,-0.000470503,1.94479e-09,-0.000392005,0.000347928,-3,-16,0.752637,0.752637,-73.9518,-73.9518,0.144
0.778575,0.777768,0.648679,0.646906,-0.000496601,1.29653e-09,-0.000413749,0.000289534,-3,-17,0.765029,0.765029,-73.8969,-73.8969,0.148
0.778573,0.777768,0.648678,0.646907,-0.000523382,8.64352e-10,-0.000436062,0.000279395,-3,-17,0.776644,0.776644,-73.8407,-73.8407,0.152
0.778571,0.777768,0.648676,0.646908,-0.000550843,5.76234e-10,-0.000458942,0.000272636,-3,-17,0.787462,0.787462,-73.7851,-73.7851,0.156
0.778569,0.777768,0.648674,0.646909,-0.000578983,3.84156e-10,-0.000482387,0.000239339,-2,-17,0.797459,0.797459,-73.7304,-73.7304,0.16
0.778566,0.777768,0.648672,0.646909,-0.0006078,2.56104e-10,-0.000506396,0.000188351,-2,-17,0.806614,0.806614,-73.6752,-73.6752,0.164
0.778564,0.777767,0.64867,0.646909,-0.000637291,-2.87908e-05,-0.000530967,0.000154358,-2,-17,0.814961,0.814961,-73.6192,-73.6192,0.168
0.778561,0.777767,0.648668,0.64691,-0.000667456,-4.79848e-05,-0.000556099,0.000160487,-2,-17,0.823202,0.823202,-73.5629,-73.5629,0.172
0.778559,0.777767,0.648666,0.64691,-0.000698293,-3.19892e-06,-0.000581791,0.000106991,-2,-17,0.830945,0.830945,-73.5079,-73.5079,0.176
0.778556,0.777767,0.648663,0.64691,-0.0007298,-2.13261e-06,-0.000608041,7.13276e-05,-1,-17,0.836606,0.836606,-73.452,-73.452,0.18
0.778553,0.777767,0.648661,0.64691,-0.000761974,-1.42174e-06,-0.000634848,4.75517e-05,-1,-17,0.841286,0.841286,-73.3958,-73.3958,0.184
0.77855,0.777767,0.648658,0.64691,-0.000794816,-9.47827e-07,-0.00066221,6.04921e-05,-1,-17,0.844971,0.844971,-73.3399,-73.3399,0.188
0.778546,0.777767,0.648655,0.64691,-0.000828322,-6.31885e-07,-0.000690126,1.15371e-05,-1,-17,0.847646,0.847646,-73.2858,-73.2858,0.192
0.778543,0.777767,0.648653,0.64691,-0.000862491,-4.21256e-07,-0.000718595,3.64823e-05,0,-17,0.849292,0.849292,-73.231,-73.231,0.196
0.77854,0.777767,0.64865,0.64691,-0.000897321,-2.80838e-07,-0.000747614,2.43216e-05,0,-16,0.84989,0.84989,-73.1786,-73.1786,0.2
0.778536,0.777767,0.648647,0.64691,-0.000932811,-1.87225e-07,-0.000777183,1.62144e-05,0,-16,0.84942,0.84942,-73.1271,-73.1271,0.204
0.778532,0.777767,0.648643,0.64691,-0.000968958,-1.24817e-07,-0.000807299,1.08096e-05,0,-16,0.84786,0.84786,-73.0766,-73.0766,0.208
0.778528,0.777767,0.64864,0.64691,-0.00100576,-8.32111e-08,-0.000837963,7.20639e-06,0,-16,0.845189,0.845189,-73.0274,-73.0274,0.212
0.778524,0.777767,0.648637,0.64691,-0.00104322,-5.54741e-08,-0.000869172,4.80426e-06,0,-16,0.841384,0.841384,-72.9794,-72.9794,0.216
0.77852,0.777767,0.648633,0.64691,-0.00108133,-3.69827e-08,-0.000900924,3.20284e-06,0,-15,0.836424,0.836424,-72.9328,-72.9328,0.22
0.778515,0.777767,0.64863,0.64691,-0.00112009,-2.46552e-08,-0.000933219,2.13523e-06,0,-15,0.830285,0.830285,-72.8877,-72.8877,0.224
0.778511,0.777767,0.648626,0.64691,-0.0011595,-1.64368e-08,-0.000966055,1.42348e-06,1,-15,0.822947,0.822947,-72.8441,-72.8441,0.228
0.778506,0.777767,0.648622,0.64691,-0.00119956,-1.09578e-08,-0.00099943,9.4899e-07,1,-14,0.814385,0.814385,-72.8021,-72.8021,0.232
0.778501,0.777767,0.648618,0.64691,-0.00124027,-2.87982e-05,-0.00103334,6.3266e-07,1,-14,0.804635,0.804635,-72.7616,-72.7616,0.236
0.778496,0.777767,0.648614,0.64691,-0.00128162,-1.91988e-05,-0.00106779,4.21773e-07,1,-14,0.79434,0.79434,-72.7228,-72.7228,0.24
0.778491,0.777767,0.648609,0.64691,-0.00132361,-1.27992e-05,-0.00110278,2.81182e-07,2,-13,0.782497,0.782497,-72.6856,-72.6856,0.244
0.778486,0.777767,0.648605,0.64691,-0.00136624,-8.53281e-06,-0.0011383,1.87455e-07,2,-13,0.76917,0.76917,-72.6501,-72.6501,0.248
0.77848,0.777767,0.6486,0.64691,-0.00140951,-5.68854e-06,-0.00117435,1.2497e-07,2,-13,0.754393,0.754393,-72.6164,-72.6164,0.252
0.778474,0.777767,0.648595,0.64691,-0.00145342,-3.79236e-06,-0.00121093,8.33132e-08,3,-12,0.73818,0.73818,-72.5844,-72.5844,0.256
0.778468,0.777767,0.64859,0.64691,-0.00149796,-2.52824e-06,-0.00124804,5.55421e-08,3,-12,0.720534,0.720534,-72.5542,-72.5542,0.26
0.778462,0.777767,0.648585,0.64691,-0.00154314,-3.04764e-05,-0.00128568,3.70281e-08,3,-11,0.701505,0.701505,-72.5258,-72.5258,0.264
0.778456,0.777767,0.64858,0.64691,-0.00158895,-2.03176e-05,-0.00132385,2.46854e-08,4,-11,0.68175,0.68175,-72.4992,-72.4992,0.268
0.77845,0.777767,0.648575,0.64691,-0.00163539,-1.35451e-05,-0.00136254,1.64569e-08,4,-11,0.660272,0.660272,-72.4745,-72.4745,0.272
0.778443,0.777767,0.648569,0.64691,-0.00168246,-9.03005e-06,-0.00140176,-2.878e-05,4,-11,0.637139,0.637139,-72.4516,-72.4516,0.276
0.778436,0.777766,0.648564,0.64691,-0.00173015,-3.4811e-05,-0.0014415,-1.91866e-05,5,-10,0.612444,0.612444,-72.4296,-72.4296,0.28
0.778429,0.777766,0.648558,0.64691,-0.00177847,-2.32073e-05,-0.00148176,-1.27911e-05,5,-10,0.586873,0.586873,-72.4099,-72.4099,0.284
0.778422,0.777766,0.648552,0.64691,-0.00182742,-1.54715e-05,-0.00152254,-8.52739e-06,6,-9,0.559448,0.559448,-72.3924,-72.3924,0.288
0.778415,0.777766,0.648545,0.64691,-0.00187699,-1.03144e-05,-0.00156383,-5.68493e-06,6,-9,0.530249,0.530249,-72.3772,-72.3772,0.292
0.778407,0.777766,0.648539,0.64691,-0.00192717,-3.56672e-05,-0.00160565,-3.78995e-06,6,-8,0.49938,0.49938,-72.3641,-72.3641,0.296
0.778399,0.777766,0.648533,0.64691,-0.00197798,-2.37781e-05,-0.00164798,-2.52664e-06,7,-8,0.467529,0.467529,-72.3532,-72.3532,0.3
0.778391,0.777766,0.648526,0.64691,-0.0020294,1.29389e-05,-0.00169082,-1.68442e-06,7,-7,0.433668,0.433668,-72.3445,-72.3445,0.304
0.778383,0.777766,0.648519,0.64691,-0.00208144,-2.0165e-05,-0.00173418,-1.12295e-06,8,-7,0.397268,0.397268,-72.3379,-72.3379,0.308
0.778374,0.777766,0.648512,0.64691,-0.00213409,-1.34433e-05,-0.00177804,-7.48633e-07,8,-6,0.360025,0.360025,-72.3336,-72.3336,0.312
0.778366,0.777766,0.648505,0.64691,-0.00218736,-8.96223e-06,-0.00182242,-4.99088e-07,8,-6,0.320896,0.320896,-72.3314,-72.3314,0.316
0.778357,0.777766,0.648498,0.64691,-0.00224123,-3.47657e-05,-0.00186731,-3.32726e-07,9,-5,0.279973,0.279973,-72.3315,-72.3315,0.32
0.778348,0.777766,0.64849,0.64691,-0.00229571,-2.31772e-05,-0.0019127,-2.21817e-07,9,-5,0.237942,0.237942,-72.3339,-72.3339,0.324
0.778339,0.777766,0.648482,0.64691,-0.0023508,-1.54514e-05,-0.0019586,-2.89388e-05,10,-4,0.193825,0.193825,-72.3385,-72.3385,0.328
0.778329,0.777766,0.648474,0.64691,-0.0024065,-1.0301e-05,-0.002005,-1.92925e-05,10,-4,0.147701,0.147701,-72.3443,-72.3443,0.332
0.778319,0.777766,0.648466,0.64691,-0.00246279,-6.86731e-06,-0.00205191,-1.28617e-05,11,-3,0.0996165,0.0996165,-72.3528,-72.3528,0.336
0.778309,0.777765,0.648458,0.64691,-0.00251969,-3.33691e-05,-0.00209931,-8.57446e-06,11,-2,0.0496496,0.0496496,-72.364,-72.364,0.34
0.778299,0.777765,0.648449,0.64691,-0.00257719,-2.22461e-05,-0.00214722,-5.71631e-06,12,-2,-0.00152511,-0.00152511,-72.3778,-72.3778,0.344
0.778289,0.777765,0.648441,0.646909,-0.00263529,-1.48307e-05,-0.00219563,-3.26018e-05,12,-2,-0.054891,-0.054891,-72.3941,-72.3941,0.348
0.778278,0.777765,0.648432,0.646909,-0.00269399,-9.88715e-06,-0.00224453,-2.17345e-05,13,-1,-0.110373,-0.110373,-72.4118,-72.4118,0.352
0.778267,0.777765,0.648423,0.646909,-0.00275328,-6.59143e-06,-0.00229393,-1.44897e-05,13,0,-0.167928,-0.167928,-72.4325,-72.4325,0.356
0.778256,0.777765,0.648413,0.646909,-0.00281316,-4.39429e-06,-0.00234382,-9.65979e-06,14,0,-0.227536,-0.227536,-72.456,-72.456,0.36
0.778245,0.777765,0.648404,0.646909,-0.00287364,-3.17205e-05,-0.00239421,-6.43986e-06,14,0,-0.289135,-0.289135,-72.4822,-72.4822,0.364
0.778233,0.777765,0.648394,0.646909,-0.0029347,-4.99379e-05,-0.00244508,-4.29324e-06,14,1,-0.352005,-0.352005,-72.5112,-72.5112,0.368
0.778221,0.777764,0.648384,0.646909,-0.00299636,-6.20829e-05,-0.00249645,-3.16531e-05,15,1,-0.416414,-0.416414,-72.5429,-72.5429,0.372
0.778209,0.777764,0.648374,0.646909,-0.0030586,-7.01795e-05,-0.00254831,7.68887e-06,15,2,-0.482548,-0.482548,-72.5762,-72.5762,0.376
0.778197,0.777764,0.648364,0.646909,-0.00312143,-4.67863e-05,-0.00260065,-2.3665e-05,16,2,-0.550594,-0.550594,-72.6137,-72.6137,0.38
0.778184,0.777764,0.648354,0.646909,-0.00318484,-3.11909e-05,-0.00265348,-1.57767e-05,17,3,-0.621373,-0.621373,-72.6527,-72.6527,0.384
0.778171,0.777764,0.648343,0.646909,-0.00324883,-2.07939e-05,-0.0027068,-1.05178e-05,17,4,-0.694701,-0.694701,-72.6947,-72.6947,0.388
0.778158,0.777764,0.648332,0.646909,-0.0033134,-4.26535e-05,-0.0027606,-7.01186e-06,18,5,-0.770405,-0.770405,-72.7398,-72.7398,0.392
0.778145,0.777763,0.648321,0.646909,-0.00337855,-8.60175e-05,-0.00281488,-4.67457e-06,18,5,-0.847637,-0.847637,-72.7878,-72.7878,0.396
0.778131,0.777763,0.648309,0.646909,-0.00344428,-8.6136e-05,-0.00286964,-3.11638e-06,19,6,-0.925948,-0.925948,-72.8388,-72.8388,0.4
0.778117,0.777762,0.648298,0.646909,-0.00351058,-0.000115006,-0.00292488,-2.07759e-06,19,7,-1.00642,-1.00642,-72.8927,-72.8927,0.404
0.778103,0.777761,0.648286,0.646909,-0.00357746,-0.000163043,-0.0029806,-1.38506e-06,19,7,-1.08829,-1.08829,-72.9495,-72.9495,0.408
0.778089,0.77776,0.648274,0.646909,-0.0036449,-0.000195068,-0.0030368,-9.23372e-07,20,8,-1.17111,-1.17111,-73.0094,-73.0094,0.412
0.778074,0.777759,0.648262,0.646909,-0.00371292,-0.000245209,-0.00309347,-6.15581e-07,20,9,-1.2553,-1.2553,-73.0722,-73.0722,0.416
0.778059,0.777757,0.648249,0.646909,-0.00378151,-0.000278637,-0.00315061,-4.10388e-07,20,10,-1.34042,-1.34042,-73.138,-73.138,0.42
0.778044,0.777755,0.648236,0.646909,-0.00385066,-0.000329712,-0.00320823,-2.73592e-07,21,10,-1.4269,-1.4269,-73.2069,-73.2069,0.424
0.778028,0.777753,0.648223,0.646909,-0.00392038,-0.000392554,-0.00326632,-1.82394e-07,21,11,-1.51428,-1.51428,-73.2788,-73.2788,0.428
0.778012,0.777751,0.64821,0.646909,-0.00399067,-0.000463239,-0.00332487,-1.21596e-07,21,12,-1.60225,-1.60225,-73.3539,-73.3539,0.432
0.777996,0.777748,0.648197,0.646909,-0.00406151,-0.000510362,-0.0033839,-2.8872e-05,21,13,-1.69067,-1.69067,-73.432,-73.432,0.436
0.77798,0.777746,0.648183,0.646908,-0.00413292,-0.000570569,-0.00344339,-4.80389e-05,22,13,-1.78015,-1.78015,-73.512,-73.512,0.44
0.777963,0.777743,0.648169,0.646907,-0.00420488,-0.000610707,-0.00350335,-0.000118399,22,13,-1.8704,-1.8704,-73.5943,-73.5943,0.444
0.777946,0.77774,0.648155,0.646906,-0.0042774,-0.000637465,-0.00356377,-0.000165305,23,14,-1.96199,-1.96199,-73.6769,-73.6769,0.448
0.777929,0.777737,0.648141,0.646905,-0.00435048,-0.000655304,-0.00362466,-0.000225367,23,14,-2.05529,-2.05529,-73.7606,-73.7606,0.452
0.777911,0.777735,0.648126,0.646904,-0.00442411,-0.000667197,-0.003686,-0.000207827,24,15,-2.15057,-2.15057,-73.8452,-73.8452,0.456
0.777893,0.777732,0.648111,0.646903,-0.0044983,-0.000646334,-0.00374781,-0.000196133,24,16,-2.24807,-2.24807,-73.9338,-73.9338,0.46
0.777875,0.777729,0.648096,0.646903,-0.00457303,-0.000661217,-0.00381008,-0.000130755,25,17,-2.34858,-2.34858,-74.0263,-74.0263,0.464
0.777857,0.777727,0.648081,0.646903,-0.00464831,-0.000613557,-0.0038728,-8.71702e-05,26,19,-2.45134,-2.45134,-74.125,-74.125,0.468
0.777838,0.777725,0.648065,0.646903,-0.00472414,-0.000610574,-0.00393598,-5.81135e-05,27,20,-2.55789,-2.55789,-74.2288,-74.2288,0.472
0.777819,0.777723,0.648049,0.646903,-0.00480052,-0.000608586,-0.00399961,-6.75332e-05,27,21,-2.6671,-2.6671,-74.3372,-74.3372,0.476
0.7778,0.77772,0.648033,0.646903,-0.00487744,-0.000607261,-0.0040637,-7.38131e-05,28,21,-2.77898,-2.77898,-74.4487,-74.4487,0.48
0.77778,0.777718,0.648017,0.646902,-0.0049549,-0.000606377,-0.00412824,-7.79996e-05,29,22,-2.89353,-2.89353,-74.5634,-74.5634,0.484
0.77776,0.777715,0.648,0.646902,-0.00503291,-0.000634579,-0.00419323,-8.07907e-05,29,23,-3.01071,-3.01071,-74.6815,-74.6815,0.488
0.77774,0.777712,0.647983,0.646902,-0.00511145,-0.00065338,-0.00425867,-8.26514e-05,30,24,-3.12981,-3.12981,-74.803,-74.803,0.492
0.777719,0.777709,0.647966,0.646901,-0.00519053,-0.000694705,-0.00432455,-0.000112683,31,25,-3.25106,-3.25106,-74.9279,-74.9279,0.496
0.777698,0.777706,0.647949,0.6469,-0.00527015,-0.000722255,-0.00439089,-0.000132704,31,25,-3.37391,-3.37391,-75.0552,-75.0552,0.5
0.777677,0.777704,0.647931,0.6469,-0.0053503,-0.00068304,-0.00445767,-0.000146051,32,26,-3.49887,-3.49887,-75.1852,-75.1852,0.504
0.777655,0.777701,0.647913,0.646899,-0.00543098,-0.000656896,-0.00452489,-0.000154949,33,27,-3.62767,-3.62767,-75.3184,-75.3184,0.508
0.777634,0.777698,0.647895,0.646898,-0.0055122,-0.000668258,-0.00459256,-0.000160881,34,28,-3.75992,-3.75992,-75.4549,-75.4549,0.512
0.777611,0.777695,0.647876,0.646898,-0.00559394,-0.000704624,-0.00466066,-0.000164836,34,29,-3.89463,-3.89463,-75.5949,-75.5949,0.516
0.777589,0.777691,0.647858,0.646896,-0.00567622,-0.000786449,-0.00472921,-0.000196263,35,30,-4.03109,-4.03109,-75.7384,-75.7384,0.52
0.777566,0.777687,0.647838,0.646895,-0.00575902,-0.000898582,-0.00479819,-0.000217215,35,31,-4.16809,-4.16809,-75.8844,-75.8844,0.524
0.777543,0.777682,0.647819,0.646894,-0.00584234,-0.00103092,-0.00486762,-0.000259974,35,31,-4.30483,-4.30483,-76.0333,-76.0333,0.528
0.777519,0.777675,0.6478,0.646893,-0.00592619,-0.00123431,-0.00493748,-0.00028848,34,32,-4.44065,-4.44065,-76.1842,-76.1842,0.532
0.777495,0.777668,0.64778,0.646891,-0.00601056,-0.00139869,-0.00500777,-0.000307483,34,33,-4.57381,-4.57381,-76.3377,-76.3377,0.536
0.777471,0.77766,0.647759,0.64689,-0.00609545,-0.00162344,-0.00507849,-0.000348944,33,33,-4.70519,-4.70519,-76.4943,-76.4943,0.54
0.777447,0.777651,0.647739,0.646888,-0.00618085,-0.00183086,-0.00514965,-0.000376584,33,34,-4.83327,-4.83327,-76.6531,-76.6531,0.544
0.777422,0.777641,0.647718,0.646886,-0.00626678,-0.00202672,-0.00522124,-0.00039501,32,35,-4.95853,-4.95853,-76.8147,-76.8147,0.548
0.777396,0.777633,0.647697,0.646883,-0.00635322,-0.00207092,-0.00529326,-0.000493668,33,35,-5.08155,-5.08155,-76.9792,-76.9792,0.552
0.777371,0.777623,0.647676,0.646881,-0.00644017,-0.00218676,-0.0053657,-0.000559439,33,36,-5.20611,-5.20611,-77.1437,-77.1437,0.556
0.777345,0.777613,0.647654,0.646877,-0.00652763,-0.00229278,-0.00543858,-0.000632078,33,36,-5.3304,-5.3304,-77.3093,-77.3093,0.56
0.777319,0.777603,0.647632,0.646874,-0.00661561,-0.00233466,-0.00551187,-0.000709294,33,36,-5.4548,-5.4548,-77.4758,-77.4758,0.564
0.777292,0.777593,0.64761,0.64687,-0.00670409,-0.00244896,-0.00558559,-0.000818354,34,36,-5.58084,-5.58084,-77.643,-77.643,0.568
0.777265,0.77758,0.647588,0.646865,-0.00679308,-0.00266911,-0.00565974,-0.000977433,33,36,-5.70647,-5.70647,-77.8094,-77.8094,0.572
0.777238,0.777566,0.647565,0.646858,-0.00688258,-0.00293105,-0.0057343,-0.00116986,32,35,-5.82889,-5.82889,-77.9731,-77.9731,0.576
0.77721,0.777551,0.647542,0.646851,-0.00697258,-0.00324962,-0.00580929,-0.00138452,31,34,-5.94689,-5.94689,-78.1326,-78.1326,0.58
0.777182,0.777534,0.647518,0.646843,-0.00706308,-0.00357717,-0.00588469,-0.00161399,30,33,-6.05901,-6.05901,-78.2869,-78.2869,0.584
0.777153,0.777516,0.647495,0.646835,-0.00715409,-0.00388191,-0.00596051,-0.00176698,29,32,-6.16503,-6.16503,-78.4357,-78.4357,0.588
0.777125,0.777498,0.647471,0.646826,-0.00724559,-0.00408507,-0.00603675,-0.00189776,28,32,-6.26573,-6.26573,-78.582,-78.582,0.592
0.777095,0.777481,0.647446,0.646818,-0.00733759,-0.00416292,-0.0061134,-0.00195615,28,33,-6.36396,-6.36396,-78.7269,-78.7269,0.596
0.777066,0.777463,0.647422,0.646809,-0.00743009,-0.00421483,-0.00619047,-0.00199508,29,33,-6.46301,-6.46301,-78.8735,-78.8735,0.6
0.777036,0.777445,0.647397,0.646801,-0.00752308,-0.00433581,-0.00626794,-0.00204983,29,34,-6.56341,-6.56341,-79.0224,-79.0224,0.604
0.777006,0.777428,0.647372,0.646793,-0.00761656,-0.00435887,-0.00634583,-0.00202874,29,35,-6.66361,-6.66361,-79.1733,-79.1733,0.608
0.776975,0.77741,0.647346,0.646785,-0.00771054,-0.00437425,-0.00642413,-0.00201469,30,37,-6.76615,-6.76615,-79.3292,-79.3292,0.612
0.776944,0.777392,0.64732,0.646777,-0.007805,-0.00438451,-0.00650283,-0.00200532,31,38,-6.87125,-6.87125,-79.4899,-79.4899,0.616
0.776913,0.777374,0.647294,0.646771,-0.00789996,-0.00442013,-0.00658194,-0.00185511,31,40,-6.97904,-6.97904,-79.6555,-79.6555,0.62
0.776881,0.777355,0.647268,0.646763,-0.0079954,-0.00453026,-0.00666146,-0.00184135,31,42,-7.08873,-7.08873,-79.8314,-79.8314,0.624
0.776849,0.777336,0.647241,0.646757,-0.00809132,-0.00463246,-0.00674138,-0.0017746,32,43,-7.19844,-7.19844,-80.0124,-80.0124,0.628
0.776816,0.777315,0.647214,0.64675,-0.00818773,-0.00484455,-0.00682171,-0.00178767,31,44,-7.30816,-7.30816,-80.2003,-80.2003,0.632
0.776783,0.777293,0.647186,0.646742,-0.00828462,-0.00507232,-0.00690243,-0.00185397,30,45,-7.41504,-7.41504,-80.392,-80.392,0.636
0.77675,0.777272,0.647159,0.646733,-0.00838199,-0.00513779,-0.00698356,-0.00195576,31,45,-7.51899,-7.51899,-80.5852,-80.5852,0.64
0.776716,0.777251,0.64713,0.646723,-0.00847984,-0.00515265,-0.00706508,-0.00210998,32,45,-7.62431,-7.62431,-80.7783,-80.7783,0.644
0.776682,0.77723,0.647102,0.646712,-0.00857817,-0.00519135,-0.00714701,-0.00232796,32,44,-7.73226,-7.73226,-80.9691,-80.9691,0.648
0.776648,0.777208,0.647073,0.646701,-0.00867697,-0.00524594,-0.00722933,-0.00247329,33,44,-7.84222,-7.84222,-81.1552,-81.1552,0.652
0.776613,0.777187,0.647044,0.646691,-0.00877625,-0.00528233,-0.00731204,-0.00251259,33,45,-7.95384,-7.95384,-81.3398,-81.3398,0.656
0.776577,0.777165,0.647015,0.646682,-0.008876,-0.00536417,-0.00739515,-0.00239483,34,47,-8.06753,-8.06753,-81.5275,-81.5275,0.66
0.776542,0.777142,0.646985,0.646676,-0.00897622,-0.00544752,-0.00747865,-0.00214358,34,51,-8.18211,-8.18211,-81.725,-81.725,0.664
0.776506,0.77712,0.646955,0.646672,-0.00907691,-0.00553188,-0.00756254,-0.00177454,34,55,-8.29758,-8.29758,-81.938,-81.938,0.668
0.776469,0.777096,0.646925,0.646669,-0.00917807,-0.0056745,-0.00764682,-0.00138457,34,61,-8.41379,-8.41379,-82.1715,-82.1715,0.672
0.776432,0.777072,0.646894,0.646668,-0.00927969,-0.00574078,-0.00773149,-0.000980626,35,66,-8.52942,-8.52942,-82.4264,-82.4264,0.676
0.776395,0.777049,0.646863,0.646668,-0.00938178,-0.00581376,-0.00781654,-0.000653751,35,70,-8.64643,-8.64643,-82.7033,-82.7033,0.68
0.776357,0.777025,0.646831,0.646668,-0.00948433,-0.00580483,-0.00790199,-0.000464625,36,74,-8.76481,-8.76481,-82.9987,-82.9987,0.684
0.776319,0.777004,0.646799,0.646668,-0.00958735,-0.00568372,-0.00798781,-0.000338541,37,76,-8.88692,-8.88692,-83.3072,-83.3072,0.688
0.77628,0.776982,0.646767,0.646667,-0.00969082,-0.00557418,-0.00807403,-0.000283276,39,78,-9.01566,-9.01566,-83.6259,-83.6259,0.692
0.776241,0.77696,0.646735,0.646666,-0.00979475,-0.00552995,-0.00816062,-0.000275223,40,80,-9.15064,-9.15064,-83.9521,-83.9521,0.696
0.776202,0.776939,0.646702,0.646664,-0.00989914,-0.00547167,-0.00824759,-0.000327437,41,81,-9.29024,-9.29024,-84.2836,-84.2836,0.7
0.776162,0.776918,0.646669,0.646662,-0.010004,-0.00537524,-0.00833494,-0.000391037,43,82,-9.43494,-9.43494,-84.6181,-84.6181,0.704
0.776122,0.776899,0.646635,0.64666,-0.0101093,-0.00519578,-0.00842268,-0.000462228,45,83,-9.5859,-9.5859,-84.9552,-84.9552,0.708
0.776081,0.776882,0.646601,0.646657,-0.010215,-0.00487461,-0.00851078,-0.000509688,48,84,-9.7456,-9.7456,-85.2945,-85.2945,0.712
0.77604,0.776867,0.646567,0.646655,-0.0103212,-0.00451654,-0.00859927,-0.00057012,51,85,-9.91781,-9.91781,-85.637,-85.637,0.716
0.775999,0.776853,0.646533,0.646652,-0.0104279,-0.00413387,-0.00868813,-0.000610407,55,86,-10.1036,-10.1036,-85.9824,-85.9824,0.72
0.775957,0.776841,0.646498,0.646649,-0.010535,-0.0037636,-0.00877736,-0.000637265,58,87,-10.3036,-10.3036,-86.3314,-86.3314,0.724
0.775914,0.776831,0.646462,0.646647,-0.0106425,-0.003344,-0.00886696,-0.00062638,62,89,-10.5177,-10.5177,-86.6846,-86.6846,0.728
0.775872,0.776823,0.646427,0.646645,-0.0107505,-0.00289153,-0.00895693,-0.000561541,66,91,-10.7474,-10.7474,-87.0439,-87.0439,0.732
0.775828,0.776818,0.646391,0.646643,-0.010859,-0.00238834,-0.00904728,-0.000518316,70,93,-10.9936,-10.9936,-87.4113,-87.4113,0.736
0.775785,0.776813,0.646354,0.646642,-0.0109678,-0.00202409,-0.00913799,-0.000489498,73,95,-11.2574,-11.2574,-87.786,-87.786,0.74
0.775741,0.77681,0.646318,0.646639,-0.0110772,-0.00157972,-0.00922907,-0.000499078,77,97,-11.5356,-11.5356,-88.1674,-88.1674,0.744
0.775696,0.776807,0.646281,0.646636,-0.0111869,-0.00125468,-0.00932051,-0.000591837,81,97,-11.83,-11.83,-88.5537,-88.5537,0.748
0.775651,0.776805,0.646243,0.646634,-0.0112971,-0.0010092,-0.00941232,-0.000624885,84,99,-12.1374,-12.1374,-88.9418,-88.9418,0.752
0.775606,0.776804,0.646205,0.64663,-0.0114077,-0.000787965,-0.00950449,-0.00073329,86,99,-12.4559,-12.4559,-89.3339,-89.3339,0.756
0.77556,0.776802,0.646167,0.646625,-0.0115188,-0.000698055,-0.00959702,-0.000863142,88,100,-12.7846,-12.7846,-89.7269,-89.7269,0.76
0.775514,0.7768,0.646129,0.646621,-0.0116303,-0.000609325,-0.00968991,-0.000892128,90,101,-13.1202,-13.1202,-90.1202,-90.1202,0.764
0.775467,0.776798,0.64609,0.646616,-0.0117422,-0.000607753,-0.00978316,-0.00105541,91,101,-13.4625,-13.4625,-90.5177,-90.5177,0.768
0.77542,0.776795,0.64605,0.646611,-0.0118546,-0.000635496,-0.00987677,-0.00110668,93,102,-13.8092,-13.8092,-90.914,-90.914,0.772
0.775372,0.776792,0.646011,0.646607,-0.0119673,-0.000653991,-0.00997074,-0.00111207,94,104,-14.1597,-14.1597,-91.314,-91.314,0.776
0.775324,0.776788,0.645971,0.646601,-0.0120805,-0.000781485,-0.0100651,-0.00123082,94,104,-14.5139,-14.5139,-91.7192,-91.7192,0.78
0.775275,0.776785,0.64593,0.646596,-0.0121942,-0.0008089,-0.0101597,-0.00125241,96,106,-14.8694,-14.8694,-92.1252,-92.1252,0.784
0.775226,0.77678,0.645889,0.64659,-0.0123082,-0.000942339,-0.0102548,-0.0012956,96,107,-15.2284,-15.2284,-92.5361,-92.5361,0.788
0.775177,0.776774,0.645848,0.646585,-0.0124227,-0.00114646,-0.0103501,-0.0012668,96,109,-15.5881,-15.5881,-92.951,-92.951,0.792
0.775127,0.776767,0.645806,0.64658,-0.0125376,-0.00131134,-0.0104459,-0.0012764,97,111,-15.9467,-15.9467,-93.3728,-93.3728,0.796
0.775077,0.77676,0.645764,0.646576,-0.0126529,-0.00145004,-0.0105419,-0.00122522,97,113,-16.3055,-16.3055,-93.8003,-93.8003,0.8
0.775026,0.776753,0.645722,0.646572,-0.0127687,-0.00154251,-0.0106384,-0.00113351,98,116,-16.665,-16.665,-94.2358,-94.2358,0.804
0.774974,0.776745,0.645679,0.646568,-0.0128848,-0.00169053,-0.0107351,-0.00110116,98,118,-17.0265,-17.0265,-94.6811,-94.6811,0.808
0.774923,0.776738,0.645636,0.646564,-0.0130014,-0.00176042,-0.0108323,-0.000993228,99,121,-17.3886,-17.3886,-95.1339,-95.1339,0.812
0.77487,0.776731,0.645593,0.646562,-0.0131184,-0.00172064,-0.0109297,-0.000863689,101,124,-17.7535,-17.7535,-95.5974,-95.5974,0.816
0.774818,0.776725,0.645549,0.646561,-0.0132358,-0.00160775,-0.0110275,-0.000690956,103,127,-18.1244,-18.1244,-96.0725,-96.0725,0.82
0.774765,0.776721,0.645504,0.646559,-0.0133536,-0.00147491,-0.0111257,-0.000633383,105,130,-18.503,-18.503,-96.5609,-96.5609,0.824
0.774711,0.776718,0.64546,0.646557,-0.0134718,-0.00124239,-0.0112242,-0.00056621,108,132,-18.8903,-18.8903,-97.058,-97.058,0.828
0.774657,0.776716,0.645415,0.646555,-0.0135904,-0.000972214,-0.011323,-0.000521428,112,135,-19.2888,-19.2888,-97.5641,-97.5641,0.832
0.774602,0.776715,0.645369,0.646553,-0.0137094,-0.000676934,-0.0114222,-0.000520364,115,137,-19.6996,-19.6996,-98.0783,-98.0783,0.836
0.774547,0.776715,0.645323,0.646551,-0.0138288,-0.000451289,-0.0115216,-0.000519655,118,139,-20.1233,-20.1233,-98.5989,-98.5989,0.84
0.774492,0.776715,0.645277,0.646549,-0.0139486,-0.000300859,-0.0116215,-0.000490391,120,141,-20.5581,-20.5581,-99.1259,-99.1259,0.844
0.774436,0.776715,0.64523,0.646546,-0.0140689,-0.000229364,-0.0117217,-0.000586046,122,142,-21.0019,-21.0019,-99.6602,-99.6602,0.848
0.774379,0.776715,0.645183,0.646543,-0.0141895,-0.0001817,-0.0118222,-0.000649816,124,143,-21.4526,-21.4526,-100.197,-100.197,0.852
0.774322,0.776714,0.645136,0.64654,-0.0143105,-0.000178715,-0.011923,-0.000663538,126,145,-21.9096,-21.9096,-100.738,-100.738,0.856
0.774265,0.776713,0.645088,0.646537,-0.0144319,-0.000205516,-0.0120242,-0.000730268,127,147,-22.3717,-22.3717,-101.284,-101.284,0.86
0.774207,0.776711,0.64504,0.646534,-0.0145538,-0.000309756,-0.0121256,-0.000745963,128,148,-22.838,-22.838,-101.834,-101.834,0.864
0.774148,0.776709,0.644991,0.64653,-0.014676,-0.000408041,-0.0122275,-0.000814009,129,150,-23.3066,-23.3066,-102.39,-102.39,0.868
0.774089,0.776706,0.644942,0.646526,-0.0147986,-0.000502355,-0.0123296,-0.000859373,130,151,-23.7775,-23.7775,-102.949,-102.949,0.872
0.77403,0.776703,0.644892,0.646523,-0.0149216,-0.00053644,-0.0124321,-0.000860825,132,153,-24.2512,-24.2512,-103.513,-103.513,0.876
0.77397,0.776701,0.644842,0.646518,-0.0150449,-0.000587954,-0.0125349,-0.000976956,133,154,-24.729,-24.729,-104.084,-104.084,0.88
0.773909,0.776699,0.644792,0.646513,-0.0151687,-0.000535924,-0.012638,-0.00108317,135,155,-25.2108,-25.2108,-104.656,-104.656,0.884
0.773848,0.776697,0.644741,0.646507,-0.0152929,-0.000472446,-0.0127414,-0.00118277,137,157,-25.6992,-25.6992,-105.23,-105.23,0.888
0.773787,0.776695,0.64469,0.646501,-0.0154174,-0.00048771,-0.0128452,-0.00130675,139,157,-26.1945,-26.1945,-105.807,-105.807,0.892
0.773725,0.776693,0.644638,0.646494,-0.0155423,-0.000497885,-0.0129493,-0.00144698,140,158,-26.6947,-26.6947,-106.385,-106.385,0.896
0.773663,0.776691,0.644586,0.646486,-0.0156676,-0.00053346,-0.0130537,-0.00162685,142,158,-27.1999,-27.1999,-106.963,-106.963,0.9
0.7736,0.776689,0.644534,0.646477,-0.0157933,-0.000528386,-0.0131584,-0.00180434,144,159,-27.7095,-27.7095,-107.541,-107.541,0.904
0.773536,0.776686,0.644481,0.646467,-0.0159194,-0.000582584,-0.0132634,-0.00206662,145,158,-28.2244,-28.2244,-108.117,-108.117,0.908
0.773472,0.776684,0.644428,0.646457,-0.0160458,-0.000561135,-0.0133688,-0.00218389,147,159,-28.7434,-28.7434,-108.689,-108.689,0.912
0.773408,0.776682,0.644374,0.646447,-0.0161726,-0.000575627,-0.0134744,-0.00231966,149,160,-29.2683,-29.2683,-109.263,-109.263,0.916
0.773343,0.776679,0.64432,0.646438,-0.0162998,-0.000614078,-0.0135804,-0.00232379,150,162,-29.7982,-29.7982,-109.838,-109.838,0.92
0.773278,0.776676,0.644266,0.646429,-0.0164274,-0.000668504,-0.0136867,-0.00224018,151,165,-30.3324,-30.3324,-110.419,-110.419,0.924
0.773212,0.776672,0.644211,0.646422,-0.0165553,-0.000762369,-0.0137933,-0.00206927,153,169,-30.8706,-30.8706,-111.011,-111.011,0.928
0.773145,0.776668,0.644155,0.646416,-0.0166836,-0.000853737,-0.0139002,-0.00195533,154,172,-31.4116,-31.4116,-111.617,-111.617,0.932
0.773078,0.776663,0.644099,0.646409,-0.0168123,-0.000972231,-0.0140074,-0.00185058,155,175,-31.9555,-31.9555,-112.235,-112.235,0.936
0.773011,0.776657,0.644043,0.646403,-0.0169413,-0.0011376,-0.0141149,-0.00175196,156,178,-32.5016,-32.5016,-112.864,-112.864,0.94
0.772943,0.776651,0.643986,0.646397,-0.0170707,-0.00124785,-0.0142227,-0.00165742,157,182,-33.0487,-33.0487,-113.504,-113.504,0.944
0.772874,0.776645,0.643929,0.64639,-0.0172005,-0.00137892,-0.0143308,-0.00165197,158,184,-33.5982,-33.5982,-114.155,-114.155,0.948
0.772805,0.776638,0.643872,0.646383,-0.0173306,-0.0014951,-0.0144392,-0.00170592,159,186,-34.1497,-34.1497,-114.813,-114.813,0.952
0.772735,0.776631,0.643814,0.646374,-0.0174611,-0.00154376,-0.014548,-0.00188585,160,186,-34.7037,-34.7037,-115.476,-115.476,0.956
0.772665,0.776625,0.643755,0.646365,-0.017592,-0.0015762,-0.014657,-0.0020058,162,187,-35.2619,-35.2619,-116.138,-116.138,0.96
0.772595,0.776618,0.643697,0.646354,-0.0177232,-0.00156904,-0.0147663,-0.00222972,164,187,-35.8249,-35.8249,-116.802,-116.802,0.964
0.772524,0.776613,0.643637,0.646343,-0.0178548,-0.00147789,-0.0148759,-0.00246537,166,187,-36.3939,-36.3939,-117.463,-117.463,0.968
0.772452,0.776609,0.643578,0.64633,-0.0179867,-0.00133075,-0.0149858,-0.00270884,169,187,-36.9711,-36.9711,-118.121,-118.121,0.972
0.77238,0.776605,0.643517,0.646318,-0.018119,-0.00120387,-0.015096,-0.002756,172,189,-37.5581,-37.5581,-118.777,-118.777,0.976
0.772307,0.776604,0.643457,0.646309,-0.0182516,-0.000946533,-0.0152065,-0.00261469,175,193,-38.1546,-38.1546,-119.438,-119.438,0.98
0.772234,0.776602,0.643396,0.646302,-0.0183846,-0.000774976,-0.0153173,-0.00237652,178,197,-38.7639,-38.7639,-120.112,-120.112,0.984
0.77216,0.7766,0.643334,0.646294,-0.0185179,-0.000631815,-0.0154284,-0.00218896,181,201,-39.3836,-39.3836,-120.804,-120.804,0.988
0.772085,0.776599,0.643272,0.646287,-0.0186516,-0.000507583,-0.0155398,-0.00203512,184,205,-40.0132,-40.0132,-121.51,-121.51,0.992
0.772011,0.776598,0.64321,0.646281,-0.0187856,-0.000424761,-0.0156515,-0.00190378,186,209,-40.6521,-40.6521,-122.231,-122.231,0.996
0.771935,0.776596,0.643147,0.646273,-0.01892,-0.00045592,-0.0157634,-0.00193138,188,211,-41.299,-41.299,-122.964,-122.964,1
0.771859,0.776595,0.643084,0.646264,-0.0190547,-0.00041911,-0.0158756,-0.00203615,190,212,-41.9512,-41.9512,-123.703,-123.703,1.004
0.771783,0.776592,0.64302,0.646253,-0.0191897,-0.000509734,-0.0159882,-0.00224995,192,213,-42.6102,-42.6102,-124.445,-124.445,1.008
0.771706,0.776589,0.642956,0.646241,-0.0193251,-0.00057015,-0.016101,-0.00247886,194,213,-43.2728,-43.2728,-125.185,-125.185,1.012
0.771628,0.776586,0.642891,0.646228,-0.0194609,-0.000639218,-0.0162141,-0.00274663,195,213,-43.9397,-43.9397,-125.923,-125.923,1.016
0.77155,0.776583,0.642826,0.646214,-0.019597,-0.000714055,-0.0163274,-0.0030403,197,212,-44.6108,-44.6108,-126.657,-126.657,1.02
0.771471,0.776578,0.642761,0.646199,-0.0197334,-0.00087911,-0.0164411,-0.00329367,198,212,-45.2858,-45.2858,-127.386,-127.386,1.024
0.771392,0.776573,0.642695,0.646184,-0.0198701,-0.000989146,-0.016555,-0.003405,199,214,-45.9624,-45.9624,-128.112,-128.112,1.028
0.771312,0.776568,0.642628,0.646171,-0.0200072,-0.00112009,-0.0166692,-0.00339285,200,216,-46.6421,-46.6421,-128.84,-128.84,1.032
0.771232,0.776561,0.642561,0.646156,-0.0201446,-0.00126496,-0.0167837,-0.00344232,202,218,-47.3242,-47.3242,-129.576,-129.576,1.036
0.771151,0.776554,0.642494,0.646141,-0.0202824,-0.00141913,-0.0168985,-0.00359047,203,219,-48.0084,-48.0084,-130.318,-130.318,1.04
0.77107,0.776546,0.642426,0.646123,-0.0204204,-0.00163707,-0.0170135,-0.00386199,203,219,-48.6944,-48.6944,-131.06,-131.06,1.044
0.770988,0.776538,0.642358,0.646106,-0.0205588,-0.00178236,-0.0171288,-0.0040142,205,220,-49.3807,-49.3807,-131.799,-131.799,1.048
0.770905,0.776529,0.642289,0.646088,-0.0206976,-0.00196559,-0.0172444,-0.00414447,205,221,-50.069,-50.069,-132.538,-132.538,1.052
0.770822,0.776521,0.64222,0.646071,-0.0208366,-0.00197259,-0.0173603,-0.00423132,208,222,-50.7588,-50.7588,-133.28,-133.28,1.056
0.770739,0.776513,0.64215,0.646054,-0.020976,-0.00194846,-0.0174764,-0.00420284,210,225,-51.4546,-51.4546,-134.025,-134.025,1.06
0.770654,0.776507,0.64208,0.646037,-0.0211157,-0.00181721,-0.0175928,-0.00427023,213,227,-52.1575,-52.1575,-134.779,-134.779,1.064
0.77057,0.776502,0.64201,0.646018,-0.0212557,-0.00161455,-0.0177095,-0.00437274,216,228,-52.8704,-52.8704,-135.537,-135.537,1.068
0.770484,0.7765,0.641938,0.645998,-0.021396,-0.0012779,-0.0178264,-0.00464262,220,228,-53.5956,-53.5956,-136.299,-136.299,1.072
0.770399,0.776498,0.641867,0.645976,-0.0215367,-0.000967097,-0.0179436,-0.00488011,225,228,-54.3363,-54.3363,-137.056,-137.056,1.076
0.770312,0.776498,0.641795,0.645954,-0.0216777,-0.000673522,-0.018061,-0.00512482,229,229,-55.0921,-55.0921,-137.811,-137.811,1.08
0.770225,0.776498,0.641722,0.64593,-0.021819,-0.000449015,-0.0181787,-0.00540312,232,228,-55.8624,-55.8624,-138.563,-138.563,1.084
0.770138,0.776498,0.641649,0.645905,-0.0219606,-0.000270552,-0.0182967,-0.00570382,236,228,-56.6453,-56.6453,-139.31,-139.31,1.088
0.770049,0.776497,0.641576,0.645878,-0.0221025,-0.000266741,-0.018415,-0.00599066,238,227,-57.4395,-57.4395,-140.052,-140.052,1.092
0.769961,0.776496,0.641502,0.645851,-0.0222447,-0.000235409,-0.0185335,-0.00626825,240,227,-58.2405,-58.2405,-140.789,-140.789,1.096
0.769872,0.776495,0.641428,0.645824,-0.0223873,-0.000243312,-0.0186522,-0.00642453,243,228,-59.0489,-59.0489,-141.522,-141.522,1.1
0.769782,0.776494,0.641353,0.6458,-0.0225301,-0.000277372,-0.0187712,-0.00632717,245,231,-59.8638,-59.8638,-142.256,-142.256,1.104
0.769691,0.776492,0.641278,0.645776,-0.0226733,-0.000386451,-0.0188905,-0.0061759,247,235,-60.6843,-60.6843,-143.002,-143.002,1.108
0.7696,0.77649,0.641202,0.645756,-0.0228167,-0.00043038,-0.01901,-0.00575835,249,242,-61.5087,-61.5087,-143.763,-143.763,1.112
0.769509,0.776487,0.641126,0.645737,-0.0229605,-0.000459665,-0.0191298,-0.0054224,251,248,-62.3387,-62.3387,-144.549,-144.549,1.116
0.769417,0.776485,0.641049,0.645722,-0.0231046,-0.000479189,-0.0192498,-0.00488173,253,255,-63.1746,-63.1746,-145.357,-145.357,1.12
0.769324,0.776483,0.640972,0.645712,-0.0232489,-0.000520996,-0.0193701,-0.00411822,255,265,-64.0168,-64.0168,-146.197,-146.197,1.124
0.769231,0.776481,0.640894,0.645705,-0.0233936,-0.000548867,-0.0194907,-0.00335009,257,276,-64.8646,-64.8646,-147.078,-147.078,1.128
0.769137,0.776478,0.640816,0.645701,-0.0235386,-0.000538657,-0.0196114,-0.0025213,260,287,-65.7185,-65.7185,-147.999,-147.999,1.132
0.769042,0.776477,0.640737,0.645699,-0.0236838,-0.000503059,-0.0197325,-0.00182482,262,296,-66.5797,-66.5797,-148.964,-148.964,1.136
0.768947,0.776475,0.640658,0.645699,-0.0238294,-0.000450537,-0.0198537,-0.00124534,265,305,-67.4488,-67.4488,-149.967,-149.967,1.14
0.768852,0.776474,0.640578,0.645697,-0.0239752,-0.000415521,-0.0199753,-0.000974181,268,310,-68.3261,-68.3261,-151.003,-151.003,1.144
0.768755,0.776473,0.640498,0.645695,-0.0241214,-0.000363387,-0.020097,-0.00085099,271,315,-69.2115,-69.2115,-152.058,-152.058,1.148
0.768659,0.776471,0.640417,0.645691,-0.0242678,-0.000443794,-0.020219,-0.000884027,273,317,-70.105,-70.105,-153.128,-153.128,1.152
0.768561,0.776468,0.640336,0.645685,-0.0244146,-0.000497399,-0.0203413,-0.0010788,275,319,-71.0033,-71.0033,-154.204,-154.204,1.156
0.768463,0.776465,0.640255,0.645677,-0.0245616,-0.000590718,-0.0204638,-0.00141018,277,319,-71.9071,-71.9071,-155.281,-155.281,1.16
0.768365,0.776461,0.640172,0.645667,-0.0247089,-0.000710512,-0.0205865,-0.00177506,278,318,-72.8153,-72.8153,-156.353,-156.353,1.164
0.768266,0.776456,0.64009,0.645655,-0.0248565,-0.000905539,-0.0207095,-0.00216226,280,317,-73.7271,-73.7271,-157.418,-157.418,1.168
0.768166,0.77645,0.640007,0.645641,-0.0250043,-0.00109314,-0.0208327,-0.00262194,281,316,-74.6405,-74.6405,-158.475,-158.475,1.172
0.768066,0.776443,0.639923,0.645626,-0.0251525,-0.00130458,-0.0209561,-0.00295718,282,316,-75.5558,-75.5558,-159.521,-159.521,1.176
0.767965,0.776434,0.639839,0.645613,-0.025301,-0.00167586,-0.0210798,-0.00312309,282,317,-76.472,-76.472,-160.562,-160.562,1.18
0.767863,0.776424,0.639755,0.645602,-0.0254497,-0.00195218,-0.0212037,-0.00300337,283,321,-77.3851,-77.3851,-161.606,-161.606,1.184
0.767761,0.776412,0.63967,0.645593,-0.0255987,-0.00228034,-0.0213278,-0.00269323,284,327,-78.2975,-78.2975,-162.664,-162.664,1.188
0.767658,0.776398,0.639584,0.645587,-0.025748,-0.00267187,-0.0214522,-0.00231372,284,334,-79.2077,-79.2077,-163.744,-163.744,1.192
0.767555,0.776383,0.639498,0.645583,-0.0258975,-0.00299046,-0.0215768,-0.00191676,284,341,-80.1142,-80.1142,-164.849,-164.849,1.196
0.767451,0.776368,0.639411,0.645579,-0.0260473,-0.00328923,-0.0217017,-0.00156575,285,348,-81.019,-81.019,-165.981,-165.981,1.2
0.767347,0.776352,0.639324,0.645577,-0.0261975,-0.00348841,-0.0218267,-0.00124537,286,354,-81.9225,-81.9225,-167.136,-167.136,1.204
0.767242,0.776335,0.639237,0.645575,-0.0263478,-0.00373636,-0.021952,-0.00100299,287,360,-82.8275,-82.8275,-168.314,-168.314,1.208
0.767136,0.776319,0.639149,0.645571,-0.0264985,-0.00387287,-0.0220775,-0.000985362,289,363,-83.7327,-83.7327,-169.511,-169.511,1.212
0.76703,0.776302,0.63906,0.645566,-0.0266494,-0.00396388,-0.0222033,-0.00103119,291,366,-84.6413,-84.6413,-170.718,-170.718,1.216
0.766923,0.776285,0.638971,0.64556,-0.0268006,-0.00411092,-0.0223292,-0.00123449,292,368,-85.5541,-85.5541,-171.933,-171.933,1.22
0.766815,0.776266,0.638881,0.645552,-0.026952,-0.00429533,-0.0224554,-0.00148518,293,368,-86.4699,-86.4699,-173.148,-173.148,1.224
0.766707,0.776247,0.638791,0.645541,-0.0271038,-0.00447584,-0.0225818,-0.00191143,295,368,-87.3875,-87.3875,-174.361,-174.361,1.228
0.766599,0.776227,0.638701,0.645528,-0.0272558,-0.00462498,-0.0227085,-0.00231076,296,367,-88.3072,-88.3072,-175.566,-175.566,1.232
0.766489,0.776205,0.63861,0.645515,-0.027408,-0.00489715,-0.0228353,-0.00263456,297,367,-89.2295,-89.2295,-176.763,-176.763,1.236
0.766379,0.776181,0.638518,0.6455,-0.0275605,-0.00525134,-0.0229624,-0.00299438,297,367,-90.1512,-90.1512,-177.955,-177.955,1.24
0.766269,0.776154,0.638426,0.645487,-0.0277133,-0.00577538,-0.0230897,-0.00309031,297,369,-91.0697,-91.0697,-179.143,-179.143,1.244
0.766158,0.776122,0.638333,0.645475,-0.0278663,-0.00649902,-0.0232172,-0.00306789,295,373,-91.9802,-91.9802,-180.335,-180.335,1.248
0.766046,0.776085,0.63824,0.645465,-0.0280196,-0.00741331,-0.0233449,-0.00290899,291,378,-92.8773,-92.8773,-181.538,-181.538,1.252
0.765933,0.776043,0.638147,0.645454,-0.0281731,-0.00848349,-0.0234728,-0.00286063,287,382,-93.7555,-93.7555,-182.757,-182.757,1.256
0.76582,0.775993,0.638052,0.645441,-0.0283269,-0.00983034,-0.0236009,-0.00300115,281,384,-94.6102,-94.6102,-183.987,-183.987,1.26
0.765707,0.775935,0.637958,0.645426,-0.028481,-0.0113329,-0.0237293,-0.00323877,274,385,-95.4339,-95.4339,-185.221,-185.221,1.264
0.765593,0.77587,0.637863,0.645405,-0.0286353,-0.0130255,-0.0238578,-0.00385785,265,382,-96.222,-96.222,-186.452,-186.452,1.268
0.765478,0.775795,0.637767,0.64538,-0.0287898,-0.0149025,-0.0239866,-0.00470243,256,377,-96.969,-96.969,-187.667,-187.667,1.272
0.765362,0.775711,0.637671,0.645348,-0.0289447,-0.01696,-0.0241156,-0.00575492,245,370,-97.6697,-97.6697,-188.853,-188.853,1.276
0.765246,0.775617,0.637574,0.64531,-0.0290997,-0.0191378,-0.0242448,-0.0070612,233,361,-98.3189,-98.3189,-190.004,-190.004,1.28
0.765129,0.775515,0.637477,0.645262,-0.029255,-0.0212806,-0.0243742,-0.00870941,222,348,-98.9135,-98.9135,-191.107,-191.107,1.284
0.765012,0.775404,0.637379,0.645203,-0.0294105,-0.023429,-0.0245038,-0.0106719,210,332,-99.4539,-99.4539,-192.147,-192.147,1.288
0.764894,0.775282,0.637281,0.645136,-0.0295663,-0.0257249,-0.0246336,-0.0127001,197,315,-99.9395,-99.9395,-193.112,-193.112,1.292
0.764776,0.775154,0.637182,0.645059,-0.0297224,-0.0278602,-0.0247636,-0.0149159,185,296,-100.367,-100.367,-193.998,-193.998,1.296
0.764656,0.775018,0.637083,0.64497,-0.0298786,-0.0299171,-0.0248938,-0.0173432,174,275,-100.739,-100.739,-194.797,-194.797,1.3
0.764537,0.774874,0.636983,0.644873,-0.0300352,-0.0319505,-0.0250242,-0.0196812,162,254,-101.059,-101.059,-195.499,-195.499,1.304
0.764416,0.774724,0.636882,0.644766,-0.0301919,-0.0337956,-0.0251548,-0.0219884,152,234,-101.328,-101.328,-196.108,-196.108,1.308
0.764295,0.774567,0.636782,0.644652,-0.0303489,-0.0356015,-0.0252856,-0.0241887,141,214,-101.549,-101.549,-196.626,-196.626,1.312
0.764173,0.774404,0.63668,0.64453,-0.0305061,-0.0372661,-0.0254165,-0.026289,132,196,-101.723,-101.723,-197.056,-197.056,1.316
0.764051,0.774233,0.636578,0.644403,-0.0306636,-0.0391531,-0.0255477,-0.0281211,121,179,-101.855,-101.855,-197.402,-197.402,1.32
0.763928,0.774066,0.636476,0.644276,-0.0308213,-0.0400369,-0.0256791,-0.0293136,116,169,-101.94,-101.94,-197.677,-197.677,1.324
0.763804,0.773888,0.636373,0.644143,-0.0309792,-0.041461,-0.0258107,-0.0305981,108,158,-102.002,-102.002,-197.905,-197.905,1.328
0.76368,0.773708,0.636269,0.64401,-0.0311374,-0.0426695,-0.0259425,-0.0315121,101,150,-102.029,-102.029,-198.085,-198.085,1.332
0.763555,0.773523,0.636165,0.643872,-0.0312958,-0.0438495,-0.0260744,-0.0324956,94,142,-102.025,-102.025,-198.229,-198.229,1.336
0.76343,0.773338,0.636061,0.643735,-0.0314544,-0.0446937,-0.0262066,-0.0331225,90,137,-101.991,-101.991,-198.337,-198.337,1.34
0.763304,0.773148,0.635956,0.643597,-0.0316132,-0.045602,-0.0263389,-0.0335405,84,134,-101.937,-101.937,-198.423,-198.423,1.344
0.763177,0.772956,0.63585,0.643457,-0.0317723,-0.0464091,-0.0264715,-0.0340494,80,130,-101.86,-101.86,-198.496,-198.496,1.348
0.763049,0.77276,0.635744,0.643315,-0.0319316,-0.0472351,-0.0266042,-0.0345327,75,126,-101.763,-101.763,-198.55,-198.55,1.352
0.762921,0.772566,0.635637,0.643171,-0.0320911,-0.0476993,-0.0267371,-0.03497,73,123,-101.647,-101.647,-198.589,-198.589,1.356
0.762793,0.772366,0.63553,0.643028,-0.0322508,-0.0484119,-0.0268702,-0.0352904,69,121,-101.519,-101.519,-198.613,-198.613,1.36
0.762663,0.772167,0.635422,0.642882,-0.0324108,-0.0488582,-0.0270034,-0.0356479,66,118,-101.375,-101.375,-198.627,-198.627,1.364
0.762533,0.771964,0.635314,0.642734,-0.032571,-0.04953,-0.0271369,-0.0361166,62,115,-101.22,-101.22,-198.63,-198.63,1.368
0.762403,0.771762,0.635205,0.642588,-0.0327314,-0.0498627,-0.0272705,-0.0362851,61,114,-101.049,-101.049,-198.617,-198.617,1.372
0.762272,0.771558,0.635096,0.642436,-0.032892,-0.0502572,-0.0274044,-0.0368005,58,110,-100.872,-100.872,-198.6,-198.6,1.376
0.76214,0.771352,0.634986,0.642287,-0.0330528,-0.0506354,-0.0275383,-0.0370001,56,109,-100.685,-100.685,-198.566,-198.566,1.38
0.762007,0.771149,0.634875,0.642138,-0.0332138,-0.050686,-0.0276725,-0.0370756,56,109,-100.491,-100.491,-198.528,-198.528,1.384
0.761874,0.770941,0.634765,0.641988,-0.0333751,-0.0511516,-0.0278069,-0.0372123,54,108,-100.296,-100.296,-198.49,-198.49,1.388
0.76174,0.77073,0.634653,0.641831,-0.0335366,-0.0516635,-0.0279414,-0.0378505,51,103,-100.091,-100.091,-198.449,-198.449,1.392
0.761606,0.770528,0.634541,0.641681,-0.0336982,-0.0512563,-0.0280761,-0.0377865,54,104,-99.8757,-99.8757,-198.386,-198.386,1.396
0.761471,0.770321,0.634428,0.641528,-0.0338601,-0.0514166,-0.028211,-0.0378878,53,104,-99.6726,-99.6726,-198.329,-198.329,1.4
0.761335,0.770116,0.634315,0.641371,-0.0340222,-0.0514083,-0.028346,-0.0383584,53,100,-99.4675,-99.4675,-198.271,-198.271,1.404
0.761198,0.769907,0.634202,0.641214,-0.0341845,-0.0516907,-0.0284812,-0.0387009,52,98,-99.2643,-99.2643,-198.197,-198.197,1.408
0.761061,0.769701,0.634087,0.641051,-0.034347,-0.0515623,-0.0286166,-0.0393036,53,93,-99.0563,-99.0563,-198.111,-198.111,1.412
0.760924,0.769494,0.633973,0.640888,-0.0345097,-0.0516494,-0.0287522,-0.0398493,53,88,-98.8536,-98.8536,-198.004,-198.004,1.416
0.760785,0.769286,0.633857,0.640722,-0.0346726,-0.0517363,-0.0288879,-0.0403858,52,84,-98.6508,-98.6508,-197.877,-197.877,1.42
0.760646,0.769077,0.633742,0.640553,-0.0348358,-0.0519094,-0.0290238,-0.0410026,52,78,-98.4477,-98.4477,-197.73,-197.73,1.424
0.760507,0.768868,0.633625,0.640382,-0.0349991,-0.0520535,-0.0291599,-0.0416154,51,73,-98.2421,-98.2421,-197.561,-197.561,1.428
0.760366,0.768662,0.633508,0.64021,-0.0351626,-0.0518905,-0.0292961,-0.0420239,52,69,-98.0354,-98.0354,-197.369,-197.369,1.432
0.760225,0.768454,0.633391,0.640036,-0.0353263,-0.0519258,-0.0294325,-0.0424978,52,65,-97.8352,-97.8352,-197.163,-197.163,1.436
0.760084,0.768244,0.633273,0.639861,-0.0354902,-0.0520933,-0.0295691,-0.0429576,52,61,-97.6361,-97.6361,-196.941,-196.941,1.44
0.759941,0.768035,0.633154,0.639685,-0.0356543,-0.0521186,-0.0297058,-0.0432642,52,59,-97.435,-97.435,-196.702,-196.702,1.444
0.759798,0.767827,0.633035,0.639509,-0.0358186,-0.0520779,-0.0298427,-0.043555,53,57,-97.2358,-97.2358,-196.453,-196.453,1.448
0.759655,0.76762,0.632916,0.639334,-0.035983,-0.0520219,-0.0299797,-0.0436049,53,57,-97.0402,-97.0402,-196.195,-196.195,1.452
0.759511,0.767407,0.632795,0.639158,-0.0361477,-0.0523877,-0.0301169,-0.0437245,51,56,-96.8477,-96.8477,-195.939,-195.939,1.456
0.759366,0.767197,0.632675,0.638982,-0.0363126,-0.05243,-0.0302543,-0.043833,51,55,-96.6481,-96.6481,-195.68,-195.68,1.46
0.75922,0.766989,0.632553,0.638808,-0.0364776,-0.0522855,-0.0303918,-0.0437039,53,57,-96.4502,-96.4502,-195.421,-195.421,1.464
0.759074,0.766779,0.632432,0.638634,-0.0366429,-0.0523619,-0.0305294,-0.0436177,53,58,-96.2584,-96.2584,-195.17,-195.17,1.468
0.758927,0.766568,0.632309,0.63846,-0.0368083,-0.0524704,-0.0306673,-0.0436179,52,59,-96.067,-96.067,-194.926,-194.926,1.472
0.758779,0.766357,0.632186,0.638288,-0.0369739,-0.0526003,-0.0308053,-0.0434453,52,61,-95.875,-95.875,-194.686,-194.686,1.476
0.758631,0.766145,0.632063,0.638111,-0.0371397,-0.0527157,-0.0309434,-0.0436757,51,59,-95.6819,-95.6819,-194.456,-194.456,1.48
0.758482,0.765933,0.631939,0.637941,-0.0373057,-0.0528214,-0.0310817,-0.0432535,51,64,-95.4882,-95.4882,-194.22,-194.22,1.484
0.758333,0.765721,0.631814,0.637773,-0.0374718,-0.0528919,-0.0312201,-0.0428856,51,68,-95.2943,-95.2943,-194.006,-194.006,1.488
0.758182,0.76551,0.631689,0.637606,-0.0376381,-0.0528525,-0.0313587,-0.0424676,52,73,-95.1011,-95.1011,-193.812,-193.812,1.492
0.758032,0.765295,0.631563,0.63744,-0.0378047,-0.0531142,-0.0314974,-0.0421602,51,76,-94.9111,-94.9111,-193.638,-193.638,1.496
0.75788,0.765085,0.631437,0.637279,-0.0379713,-0.0529719,-0.0316363,-0.0415522,52,83,-94.7173,-94.7173,-193.482,-193.482,1.5
0.757728,0.764871,0.63131,0.637116,-0.0381382,-0.0531074,-0.0317753,-0.0412908,51,86,-94.5295,-94.5295,-193.356,-193.356,1.504
0.757575,0.764657,0.631183,0.636956,-0.0383053,-0.0531977,-0.0319145,-0.0408286,51,92,-94.3406,-94.3406,-193.245,-193.245,1.508
0.757421,0.764444,0.631055,0.636794,-0.0384725,-0.0532579,-0.0320538,-0.0407508,51,93,-94.152,-94.152,-193.156,-193.156,1.512
0.757267,0.76423,0.630926,0.636633,-0.0386398,-0.0533557,-0.0321933,-0.040555,51,96,-93.9643,-93.9643,-193.076,-193.076,1.516
0.757112,0.764016,0.630797,0.636472,-0.0388074,-0.053392,-0.0323329,-0.0404244,51,98,-93.7768,-93.7768,-193.008,-193.008,1.52
0.756957,0.7638,0.630668,0.636312,-0.0389751,-0.0535602,-0.0324726,-0.0403374,51,100,-93.5906,-93.5906,-192.95,-192.95,1.524
0.7568,0.763586,0.630537,0.63615,-0.039143,-0.0535572,-0.0326125,-0.0403945,51,100,-93.4029,-93.4029,-192.9,-192.9,1.528
0.756644,0.763374,0.630407,0.635989,-0.0393111,-0.0533824,-0.0327525,-0.0403175,53,102,-93.2184,-93.2184,-192.852,-192.852,1.532
0.756486,0.763158,0.630275,0.635828,-0.0394793,-0.0536114,-0.0328927,-0.0402949,52,103,-93.0408,-93.0408,-192.811,-192.811,1.536
0.756328,0.762944,0.630144,0.635667,-0.0396477,-0.0535337,-0.0330329,-0.040251,53,105,-92.8602,-92.8602,-192.777,-192.777,1.54
0.756169,0.76273,0.630011,0.635508,-0.0398162,-0.0535107,-0.0331734,-0.0401354,53,107,-92.6846,-92.6846,-192.748,-192.748,1.544
0.756009,0.762515,0.629878,0.635345,-0.0399849,-0.0535818,-0.0333139,-0.0402887,53,106,-92.5122,-92.5122,-192.729,-192.729,1.548
0.755849,0.762302,0.629745,0.635184,-0.0401538,-0.053514,-0.0334546,-0.0402757,54,107,-92.3412,-92.3412,-192.708,-192.708,1.552
0.755688,0.762084,0.629611,0.635021,-0.0403229,-0.0538431,-0.0335955,-0.0404398,53,107,-92.1741,-92.1741,-192.692,-192.692,1.556
0.755526,0.761871,0.629476,0.63486,-0.040492,-0.0536594,-0.0337364,-0.040434,54,108,-92.0018,-92.0018,-192.674,-192.674,1.56
0.755364,0.761653,0.629341,0.634693,-0.0406614,-0.0539112,-0.0338775,-0.0408332,53,105,-91.8367,-91.8367,-192.659,-192.659,1.564
0.755201,0.761438,0.629205,0.634528,-0.0408309,-0.0539063,-0.0340188,-0.0409842,54,105,-91.668,-91.668,-192.633,-192.633,1.568
0.755037,0.761222,0.629068,0.63436,-0.0410006,-0.0539319,-0.0341601,-0.041344,54,102,-91.5024,-91.5024,-192.605,-192.605,1.572
0.754873,0.761004,0.628932,0.634192,-0.0411704,-0.0540641,-0.0343016,-0.0415263,54,101,-91.3389,-91.3389,-192.566,-192.566,1.576
0.754708,0.760785,0.628794,0.634021,-0.0413403,-0.054325,-0.0344432,-0.0419645,53,98,-91.1745,-91.1745,-192.524,-192.524,1.58
0.754542,0.760568,0.628656,0.633849,-0.0415105,-0.0542685,-0.0345849,-0.0422566,54,96,-91.0064,-91.0064,-192.468,-192.468,1.584
0.754376,0.760349,0.628517,0.63368,-0.0416807,-0.0544325,-0.0347268,-0.0423074,53,97,-90.8425,-90.8425,-192.404,-192.404,1.588
0.754209,0.760132,0.628378,0.63351,-0.0418511,-0.0544266,-0.0348688,-0.0423701,54,97,-90.6775,-90.6775,-192.343,-192.343,1.592
0.754041,0.759912,0.628238,0.633338,-0.0420217,-0.0545666,-0.0350109,-0.0425846,53,96,-90.5154,-90.5154,-192.284,-192.284,1.596
0.753873,0.759692,0.628098,0.633164,-0.0421924,-0.0547464,-0.0351531,-0.0428428,53,94,-90.3523,-90.3523,-192.219,-192.219,1.6
0.753704,0.759474,0.627957,0.632993,-0.0423632,-0.0546647,-0.0352955,-0.0428134,54,96,-90.1879,-90.1879,-192.149,-192.149,1.604
0.753534,0.759252,0.627816,0.632819,-0.0425342,-0.0549557,-0.0354379,-0.0430529,52,94,-90.0281,-90.0281,-192.084,-192.084,1.608
0.753363,0.759032,0.627674,0.632646,-0.0427054,-0.0549481,-0.0355805,-0.0431262,53,94,-89.864,-89.864,-192.014,-192.014,1.612
0.753192,0.758812,0.627531,0.632471,-0.0428767,-0.0549719,-0.0357232,-0.0433478,53,93,-89.7031,-89.7031,-191.945,-191.945,1.616
0.75302,0.75859,0.627388,0.632297,-0.0430481,-0.0551029,-0.035866,-0.0434091,53,94,-89.5445,-89.5445,-191.871,-191.871,1.62
0.752848,0.75837,0.627244,0.632123,-0.0432196,-0.0551327,-0.036009,-0.0434501,54,94,-89.3856,-89.3856,-191.8,-191.8,1.624
0.752674,0.75815,0.6271,0.631951,-0.0433913,-0.0550086,-0.036152,-0.0433046,55,97,-89.2295,-89.2295,-191.731,-191.731,1.628
0.752501,0.75793,0.626955,0.631776,-0.0435632,-0.0550698,-0.0362952,-0.0434091,55,97,-89.0798,-89.0798,-191.673,-191.673,1.632
0.752326,0.757708,0.626809,0.631605,-0.0437351,-0.0551682,-0.0364384,-0.0432197,55,99,-88.9315,-88.9315,-191.616,-191.616,1.636
0.752151,0.757487,0.626663,0.631436,-0.0439072,-0.0552338,-0.0365818,-0.0428343,55,104,-88.7839,-88.7839,-191.572,-191.572,1.64
0.751975,0.757266,0.626517,0.631274,-0.0440794,-0.0551911,-0.0367253,-0.042088,56,112,-88.638,-88.638,-191.551,-191.551,1.644
0.751798,0.757045,0.62637,0.631111,-0.0442518,-0.0552491,-0.0368689,-0.041648,56,118,-88.4965,-88.4965,-191.565,-191.565,1.648
0.751621,0.756822,0.626222,0.630956,-0.0444243,-0.0553741,-0.0370126,-0.0406924,56,128,-88.3566,-88.3566,-191.604,-191.604,1.652
0.751443,0.756601,0.626074,0.630803,-0.0445969,-0.0553422,-0.0371565,-0.0398827,57,138,-88.2168,-88.2168,-191.69,-191.69,1.656
0.751264,0.756381,0.625925,0.630652,-0.0447697,-0.0552922,-0.0373004,-0.0391413,58,146,-88.0815,-88.0815,-191.815,-191.815,1.66
0.751085,0.756157,0.625775,0.630501,-0.0449425,-0.0554892,-0.0374444,-0.0387334,57,152,-87.9504,-87.9504,-191.976,-191.976,1.664
0.750904,0.755935,0.625625,0.630348,-0.0451156,-0.0554766,-0.0375886,-0.0385479,58,155,-87.8176,-87.8176,-192.161,-192.161,1.668
0.750724,0.755713,0.625474,0.630196,-0.0452887,-0.055497,-0.0377328,-0.0383378,59,158,-87.6886,-87.6886,-192.359,-192.359,1.672
0.750542,0.75549,0.625323,0.63004,-0.0454619,-0.0555681,-0.0378772,-0.0386008,59,157,-87.5623,-87.5623,-192.571,-192.571,1.676
0.75036,0.755267,0.625171,0.629883,-0.0456353,-0.0556156,-0.0380216,-0.038805,59,157,-87.4376,-87.4376,-192.778,-192.778,1.68
0.750177,0.755042,0.625019,0.62972,-0.0458088,-0.0558775,-0.0381661,-0.0394305,58,152,-87.3146,-87.3146,-192.981,-192.981,1.684
0.749993,0.754817,0.624866,0.629557,-0.0459824,-0.0559658,-0.0383108,-0.0398763,58,150,-87.1881,-87.1881,-193.164,-193.164,1.688
0.749809,0.754591,0.624713,0.629395,-0.0461561,-0.0561686,-0.0384555,-0.0400872,58,149,-87.0625,-87.0625,-193.335,-193.335,1.692
0.749624,0.754366,0.624558,0.629234,-0.04633,-0.0561598,-0.0386004,-0.0401413,59,150,-86.9351,-86.9351,-193.502,-193.502,1.696
0.749438,0.754141,0.624404,0.629071,-0.0465039,-0.0562404,-0.0387453,-0.0403214,59,150,-86.8113,-86.8113,-193.673,-193.673,1.7
0.749252,0.753913,0.624248,0.628912,-0.046678,-0.056438,-0.0388903,-0.0401248,58,153,-86.6887,-86.6887,-193.843,-193.843,1.704
0.749065,0.753686,0.624093,0.628756,-0.0468522,-0.0565698,-0.0390355,-0.0397346,58,159,-86.5643,-86.5643,-194.027,-194.027,1.708
0.748877,0.75346,0.623936,0.628601,-0.0470265,-0.0565712,-0.0391807,-0.0394168,59,163,-86.4399,-86.4399,-194.234,-194.234,1.712
0.748689,0.75323,0.623779,0.62845,-0.0472009,-0.0568601,-0.039326,-0.0388883,57,170,-86.3186,-86.3186,-194.461,-194.461,1.716
0.7485,0.753004,0.623622,0.628297,-0.0473754,-0.056736,-0.0394714,-0.0387087,59,173,-86.1935,-86.1935,-194.716,-194.716,1.72
0.74831,0.752775,0.623463,0.628144,-0.0475501,-0.0569124,-0.0396169,-0.0385602,59,176,-86.075,-86.075,-194.985,-194.985,1.724
0.748119,0.752546,0.623305,0.627991,-0.0477248,-0.05703,-0.0397625,-0.0384324,59,179,-85.9553,-85.9553,-195.266,-195.266,1.728
0.747928,0.752321,0.623145,0.627838,-0.0478997,-0.0567629,-0.0399082,-0.0383472,61,182,-85.8367,-85.8367,-195.56,-195.56,1.732
0.747736,0.752094,0.622985,0.627681,-0.0480746,-0.0567863,-0.0400539,-0.0386359,62,181,-85.7288,-85.7288,-195.862,-195.862,1.736
0.747543,0.751863,0.622825,0.62752,-0.0482497,-0.0570611,-0.0401998,-0.0392314,61,177,-85.6234,-85.6234,-196.158,-196.158,1.74
0.74735,0.751637,0.622664,0.627361,-0.0484248,-0.05687,-0.0403457,-0.0393693,63,177,-85.515,-85.515,-196.436,-196.436,1.744
0.747156,0.751409,0.622502,0.627197,-0.0486001,-0.0569441,-0.0404917,-0.0399219,63,174,-85.4153,-85.4153,-196.714,-196.714,1.748
0.746961,0.751178,0.62234,0.627035,-0.0487754,-0.0571663,-0.0406378,-0.0400887,62,174,-85.317,-85.317,-196.975,-196.975,1.752
0.746766,0.750951,0.622177,0.626871,-0.0489509,-0.0570841,-0.040784,-0.0403727,63,173,-85.2168,-85.2168,-197.235,-197.235,1.756
0.74657,0.750721,0.622014,0.626713,-0.0491265,-0.057202,-0.0409303,-0.040159,63,176,-85.1225,-85.1225,-197.491,-197.491,1.76
0.746373,0.750488,0.62185,0.626554,-0.0493021,-0.0575686,-0.0410766,-0.0399877,62,180,-85.0282,-85.0282,-197.761,-197.761,1.764
0.746175,0.750256,0.621685,0.6264,-0.0494779,-0.057669,-0.0412231,-0.0394992,62,186,-84.9279,-84.9279,-198.047,-198.047,1.768
0.745977,0.750024,0.62152,0.626245,-0.0496537,-0.0578511,-0.0413696,-0.0392599,62,190,-84.8284,-84.8284,-198.359,-198.359,1.772
0.745778,0.749789,0.621354,0.626091,-0.0498296,-0.0581164,-0.0415162,-0.0389852,61,195,-84.7274,-84.7274,-198.688,-198.688,1.776
0.745578,0.749557,0.621188,0.62594,-0.0500057,-0.0580918,-0.0416628,-0.0386006,62,200,-84.6234,-84.6234,-199.035,-199.035,1.78
0.745378,0.74932,0.621021,0.625784,-0.0501818,-0.0584496,-0.0418096,-0.0386896,60,201,-84.523,-84.523,-199.405,-199.405,1.784
0.745177,0.749086,0.620853,0.625631,-0.050358,-0.0584579,-0.0419564,-0.0385763,61,204,-84.4172,-84.4172,-199.778,-199.778,1.788
0.744975,0.74885,0.620685,0.62547,-0.0505343,-0.0586937,-0.0421033,-0.0391341,60,201,-84.3144,-84.3144,-200.161,-200.161,1.792
0.744773,0.748616,0.620516,0.62531,-0.0507107,-0.0586206,-0.0422502,-0.0394196,61,200,-84.2094,-84.2094,-200.528,-200.528,1.796
0.744569,0.748377,0.620347,0.625146,-0.0508872,-0.0589749,-0.0423973,-0.0399554,60,197,-84.1095,-84.1095,-200.889,-200.889,1.8
0.744366,0.748143,0.620177,0.624982,-0.0510637,-0.0588081,-0.0425444,-0.0402838,62,195,-84.0046,-84.0046,-201.234,-201.234,1.804
0.744161,0.747907,0.620007,0.624816,-0.0512404,-0.0588984,-0.0426915,-0.0407043,62,193,-83.9078,-83.9078,-201.572,-201.572,1.808
0.743956,0.747671,0.619836,0.62465,-0.0514171,-0.0589298,-0.0428388,-0.0409847,63,192,-83.8126,-83.8126,-201.899,-201.899,1.812
0.74375,0.747435,0.619664,0.624483,-0.0515939,-0.0589507,-0.0429861,-0.0412003,63,192,-83.7205,-83.7205,-202.22,-202.22,1.816
0.743543,0.747199,0.619492,0.624317,-0.0517708,-0.0589359,-0.0431335,-0.0413153,64,193,-83.6319,-83.6319,-202.54,-202.54,1.82
0.743335,0.746962,0.619319,0.62415,-0.0519478,-0.05907,-0.0432809,-0.0414208,64,193,-83.5474,-83.5474,-202.861,-202.861,1.824
0.743127,0.746725,0.619145,0.62398,-0.0521248,-0.0591305,-0.0434284,-0.0418366,65,191,-83.4633,-83.4633,-203.183,-203.183,1.828
0.742918,0.746487,0.618971,0.623811,-0.052302,-0.0591997,-0.043576,-0.0419122,65,192,-83.3816,-83.3816,-203.495,-203.495,1.832
0.742709,0.746249,0.618797,0.623641,-0.0524792,-0.0593034,-0.0437237,-0.0421642,65,192,-83.3019,-83.3019,-203.81,-203.81,1.836
0.742499,0.746013,0.618622,0.62347,-0.0526565,-0.0592574,-0.0438714,-0.042361,66,192,-83.2236,-83.2236,-204.121,-204.121,1.84
0.742288,0.745776,0.618446,0.623294,-0.0528338,-0.0592267,-0.0440191,-0.0428664,67,188,-83.1507,-83.1507,-204.429,-204.429,1.844
0.742076,0.745535,0.61827,0.623117,-0.0530112,-0.0595518,-0.044167,-0.0433762,66,185,-83.0821,-83.0821,-204.722,-204.722,1.848
0.741864,0.745309,0.618093,0.622943,-0.0531887,-0.0585592,-0.0443148,-0.0433993,73,187,-83.0113,-83.0113,-205.001,-205.001,1.852
0.74165,0.745079,0.617915,0.622766,-0.0533663,-0.0581854,-0.0444628,-0.0436738,77,186,-82.9718,-82.9718,-205.285,-205.285,1.856
0.741437,0.744857,0.617737,0.622585,-0.0535439,-0.0573029,-0.0446108,-0.0441735,83,183,-82.9484,-82.9484,-205.563,-205.563,1.86
0.741222,0.744642,0.617558,0.622406,-0.0537217,-0.0561387,-0.0447588,-0.0443627,92,182,-82.9555,-82.9555,-205.826,-205.826,1.864
0.741007,0.744435,0.617379,0.622223,-0.0538994,-0.0546715,-0.044907,-0.0448343,103,180,-83.0012,-83.0012,-206.088,-206.088,1.868
0.740791,0.744242,0.617199,0.62204,-0.0540773,-0.0524842,-0.0450551,-0.0451487,118,178,-83.0954,-83.0954,-206.335,-206.335,1.872
0.740574,0.744061,0.617018,0.621854,-0.0542552,-0.0500759,-0.0452034,-0.0456463,135,175,-83.2581,-83.2581,-206.576,-206.576,1.876
0.740357,0.743899,0.616837,0.621668,-0.0544331,-0.0469445,-0.0453516,-0.0459204,157,174,-83.4969,-83.4969,-206.801,-206.801,1.88
0.740139,0.743745,0.616656,0.621481,-0.0546112,-0.0440795,-0.0455,-0.0461319,177,174,-83.8309,-83.8309,-207.022,-207.022,1.884
0.73992,0.743601,0.616473,0.621296,-0.0547893,-0.0413921,-0.0456483,-0.0462441,197,174,-84.2533,-84.2533,-207.239,-207.239,1.888
0.7397,0.743458,0.61629,0.621107,-0.0549674,-0.0394854,-0.0457968,-0.046578,211,172,-84.7578,-84.7578,-207.458,-207.458,1.892
0.73948,0.743318,0.616107,0.620924,-0.0551456,-0.0380127,-0.0459453,-0.0462824,223,177,-85.3234,-85.3234,-207.67,-207.67,1.896
0.739259,0.743175,0.615923,0.620738,-0.0553239,-0.0372901,-0.0460938,-0.0463445,230,178,-85.937,-85.937,-207.9,-207.9,1.9
0.739038,0.743029,0.615738,0.620553,-0.0555022,-0.0370386,-0.0462424,-0.0463282,234,180,-86.5779,-86.5779,-208.134,-208.134,1.904
0.738815,0.742879,0.615553,0.620368,-0.0556806,-0.0371589,-0.046391,-0.0462599,236,182,-87.2328,-87.2328,-208.375,-208.375,1.908
0.738592,0.74272,0.615367,0.62018,-0.0558591,-0.0380452,-0.0465397,-0.046531,232,181,-87.8903,-87.8903,-208.625,-208.625,1.912
0.738368,0.742556,0.615181,0.619993,-0.0560376,-0.0390104,-0.0466884,-0.0466253,228,182,-88.5297,-88.5297,-208.87,-208.87,1.916
0.738144,0.742385,0.614993,0.619799,-0.0562161,-0.0402872,-0.0468371,-0.0472065,222,178,-89.1481,-89.1481,-209.116,-209.116,1.92
0.737919,0.742207,0.614806,0.619606,-0.0563947,-0.0416567,-0.0469859,-0.0475651,216,176,-89.737,-89.737,-209.344,-209.344,1.924
0.737693,0.742023,0.614618,0.619412,-0.0565734,-0.0431167,-0.0471348,-0.0479194,208,174,-90.2934,-90.2934,-209.563,-209.563,1.928
0.737466,0.741832,0.614429,0.619215,-0.0567521,-0.0446658,-0.0472837,-0.0483571,200,171,-90.8147,-90.8147,-209.772,-209.772,1.932
0.737239,0.741636,0.614239,0.619016,-0.0569308,-0.0460729,-0.0474326,-0.048764,193,169,-91.2985,-91.2985,-209.97,-209.97,1.936
0.737011,0.741434,0.614049,0.618817,-0.0571096,-0.0475867,-0.0475816,-0.0491505,185,167,-91.7483,-91.7483,-210.156,-210.156,1.94
0.736782,0.741225,0.613859,0.618619,-0.0572885,-0.0491718,-0.0477306,-0.0492642,177,167,-92.1608,-92.1608,-210.332,-210.332,1.944
0.736552,0.741013,0.613667,0.61842,-0.0574673,-0.0503725,-0.0478796,-0.0493976,171,168,-92.5348,-92.5348,-210.509,-210.509,1.948
0.736322,0.740793,0.613476,0.61822,-0.0576463,-0.0519215,-0.0480287,-0.0496017,162,167,-92.8796,-92.8796,-210.687,-210.687,1.952
0.736091,0.740565,0.613283,0.618019,-0.0578252,-0.0536163,-0.0481778,-0.0497953,153,167,-93.1854,-93.1854,-210.862,-210.862,1.956
0.735859,0.740334,0.61309,0.617819,-0.0580043,-0.0550341,-0.048327,-0.0499244,145,167,-93.4487,-93.4487,-211.035,-211.035,1.96
0.735627,0.740095,0.612897,0.617614,-0.0581833,-0.0565552,-0.0484761,-0.050356,137,164,-93.6765,-93.6765,-211.207,-211.207,1.964
0.735394,0.73985,0.612702,0.61741,-0.0583624,-0.0581738,-0.0486254,-0.0505861,128,164,-93.8657,-93.8657,-211.368,-211.368,1.968
0.73516,0.739602,0.612508,0.617203,-0.0585415,-0.0594544,-0.0487746,-0.050941,120,162,-94.014,-94.014,-211.524,-211.524,1.972
0.734926,0.739347,0.612312,0.616994,-0.0587207,-0.0608552,-0.0489239,-0.0513792,113,159,-94.1302,-94.1302,-211.671,-211.671,1.976
0.73469,0.739084,0.612116,0.616783,-0.0588999,-0.0625088,-0.0490732,-0.0517865,103,156,-94.2103,-94.2103,-211.806,-211.806,1.98
0.734454,0.73882,0.61192,0.616574,-0.0590792,-0.06364,-0.0492225,-0.0519716,97,156,-94.2486,-94.2486,-211.929,-211.929,1.984
0.734218,0.738552,0.611722,0.616362,-0.0592585,-0.0647684,-0.0493719,-0.0523254,90,154,-94.2587,-94.2587,-212.05,-212.05,1.988
0.73398,0.73828,0.611525,0.616148,-0.0594378,-0.0658374,-0.0495213,-0.052734,84,151,-94.2407,-94.2407,-212.161,-212.161,1.992
0.733742,0.738004,0.611326,0.615931,-0.0596171,-0.0669531,-0.0496707,-0.0532367,78,148,-94.196,-94.196,-212.26,-212.26,1.996
0.733503,0.73773,0.611127,0.615718,-0.0597965,-0.0674378,-0.0498202,-0.0532263,76,149,-94.1247,-94.1247,-212.345,-212.345,2
0.733264,0.737458,0.610928,0.6155,-0.0599759,-0.0676458,-0.0499696,-0.0536513,75,147,-94.044,-94.044,-212.435,-212.435,2.004
0.733024,0.737187,0.610728,0.615285,-0.0601553,-0.0676405,-0.0501191,-0.0537043,76,147,-93.962,-93.962,-212.513,-212.513,2.008
0.732783,0.736916,0.610527,0.615068,-0.0603348,-0.0677233,-0.0502686,-0.0538548,76,147,-93.884,-93.884,-212.594,-212.594,2.012
0.732541,0.736645,0.610325,0.614848,-0.0605143,-0.0676922,-0.0504182,-0.054243,77,145,-93.8079,-93.8079,-212.674,-212.674,2.016
0.732299,0.736377,0.610123,0.61463,-0.0606938,-0.0674411,-0.0505678,-0.0543003,80,146,-93.7375,-93.7375,-212.743,-212.743,2.02
0.732055,0.73611,0.609921,0.614411,-0.0608733,-0.0672449,-0.0507173,-0.0545112,82,145,-93.6784,-93.6784,-212.816,-212.816,2.024
0.731812,0.735845,0.609718,0.61419,-0.0610529,-0.0669126,-0.0508669,-0.054767,85,144,-93.6296,-93.6296,-212.885,-212.885,2.028
0.731567,0.735576,0.609514,0.613965,-0.0612325,-0.0670077,-0.0510166,-0.0552254,85,141,-93.5938,-93.5938,-212.948,-212.948,2.032
0.731322,0.735314,0.60931,0.613742,-0.0614121,-0.0664953,-0.0511662,-0.0553583,90,141,-93.561,-93.561,-212.998,-212.998,2.036
0.731076,0.735053,0.609105,0.613519,-0.0615917,-0.0660674,-0.0513159,-0.0555621,94,140,-93.5473,-93.5473,-213.047,-213.047,2.04
0.730829,0.734789,0.608899,0.613293,-0.0617713,-0.0660412,-0.0514655,-0.0558418,95,138,-93.5496,-93.5496,-213.093,-213.093,2.044
0.730582,0.734527,0.608693,0.613065,-0.061951,-0.0659373,-0.0516152,-0.0562011,97,136,-93.5575,-93.5575,-213.133,-213.133,2.048
0.730333,0.734263,0.608486,0.61284,-0.0621307,-0.0659545,-0.0517649,-0.0562679,97,137,-93.5728,-93.5728,-213.164,-213.164,2.052
0.730085,0.734002,0.608279,0.612615,-0.0623104,-0.065678,-0.0519146,-0.0561972,100,139,-93.593,-93.593,-213.197,-213.197,2.056
0.729835,0.733735,0.608071,0.612391,-0.0624901,-0.0660119,-0.0520644,-0.0561789,99,140,-93.6245,-93.6245,-213.239,-213.239,2.06
0.729585,0.733472,0.607862,0.612171,-0.0626698,-0.0659179,-0.0522141,-0.0557636,101,146,-93.652,-93.652,-213.288,-213.288,2.064
0.729334,0.733206,0.607653,0.611946,-0.0628495,-0.0661718,-0.0523639,-0.0559187,100,145,-93.6862,-93.6862,-213.359,-213.359,2.068
0.729082,0.73294,0.607443,0.611725,-0.0630293,-0.0662548,-0.0525136,-0.0557341,101,149,-93.7181,-93.7181,-213.43,-213.43,2.072
0.728829,0.732671,0.607233,0.611503,-0.0632091,-0.0666268,-0.0526634,-0.0556686,100,151,-93.7518,-93.7518,-213.514,-213.514,2.076
0.728576,0.732398,0.607022,0.611275,-0.0633888,-0.0671627,-0.0528132,-0.0560568,97,148,-93.7789,-93.7789,-213.606,-213.606,2.08
0.728322,0.732124,0.60681,0.611049,-0.0635686,-0.0676063,-0.0529629,-0.0562005,95,148,-93.7953,-93.7953,-213.687,-213.687,2.084
0.728068,0.731845,0.606598,0.610822,-0.0637484,-0.0682764,-0.0531127,-0.0563826,92,148,-93.803,-93.803,-213.768,-213.768,2.088
0.727812,0.731565,0.606386,0.610591,-0.0639282,-0.0688382,-0.0532625,-0.0569071,89,144,-93.7959,-93.7959,-213.846,-213.846,2.092
0.727556,0.731282,0.606172,0.610359,-0.064108,-0.0695007,-0.0534123,-0.057228,86,142,-93.7769,-93.7769,-213.908,-213.908,2.096
0.727299,0.730999,0.605958,0.610126,-0.0642878,-0.0698848,-0.0535621,-0.0576147,84,140,-93.7436,-93.7436,-213.962,-213.962,2.1
0.727042,0.730719,0.605744,0.609887,-0.0644676,-0.0699969,-0.0537119,-0.0582467,85,135,-93.7041,-93.7041,-214.004,-214.004,2.104
0.726784,0.730437,0.605529,0.60965,-0.0646474,-0.0701292,-0.0538618,-0.0586393,85,132,-93.6657,-93.6657,-214.025,-214.025,2.108
0.726525,0.730155,0.605313,0.60941,-0.0648272,-0.0702174,-0.0540116,-0.0590738,85,129,-93.6281,-93.6281,-214.035,-214.035,2.112
0.726265,0.729876,0.605096,0.609169,-0.065007,-0.0701035,-0.0541614,-0.0594498,87,127,-93.5928,-93.5928,-214.032,-214.032,2.116
0.726005,0.729597,0.60488,0.608927,-0.0651868,-0.0699699,-0.0543112,-0.0598156,89,125,-93.5653,-93.5653,-214.018,-214.018,2.12
0.725744,0.729322,0.604662,0.608686,-0.0653666,-0.0695642,-0.054461,-0.0599444,92,124,-93.547,-93.547,-213.994,-213.994,2.124
0.725482,0.729047,0.604444,0.608441,-0.0655464,-0.0692937,-0.0546108,-0.0604045,95,121,-93.5447,-93.5447,-213.969,-213.969,2.128
0.725219,0.728776,0.604225,0.608198,-0.0657262,-0.0687967,-0.0547606,-0.0605385,100,121,-93.5556,-93.5556,-213.931,-213.931,2.132
0.724956,0.728503,0.604006,0.607952,-0.065906,-0.0686093,-0.0549104,-0.0608005,102,120,-93.5851,-93.5851,-213.892,-213.892,2.136
0.724692,0.728235,0.603786,0.607706,-0.0660858,-0.0680237,-0.0550602,-0.0610904,107,118,-93.6258,-93.6258,-213.847,-213.847,2.14
0.724427,0.727972,0.603565,0.607461,-0.0662656,-0.0673166,-0.05521,-0.0610821,113,119,-93.6889,-93.6889,-213.795,-213.795,2.144
0.724162,0.727704,0.603344,0.607214,-0.0664454,-0.0672195,-0.0553598,-0.0613069,115,118,-93.7763,-93.7763,-213.748,-213.748,2.148
0.723896,0.727445,0.603122,0.606968,-0.0666251,-0.0663774,-0.0555095,-0.061428,122,118,-93.8734,-93.8734,-213.697,-213.697,2.152
0.723629,0.727187,0.6029,0.606724,-0.0668049,-0.0657584,-0.0556593,-0.0612784,127,120,-93.9999,-93.9999,-213.647,-213.647,2.156
0.723361,0.726931,0.602677,0.606479,-0.0669846,-0.0652018,-0.0558091,-0.0612938,132,121,-94.1497,-94.1497,-213.608,-213.608,2.16
0.723093,0.726676,0.602454,0.606232,-0.0671644,-0.064658,-0.0559588,-0.0614193,137,121,-94.3213,-94.3213,-213.574,-213.574,2.164
0.722824,0.726425,0.602229,0.605983,-0.0673441,-0.0640651,-0.0561086,-0.0616469,143,120,-94.5144,-94.5144,-213.539,-213.539,2.168
0.722554,0.72618,0.602005,0.605739,-0.0675238,-0.0630941,-0.0562583,-0.0614531,151,123,-94.7316,-94.7316,-213.5,-213.5,2.172
0.722284,0.725938,0.601779,0.605491,-0.0677035,-0.0622164,-0.056408,-0.0616694,158,122,-94.9828,-94.9828,-213.475,-213.475,2.176
0.722013,0.725701,0.601553,0.605243,-0.0678832,-0.0612569,-0.0565577,-0.0617272,166,123,-95.2659,-95.2659,-213.445,-213.445,2.18
0.721741,0.72547,0.601327,0.604994,-0.0680628,-0.0600991,-0.0567074,-0.0619385,175,122,-95.5838,-95.5838,-213.418,-213.418,2.184
0.721468,0.725245,0.6011,0.604746,-0.0682425,-0.0588089,-0.056857,-0.0619642,186,123,-95.9423,-95.9423,-213.388,-213.388,2.188
0.721195,0.725026,0.600872,0.604497,-0.0684221,-0.0574882,-0.0570067,-0.0620678,197,123,-96.3454,-96.3454,-213.362,-213.362,2.192
0.720921,0.724811,0.600644,0.604246,-0.0686017,-0.0562334,-0.0571563,-0.0622807,207,122,-96.7938,-96.7938,-213.337,-213.337,2.196
0.720646,0.7246,0.600415,0.603994,-0.0687813,-0.0550514,-0.057306,-0.0624803,217,122,-97.2859,-97.2859,-213.308,-213.308,2.2
0.72037,0.724394,0.600185,0.603745,-0.0689608,-0.0538603,-0.0574556,-0.0624118,227,123,-97.82,-97.82,-213.276,-213.276,2.204
0.720094,0.72419,0.599955,0.603493,-0.0691404,-0.0528935,-0.0576051,-0.0625964,236,123,-98.396,-98.396,-213.253,-213.253,2.208
0.719817,0.723989,0.599724,0.603244,-0.0693199,-0.0519899,-0.0577547,-0.062518,244,125,-99.0079,-99.0079,-213.227,-213.227,2.212
0.71954,0.723791,0.599493,0.602995,-0.0694994,-0.0512147,-0.0579042,-0.0624657,252,126,-99.6537,-99.6537,-213.21,-213.21,2.216
0.719261,0.723593,0.599261,0.602743,-0.0696788,-0.0506115,-0.0580538,-0.0626036,258,126,-100.33,-100.33,-213.2,-213.2,2.22
0.718982,0.723397,0.599029,0.602492,-0.0698583,-0.0500943,-0.0582032,-0.0626379,264,127,-101.031,-101.031,-213.19,-213.19,2.224
0.718702,0.723204,0.598796,0.602246,-0.0700377,-0.0494327,-0.0583527,-0.0623154,271,132,-101.757,-101.757,-213.185,-213.185,2.228
0.718422,0.723014,0.598562,0.601997,-0.070217,-0.0487902,-0.0585022,-0.062273,278,133,-102.51,-102.51,-213.198,-213.198,2.232
0.718141,0.722823,0.598328,0.601744,-0.0703964,-0.0484482,-0.0586516,-0.0625903,283,131,-103.289,-103.289,-213.219,-213.219,2.236
0.717859,0.722637,0.598093,0.601493,-0.0705757,-0.0477883,-0.058801,-0.0626003,290,133,-104.088,-104.088,-213.231,-213.231,2.24
0.717576,0.722449,0.597857,0.601236,-0.070755,-0.0475499,-0.0589504,-0.063154,294,128,-104.914,-104.914,-213.248,-213.248,2.244
0.717293,0.722269,0.597621,0.600986,-0.0709342,-0.0467288,-0.0590997,-0.0630049,303,131,-105.757,-105.757,-213.248,-213.248,2.248
0.717009,0.722085,0.597384,0.600727,-0.0711134,-0.0464981,-0.059249,-0.0635101,307,128,-106.631,-106.631,-213.259,-213.259,2.252
0.716724,0.721906,0.597147,0.600472,-0.0712926,-0.0459124,-0.0593983,-0.0636453,314,127,-107.522,-107.522,-213.255,-213.255,2.256
0.716438,0.72173,0.596909,0.600217,-0.0714718,-0.0452917,-0.0595476,-0.0636779,321,128,-108.439,-108.439,-213.25,-213.25,2.26
0.716152,0.721553,0.596671,0.599955,-0.0716509,-0.0448778,-0.0596968,-0.0642755,327,124,-109.383,-109.383,-213.248,-213.248,2.264
0.715865,0.721377,0.596432,0.599696,-0.0718299,-0.0445731,-0.059846,-0.0644435,332,123,-110.348,-110.348,-213.228,-213.228,2.268
0.715577,0.721206,0.596192,0.599439,-0.072009,-0.0439957,-0.0599951,-0.0643252,339,126,-111.332,-111.332,-213.206,-213.206,2.272
0.715289,0.721032,0.595952,0.599177,-0.0721879,-0.0438411,-0.0601443,-0.0647358,343,123,-112.341,-112.341,-213.193,-213.193,2.276
0.715,0.720862,0.595711,0.598915,-0.0723669,-0.0433925,-0.0602934,-0.0650383,349,121,-113.365,-113.365,-213.169,-213.169,2.28
0.71471,0.720693,0.595469,0.598656,-0.0725458,-0.0429783,-0.0604424,-0.0648945,355,124,-114.412,-114.412,-213.138,-213.138,2.284
0.714419,0.720527,0.595227,0.598393,-0.0727247,-0.0425582,-0.0605914,-0.0652017,361,122,-115.48,-115.48,-213.118,-213.118,2.288
0.714128,0.72036,0.594985,0.598129,-0.0729035,-0.0422206,-0.0607404,-0.0654353,367,121,-116.57,-116.57,-213.09,-213.09,2.292
0.713836,0.720199,0.594741,0.597865,-0.0730823,-0.0416212,-0.0608894,-0.0656198,374,120,-117.681,-117.681,-213.058,-213.058,2.296
0.713544,0.720037,0.594497,0.597601,-0.073261,-0.0412216,-0.0610383,-0.0658004,380,120,-118.819,-118.819,-213.023,-213.023,2.3
0.71325,0.71988,0.594253,0.597336,-0.0734397,-0.0405522,-0.0611871,-0.0659208,388,120,-119.979,-119.979,-212.986,-212.986,2.304
0.712956,0.719722,0.594008,0.597067,-0.0736183,-0.040221,-0.061336,-0.0663465,394,117,-121.168,-121.168,-212.949,-212.949,2.308
0.712661,0.719562,0.593762,0.596797,-0.0737969,-0.0401154,-0.0614848,-0.0667743,398,114,-122.377,-122.377,-212.898,-212.898,2.312
0.712366,0.719405,0.593516,0.596531,-0.0739754,-0.0398147,-0.0616335,-0.0666852,404,116,-123.6,-123.6,-212.837,-212.837,2.316
0.712069,0.719246,0.593269,0.596262,-0.0741539,-0.0398445,-0.0617822,-0.0668561,407,115,-124.841,-124.841,-212.783,-212.783,2.32
0.711772,0.719086,0.593022,0.595993,-0.0743323,-0.0398932,-0.0619309,-0.0669701,410,115,-126.091,-126.091,-212.728,-212.728,2.324
0.711475,0.718924,0.592774,0.595722,-0.0745107,-0.0400696,-0.0620795,-0.0672764,413,113,-127.35,-127.35,-212.673,-212.673,2.328
0.711176,0.718763,0.592525,0.595452,-0.0746891,-0.0401585,-0.0622281,-0.0673079,416,114,-128.615,-128.615,-212.61,-212.61,2.332
0.710877,0.718597,0.592276,0.595182,-0.0748673,-0.0406207,-0.0623766,-0.0673576,416,115,-129.886,-129.886,-212.552,-212.552,2.336
0.710577,0.718431,0.592026,0.594911,-0.0750455,-0.0408426,-0.0625251,-0.067506,418,114,-131.154,-131.154,-212.497,-212.497,2.34
0.710277,0.718264,0.591776,0.59464,-0.0752237,-0.041192,-0.0626735,-0.0675761,419,115,-132.426,-132.426,-212.44,-212.44,2.344
0.709976,0.718097,0.591525,0.594368,-0.0754018,-0.0413961,-0.0628219,-0.067738,422,115,-133.697,-133.697,-212.386,-212.386,2.348
0.709674,0.717927,0.591273,0.594095,-0.0755799,-0.041705,-0.0629703,-0.0679035,423,114,-134.973,-134.973,-212.33,-212.33,2.352
0.709371,0.717759,0.591021,0.593822,-0.0757578,-0.0417957,-0.0631186,-0.067985,426,114,-136.251,-136.251,-212.273,-212.273,2.356
0.709068,0.717586,0.590768,0.593538,-0.0759358,-0.0423168,-0.0632668,-0.0690183,426,105,-137.535,-137.535,-212.215,-212.215,2.36
0.708764,0.717422,0.590515,0.593267,-0.0761136,-0.0419157,-0.063415,-0.0686419,433,110,-138.815,-138.815,-212.122,-212.122,2.364
0.708459,0.717254,0.590261,0.592991,-0.0762914,-0.0419074,-0.0635631,-0.0687076,436,111,-140.118,-140.118,-212.049,-212.049,2.368
0.708153,0.717089,0.590006,0.592713,-0.0764692,-0.0417003,-0.0637112,-0.0689818,441,109,-141.431,-141.431,-211.978,-211.978,2.372
0.707847,0.716923,0.589751,0.592435,-0.0766468,-0.0416487,-0.0638592,-0.0691645,445,108,-142.761,-142.761,-211.901,-211.901,2.376
0.70754,0.716756,0.589496,0.592154,-0.0768245,-0.0416718,-0.0640072,-0.0695167,449,106,-144.102,-144.102,-211.821,-211.821,2.38
0.707232,0.716587,0.589239,0.591874,-0.077002,-0.0418312,-0.0641552,-0.0696939,452,105,-145.453,-145.453,-211.731,-211.731,2.384
0.706924,0.716414,0.588982,0.591595,-0.0771795,-0.0423117,-0.064303,-0.0696681,452,107,-146.809,-146.809,-211.64,-211.64,2.388
0.706615,0.716238,0.588725,0.591315,-0.0773569,-0.0428624,-0.0644508,-0.0698524,452,106,-148.16,-148.16,-211.554,-211.554,2.392
0.706305,0.716059,0.588467,0.591035,-0.0775342,-0.0435462,-0.0645986,-0.0698313,451,107,-149.506,-149.506,-211.466,-211.466,2.396
0.705995,0.715876,0.588208,0.590755,-0.0777115,-0.0442324,-0.0647463,-0.0699613,450,107,-150.841,-150.841,-211.384,-211.384,2.4
0.705683,0.71569,0.587949,0.590476,-0.0778887,-0.0449778,-0.0648939,-0.0698751,449,109,-152.166,-152.166,-211.303,-211.303,2.404
0.705372,0.715502,0.587689,0.590198,-0.0780658,-0.0456762,-0.0650415,-0.0697313,448,112,-153.479,-153.479,-211.23,-211.23,2.408
0.705059,0.715309,0.587428,0.589912,-0.0782429,-0.0465737,-0.065189,-0.0703552,445,107,-154.781,-154.781,-211.167,-211.167,2.412
0.704746,0.715121,0.587167,0.589639,-0.0784199,-0.0466826,-0.0653365,-0.0696195,448,115,-156.068,-156.068,-211.086,-211.086,2.416
0.704432,0.714929,0.586906,0.589357,-0.0785968,-0.0471295,-0.0654839,-0.0699352,448,113,-157.361,-157.361,-211.039,-211.039,2.42
0.704117,0.714736,0.586643,0.589075,-0.0787736,-0.0474562,-0.0656312,-0.0700593,450,113,-158.65,-158.65,-210.984,-210.984,2.424
0.703801,0.714544,0.586381,0.588793,-0.0789504,-0.0476452,-0.0657785,-0.0702284,452,113,-159.94,-159.94,-210.93,-210.93,2.428
0.703485,0.714352,0.586117,0.58851,-0.0791271,-0.0478288,-0.0659257,-0.0704275,454,112,-161.235,-161.235,-210.873,-210.873,2.432
0.703168,0.71416,0.585853,0.588227,-0.0793037,-0.0478073,-0.0660728,-0.0705026,458,112,-162.534,-162.534,-210.814,-210.814,2.436
0.702851,0.713966,0.585589,0.58794,-0.0794802,-0.048052,-0.0662199,-0.070927,460,109,-163.843,-163.843,-210.756,-210.756,2.44
0.702533,0.713775,0.585323,0.587658,-0.0796566,-0.0479848,-0.0663669,-0.0707781,464,112,-165.156,-165.156,-210.686,-210.686,2.444
0.702214,0.71358,0.585058,0.587373,-0.079833,-0.048228,-0.0665138,-0.0709379,466,111,-166.48,-166.48,-210.628,-210.628,2.448
0.701894,0.71339,0.584791,0.58709,-0.0800093,-0.047987,-0.0666607,-0.0709293,471,113,-167.808,-167.808,-210.568,-210.568,2.452
0.701573,0.7132,0.584524,0.586805,-0.0801855,-0.0478551,-0.0668075,-0.0710387,476,113,-169.153,-169.153,-210.514,-210.514,2.456
0.701252,0.713008,0.584257,0.586518,-0.0803616,-0.0479112,-0.0669542,-0.0712556,479,112,-170.512,-170.512,-210.461,-210.461,2.46
0.700931,0.712817,0.583989,0.586231,-0.0805376,-0.0478046,-0.0671009,-0.0713714,483,112,-171.879,-171.879,-210.403,-210.403,2.464
0.700608,0.712622,0.58372,0.585943,-0.0807136,-0.0481078,-0.0672475,-0.0715926,485,111,-173.259,-173.259,-210.346,-210.346,2.468
0.700285,0.712431,0.583451,0.585656,-0.0808894,-0.0479932,-0.067394,-0.0716536,490,111,-174.641,-174.641,-210.286,-210.286,2.472
0.699961,0.712232,0.583181,0.585366,-0.0810652,-0.0486079,-0.0675405,-0.0719535,489,109,-176.035,-176.035,-210.227,-210.227,2.476
0.699636,0.712036,0.58291,0.585077,-0.0812409,-0.0487297,-0.0676868,-0.072067,492,110,-177.422,-177.422,-210.162,-210.162,2.48
0.699311,0.711836,0.582639,0.584785,-0.0814165,-0.0491852,-0.0678331,-0.072373,492,108,-178.815,-178.815,-210.096,-210.096,2.484
0.698985,0.711635,0.582368,0.584494,-0.081592,-0.0495465,-0.0679794,-0.0724906,494,108,-180.204,-180.204,-210.024,-210.024,2.488
0.698658,0.711432,0.582096,0.584202,-0.0817674,-0.0499024,-0.0681255,-0.0726842,495,107,-181.593,-181.593,-209.951,-209.951,2.492
0.698331,0.711225,0.581823,0.583908,-0.0819427,-0.0505429,-0.0682716,-0.0729284,494,106,-182.98,-182.98,-209.875,-209.875,2.496
0.698003,0.71102,0.581549,0.583617,-0.082118,-0.0507683,-0.0684176,-0.0728897,496,107,-184.359,-184.359,-209.795,-209.795,2.5
0.697674,0.71081,0.581275,0.583323,-0.0822931,-0.0513216,-0.0685635,-0.0730654,496,106,-185.74,-185.74,-209.722,-209.722,2.504
0.697344,0.710601,0.581001,0.583027,-0.0824682,-0.0516905,-0.0687093,-0.0733553,497,105,-187.115,-187.115,-209.646,-209.646,2.508
0.697014,0.71039,0.580726,0.582733,-0.0826431,-0.051994,-0.0688551,-0.0734622,499,105,-188.489,-188.489,-209.563,-209.563,2.512
0.696683,0.710179,0.58045,0.582438,-0.082818,-0.0522251,-0.0690008,-0.0735047,501,106,-189.864,-189.864,-209.481,-209.481,2.516
0.696352,0.709969,0.580174,0.582141,-0.0829927,-0.0523792,-0.0691464,-0.0737921,504,104,-191.243,-191.243,-209.402,-209.402,2.52
0.696019,0.70976,0.579897,0.581846,-0.0831674,-0.0523092,-0.0692919,-0.0737822,508,105,-192.627,-192.627,-209.316,-209.316,2.524
0.695686,0.709553,0.579619,0.581548,-0.0833419,-0.0520898,-0.0694373,-0.0740347,513,104,-194.023,-194.023,-209.236,-209.236,2.528
0.695353,0.709344,0.579341,0.58125,-0.0835164,-0.0521738,-0.0695827,-0.0741742,516,103,-195.435,-195.435,-209.151,-209.151,2.532
0.695018,0.70914,0.579063,0.580955,-0.0836907,-0.051798,-0.069728,-0.0740369,522,106,-196.856,-196.856,-209.065,-209.065,2.536
0.694683,0.708936,0.578784,0.580658,-0.083865,-0.0515186,-0.0698731,-0.0740894,528,106,-198.299,-198.299,-208.99,-208.99,2.54
0.694347,0.708728,0.578504,0.58036,-0.0840392,-0.0517067,-0.0700182,-0.0742395,530,106,-199.759,-199.759,-208.918,-208.918,2.544
0.694011,0.708523,0.578223,0.580061,-0.0842132,-0.0515153,-0.0701632,-0.0743683,535,106,-201.224,-201.224,-208.845,-208.845,2.548
0.693674,0.708313,0.577942,0.579766,-0.0843872,-0.0518197,-0.0703082,-0.0741951,537,109,-202.704,-202.704,-208.773,-208.773,2.552
0.693336,0.708101,0.577661,0.579466,-0.084561,-0.0522529,-0.070453,-0.0744252,538,108,-204.185,-204.185,-208.712,-208.712,2.556
0.692997,0.707885,0.577379,0.579169,-0.0847347,-0.0528584,-0.0705978,-0.0744058,538,109,-205.663,-205.663,-208.648,-208.648,2.56
0.692658,0.707665,0.577096,0.578873,-0.0849084,-0.0535211,-0.0707424,-0.0742489,537,112,-207.132,-207.132,-208.59,-208.59,2.564
0.692318,0.707441,0.576813,0.578572,-0.0850819,-0.0543661,-0.070887,-0.0745761,535,110,-208.591,-208.591,-208.543,-208.543,2.568
0.691977,0.707212,0.576529,0.578274,-0.0852553,-0.0553036,-0.0710315,-0.0745352,532,111,-210.034,-210.034,-208.489,-208.489,2.572
0.691636,0.706976,0.576245,0.577971,-0.0854286,-0.0565333,-0.0711759,-0.0749974,527,108,-211.458,-211.458,-208.44,-208.44,2.576
0.691294,0.706742,0.57596,0.577671,-0.0856018,-0.0572091,-0.0713202,-0.0749312,526,110,-212.855,-212.855,-208.378,-208.378,2.58
0.690951,0.706502,0.575674,0.57737,-0.0857749,-0.0581491,-0.0714644,-0.0750598,523,110,-214.241,-214.241,-208.324,-208.324,2.584
0.690607,0.706262,0.575388,0.577068,-0.0859479,-0.0588045,-0.0716085,-0.0752607,522,109,-215.608,-215.608,-208.27,-208.27,2.588
0.690263,0.706021,0.575101,0.576765,-0.0861207,-0.0592703,-0.0717525,-0.0754235,522,108,-216.965,-216.965,-208.213,-208.213,2.592
0.689919,0.705775,0.574814,0.576459,-0.0862935,-0.0599839,-0.0718964,-0.0757335,521,107,-218.318,-218.318,-208.154,-208.154,2.596
0.689573,0.70553,0.574526,0.576156,-0.0864661,-0.0603732,-0.0720403,-0.0757386,522,108,-219.658,-219.658,-208.088,-208.088,2.6
0.689227,0.705284,0.574238,0.575851,-0.0866386,-0.0608055,-0.072184,-0.0759436,522,107,-220.996,-220.996,-208.026,-208.026,2.604
0.68888,0.705031,0.573949,0.575544,-0.086811,-0.0616408,-0.0723276,-0.0761666,520,106,-222.329,-222.329,-207.961,-207.961,2.608
0.688532,0.704779,0.573659,0.575241,-0.0869833,-0.0620249,-0.0724712,-0.076085,521,108,-223.647,-223.647,-207.892,-207.892,2.612
0.688184,0.704524,0.573369,0.574936,-0.0871554,-0.0626264,-0.0726146,-0.0761457,520,108,-224.961,-224.961,-207.832,-207.832,2.616
0.687835,0.704269,0.573078,0.574632,-0.0873275,-0.0630274,-0.072758,-0.0760422,520,110,-226.267,-226.267,-207.775,-207.775,2.62
0.687485,0.704008,0.572787,0.574324,-0.0874994,-0.0637554,-0.0729012,-0.0763763,519,108,-227.569,-227.569,-207.727,-207.727,2.624
0.687135,0.703746,0.572495,0.574019,-0.0876712,-0.0643271,-0.0730443,-0.0763399,518,110,-228.858,-228.858,-207.671,-207.671,2.628
0.686784,0.703485,0.572202,0.57371,-0.0878429,-0.0646507,-0.0731874,-0.0766036,519,108,-230.139,-230.139,-207.622,-207.622,2.632
0.686432,0.703221,0.571909,0.573401,-0.0880145,-0.0650679,-0.0733303,-0.0768945,520,107,-231.419,-231.419,-207.566,-207.566,2.636
0.68608,0.702952,0.571616,0.573088,-0.0881859,-0.065778,-0.0734731,-0.0773476,518,103,-232.695,-232.695,-207.503,-207.503,2.64
0.685727,0.702685,0.571322,0.572779,-0.0883572,-0.0661362,-0.0736159,-0.0773041,519,105,-233.958,-233.958,-207.427,-207.427,2.644
0.685373,0.702413,0.571027,0.572466,-0.0885284,-0.0667204,-0.0737585,-0.0775919,518,103,-235.218,-235.218,-207.357,-207.357,2.648
0.685019,0.702138,0.570732,0.572153,-0.0886995,-0.0673979,-0.073901,-0.0778413,516,102,-236.469,-236.469,-207.281,-207.281,2.652
0.684663,0.701863,0.570436,0.571843,-0.0888704,-0.0678495,-0.0740434,-0.0776909,516,105,-237.709,-237.709,-207.2,-207.2,2.656
0.684308,0.701581,0.570139,0.571529,-0.0890412,-0.0687552,-0.0741858,-0.0779649,513,103,-238.942,-238.942,-207.13,-207.13,2.66
0.683951,0.701295,0.569842,0.571216,-0.0892119,-0.0696469,-0.074328,-0.0780899,510,103,-240.156,-240.156,-207.054,-207.054,2.664
0.683594,0.70101,0.569545,0.570904,-0.0893824,-0.0702413,-0.0744701,-0.0780294,509,105,-241.352,-241.352,-206.978,-206.978,2.668
0.683236,0.700719,0.569246,0.570592,-0.0895529,-0.0710407,-0.0746121,-0.077989,507,106,-242.537,-242.537,-206.91,-206.91,2.672
0.682878,0.700428,0.568948,0.570281,-0.0897232,-0.0716024,-0.0747539,-0.0779333,506,108,-243.707,-243.707,-206.849,-206.849,2.676
0.682518,0.700133,0.568648,0.56997,-0.0898933,-0.0723512,-0.0748957,-0.0778674,504,110,-244.867,-244.867,-206.796,-206.796,2.68
0.682158,0.699835,0.568348,0.569657,-0.0900633,-0.0730231,-0.0750374,-0.0780249,502,109,-246.012,-246.012,-206.751,-206.751,2.684
0.681798,0.699541,0.568048,0.569347,-0.0902332,-0.0732407,-0.0751789,-0.0778421,503,112,-247.146,-247.146,-206.705,-206.705,2.688
0.681437,0.699243,0.567747,0.569032,-0.090403,-0.0736737,-0.0753204,-0.078152,503,110,-248.28,-248.28,-206.671,-206.671,2.692
0.681075,0.698947,0.567445,0.568717,-0.0905726,-0.0737033,-0.0754617,-0.0783587,506,109,-249.41,-249.41,-206.63,-206.63,2.696
0.680712,0.69865,0.567143,0.568402,-0.0907421,-0.0739245,-0.0756029,-0.0784964,507,109,-250.547,-250.547,-206.586,-206.586,2.7
0.680349,0.69835,0.566841,0.568083,-0.0909115,-0.0743023,-0.075744,-0.0788762,508,107,-251.684,-251.684,-206.54,-206.54,2.704
0.679985,0.698047,0.566537,0.567764,-0.0910807,-0.0747845,-0.075885,-0.0791869,507,105,-252.818,-252.818,-206.484,-206.484,2.708
0.67962,0.697743,0.566234,0.567445,-0.0912498,-0.0751348,-0.0760258,-0.0793653,508,104,-253.944,-253.944,-206.42,-206.42,2.712
0.679255,0.697435,0.565929,0.567122,-0.0914187,-0.0758289,-0.0761666,-0.0798009,506,101,-255.067,-255.067,-206.353,-206.353,2.716
0.678889,0.697125,0.565624,0.566801,-0.0915875,-0.0763205,-0.0763072,-0.0799474,505,101,-256.177,-256.177,-206.274,-206.274,2.72
0.678522,0.696813,0.565319,0.566478,-0.0917562,-0.0768785,-0.0764478,-0.0802178,504,99,-257.28,-257.28,-206.193,-206.193,2.724
0.678155,0.696498,0.565013,0.566156,-0.0919247,-0.0775097,-0.0765882,-0.0803117,502,100,-258.372,-258.372,-206.107,-206.107,2.728
0.677787,0.696183,0.564706,0.565833,-0.0920931,-0.0779592,-0.0767284,-0.0805182,502,99,-259.453,-259.453,-206.021,-206.021,2.732
0.677418,0.695864,0.564399,0.565511,-0.0922613,-0.0785756,-0.0768686,-0.0804544,501,100,-260.528,-260.528,-205.933,-205.933,2.736
0.677048,0.695541,0.564091,0.565186,-0.0924294,-0.0793033,-0.0770087,-0.0807285,498,99,-261.59,-261.59,-205.851,-205.851,2.74
0.676678,0.695221,0.563783,0.564865,-0.0925973,-0.0795005,-0.0771486,-0.0805946,500,101,-262.639,-262.639,-205.764,-205.764,2.744
0.676308,0.6949,0.563474,0.564541,-0.0927651,-0.0797471,-0.0772884,-0.080678,501,101,-263.689,-263.689,-205.688,-205.688,2.748
0.675936,0.694578,0.563164,0.564222,-0.0929328,-0.0799691,-0.0774281,-0.0803882,502,105,-264.739,-264.739,-205.614,-205.614,2.752
0.675564,0.694255,0.562854,0.5639,-0.0931003,-0.0802322,-0.0775676,-0.080454,503,106,-265.789,-265.789,-205.557,-205.557,2.756
0.675191,0.693935,0.562544,0.563581,-0.0932676,-0.0802061,-0.0777071,-0.0802388,506,109,-266.839,-266.839,-205.503,-205.503,2.76
0.674818,0.693607,0.562233,0.563257,-0.0934348,-0.0807933,-0.0778464,-0.0804409,504,108,-267.896,-267.896,-205.462,-205.462,2.764
0.674444,0.693283,0.561921,0.562937,-0.0936019,-0.0808393,-0.0779856,-0.0803164,507,111,-268.943,-268.943,-205.42,-205.42,2.768
0.674069,0.692957,0.561609,0.562615,-0.0937688,-0.0811003,-0.0781246,-0.0804062,507,111,-269.996,-269.996,-205.387,-205.387,2.772
0.673694,0.692633,0.561296,0.562292,-0.0939356,-0.0810728,-0.0782636,-0.0805237,510,111,-271.049,-271.049,-205.356,-205.356,2.776
0.673318,0.692304,0.560983,0.561966,-0.0941022,-0.0813999,-0.0784024,-0.0808323,511,109,-272.108,-272.108,-205.325,-205.325,2.78
0.672941,0.691975,0.560669,0.561636,-0.0942686,-0.0817043,-0.078541,-0.0813547,511,105,-273.165,-273.165,-205.286,-205.286,2.784
0.672564,0.691644,0.560355,0.561309,-0.0944349,-0.0820801,-0.0786796,-0.0814727,511,105,-274.22,-274.22,-205.23,-205.23,2.788
0.672186,0.69131,0.56004,0.560979,-0.0946011,-0.0825033,-0.078818,-0.0818105,511,103,-275.27,-275.27,-205.175,-205.175,2.792
0.671807,0.690971,0.559724,0.560648,-0.0947671,-0.0832749,-0.0789563,-0.082122,508,101,-276.314,-276.314,-205.11,-205.11,2.796
0.671427,0.690631,0.559408,0.560314,-0.0949329,-0.0838756,-0.0790945,-0.0826176,507,97,-277.341,-277.341,-205.037,-205.037,2.8
0.671047,0.690286,0.559091,0.559982,-0.0950986,-0.0846504,-0.0792325,-0.0827753,504,97,-278.356,-278.356,-204.949,-204.949,2.804
0.670667,0.689939,0.558774,0.559645,-0.0952641,-0.0853397,-0.0793704,-0.0832259,502,94,-279.354,-279.354,-204.859,-204.859,2.808
0.670285,0.689591,0.558456,0.559312,-0.0954295,-0.0859144,-0.0795082,-0.0832384,500,95,-280.338,-280.338,-204.755,-204.755,2.812
0.669903,0.689243,0.558138,0.55898,-0.0955947,-0.0862975,-0.0796458,-0.0831315,500,97,-281.311,-281.311,-204.657,-204.657,2.816
0.66952,0.68889,0.557819,0.558647,-0.0957597,-0.0868984,-0.0797833,-0.0831755,498,97,-282.279,-282.279,-204.567,-204.567,2.82
0.669137,0.688538,0.5575,0.558316,-0.0959246,-0.0872702,-0.0799207,-0.083032,498,100,-283.236,-283.236,-204.482,-204.482,2.824
0.668753,0.688182,0.55718,0.557985,-0.0960893,-0.0878636,-0.080058,-0.0829652,496,102,-284.186,-284.186,-204.407,-204.407,2.828
0.668368,0.687821,0.556859,0.557653,-0.0962539,-0.0886622,-0.0801951,-0.0829782,493,102,-285.125,-285.125,-204.341,-204.341,2.832
0.667983,0.687464,0.556538,0.557325,-0.0964183,-0.088878,-0.080332,-0.0826414,494,107,-286.046,-286.046,-204.28,-204.28,2.836
0.667597,0.687102,0.556217,0.556997,-0.0965825,-0.0893961,-0.0804689,-0.0824456,493,110,-286.967,-286.967,-204.238,-204.238,2.84
0.66721,0.686739,0.555894,0.556668,-0.0967466,-0.0898567,-0.0806056,-0.0823439,492,112,-287.878,-287.878,-204.21,-204.21,2.844
0.666823,0.686371,0.555572,0.556336,-0.0969105,-0.090538,-0.0807421,-0.0825928,489,111,-288.78,-288.78,-204.191,-204.191,2.848
0.666435,0.686006,0.555248,0.556006,-0.0970742,-0.0907619,-0.0808785,-0.082586,490,112,-289.669,-289.669,-204.167,-204.167,2.852
0.666046,0.685637,0.554925,0.555674,-0.0972378,-0.0912854,-0.0810148,-0.0826966,489,112,-290.556,-290.556,-204.149,-204.149,2.856
0.665657,0.685267,0.5546,0.555339,-0.0974012,-0.0917208,-0.081151,-0.0830583,488,110,-291.434,-291.434,-204.13,-204.13,2.86
0.665267,0.684896,0.554275,0.555002,-0.0975644,-0.0920111,-0.081287,-0.0834721,488,107,-292.304,-292.304,-204.102,-204.102,2.864
0.664877,0.684528,0.55395,0.554665,-0.0977275,-0.0920606,-0.0814228,-0.083748,490,106,-293.172,-293.172,-204.062,-204.062,2.868
0.664485,0.68416,0.553624,0.554327,-0.0978904,-0.0920073,-0.0815585,-0.0839895,493,104,-294.044,-294.044,-204.015,-204.015,2.872
0.664094,0.68379,0.553298,0.553984,-0.0980531,-0.0921733,-0.0816941,-0.0845824,494,100,-294.925,-294.925,-203.962,-203.962,2.876
0.663701,0.683425,0.552971,0.553642,-0.0982156,-0.0918521,-0.0818295,-0.0848625,498,98,-295.807,-295.807,-203.89,-203.89,2.88
0.663308,0.683062,0.552643,0.553301,-0.098378,-0.091494,-0.0819648,-0.0849916,503,98,-296.706,-296.706,-203.811,-203.811,2.884
0.662914,0.682696,0.552315,0.552959,-0.0985402,-0.0915432,-0.0821,-0.0851929,505,97,-297.621,-297.621,-203.732,-203.732,2.888
0.66252,0.682327,0.551986,0.552616,-0.0987023,-0.0917487,-0.082235,-0.0853559,506,96,-298.541,-298.541,-203.65,-203.65,2.892
0.662124,0.681958,0.551657,0.552273,-0.0988641,-0.0919145,-0.0823698,-0.0854357,507,97,-299.462,-299.462,-203.566,-203.566,2.896
0.661729,0.681584,0.551327,0.551928,-0.0990258,-0.0923993,-0.0825045,-0.0857481,506,95,-300.382,-300.382,-203.483,-203.483,2.9
0.661332,0.681214,0.550997,0.551588,-0.0991873,-0.0924922,-0.0826391,-0.0854956,508,98,-301.295,-301.295,-203.393,-203.393,2.904
0.660935,0.680837,0.550666,0.551245,-0.0993486,-0.0930436,-0.0827735,-0.0856153,506,98,-302.209,-302.209,-203.318,-203.318,2.908
0.660537,0.680457,0.550335,0.550902,-0.0995098,-0.0936991,-0.0829078,-0.0856374,504,99,-303.113,-303.113,-203.244,-203.244,2.912
0.660139,0.680071,0.550003,0.550559,-0.0996708,-0.0946543,-0.0830419,-0.085681,499,100,-304.002,-304.002,-203.174,-203.174,2.916
0.65974,0.679682,0.54967,0.550214,-0.0998316,-0.0955502,-0.0831759,-0.0858252,495,99,-304.866,-304.866,-203.107,-203.107,2.92
0.65934,0.67929,0.549337,0.549872,-0.0999922,-0.0963491,-0.0833097,-0.0857774,492,101,-305.709,-305.709,-203.039,-203.039,2.924
0.65894,0.678896,0.549004,0.549528,-0.100153,-0.0970544,-0.0834434,-0.0858319,489,102,-306.533,-306.533,-202.978,-202.978,2.928
0.658539,0.678499,0.54867,0.549182,-0.100313,-0.0978125,-0.0835769,-0.086041,486,101,-307.34,-307.34,-202.92,-202.92,2.932
0.658138,0.678102,0.548335,0.548836,-0.100473,-0.0982315,-0.0837102,-0.0861516,485,101,-308.129,-308.129,-202.858,-202.858,2.936
0.657735,0.677708,0.548,0.548493,-0.100633,-0.0983093,-0.0838435,-0.0860526,486,103,-308.912,-308.912,-202.797,-202.797,2.94
0.657333,0.677313,0.547665,0.548148,-0.100793,-0.0984764,-0.0839765,-0.0861593,487,103,-309.698,-309.698,-202.745,-202.745,2.944
0.656929,0.676918,0.547328,0.5478,-0.100952,-0.0985589,-0.0841094,-0.0863744,488,102,-310.485,-310.485,-202.693,-202.693,2.948
0.656525,0.676524,0.546992,0.547451,-0.101111,-0.0985276,-0.0842422,-0.0867194,491,100,-311.274,-311.274,-202.637,-202.637,2.952
0.65612,0.676131,0.546654,0.547103,-0.101271,-0.0984779,-0.0843748,-0.0867766,493,100,-312.071,-312.071,-202.572,-202.572,2.956
0.655715,0.675743,0.546317,0.546755,-0.10143,-0.098013,-0.0845072,-0.0869011,499,100,-312.876,-312.876,-202.51,-202.51,2.96
0.655309,0.675352,0.545978,0.546406,-0.101588,-0.0979045,-0.0846395,-0.0869841,502,100,-313.7,-313.7,-202.448,-202.448,2.964
0.654902,0.674961,0.54564,0.546056,-0.101747,-0.0978322,-0.0847717,-0.0871834,504,99,-314.534,-314.534,-202.386,-202.386,2.968
0.654495,0.674563,0.5453,0.545702,-0.101905,-0.0984174,-0.0849036,-0.0875466,502,97,-315.374,-315.374,-202.322,-202.322,2.972
0.654087,0.674164,0.54496,0.545353,-0.102064,-0.0988075,-0.0850354,-0.0875296,502,98,-316.202,-316.202,-202.248,-202.248,2.976
0.653678,0.67376,0.54462,0.545,-0.102222,-0.0995571,-0.0851671,-0.0877486,498,97,-317.022,-317.022,-202.179,-202.179,2.98
0.653269,0.673354,0.544279,0.544645,-0.102379,-0.100201,-0.0852986,-0.0880386,496,95,-317.825,-317.825,-202.105,-202.105,2.984
0.652859,0.672947,0.543938,0.544294,-0.102537,-0.100716,-0.08543,-0.0880015,494,97,-318.613,-318.613,-202.025,-202.025,2.988
0.652449,0.672538,0.543596,0.543938,-0.102694,-0.101261,-0.0855611,-0.0882648,492,95,-319.39,-319.39,-201.951,-201.951,2.992
0.652038,0.672123,0.543253,0.54358,-0.102852,-0.102057,-0.0856922,-0.0887282,489,92,-320.155,-320.155,-201.87,-201.87,2.996
0.651626,0.671716,0.54291,0.543226,-0.103009,-0.101982,-0.085823,-0.0886052,491,94,-320.902,-320.902,-201.776,-201.776,3
0.651214,0.671303,0.542566,0.542871,-0.103166,-0.102422,-0.0859537,-0.088696,490,94,-321.656,-321.656,-201.692,-201.692,3.004
0.650801,0.670891,0.542222,0.542514,-0.103322,-0.102629,-0.0860842,-0.0888717,490,93,-322.401,-322.401,-201.608,-201.608,3.008
0.650387,0.67048,0.541878,0.542157,-0.103479,-0.102652,-0.0862146,-0.0890176,492,93,-323.146,-323.146,-201.522,-201.522,3.012
0.649973,0.670071,0.541533,0.541797,-0.103635,-0.102494,-0.0863448,-0.0893452,495,91,-323.896,-323.896,-201.434,-201.434,3.016
0.649558,0.669658,0.541187,0.541437,-0.103791,-0.102706,-0.0864749,-0.0895636,496,90,-324.655,-324.655,-201.338,-201.338,3.02
0.649142,0.669248,0.540841,0.541078,-0.103947,-0.102645,-0.0866047,-0.0895653,498,91,-325.414,-325.414,-201.237,-201.237,3.024
0.648726,0.668835,0.540494,0.540719,-0.104103,-0.102864,-0.0867345,-0.0896527,498,91,-326.179,-326.179,-201.141,-201.141,3.028
0.64831,0.668421,0.540147,0.54036,-0.104258,-0.103068,-0.086864,-0.0897111,499,91,-326.943,-326.943,-201.047,-201.047,3.032
0.647892,0.668003,0.539799,0.540002,-0.104414,-0.103549,-0.0869934,-0.0896636,497,93,-327.705,-327.705,-200.955,-200.955,3.036
0.647474,0.667586,0.539451,0.539643,-0.104569,-0.103841,-0.0871226,-0.0896607,497,94,-328.458,-328.458,-200.87,-200.87,3.04
0.647056,0.667165,0.539102,0.539284,-0.104723,-0.104266,-0.0872516,-0.0896876,496,95,-329.206,-329.206,-200.79,-200.79,3.044
0.646637,0.66674,0.538753,0.538923,-0.104878,-0.104952,-0.0873805,-0.0898782,493,94,-329.945,-329.945,-200.714,-200.714,3.048
0.646217,0.666309,0.538403,0.538562,-0.105033,-0.10587,-0.0875092,-0.0899765,488,94,-330.667,-330.667,-200.635,-200.635,3.052
0.645796,0.665885,0.538053,0.538206,-0.105187,-0.105935,-0.0876378,-0.089639,490,98,-331.367,-331.367,-200.557,-200.557,3.056
0.645375,0.665456,0.537702,0.537848,-0.105341,-0.106353,-0.0877661,-0.0896443,489,99,-332.069,-332.069,-200.498,-200.498,3.06
0.644954,0.665025,0.537351,0.537485,-0.105495,-0.106804,-0.0878943,-0.0899934,487,97,-332.762,-332.762,-200.443,-200.443,3.064
0.644531,0.664595,0.536999,0.537125,-0.105649,-0.107019,-0.0880224,-0.0899669,487,98,-333.447,-333.447,-200.379,-200.379,3.068
0.644108,0.664165,0.536647,0.536766,-0.105802,-0.107219,-0.0881502,-0.0898917,488,100,-334.13,-334.13,-200.322,-200.322,3.072
0.643685,0.66373,0.536294,0.536402,-0.105955,-0.107699,-0.0882779,-0.0902734,486,97,-334.811,-334.811,-200.271,-200.271,3.076
0.643261,0.6633,0.53594,0.536042,-0.106108,-0.107644,-0.0884054,-0.09024,488,99,-335.482,-335.482,-200.21,-200.21,3.08
0.642836,0.662866,0.535587,0.535679,-0.106261,-0.107924,-0.0885327,-0.0903905,488,98,-336.159,-336.159,-200.156,-200.156,3.084
