peachynonah/Fire_monitor_KIRO_CDSL/csv_datas/trial12/cdsl_data_t12_16_d.csv
joint1_pos_desired, joint1_pos, joint2_pos_desired, joint2_pos, joint1_vel_desired, joint1_vel_filtered, joint2_vel_desired, joint2_vel_filtered, target_torque_joint1, target_torque_joint2, estimated_disturbance_joint1, saturated_DOB_joint1, estimated_disturbance_joint2, saturated_DOB_joint2, current_time
1.503,1.50126,1.04,1.03784,-9.01439e-08,0,-6.2375e-08,0,-5,-23,-0,-0,-49.9696,-49.9696,0.004
1.503,1.50126,1.04,1.03777,-3.60431e-07,-0.000230327,-2.494e-07,-0.00593093,-5,-81,0.0226724,0.0226724,-49.8528,-49.8528,0.008
1.503,1.50126,1.04,1.03772,-8.10646e-07,-9.59697e-05,-5.60926e-07,-0.00835897,-5,-105,0.0476878,0.0476878,-49.49,-49.49,0.012
1.503,1.50126,1.04,1.03767,-1.44057e-06,5.11839e-05,-9.96803e-07,-0.00902755,-5,-113,0.0711618,0.0711618,-49.0259,-49.0259,0.016
1.503,1.50126,1.04,1.03765,-2.24999e-06,0.000206868,-1.55688e-06,-0.00843681,-4,-108,0.0929425,0.0929425,-48.5342,-48.5342,0.02
1.503,1.50126,1.04,1.03763,-3.23869e-06,0.000281867,-2.24101e-06,-0.00694892,-4,-94,0.112996,0.112996,-48.0678,-48.0678,0.024
1.503,1.50126,1.04,1.03763,-4.40646e-06,0.000303075,-3.04904e-06,-0.0049781,-4,-76,0.132213,0.132213,-47.6643,-47.6643,0.028
1.503,1.50126,1.04,1.03763,-5.75307e-06,0.000230841,-3.98083e-06,-0.00291566,-4,-56,0.151235,0.151235,-47.3438,-47.3438,0.032
1.503,1.50126,1.04,1.03764,-7.27831e-06,0.000125103,-5.03622e-06,-0.00102247,-4,-38,0.171081,0.171081,-47.1101,-47.1101,0.036
1.503,1.50126,1.04,1.03766,-8.98196e-06,8.3402e-05,-6.21506e-06,0.000585157,-5,-23,0.192056,0.192056,-46.9561,-46.9561,0.04
1.503,1.50126,1.04,1.03767,-1.08638e-05,5.56013e-05,-7.51721e-06,0.00180086,-5,-11,0.21347,0.21347,-46.8698,-46.8698,0.044
1.503,1.50126,1.04,1.03769,-1.29237e-05,3.70675e-05,-8.94252e-06,0.00264012,-5,-3,0.235168,0.235168,-46.8347,-46.8347,0.048
1.503,1.50126,1.04,1.03771,-1.51613e-05,2.47117e-05,-1.04908e-05,0.00311325,-5,1,0.257045,0.257045,-46.8352,-46.8352,0.052
1.503,1.50126,1.04,1.03772,-1.75764e-05,1.64745e-05,-1.2162e-05,0.0033423,-5,4,0.279032,0.279032,-46.856,-46.856,0.056
1.503,1.50126,1.04,1.03774,-2.01689e-05,1.0983e-05,-1.39559e-05,0.00332226,-5,4,0.30108,0.30108,-46.8867,-46.8867,0.06
1.503,1.50126,1.04,1.03775,-2.29386e-05,7.32198e-06,-1.58723e-05,0.00307857,-5,1,0.323157,0.323157,-46.9168,-46.9168,0.064
1.503,1.50126,1.04,1.03775,-2.58851e-05,3.36722e-05,-1.79112e-05,0.0026282,-5,-2,0.345218,0.345218,-46.9369,-46.9369,0.068
1.503,1.50126,1.04,1.03776,-2.90083e-05,2.24482e-05,-2.00723e-05,0.00204004,-5,-7,0.366972,0.366972,-46.9381,-46.9381,0.072
1.503,1.50126,1.04,1.03776,-3.2308e-05,1.49654e-05,-2.23555e-05,0.00141761,-5,-13,0.388812,0.388812,-46.9148,-46.9148,0.076
1.503,1.50126,1.04,1.03776,-3.5784e-05,9.97696e-06,-2.47607e-05,0.00088749,-5,-18,0.410696,0.410696,-46.8655,-46.8655,0.08
1.503,1.50126,1.04,1.03775,-3.9436e-05,6.65131e-06,-2.72877e-05,0.000476497,-5,-22,0.432594,0.432594,-46.7943,-46.7943,0.084
1.503,1.50126,1.04,1.03775,-4.32639e-05,4.43421e-06,-2.99364e-05,0.000317664,-5,-24,0.454486,0.454486,-46.7063,-46.7063,0.088
1.503,1.50126,1.04,1.03776,-4.72673e-05,2.95614e-06,-3.27066e-05,0.000298149,-5,-24,0.476356,0.476356,-46.612,-46.612,0.092
1.503,1.50126,1.04,1.03776,-5.14462e-05,-2.68202e-05,-3.55982e-05,0.000285139,-5,-24,0.498218,0.498218,-46.5171,-46.5171,0.096
1.503,1.50126,1.04,1.03776,-5.58003e-05,-1.78801e-05,-3.8611e-05,0.000218883,-5,-25,0.52034,0.52034,-46.4218,-46.4218,0.1
1.503,1.50126,1.04,1.03776,-6.03293e-05,1.68709e-05,-4.17448e-05,0.000145922,-5,-26,0.542288,0.542288,-46.3237,-46.3237,0.104
1.503,1.50126,1.04,1.03776,-6.50331e-05,1.12472e-05,-4.49996e-05,9.72815e-05,-5,-26,0.563816,0.563816,-46.2228,-46.2228,0.108
1.503,1.50126,1.04,1.03776,-6.99115e-05,-2.12928e-05,-4.83752e-05,6.48544e-05,-5,-27,0.585374,0.585374,-46.12,-46.12,0.112
1.503,1.50126,1.04,1.03776,-7.49642e-05,-1.41952e-05,-5.18714e-05,7.20272e-05,-5,-27,0.607213,0.607213,-46.0161,-46.0161,0.116
1.503,1.50126,1.04,1.03776,-8.0191e-05,-9.46345e-06,-5.54881e-05,4.80181e-05,-5,-27,0.628912,0.628912,-45.9126,-45.9126,0.12
1.503,1.50126,1.04,1.03776,-8.55917e-05,-6.30897e-06,-5.92251e-05,3.22115e-06,-5,-28,0.650496,0.650496,-45.8082,-45.8082,0.124
1.503,1.50126,1.04,1.03776,-9.11661e-05,-4.20598e-06,-6.30823e-05,2.14743e-06,-5,-28,0.67198,0.67198,-45.7022,-45.7022,0.128
1.503,1.50126,1.04,1.03776,-9.6914e-05,2.59869e-05,-6.70596e-05,1.43162e-06,-5,-28,0.69335,0.69335,-45.5963,-45.5963,0.132
1.503,1.50126,1.04,1.03776,-0.000102835,1.73246e-05,-7.11567e-05,2.97453e-05,-5,-28,0.714335,0.714335,-45.4906,-45.4906,0.136
1.50299,1.50126,1.04,1.03776,-0.000108929,1.15498e-05,-7.53736e-05,1.98302e-05,-5,-28,0.735343,0.735343,-45.3862,-45.3862,0.14
1.50299,1.50126,1.04,1.03776,-0.000115196,7.69983e-06,-7.97101e-05,1.32202e-05,-5,-28,0.756341,0.756341,-45.2816,-45.2816,0.144
1.50299,1.50126,1.04,1.03776,-0.000121636,5.13322e-06,-8.4166e-05,3.76044e-05,-5,-28,0.777304,0.777304,-45.177,-45.177,0.148
1.50299,1.50126,1.04,1.03776,-0.000128248,3.42215e-06,-8.87412e-05,2.50696e-05,-5,-28,0.798217,0.798217,-45.0736,-45.0736,0.152
1.50299,1.50126,1.04,1.03776,-0.000135032,-2.65095e-05,-9.34356e-05,7.42949e-05,-5,-27,0.81909,0.81909,-44.97,-44.97,0.156
1.50299,1.50126,1.03999,1.03776,-0.000141989,1.11179e-05,-9.82489e-05,0.000107112,-5,-27,0.840169,0.840169,-44.8686,-44.8686,0.16
1.50299,1.50126,1.03999,1.03776,-0.000149117,-2.1379e-05,-0.000103181,0.00012899,-5,-27,0.860787,0.860787,-44.7689,-44.7689,0.164
1.50299,1.50126,1.03999,1.03776,-0.000156416,1.45383e-05,-0.000108232,0.000143575,-5,-27,0.881634,0.881634,-44.6704,-44.6704,0.168
1.50299,1.50126,1.03999,1.03776,-0.000163887,-1.90987e-05,-0.000113402,0.000153299,-5,-27,0.902036,0.902036,-44.5727,-44.5727,0.172
1.50299,1.50126,1.03999,1.03776,-0.000171529,-1.27325e-05,-0.00011869,0.00013099,-5,-27,0.922698,0.922698,-44.4756,-44.4756,0.176
1.50299,1.50126,1.03999,1.03776,-0.000179342,2.03026e-05,-0.000124096,8.73266e-05,-5,-28,0.943171,0.943171,-44.3779,-44.3779,0.18
1.50299,1.50126,1.03999,1.03776,-0.000187326,1.35351e-05,-0.00012962,8.70087e-05,-5,-28,0.9632,0.9632,-44.2786,-44.2786,0.184
1.50299,1.50126,1.03999,1.03776,-0.00019548,9.02338e-06,-0.000135262,5.80058e-05,-5,-28,0.983204,0.983204,-44.1795,-44.1795,0.188
1.50299,1.50126,1.03999,1.03776,-0.000203805,6.01558e-06,-0.000141022,3.86705e-05,-5,-28,1.00316,1.00316,-44.0795,-44.0795,0.192
1.50299,1.50126,1.03999,1.03776,-0.000212299,-2.47805e-05,-0.0001469,2.57803e-05,-5,-28,1.02306,1.02306,-43.979,-43.979,0.196
1.50299,1.50126,1.03999,1.03776,-0.000220964,1.22706e-05,-0.000152896,1.71869e-05,-5,-28,1.04315,1.04315,-43.8782,-43.8782,0.2
1.50298,1.50126,1.03999,1.03776,-0.000229798,8.18038e-06,-0.000159008,1.14579e-05,-5,-28,1.06275,1.06275,-43.7774,-43.7774,0.204
1.50298,1.50126,1.03999,1.03776,-0.000238801,5.45359e-06,-0.000165238,7.63862e-06,-5,-29,1.08228,1.08228,-43.6765,-43.6765,0.208
1.50298,1.50126,1.03999,1.03776,-0.000247974,3.63572e-06,-0.000171585,5.09241e-06,-5,-29,1.10172,1.10172,-43.5759,-43.5759,0.212
1.50298,1.50126,1.03999,1.03776,-0.000257316,-2.63671e-05,-0.000178049,3.39494e-06,-5,-29,1.12109,1.12109,-43.4754,-43.4754,0.216
1.50298,1.50126,1.03999,1.03776,-0.000266826,1.12129e-05,-0.00018463,2.2633e-06,-5,-29,1.14064,1.14064,-43.3752,-43.3752,0.22
1.50298,1.50126,1.03999,1.03776,-0.000276505,-2.13157e-05,-0.000191328,1.50886e-06,-5,-29,1.15968,1.15968,-43.2752,-43.2752,0.224
1.50298,1.50126,1.03998,1.03776,-0.000286353,1.45805e-05,-0.000198142,1.00591e-06,-5,-29,1.17892,1.17892,-43.1755,-43.1755,0.228
1.50298,1.50126,1.03998,1.03776,-0.000296368,9.72031e-06,-0.000205072,6.70606e-07,-5,-29,1.19766,1.19766,-43.0762,-43.0762,0.232
1.50298,1.50126,1.03998,1.03776,-0.000306552,-2.23107e-05,-0.000212118,4.47071e-07,-5,-29,1.21635,1.21635,-42.9771,-42.9771,0.236
1.50297,1.50126,1.03998,1.03776,-0.000316903,1.39171e-05,-0.000219281,2.98047e-07,-5,-29,1.23522,1.23522,-42.8784,-42.8784,0.24
1.50297,1.50126,1.03998,1.03776,-0.000327422,-1.95128e-05,-0.00022656,1.98698e-07,-5,-29,1.25359,1.25359,-42.78,-42.78,0.244
1.50297,1.50126,1.03998,1.03776,-0.000338108,-1.30086e-05,-0.000233954,1.32465e-07,-5,-29,1.27218,1.27218,-42.682,-42.682,0.248
1.50297,1.50126,1.03998,1.03776,-0.000348962,2.01185e-05,-0.000241464,8.83103e-08,-5,-29,1.29054,1.29054,-42.5843,-42.5843,0.252
1.50297,1.50126,1.03998,1.03776,-0.000359982,-1.53786e-05,-0.000249089,5.88735e-08,-5,-29,1.30843,1.30843,-42.487,-42.487,0.256
1.50297,1.50126,1.03998,1.03776,-0.000371169,1.85386e-05,-0.00025683,2.88302e-05,-5,-29,1.32653,1.32653,-42.3901,-42.3901,0.26
1.50297,1.50126,1.03998,1.03776,-0.000382522,-1.64319e-05,-0.000264686,7.6802e-05,-5,-28,1.34415,1.34415,-42.2949,-42.2949,0.264
1.50296,1.50126,1.03998,1.03776,-0.000394042,1.78363e-05,-0.000272657,-6.38054e-06,-5,-29,1.36197,1.36197,-42.2018,-42.2018,0.268
1.50296,1.50126,1.03997,1.03776,-0.000405727,-1.69e-05,-0.000280743,8.21191e-05,-5,-28,1.3793,1.3793,-42.1059,-42.1059,0.272
1.50296,1.50126,1.03997,1.03776,-0.000417579,1.75242e-05,-0.000288943,8.3537e-05,-5,-28,1.39682,1.39682,-42.0141,-42.0141,0.276
1.50296,1.50126,1.03997,1.03776,-0.000429596,-1.71081e-05,-0.000297259,8.44822e-05,-5,-28,1.41385,1.41385,-41.9227,-41.9227,0.28
1.50296,1.50126,1.03997,1.03776,-0.000441778,-1.14054e-05,-0.000305688,5.63215e-05,-5,-28,1.43108,1.43108,-41.8317,-41.8317,0.284
1.50296,1.50126,1.03997,1.03776,-0.000454126,2.11873e-05,-0.000314232,9.51295e-05,-5,-28,1.44806,1.44806,-41.7401,-41.7401,0.288
1.50295,1.50126,1.03997,1.03776,-0.000466639,1.41249e-05,-0.000322891,9.22106e-05,-5,-28,1.46454,1.46454,-41.6505,-41.6505,0.292
1.50295,1.50126,1.03997,1.03777,-0.000479317,9.41659e-06,-0.000331663,9.02647e-05,-5,-28,1.48094,1.48094,-41.5612,-41.5612,0.296
1.50295,1.50126,1.03997,1.03777,-0.000492159,6.27773e-06,-0.000340549,0.000117758,-5,-28,1.49721,1.49721,-41.4724,-41.4724,0.3
1.50295,1.50126,1.03996,1.03777,-0.000505165,4.18515e-06,-0.000349549,0.000107296,-5,-28,1.51335,1.51335,-41.3851,-41.3851,0.304
1.50295,1.50126,1.03996,1.03777,-0.000518336,-2.60008e-05,-0.000358662,4.274e-05,-5,-28,1.52937,1.52937,-41.2977,-41.2977,0.308
1.50294,1.50126,1.03996,1.03777,-0.000531671,1.1457e-05,-0.000367889,8.60752e-05,-5,-28,1.5455,1.5455,-41.2083,-41.2083,0.312
1.50294,1.50126,1.03996,1.03777,-0.000545169,7.63803e-06,-0.000377229,8.61744e-05,-5,-28,1.56106,1.56106,-41.1211,-41.1211,0.316
1.50294,1.50126,1.03996,1.03777,-0.000558831,5.09202e-06,-0.000386683,5.74496e-05,-5,-28,1.57648,1.57648,-41.0343,-41.0343,0.32
1.50294,1.50126,1.03996,1.03777,-0.000572656,-2.53962e-05,-0.000396249,9.58816e-05,-5,-28,1.59176,1.59176,-40.9469,-40.9469,0.324
1.50294,1.50126,1.03996,1.03777,-0.000586644,-1.69308e-05,-0.000405928,3.51301e-05,-5,-28,1.60718,1.60718,-40.8615,-40.8615,0.328
1.50293,1.50126,1.03995,1.03777,-0.000600796,-1.12872e-05,-0.00041572,2.34201e-05,-4,-28,1.62232,1.62232,-40.774,-40.774,0.332
1.50293,1.50126,1.03995,1.03777,-0.00061511,-7.52481e-06,-0.000425625,1.56134e-05,-4,-29,1.63721,1.63721,-40.6866,-40.6866,0.336
1.50293,1.50126,1.03995,1.03777,-0.000629586,2.37744e-05,-0.000435642,-1.8382e-05,-4,-29,1.65183,1.65183,-40.5993,-40.5993,0.34
1.50293,1.50126,1.03995,1.03777,-0.000644225,1.58496e-05,-0.000445771,7.41181e-05,-4,-28,1.66594,1.66594,-40.5114,-40.5114,0.344
1.50292,1.50126,1.03995,1.03777,-0.000659026,-1.82245e-05,-0.000456012,7.8203e-05,-4,-28,1.67995,1.67995,-40.4277,-40.4277,0.348
1.50292,1.50126,1.03994,1.03777,-0.000673988,-1.21497e-05,-0.000466366,0.000138508,-4,-27,1.69412,1.69412,-40.3448,-40.3448,0.352
1.50292,1.50126,1.03994,1.03777,-0.000689112,2.06911e-05,-0.000476831,0.000149921,-4,-27,1.708,1.708,-40.265,-40.265,0.356
1.50291,1.50126,1.03994,1.03777,-0.000704398,1.37941e-05,-0.000487408,0.000128738,-4,-27,1.72133,1.72133,-40.1861,-40.1861,0.36
1.50291,1.50126,1.03994,1.03777,-0.000719845,-1.95949e-05,-0.000498096,0.000200989,-4,-26,1.73455,1.73455,-40.1071,-40.1071,0.364
1.50291,1.50126,1.03994,1.03777,-0.000735453,1.57277e-05,-0.000508896,0.000162784,-4,-27,1.74788,1.74788,-40.0315,-40.0315,0.368
1.50291,1.50126,1.03993,1.03777,-0.000751222,1.04851e-05,-0.000519808,0.000166104,-4,-27,1.76063,1.76063,-39.955,-39.955,0.372
1.5029,1.50126,1.03993,1.03777,-0.000767151,6.99008e-06,-0.00053083,0.000139527,-4,-27,1.77322,1.77322,-39.8791,-39.8791,0.376
1.5029,1.50126,1.03993,1.03777,-0.000783241,-2.41309e-05,-0.000541963,0.000208182,-4,-26,1.78565,1.78565,-39.8029,-39.8029,0.38
1.5029,1.50126,1.03993,1.03777,-0.000799491,-1.60872e-05,-0.000553207,0.000167579,-4,-26,1.79818,1.79818,-39.7301,-39.7301,0.384
1.50289,1.50126,1.03993,1.03778,-0.000815901,1.80661e-05,-0.000564562,0.000198092,-4,-26,1.81038,1.81038,-39.6562,-39.6562,0.388
1.50289,1.50126,1.03992,1.03778,-0.000832471,1.20441e-05,-0.000576028,0.000132061,-4,-27,1.82199,1.82199,-39.5841,-39.5841,0.392
1.50289,1.50126,1.03992,1.03778,-0.0008492,8.02937e-06,-0.000587604,0.000145623,-4,-26,1.83344,1.83344,-39.51,-39.51,0.396
1.50288,1.50126,1.03992,1.03778,-0.000866089,5.35292e-06,-0.00059929,0.000125873,-4,-27,1.8447,1.8447,-39.437,-39.437,0.4
1.50288,1.50126,1.03992,1.03778,-0.000883137,-2.52223e-05,-0.000611086,0.000170288,-4,-26,1.85577,1.85577,-39.3639,-39.3639,0.404
1.50288,1.50126,1.03991,1.03778,-0.000900343,-1.68149e-05,-0.000622992,0.000199898,-4,-26,1.86693,1.86693,-39.2934,-39.2934,0.408
1.50287,1.50126,1.03991,1.03778,-0.000917709,-1.12099e-05,-0.000635008,0.000190847,-4,-26,1.87775,1.87775,-39.2247,-39.2247,0.412
1.50287,1.50126,1.03991,1.03778,-0.000935233,2.13176e-05,-0.000647134,0.000156022,-4,-26,1.88825,1.88825,-39.1562,-39.1562,0.416
1.50287,1.50126,1.03991,1.03778,-0.000952915,-1.45792e-05,-0.000659369,0.000219179,-4,-25,1.89818,1.89818,-39.0871,-39.0871,0.42
1.50286,1.50126,1.0399,1.03778,-0.000970756,1.90715e-05,-0.000671714,0.00017491,-4,-26,1.90822,1.90822,-39.0212,-39.0212,0.424
1.50286,1.50126,1.0399,1.03778,-0.000988754,1.27143e-05,-0.000684168,0.00023177,-4,-25,1.91765,1.91765,-38.9543,-38.9543,0.428
1.50285,1.50126,1.0399,1.03778,-0.00100691,-2.03147e-05,-0.000696731,0.000183305,-4,-25,1.92692,1.92692,-38.8902,-38.8902,0.432
1.50285,1.50126,1.0399,1.03778,-0.00102522,1.52478e-05,-0.000709403,0.000237367,-3,-25,1.93626,1.93626,-38.8251,-38.8251,0.436
1.50285,1.50126,1.03989,1.03779,-0.00104369,1.01652e-05,-0.000722184,0.000187035,-3,-25,1.94496,1.94496,-38.7627,-38.7627,0.44
1.50284,1.50126,1.03989,1.03779,-0.00106232,6.77679e-06,-0.000735073,0.000182272,-3,-25,1.95346,1.95346,-38.699,-38.699,0.444
1.50284,1.50126,1.03989,1.03779,-0.00108111,-2.42731e-05,-0.000748071,0.000179097,-3,-25,1.96175,1.96175,-38.6359,-38.6359,0.448
1.50283,1.50126,1.03988,1.03779,-0.00110005,-1.6182e-05,-0.000761178,0.000148189,-3,-25,1.9701,1.9701,-38.5733,-38.5733,0.452
1.50283,1.50126,1.03988,1.03779,-0.00111915,1.80029e-05,-0.000774393,9.87924e-05,-3,-26,1.97807,1.97807,-38.51,-38.51,0.456
1.50282,1.50126,1.03988,1.03779,-0.0011384,1.20019e-05,-0.000787716,9.46525e-05,-3,-25,1.9854,1.9854,-38.4455,-38.4455,0.46
1.50282,1.50126,1.03987,1.03779,-0.00115781,8.00129e-06,-0.000801146,0.000120684,-3,-25,1.99252,1.99252,-38.3816,-38.3816,0.464
1.50281,1.50126,1.03987,1.03779,-0.00117738,-2.34567e-05,-0.000814685,5.16648e-05,-3,-26,1.99944,1.99944,-38.3194,-38.3194,0.468
1.50281,1.50126,1.03987,1.03779,-0.0011971,-1.56378e-05,-0.000828331,3.44432e-05,-3,-26,2.00639,2.00639,-38.255,-38.255,0.472
1.5028,1.50126,1.03986,1.03779,-0.00121698,-1.04252e-05,-0.000842085,2.29621e-05,-3,-26,2.01298,2.01298,-38.1908,-38.1908,0.476
1.5028,1.50126,1.03986,1.03779,-0.00123701,2.18408e-05,-0.000855947,-1.34828e-05,-3,-26,2.0192,2.0192,-38.1267,-38.1267,0.48
1.50279,1.50126,1.03986,1.03779,-0.00125719,-4.30213e-05,-0.000869915,7.73842e-05,-3,-25,2.02484,2.02484,-38.062,-38.062,0.484
1.50279,1.50126,1.03985,1.03779,-0.00127754,1.10039e-07,-0.000883991,0.000109171,-3,-25,2.03084,2.03084,-38.0019,-38.0019,0.488
1.50278,1.50126,1.03985,1.03779,-0.00129803,7.33594e-08,-0.000898174,0.000101572,-3,-25,2.03609,2.03609,-37.9439,-37.9439,0.492
1.50278,1.50126,1.03985,1.03779,-0.00131868,2.88398e-05,-0.000912463,9.65055e-05,-3,-24,2.04102,2.04102,-37.8863,-37.8863,0.496
1.50277,1.50126,1.03984,1.03779,-0.00133949,-9.56437e-06,-0.000926859,0.000121919,-3,-24,2.04537,2.04537,-37.8294,-37.8294,0.5
1.50277,1.50126,1.03984,1.03779,-0.00136045,2.24147e-05,-0.000941362,8.12792e-05,-2,-24,2.0498,2.0498,-37.7742,-37.7742,0.504
1.50276,1.50126,1.03984,1.03779,-0.00138156,-1.38478e-05,-0.000955971,5.41861e-05,-2,-24,2.05361,2.05361,-37.7182,-37.7182,0.508
1.50276,1.50126,1.03983,1.03779,-0.00140283,-9.23187e-06,-0.000970687,3.61241e-05,-2,-25,2.05749,2.05749,-37.6618,-37.6618,0.512
1.50275,1.50126,1.03983,1.03779,-0.00142425,2.26363e-05,-0.000985508,2.40827e-05,-2,-25,2.06099,2.06099,-37.6055,-37.6055,0.516
1.50275,1.50126,1.03982,1.03779,-0.00144582,-1.37e-05,-0.00100044,4.48461e-05,-2,-24,2.06386,2.06386,-37.5496,-37.5496,0.52
1.50274,1.50126,1.03982,1.03779,-0.00146755,-9.13335e-06,-0.00101547,5.86883e-05,-2,-24,2.06679,2.06679,-37.4954,-37.4954,0.524
1.50273,1.50126,1.03982,1.03779,-0.00148943,-6.0889e-06,-0.00103061,6.79165e-05,-2,-24,2.06935,2.06935,-37.4426,-37.4426,0.528
1.50273,1.50126,1.03981,1.03779,-0.00151146,-4.05927e-06,-0.00104585,0.000102859,-2,-23,2.07156,2.07156,-37.3911,-37.3911,0.532
1.50272,1.50126,1.03981,1.03779,-0.00153364,2.60847e-05,-0.0010612,0.000126155,-2,-23,2.07339,2.07339,-37.3419,-37.3419,0.536
1.50272,1.50126,1.0398,1.03779,-0.00155598,-1.14011e-05,-0.00107666,0.000170476,-2,-22,2.07461,2.07461,-37.2947,-37.2947,0.54
1.50271,1.50126,1.0398,1.03779,-0.00157847,-7.60073e-06,-0.00109222,0.000113651,-2,-23,2.07588,2.07588,-37.25,-37.25,0.544
1.5027,1.50126,1.03979,1.03779,-0.00160111,-5.06715e-06,-0.00110788,7.57671e-05,-2,-23,2.07678,2.07678,-37.2038,-37.2038,0.548
1.5027,1.50126,1.03979,1.03779,-0.0016239,-3.3781e-06,-0.00112365,5.05114e-05,-2,-23,2.07731,2.07731,-37.157,-37.157,0.552
1.50269,1.50126,1.03979,1.03779,-0.00164684,-2.25207e-06,-0.00113953,3.36743e-05,-2,-23,2.07748,2.07748,-37.11,-37.11,0.556
1.50268,1.50126,1.03978,1.03779,-0.00166993,-1.50138e-06,-0.00115551,2.24495e-05,-1,-23,2.0773,2.0773,-37.0631,-37.0631,0.56
1.50268,1.50126,1.03978,1.03779,-0.00169318,-1.00092e-06,-0.00117159,1.49663e-05,-1,-23,2.07676,2.07676,-37.0168,-37.0168,0.564
1.50267,1.50126,1.03977,1.03779,-0.00171657,2.81236e-05,-0.00118778,6.75594e-05,-1,-22,2.07584,2.07584,-36.9711,-36.9711,0.568
1.50266,1.50126,1.03977,1.03779,-0.00174012,4.754e-05,-0.00120407,1.62487e-05,-1,-22,2.07424,2.07424,-36.9284,-36.9284,0.572
1.50266,1.50126,1.03976,1.03779,-0.00176381,-2.58885e-05,-0.00122047,1.08325e-05,-1,-22,2.07214,2.07214,-36.8845,-36.8845,0.576
1.50265,1.50126,1.03976,1.03779,-0.00178766,-1.7259e-05,-0.00123697,7.22164e-06,-1,-22,2.07045,2.07045,-36.8413,-36.8413,0.58
1.50264,1.50126,1.03975,1.03779,-0.00181165,-1.1506e-05,-0.00125357,4.81442e-06,-1,-22,2.06831,2.06831,-36.799,-36.799,0.584
1.50263,1.50126,1.03975,1.03779,-0.0018358,-7.67067e-06,-0.00127028,3.20962e-06,-1,-22,2.06574,2.06574,-36.7574,-36.7574,0.588
1.50263,1.50126,1.03974,1.03779,-0.0018601,2.36771e-05,-0.00128709,3.09307e-05,-1,-21,2.06273,2.06273,-36.7168,-36.7168,0.592
1.50262,1.50126,1.03974,1.03779,-0.00188454,-1.30062e-05,-0.00130401,2.06204e-05,-1,-21,2.05905,2.05905,-36.6783,-36.6783,0.596
1.50261,1.50126,1.03973,1.03779,-0.00190913,2.01202e-05,-0.00132102,1.3747e-05,-1,-21,2.05536,2.05536,-36.6404,-36.6404,0.6
1.5026,1.50126,1.03973,1.03779,-0.00193388,4.22044e-05,-0.00133814,9.16464e-06,0,-21,2.05092,2.05092,-36.6031,-36.6031,0.604
1.5026,1.50126,1.03972,1.03779,-0.00195877,-6.54686e-07,-0.00135537,6.10976e-06,0,-21,2.04591,2.04591,-36.5666,-36.5666,0.608
1.50259,1.50126,1.03972,1.03779,-0.00198381,-2.92274e-05,-0.00137269,4.07317e-06,0,-21,2.04099,2.04099,-36.531,-36.531,0.612
1.50258,1.50126,1.03971,1.03779,-0.00200899,9.306e-06,-0.00139012,2.71545e-06,0,-21,2.03595,2.03595,-36.4963,-36.4963,0.616
1.50257,1.50126,1.0397,1.03779,-0.00203433,-2.25869e-05,-0.00140765,1.8103e-06,0,-20,2.03015,2.03015,-36.4625,-36.4625,0.62
1.50256,1.50126,1.0397,1.03779,-0.00205981,-4.38489e-05,-0.00142529,1.20687e-06,0,-20,2.02431,2.02431,-36.4298,-36.4298,0.624
1.50256,1.50126,1.03969,1.03779,-0.00208544,2.83493e-05,-0.00144302,8.04578e-07,0,-20,2.01824,2.01824,-36.398,-36.398,0.628
1.50255,1.50126,1.03969,1.03779,-0.00211122,-3.86823e-05,-0.00146086,5.36385e-07,0,-20,2.01107,2.01107,-36.3672,-36.3672,0.632
1.50254,1.50126,1.03968,1.03779,-0.00213715,6.05845e-05,-0.0014788,3.5759e-07,0,-20,2.00413,2.00413,-36.3375,-36.3375,0.636
1.50253,1.50126,1.03968,1.03779,-0.00216322,4.03897e-05,-0.00149684,2.38393e-07,0,-19,1.99574,1.99574,-36.3088,-36.3088,0.64
1.50252,1.50126,1.03967,1.03779,-0.00218944,-5.94463e-05,-0.00151498,1.58929e-07,0,-19,1.98725,1.98725,-36.2812,-36.2812,0.644
1.50251,1.50126,1.03966,1.03779,-0.00221581,-1.08399e-05,-0.00153323,-5.74759e-05,0,-20,1.97936,1.97936,-36.2545,-36.2545,0.648
1.5025,1.50126,1.03966,1.03779,-0.00224232,-7.22663e-06,-0.00155157,1.92646e-05,0,-19,1.97055,1.97055,-36.2266,-36.2266,0.652
1.5025,1.50126,1.03965,1.03779,-0.00226898,5.27641e-05,-0.00157002,1.28431e-05,0,-18,1.96123,1.96123,-36.203,-36.203,0.656
1.50249,1.50126,1.03964,1.03779,-0.00229578,-2.24058e-05,-0.00158857,3.7353e-05,0,-18,1.95092,1.95092,-36.1802,-36.1802,0.66
1.50248,1.50126,1.03964,1.03779,-0.00232274,-4.37281e-05,-0.00160722,-6.14708e-05,0,-19,1.941,1.941,-36.1594,-36.1594,0.664
1.50247,1.50126,1.03963,1.03779,-0.00234983,5.72207e-05,-0.00162596,-4.09805e-05,0,-18,1.93081,1.93081,-36.1356,-36.1356,0.668
1.50246,1.50126,1.03963,1.03779,-0.00237707,-1.94347e-05,-0.00164481,5.90524e-05,0,-17,1.91918,1.91918,-36.114,-36.114,0.672
1.50245,1.50126,1.03962,1.03779,-0.00240446,-4.17474e-05,-0.00166377,-1.82136e-05,0,-18,1.90794,1.90794,-36.0974,-36.0974,0.676
1.50244,1.50126,1.03961,1.03779,-0.00243199,9.59322e-07,-0.00168282,-1.21424e-05,0,-17,1.89648,1.89648,-36.0789,-36.0789,0.68
1.50243,1.50126,1.03961,1.03779,-0.00245967,2.94305e-05,-0.00170197,-8.09492e-06,1,-17,1.88411,1.88411,-36.0617,-36.0617,0.684
1.50242,1.50126,1.0396,1.03779,-0.00248749,-9.17061e-06,-0.00172122,5.21852e-05,1,-16,1.87103,1.87103,-36.0459,-36.0459,0.688
1.50241,1.50126,1.03959,1.03779,-0.00251546,5.14681e-05,-0.00174057,-2.27917e-05,1,-17,1.85786,1.85786,-36.0336,-36.0336,0.692
1.5024,1.50126,1.03958,1.03779,-0.00254357,-2.32698e-05,-0.00176002,-1.51945e-05,1,-16,1.84366,1.84366,-36.0194,-36.0194,0.696
1.50239,1.50126,1.03958,1.03779,-0.00257182,-1.55132e-05,-0.00177957,-1.01296e-05,1,-16,1.8298,1.8298,-36.0067,-36.0067,0.7
1.50238,1.50126,1.03957,1.03779,-0.00260022,-1.03421e-05,-0.00179922,-6.75309e-06,1,-16,1.81541,1.81541,-35.9954,-35.9954,0.704
1.50237,1.50126,1.03956,1.03779,-0.00262876,-3.56857e-05,-0.00181897,-4.50206e-06,1,-15,1.80052,1.80052,-35.9854,-35.9854,0.708
1.50236,1.50126,1.03956,1.03779,-0.00265745,6.25823e-05,-0.00183882,-3.00138e-06,1,-15,1.78537,1.78537,-35.9767,-35.9767,0.712
1.50235,1.50126,1.03955,1.03779,-0.00268628,-4.46512e-05,-0.00185877,-2.00092e-06,1,-15,1.7688,1.7688,-35.9692,-35.9692,0.716
1.50234,1.50126,1.03954,1.03779,-0.00271525,-9.76558e-07,-0.00187881,-1.33394e-06,2,-15,1.75287,1.75287,-35.963,-35.963,0.72
1.50233,1.50126,1.03953,1.03779,-0.00274436,-6.51039e-07,-0.00189896,-8.89296e-07,2,-14,1.73601,1.73601,-35.958,-35.958,0.724
1.50231,1.50126,1.03953,1.03779,-0.00277362,5.71478e-05,-0.0019192,-5.92864e-07,2,-14,1.71862,1.71862,-35.9543,-35.9543,0.728
1.5023,1.50126,1.03952,1.03779,-0.00280302,-4.82742e-05,-0.00193955,2.83957e-05,2,-14,1.70024,1.70024,-35.9519,-35.9519,0.732
1.50229,1.50126,1.03951,1.03779,-0.00283256,2.5399e-05,-0.00195999,-3.86514e-05,2,-14,1.68243,1.68243,-35.9517,-35.9517,0.736
1.50228,1.50126,1.0395,1.03779,-0.00286224,-4.06492e-05,-0.00198053,-2.57676e-05,2,-13,1.66342,1.66342,-35.9501,-35.9501,0.74
1.50227,1.50126,1.03949,1.03779,-0.00289207,1.69148e-06,-0.00200116,-1.71784e-05,2,-13,1.6446,1.6446,-35.9503,-35.9503,0.744
1.50226,1.50126,1.03949,1.03779,-0.00292203,1.12766e-06,-0.0020219,-1.14523e-05,2,-13,1.62484,1.62484,-35.9521,-35.9521,0.748
1.50225,1.50126,1.03948,1.03779,-0.00295214,7.51771e-07,-0.00204273,-7.63484e-06,3,-12,1.60459,1.60459,-35.9555,-35.9555,0.752
1.50223,1.50126,1.03947,1.03779,-0.00298239,5.0118e-07,-0.00206366,-5.0899e-06,3,-12,1.58386,1.58386,-35.9602,-35.9602,0.756
1.50222,1.50126,1.03946,1.03779,-0.00301278,3.3412e-07,-0.00208469,-3.39326e-06,3,-12,1.56264,1.56264,-35.9664,-35.9664,0.76
1.50221,1.50126,1.03945,1.03779,-0.00304331,-5.73591e-05,-0.00210582,-2.26218e-06,3,-11,1.54096,1.54096,-35.9739,-35.9739,0.764
1.5022,1.50126,1.03944,1.03779,-0.00307398,1.93424e-05,-0.00212704,-1.50812e-06,3,-11,1.51934,1.51934,-35.9827,-35.9827,0.768
1.50218,1.50126,1.03944,1.03779,-0.0031048,1.2895e-05,-0.00214836,-1.00541e-06,3,-11,1.4964,1.4964,-35.993,-35.993,0.772
1.50217,1.50126,1.03943,1.03779,-0.00313575,8.59664e-06,-0.00216978,2.81207e-05,3,-10,1.47303,1.47303,-36.0046,-36.0046,0.776
1.50216,1.50126,1.03942,1.03779,-0.00316684,5.7311e-06,-0.00219129,-1.00438e-05,4,-10,1.44919,1.44919,-36.0186,-36.0186,0.78
1.50215,1.50126,1.03941,1.03779,-0.00319807,-2.49702e-05,-0.0022129,-6.69588e-06,4,-10,1.42489,1.42489,-36.0324,-36.0324,0.784
1.50213,1.50126,1.0394,1.03779,-0.00322944,-1.66468e-05,-0.00223461,-6.20458e-05,4,-10,1.40039,1.40039,-36.0476,-36.0476,0.788
1.50212,1.50126,1.03939,1.03779,-0.00326096,-1.10979e-05,-0.00225642,1.6218e-05,4,-9,1.37528,1.37528,-36.0621,-36.0621,0.792
1.50211,1.50126,1.03938,1.03779,-0.00329261,-7.39858e-06,-0.00227832,-4.67698e-05,4,-9,1.34959,1.34959,-36.081,-36.081,0.796
1.50209,1.50126,1.03937,1.03779,-0.0033244,-4.93238e-06,-0.00230031,-2.38897e-06,4,-9,1.32333,1.32333,-36.0988,-36.0988,0.8
1.50208,1.50126,1.03936,1.03779,-0.00335632,-3.28826e-06,-0.00232241,-3.03836e-05,4,-9,1.29651,1.29651,-36.1196,-36.1196,0.804
1.50207,1.50126,1.03936,1.03779,-0.00338839,-2.19217e-06,-0.00234459,8.53521e-06,5,-8,1.26913,1.26913,-36.1409,-36.1409,0.808
1.50205,1.50126,1.03935,1.03779,-0.0034206,-1.46145e-06,-0.00236688,5.69014e-06,5,-8,1.24121,1.24121,-36.165,-36.165,0.812
1.50204,1.50126,1.03934,1.03779,-0.00345294,-9.74298e-07,-0.00238926,3.79343e-06,5,-7,1.21274,1.21274,-36.1905,-36.1905,0.816
1.50203,1.50126,1.03933,1.03779,-0.00348542,-6.49532e-07,-0.00241173,2.52895e-06,5,-7,1.18373,1.18373,-36.2173,-36.2173,0.82
1.50201,1.50126,1.03932,1.03779,-0.00351804,-4.33021e-07,-0.00243431,1.68597e-06,5,-7,1.15416,1.15416,-36.2455,-36.2455,0.824
1.502,1.50126,1.03931,1.03779,-0.0035508,-2.88681e-07,-0.00245697,1.12398e-06,5,-6,1.12404,1.12404,-36.275,-36.275,0.828
1.50198,1.50126,1.0393,1.03779,-0.00358369,-1.92454e-07,-0.00247973,7.49319e-07,5,-6,1.09336,1.09336,-36.306,-36.306,0.832
1.50197,1.50126,1.03929,1.03779,-0.00361672,-1.28303e-07,-0.00250259,-5.70823e-05,6,-6,1.06213,1.06213,-36.3383,-36.3383,0.836
1.50196,1.50126,1.03928,1.03779,-0.00364989,-8.55351e-08,-0.00252554,-9.26394e-06,6,-5,1.03033,1.03033,-36.3698,-36.3698,0.84
1.50194,1.50126,1.03927,1.03779,-0.0036832,-5.70234e-08,-0.00254859,-6.17596e-06,6,-5,0.997976,0.997976,-36.4047,-36.4047,0.844
1.50193,1.50126,1.03926,1.03779,-0.00371664,-3.80156e-08,-0.00257173,-4.11731e-06,6,-4,0.965053,0.965053,-36.4411,-36.4411,0.848
1.50191,1.50126,1.03925,1.03779,-0.00375022,-2.53437e-08,-0.00259496,-2.74487e-06,6,-4,0.93156,0.93156,-36.4792,-36.4792,0.852
1.5019,1.50126,1.03924,1.03779,-0.00378393,-1.68958e-08,-0.00261829,-1.82991e-06,6,-4,0.897494,0.897494,-36.5188,-36.5188,0.856
1.50188,1.50126,1.03923,1.03779,-0.00381778,-1.12639e-08,-0.00264171,-1.21994e-06,7,-3,0.862852,0.862852,-36.5599,-36.5599,0.86
1.50187,1.50126,1.03921,1.03779,-0.00385177,-7.50925e-09,-0.00266523,-8.13296e-07,7,-3,0.82763,0.82763,-36.6026,-36.6026,0.864
1.50185,1.50126,1.0392,1.03779,-0.00388589,-5.00617e-09,-0.00268884,-2.93331e-05,7,-3,0.791826,0.791826,-36.6467,-36.6467,0.868
1.50183,1.50126,1.03919,1.03779,-0.00392015,-5.75852e-05,-0.00271254,-1.95554e-05,7,-2,0.755483,0.755483,-36.6912,-36.6912,0.872
1.50182,1.50126,1.03918,1.03779,-0.00395454,4.79826e-05,-0.00273634,-1.30369e-05,7,-2,0.719078,0.719078,-36.7377,-36.7377,0.876
1.5018,1.50126,1.03917,1.03779,-0.00398907,-5.43843e-05,-0.00276023,-8.6913e-06,7,-1,0.681042,0.681042,-36.7859,-36.7859,0.88
1.50179,1.50126,1.03916,1.03779,-0.00402373,2.13256e-05,-0.00278422,-5.7942e-06,8,-1,0.643438,0.643438,-36.8359,-36.8359,0.884
1.50177,1.50126,1.03915,1.03779,-0.00405853,-4.33648e-05,-0.0028083,-3.8628e-06,8,-1,0.604482,0.604482,-36.8876,-36.8876,0.888
1.50175,1.50126,1.03914,1.03779,-0.00409346,-1.18921e-07,-0.00283247,-2.5752e-06,8,0,0.565578,0.565578,-36.9409,-36.9409,0.892
1.50174,1.50126,1.03913,1.03779,-0.00412852,-7.92804e-08,-0.00285673,-1.7168e-06,8,0,0.525609,0.525609,-36.9958,-36.9958,0.896
1.50172,1.50126,1.03912,1.03779,-0.00416372,-5.28536e-08,-0.00288109,2.76464e-05,8,0,0.48503,0.48503,-37.0524,-37.0524,0.9
1.5017,1.50126,1.0391,1.03779,-0.00419906,-3.52358e-08,-0.00290554,-3.91509e-05,9,0,0.443839,0.443839,-37.1117,-37.1117,0.904
1.50169,1.50126,1.03909,1.03779,-0.00423453,-2.34905e-08,-0.00293008,2.69031e-06,9,1,0.402032,0.402032,-37.1699,-37.1699,0.908
1.50167,1.50126,1.03908,1.03779,-0.00427013,-1.56603e-08,-0.00295471,-5.57883e-05,9,0,0.359606,0.359606,-37.2313,-37.2313,0.912
1.50165,1.50126,1.03907,1.03779,-0.00430586,-1.04402e-08,-0.00297944,2.03896e-05,9,2,0.316557,0.316557,-37.2921,-37.2921,0.916
1.50164,1.50126,1.03906,1.03779,-0.00434173,-6.96015e-09,-0.00300426,-1.51978e-05,9,2,0.272882,0.272882,-37.3576,-37.3576,0.92
1.50162,1.50126,1.03904,1.03779,-0.00437773,-4.6401e-09,-0.00302917,-1.01319e-05,9,2,0.228578,0.228578,-37.4232,-37.4232,0.924
1.5016,1.50126,1.03903,1.03779,-0.00441386,-3.0934e-09,-0.00305417,-6.75459e-06,10,3,0.183642,0.183642,-37.4907,-37.4907,0.928
1.50158,1.50126,1.03902,1.03779,-0.00445013,-2.06227e-09,-0.00307926,-4.50306e-06,10,3,0.13807,0.13807,-37.56,-37.56,0.932
1.50157,1.50126,1.03901,1.03779,-0.00448652,-1.37484e-09,-0.00310445,-3.00204e-06,10,4,0.0918582,0.0918582,-37.6311,-37.6311,0.936
1.50155,1.50126,1.03899,1.03779,-0.00452305,-9.16563e-10,-0.00312972,-2.00136e-06,10,4,0.0450041,0.0450041,-37.7039,-37.7039,0.94
1.50153,1.50126,1.03898,1.03779,-0.00455972,-6.11042e-10,-0.00315509,-1.33424e-06,10,5,-0.00249588,-0.00249588,-37.7784,-37.7784,0.944
1.50151,1.50126,1.03897,1.03779,-0.00459651,-4.07361e-10,-0.00318055,-8.89493e-07,11,5,-0.0506452,-0.0506452,-37.8546,-37.8546,0.948
1.50149,1.50126,1.03896,1.03779,-0.00463343,-5.75821e-05,-0.0032061,-5.92996e-07,11,5,-0.0994009,-0.0994009,-37.9325,-37.9325,0.952
1.50147,1.50126,1.03894,1.03779,-0.00467049,4.79847e-05,-0.00323174,-3.9533e-07,11,6,-0.148284,-0.148284,-38.0121,-38.0121,0.956
1.50146,1.50126,1.03893,1.03779,-0.00470768,-2.55921e-05,-0.00325747,-2.63554e-07,11,6,-0.19889,-0.19889,-38.0935,-38.0935,0.96
1.50144,1.50126,1.03892,1.03779,-0.00474499,-1.70614e-05,-0.0032833,-1.75702e-07,11,7,-0.249384,-0.249384,-38.1766,-38.1766,0.964
1.50142,1.50126,1.0389,1.03779,-0.00478244,-1.13742e-05,-0.00330921,-2.89081e-05,12,7,-0.300638,-0.300638,-38.2614,-38.2614,0.968
1.5014,1.50126,1.03889,1.03779,-0.00482002,-6.51647e-05,-0.00333521,-1.9272e-05,12,8,-0.352578,-0.352578,-38.3467,-38.3467,0.972
1.50138,1.50126,1.03888,1.03779,-0.00485773,4.29297e-05,-0.00336131,-1.2848e-05,12,8,-0.404705,-0.404705,-38.4342,-38.4342,0.976
1.50136,1.50126,1.03886,1.03779,-0.00489557,-2.89621e-05,-0.00338749,-8.56535e-06,12,9,-0.458599,-0.458599,-38.5238,-38.5238,0.98
1.50134,1.50126,1.03885,1.03779,-0.00493354,9.48287e-06,-0.00341376,-9.2083e-05,12,8,-0.51244,-0.51244,-38.6151,-38.6151,0.984
1.50132,1.50126,1.03884,1.03779,-0.00497164,-2.2469e-05,-0.00344012,-0.000147761,13,8,-0.567347,-0.567347,-38.7046,-38.7046,0.988
1.5013,1.50126,1.03882,1.03779,-0.00500987,-1.49793e-05,-0.00346658,-0.000213671,13,8,-0.622608,-0.622608,-38.7936,-38.7936,0.992
1.50128,1.50126,1.03881,1.03779,-0.00504823,-9.98623e-06,-0.00349312,-0.000200029,13,9,-0.678641,-0.678641,-38.8816,-38.8816,0.996
1.50126,1.50126,1.0388,1.03779,-0.00508672,-6.65748e-06,-0.00351975,-0.000219726,13,9,-0.735424,-0.735424,-38.9719,-38.9719,1
1.50124,1.50126,1.03878,1.03779,-0.00512533,-4.43832e-06,-0.00354647,-0.000204066,13,10,-0.792941,-0.792941,-39.0632,-39.0632,1.004
1.50122,1.50126,1.03877,1.03779,-0.00516408,-2.95888e-06,-0.00357328,-0.000193626,14,10,-0.851182,-0.851182,-39.157,-39.157,1.008
1.5012,1.50126,1.03875,1.03779,-0.00520295,-1.97259e-06,-0.00360018,-0.000157875,14,11,-0.910145,-0.910145,-39.253,-39.253,1.012
1.50118,1.50126,1.03874,1.03779,-0.00524195,-1.31506e-06,-0.00362717,-0.00010525,14,12,-0.969826,-0.969826,-39.3524,-39.3524,1.016
1.50116,1.50126,1.03872,1.03778,-0.00528108,-8.76706e-07,-0.00365424,-9.89574e-05,14,13,-1.03023,-1.03023,-39.4558,-39.4558,1.02
1.50113,1.50126,1.03871,1.03778,-0.00532034,-5.84471e-07,-0.00368141,-6.59716e-05,15,14,-1.09134,-1.09134,-39.5614,-39.5614,1.024
1.50111,1.50126,1.03869,1.03778,-0.00535973,-3.89647e-07,-0.00370866,-7.2772e-05,15,14,-1.15318,-1.15318,-39.6701,-39.6701,1.028
1.50109,1.50126,1.03868,1.03778,-0.00539924,2.85312e-05,-0.003736,-4.85147e-05,15,15,-1.21577,-1.21577,-39.7804,-39.7804,1.032
1.50107,1.50126,1.03866,1.03778,-0.00543888,-6.7352e-05,-0.00376343,-6.1134e-05,15,15,-1.27931,-1.27931,-39.8936,-39.8936,1.036
1.50105,1.50126,1.03865,1.03778,-0.00547865,-1.61104e-05,-0.00379095,-6.9547e-05,15,16,-1.34261,-1.34261,-40.0081,-40.0081,1.04
1.50103,1.50126,1.03863,1.03778,-0.00551855,-1.07403e-05,-0.00381855,-7.51556e-05,16,16,-1.40718,-1.40718,-40.1241,-40.1241,1.044
1.501,1.50126,1.03862,1.03778,-0.00555857,-7.16018e-06,-0.00384625,-0.000107686,16,16,-1.47254,-1.47254,-40.2418,-40.2418,1.048
1.50098,1.50126,1.0386,1.03778,-0.00559872,2.40175e-05,-0.00387403,-0.000129372,16,17,-1.53871,-1.53871,-40.36,-40.36,1.052
1.50096,1.50126,1.03859,1.03778,-0.00563899,-4.15702e-05,-0.0039019,-0.000115039,16,18,-1.6059,-1.6059,-40.4793,-40.4793,1.056
1.50094,1.50126,1.03857,1.03778,-0.00567939,-2.77135e-05,-0.00392985,-0.000163065,17,18,-1.67315,-1.67315,-40.6009,-40.6009,1.06
1.50091,1.50126,1.03856,1.03778,-0.00571992,-1.84756e-05,-0.0039579,-0.000195083,17,18,-1.7413,-1.7413,-40.7225,-40.7225,1.064
1.50089,1.50126,1.03854,1.03778,-0.00576057,-1.23171e-05,-0.00398603,-0.000216428,17,18,-1.81031,-1.81031,-40.8446,-40.8446,1.068
1.50087,1.50126,1.03852,1.03778,-0.00580135,-8.2114e-06,-0.00401424,-0.000230658,17,19,-1.88014,-1.88014,-40.9678,-40.9678,1.072
1.50084,1.50126,1.03851,1.03778,-0.00584226,-5.47427e-06,-0.00404255,-0.000297727,18,19,-1.95077,-1.95077,-41.0921,-41.0921,1.076
1.50082,1.50126,1.03849,1.03777,-0.00588329,-3.64951e-06,-0.00407094,-0.000313648,18,19,-2.0222,-2.0222,-41.2157,-41.2157,1.08
1.5008,1.50126,1.03848,1.03777,-0.00592444,-2.43301e-06,-0.00409941,-0.000324263,18,19,-2.09442,-2.09442,-41.3405,-41.3405,1.084
1.50077,1.50126,1.03846,1.03777,-0.00596572,-1.622e-06,-0.00412798,-0.000331339,18,20,-2.16742,-2.16742,-41.4669,-41.4669,1.088
1.50075,1.50126,1.03844,1.03777,-0.00600713,-1.08134e-06,-0.00415663,-0.000393638,19,20,-2.24121,-2.24121,-41.5947,-41.5947,1.092
1.50073,1.50126,1.03843,1.03777,-0.00604865,-7.20891e-07,-0.00418536,-0.000435171,19,20,-2.31578,-2.31578,-41.7219,-41.7219,1.096
1.5007,1.50126,1.03841,1.03776,-0.00609031,-2.92715e-05,-0.00421418,-0.000520441,19,20,-2.39111,-2.39111,-41.8492,-41.8492,1.1
1.50068,1.50126,1.03839,1.03776,-0.00613208,-1.95143e-05,-0.00424309,-0.000577288,19,20,-2.46694,-2.46694,-41.9749,-41.9749,1.104
1.50065,1.50126,1.03838,1.03776,-0.00617399,-1.30096e-05,-0.00427209,-0.000643977,20,20,-2.54366,-2.54366,-42.1,-42.1,1.108
1.50063,1.50126,1.03836,1.03776,-0.00621601,-8.67304e-06,-0.00430117,-0.000630855,20,20,-2.62124,-2.62124,-42.2244,-42.2244,1.112
1.5006,1.50126,1.03834,1.03776,-0.00625816,-5.78203e-06,-0.00433033,-0.000535733,20,22,-2.69967,-2.69967,-42.3515,-42.3515,1.116
1.50058,1.50126,1.03832,1.03775,-0.00630043,-3.26456e-05,-0.00435958,-0.000414737,20,24,-2.7789,-2.7789,-42.4847,-42.4847,1.12
1.50055,1.50126,1.03831,1.03775,-0.00634283,-2.17637e-05,-0.00438892,-0.000334073,21,25,-2.85866,-2.85866,-42.6249,-42.6249,1.124
1.50053,1.50126,1.03829,1.03775,-0.00638534,-1.45092e-05,-0.00441834,-0.000309088,21,26,-2.93935,-2.93935,-42.7704,-42.7704,1.128
1.5005,1.50126,1.03827,1.03775,-0.00642798,-9.67277e-06,-0.00444784,-0.000321223,21,26,-3.02093,-3.02093,-42.919,-42.919,1.132
1.50048,1.50126,1.03825,1.03775,-0.00647075,-6.44852e-06,-0.00447743,-0.000358103,21,27,-3.10337,-3.10337,-43.0691,-43.0691,1.136
1.50045,1.50126,1.03823,1.03775,-0.00651363,-4.29901e-06,-0.00450711,-0.00038269,22,27,-3.18667,-3.18667,-43.2197,-43.2197,1.14
1.50042,1.50126,1.03822,1.03775,-0.00655664,-2.86601e-06,-0.00453686,-0.000427872,22,27,-3.27081,-3.27081,-43.3713,-43.3713,1.144
1.5004,1.50126,1.0382,1.03774,-0.00659977,-3.07016e-05,-0.00456671,-0.000429203,22,28,-3.35577,-3.35577,-43.523,-43.523,1.148
1.50037,1.50126,1.03818,1.03774,-0.00664302,-2.04677e-05,-0.00459664,-0.000458881,22,28,-3.44127,-3.44127,-43.6768,-43.6768,1.152
1.50034,1.50126,1.03816,1.03774,-0.0066864,-1.36452e-05,-0.00462665,-0.000449875,23,29,-3.52772,-3.52772,-43.8314,-43.8314,1.156
1.50032,1.50126,1.03814,1.03774,-0.00672989,-9.09677e-06,-0.00465674,-0.00041508,23,30,-3.61507,-3.61507,-43.9885,-43.9885,1.16
1.50029,1.50126,1.03812,1.03774,-0.00677351,-6.06451e-06,-0.00468692,-0.000391884,23,31,-3.70332,-3.70332,-44.1492,-44.1492,1.164
1.50026,1.50126,1.03811,1.03774,-0.00681724,-4.04301e-06,-0.00471719,-0.000405211,24,31,-3.79244,-3.79244,-44.3129,-44.3129,1.168
1.50024,1.50126,1.03809,1.03773,-0.0068611,2.60956e-05,-0.00474754,-0.000385304,24,32,-3.88245,-3.88245,-44.4783,-44.4783,1.172
1.50021,1.50126,1.03807,1.03773,-0.00690508,-4.01848e-05,-0.00477797,-0.000458406,24,32,-3.97359,-3.97359,-44.6464,-44.6464,1.176
1.50018,1.50126,1.03805,1.03773,-0.00694918,-5.55808e-05,-0.00480848,-0.00050714,24,32,-4.06485,-4.06485,-44.8136,-44.8136,1.18
1.50015,1.50126,1.03803,1.03773,-0.0069934,-9.46357e-05,-0.00483908,-0.00053963,25,32,-4.15678,-4.15678,-44.9809,-44.9809,1.184
1.50012,1.50126,1.03801,1.03772,-0.00703774,-3.42995e-05,-0.00486976,-0.000618872,25,32,-4.2492,-4.2492,-45.1488,-45.1488,1.188
1.5001,1.50126,1.03799,1.03772,-0.0070822,-5.16573e-05,-0.00490052,-0.000642909,25,33,-4.34311,-4.34311,-45.3156,-45.3156,1.192
1.50007,1.50126,1.03797,1.03772,-0.00712678,-6.32291e-05,-0.00493137,-0.000658933,25,33,-4.43769,-4.43769,-45.4836,-45.4836,1.196
1.50004,1.50126,1.03795,1.03772,-0.00717147,-7.09437e-05,-0.0049623,-0.000669616,26,34,-4.53301,-4.53301,-45.6529,-45.6529,1.2
1.50001,1.50126,1.03793,1.03771,-0.00721629,-4.72958e-05,-0.00499331,-0.000676738,26,34,-4.62914,-4.62914,-45.824,-45.824,1.204
1.49998,1.50126,1.03791,1.03771,-0.00726123,-2.7396e-06,-0.0050244,-0.000652695,27,35,-4.72643,-4.72643,-45.997,-45.997,1.208
1.49995,1.50126,1.03789,1.03771,-0.00730628,-1.8264e-06,-0.00505558,-0.000665458,27,36,-4.82509,-4.82509,-46.1732,-46.1732,1.212
1.49992,1.50126,1.03787,1.03771,-0.00735146,-1.2176e-06,-0.00508684,-0.000645175,27,37,-4.92463,-4.92463,-46.351,-46.351,1.216
1.49989,1.50126,1.03785,1.0377,-0.00739675,2.79792e-05,-0.00511818,-0.000660444,28,37,-5.0251,-5.0251,-46.5318,-46.5318,1.22
1.49986,1.50126,1.03783,1.0377,-0.00744216,-3.89291e-05,-0.0051496,-0.000670623,28,38,-5.12672,-5.12672,-46.7141,-46.7141,1.224
1.49983,1.50126,1.03781,1.0377,-0.00748769,-2.59527e-05,-0.00518111,-0.000734991,28,38,-5.22854,-5.22854,-46.8981,-46.8981,1.228
1.4998,1.50126,1.03779,1.03769,-0.00753334,-7.48837e-05,-0.00521269,-0.000720322,28,39,-5.33136,-5.33136,-47.0817,-47.0817,1.232
1.49977,1.50126,1.03777,1.03769,-0.00757911,-2.11315e-05,-0.00524436,-0.000710542,29,39,-5.4346,-5.4346,-47.2682,-47.2682,1.236
1.49974,1.50126,1.03775,1.03769,-0.00762499,-1.40877e-05,-0.00527611,-0.000704022,29,40,-5.53933,-5.53933,-47.4572,-47.4572,1.24
1.49971,1.50126,1.03773,1.03768,-0.00767099,-3.81827e-05,-0.00530794,-0.000728466,29,41,-5.64502,-5.64502,-47.6488,-47.6488,1.244
1.49968,1.50126,1.0377,1.03768,-0.00771711,-2.54551e-05,-0.00533985,-0.000773553,30,41,-5.75139,-5.75139,-47.8414,-47.8414,1.248
1.49965,1.50126,1.03768,1.03768,-0.00776334,-4.5761e-05,-0.00537184,-0.000861193,30,41,-5.85879,-5.85879,-48.0344,-48.0344,1.252
1.49962,1.50126,1.03766,1.03767,-0.0078097,-3.05073e-05,-0.00540391,-0.000948411,30,41,-5.96691,-5.96691,-48.2258,-48.2258,1.256
1.49959,1.50126,1.03764,1.03767,-0.00785616,-4.91292e-05,-0.00543607,-0.00109293,30,40,-6.0761,-6.0761,-48.4156,-48.4156,1.26
1.49956,1.50126,1.03762,1.03766,-0.00790275,-3.27528e-05,-0.0054683,-0.00121806,31,39,-6.18604,-6.18604,-48.6015,-48.6015,1.264
1.49952,1.50126,1.0376,1.03765,-0.00794945,-2.18352e-05,-0.00550062,-0.00141665,31,38,-6.2971,-6.2971,-48.7842,-48.7842,1.268
1.49949,1.50126,1.03757,1.03765,-0.00799627,-1.45568e-05,-0.00553301,-0.00163542,31,37,-6.40922,-6.40922,-48.9605,-48.9605,1.272
1.49946,1.50126,1.03755,1.03764,-0.0080432,-3.84954e-05,-0.00556549,-0.00189642,32,35,-6.52235,-6.52235,-49.1296,-49.1296,1.276
1.49943,1.50126,1.03753,1.03762,-0.00809025,-2.56636e-05,-0.00559804,-0.00221438,32,32,-6.63617,-6.63617,-49.2895,-49.2895,1.28
1.4994,1.50126,1.03751,1.03761,-0.00813741,-4.59e-05,-0.00563068,-0.00233998,32,32,-6.75107,-6.75107,-49.4384,-49.4384,1.284
1.49936,1.50126,1.03748,1.0376,-0.00818469,-5.93909e-05,-0.00566339,-0.00245251,33,31,-6.8667,-6.8667,-49.584,-49.584,1.288
1.49933,1.50126,1.03746,1.03759,-0.00823209,-9.71758e-05,-0.00569619,-0.00249873,33,31,-6.98311,-6.98311,-49.7269,-49.7269,1.292
1.4993,1.50126,1.03744,1.03758,-0.0082796,-0.000122366,-0.00572906,-0.00238559,33,33,-7.10006,-7.10006,-49.8702,-49.8702,1.296
1.49926,1.50125,1.03742,1.03758,-0.00832722,-0.000139159,-0.00576202,-0.00231017,33,34,-7.21769,-7.21769,-50.0203,-50.0203,1.3
1.49923,1.50125,1.03739,1.03757,-0.00837496,-0.000179145,-0.00579505,-0.0022311,34,36,-7.33607,-7.33607,-50.1757,-50.1757,1.304
1.4992,1.50125,1.03737,1.03756,-0.00842282,-0.000205803,-0.00582816,-0.0021208,34,38,-7.45498,-7.45498,-50.3366,-50.3366,1.308
1.49916,1.50125,1.03735,1.03755,-0.00847078,-0.000223575,-0.00586135,-0.00210485,34,38,-7.57456,-7.57456,-50.504,-50.504,1.312
1.49913,1.50125,1.03732,1.03754,-0.00851887,-0.000293005,-0.00589462,-0.00209421,34,39,-7.69486,-7.69486,-50.6743,-50.6743,1.316
1.4991,1.50125,1.0373,1.03753,-0.00856706,-0.000252918,-0.00592797,-0.00220229,35,39,-7.81543,-7.81543,-50.847,-50.847,1.32
1.49906,1.50125,1.03727,1.03752,-0.00861537,-0.000226194,-0.0059614,-0.00224555,35,39,-7.93743,-7.93743,-51.0173,-51.0173,1.324
1.49903,1.50125,1.03725,1.03751,-0.00866379,-0.000179587,-0.00599491,-0.00238955,36,38,-8.06073,-8.06073,-51.1877,-51.1877,1.328
1.49899,1.50125,1.03723,1.0375,-0.00871233,-0.000119725,-0.00602849,-0.00248555,36,38,-8.18556,-8.18556,-51.3543,-51.3543,1.332
1.49896,1.50125,1.0372,1.03749,-0.00876098,-0.000108607,-0.00606215,-0.00254955,37,38,-8.31204,-8.31204,-51.5189,-51.5189,1.336
1.49892,1.50125,1.03718,1.03748,-0.00880974,-0.000101196,-0.0060959,-0.00262101,37,38,-8.43964,-8.43964,-51.6829,-51.6829,1.34
1.49889,1.50125,1.03715,1.03747,-0.00885862,-9.62548e-05,-0.00612971,-0.00255349,37,39,-8.56833,-8.56833,-51.8462,-51.8462,1.344
1.49885,1.50125,1.03713,1.03746,-0.0089076,-9.29608e-05,-0.00616361,-0.00245089,38,41,-8.69808,-8.69808,-52.0146,-52.0146,1.348
1.49882,1.50125,1.0371,1.03745,-0.0089567,-6.19739e-05,-0.00619759,-0.00241128,38,42,-8.82891,-8.82891,-52.1894,-52.1894,1.352
1.49878,1.50125,1.03708,1.03744,-0.00900591,-9.88978e-05,-0.00623164,-0.00235608,38,43,-8.96105,-8.96105,-52.368,-52.368,1.356
1.49874,1.50124,1.03705,1.03743,-0.00905524,-0.000181096,-0.00626577,-0.00246324,39,43,-9.09376,-9.09376,-52.5509,-52.5509,1.36
1.49871,1.50124,1.03703,1.03742,-0.00910467,-0.000235894,-0.00629997,-0.00262105,39,42,-9.22657,-9.22657,-52.7313,-52.7313,1.364
1.49867,1.50124,1.037,1.03741,-0.00915422,-0.000330008,-0.00633426,-0.00275505,39,41,-9.35974,-9.35974,-52.9073,-52.9073,1.368
1.49863,1.50124,1.03698,1.0374,-0.00920388,-0.000421542,-0.00636862,-0.00290196,39,40,-9.49287,-9.49287,-53.0796,-53.0796,1.372
1.4986,1.50124,1.03695,1.03738,-0.00925365,-0.000511355,-0.00640306,-0.00305749,39,40,-9.62597,-9.62597,-53.2478,-53.2478,1.376
1.49856,1.50123,1.03693,1.03737,-0.00930353,-0.00054244,-0.00643757,-0.00318996,40,39,-9.75911,-9.75911,-53.4116,-53.4116,1.38
1.49852,1.50123,1.0369,1.03736,-0.00935352,-0.000591954,-0.00647216,-0.00333586,40,38,-9.89291,-9.89291,-53.5718,-53.5718,1.384
1.49848,1.50123,1.03688,1.03734,-0.00940362,-0.000653754,-0.00650683,-0.00340434,40,38,-10.0272,-10.0272,-53.728,-53.728,1.388
1.49845,1.50122,1.03685,1.03733,-0.00945384,-0.000752536,-0.00654158,-0.00342119,40,39,-10.1617,-10.1617,-53.8835,-53.8835,1.392
1.49841,1.50122,1.03682,1.03731,-0.00950416,-0.000847182,-0.0065764,-0.00343243,40,39,-10.2961,-10.2961,-54.0404,-54.0404,1.396
1.49837,1.50121,1.0368,1.0373,-0.00955459,-0.000967861,-0.0066113,-0.00341113,40,40,-10.4305,-10.4305,-54.1989,-54.1989,1.4
1.49833,1.50121,1.03677,1.03729,-0.00960514,-0.0011059,-0.00664627,-0.00336814,40,41,-10.5644,-10.5644,-54.3605,-54.3605,1.404
1.49829,1.5012,1.03674,1.03728,-0.00965579,-0.00122671,-0.00668132,-0.00322432,40,43,-10.6979,-10.6979,-54.5262,-54.5262,1.408
1.49826,1.5012,1.03672,1.03727,-0.00970655,-0.00142242,-0.00671644,-0.00298448,40,46,-10.8309,-10.8309,-54.7004,-54.7004,1.412
1.49822,1.50119,1.03669,1.03726,-0.00975742,-0.00166805,-0.00675164,-0.00262306,40,50,-10.9626,-10.9626,-54.8872,-54.8872,1.416
1.49818,1.50118,1.03666,1.03725,-0.0098084,-0.00191818,-0.00678692,-0.00232452,40,54,-11.0925,-11.0925,-55.0916,-55.0916,1.42
1.49814,1.50117,1.03664,1.03725,-0.00985949,-0.0021713,-0.00682227,-0.00198155,39,58,-11.2206,-11.2206,-55.3111,-55.3111,1.424
1.4981,1.50116,1.03661,1.03724,-0.00991069,-0.00239764,-0.0068577,-0.00158015,39,63,-11.3467,-11.3467,-55.5477,-55.5477,1.428
1.49806,1.50114,1.03658,1.03724,-0.009962,-0.00260611,-0.0068932,-0.00128376,39,66,-11.4713,-11.4713,-55.8037,-55.8037,1.432
1.49802,1.50113,1.03655,1.03724,-0.0100134,-0.00280267,-0.00692878,-0.00102859,39,70,-11.5944,-11.5944,-56.0748,-56.0748,1.436
1.49798,1.50112,1.03653,1.03724,-0.0100649,-0.00302008,-0.00696443,-0.000800887,38,73,-11.7163,-11.7163,-56.3594,-56.3594,1.44
1.49794,1.5011,1.0365,1.03723,-0.0101166,-0.0032514,-0.00700016,-0.00067788,38,75,-11.8366,-11.8366,-56.6561,-56.6561,1.444
1.4979,1.50109,1.03647,1.03723,-0.0101683,-0.0034344,-0.00703596,-0.000624665,38,76,-11.9552,-11.9552,-56.9606,-56.9606,1.448
1.49786,1.50107,1.03644,1.03723,-0.0102202,-0.00372915,-0.00707183,-0.000560398,38,78,-12.0725,-12.0725,-57.2702,-57.2702,1.452
1.49782,1.50105,1.03641,1.03723,-0.0102721,-0.00395443,-0.00710778,-0.000632717,37,78,-12.1875,-12.1875,-57.585,-57.585,1.456
1.49777,1.50103,1.03638,1.03723,-0.0103242,-0.00410463,-0.00714381,-0.000594557,37,79,-12.3009,-12.3009,-57.8997,-57.8997,1.46
1.49773,1.50102,1.03636,1.03722,-0.0103763,-0.00423355,-0.00717991,-0.00065549,37,80,-12.4135,-12.4135,-58.2187,-58.2187,1.464
1.49769,1.501,1.03633,1.03722,-0.0104286,-0.00431949,-0.00721608,-0.00063853,37,81,-12.5256,-12.5256,-58.538,-58.538,1.468
1.49765,1.50098,1.0363,1.03722,-0.010481,-0.00437679,-0.00725233,-0.000656014,38,82,-12.6376,-12.6376,-58.8608,-58.8608,1.472
1.49761,1.50096,1.03627,1.03721,-0.0105335,-0.00447257,-0.00728865,-0.000725252,38,82,-12.7498,-12.7498,-59.1856,-59.1856,1.476
1.49757,1.50094,1.03624,1.03721,-0.0105861,-0.00442126,-0.00732504,-0.000742619,38,83,-12.862,-12.862,-59.5103,-59.5103,1.48
1.49752,1.50093,1.03621,1.03721,-0.0106388,-0.00441584,-0.00736151,-0.000725407,38,84,-12.9756,-12.9756,-59.8372,-59.8372,1.484
1.49748,1.50091,1.03618,1.03721,-0.0106916,-0.00438344,-0.00739805,-0.000713932,39,85,-13.0902,-13.0902,-60.1676,-60.1676,1.488
1.49744,1.50089,1.03615,1.0372,-0.0107445,-0.00427547,-0.00743466,-0.0006487,39,87,-13.2062,-13.2062,-60.5015,-60.5015,1.492
1.49739,1.50088,1.03612,1.0372,-0.0107975,-0.00403074,-0.00747135,-0.000605212,40,88,-13.3245,-13.3245,-60.8409,-60.8409,1.496
1.49735,1.50087,1.03609,1.0372,-0.0108507,-0.00369484,-0.00750811,-0.00057622,42,89,-13.4466,-13.4466,-61.1851,-61.1851,1.5
1.49731,1.50086,1.03606,1.0372,-0.0109039,-0.00324058,-0.00754494,-0.000499311,43,91,-13.5736,-13.5736,-61.5335,-61.5335,1.504
1.49726,1.50085,1.03603,1.0372,-0.0109572,-0.00273621,-0.00758185,-0.000505619,45,92,-13.7068,-13.7068,-61.8879,-61.8879,1.508
1.49722,1.50085,1.036,1.03719,-0.0110107,-0.00216963,-0.00761883,-0.000509825,47,93,-13.8469,-13.8469,-62.245,-62.245,1.512
1.49718,1.50085,1.03597,1.03719,-0.0110642,-0.00159037,-0.00765588,-0.000483838,48,94,-13.9945,-13.9945,-62.6049,-62.6049,1.516
1.49713,1.50085,1.03594,1.03719,-0.0111179,-0.00106025,-0.007693,-0.000552886,50,95,-14.1498,-14.1498,-62.9687,-62.9687,1.52
1.49709,1.50085,1.03591,1.03719,-0.0111716,-0.000706833,-0.0077302,-0.000570127,52,96,-14.3122,-14.3122,-63.3327,-63.3327,1.524
1.49704,1.50085,1.03588,1.03718,-0.0112255,-0.000471222,-0.00776746,-0.000610412,53,96,-14.4796,-14.4796,-63.6988,-63.6988,1.528
1.497,1.50085,1.03585,1.03718,-0.0112794,-0.000314148,-0.0078048,-0.00066606,53,97,-14.6509,-14.6509,-64.0661,-64.0661,1.532
1.49695,1.50085,1.03581,1.03718,-0.0113335,-0.000209432,-0.00784221,-0.000703158,54,97,-14.8251,-14.8251,-64.4341,-64.4341,1.536
1.49691,1.50084,1.03578,1.03717,-0.0113877,-0.000168412,-0.0078797,-0.00072789,55,98,-15.0016,-15.0016,-64.8035,-64.8035,1.54
1.49686,1.50084,1.03575,1.03717,-0.0114419,-0.000141066,-0.00791725,-0.000744379,55,99,-15.1797,-15.1797,-65.1748,-65.1748,1.544
1.49681,1.50084,1.03572,1.03717,-0.0114963,-9.40438e-05,-0.00795488,-0.00072658,56,100,-15.3594,-15.3594,-65.5485,-65.5485,1.548
1.49677,1.50084,1.03569,1.03717,-0.0115508,-0.000120278,-0.00799257,-0.000743505,56,101,-15.5408,-15.5408,-65.9259,-65.9259,1.552
1.49672,1.50084,1.03566,1.03716,-0.0116054,-0.000108976,-0.00803034,-0.000725997,57,102,-15.7231,-15.7231,-66.3056,-66.3056,1.556
1.49668,1.50084,1.03562,1.03716,-0.0116601,-0.000130233,-0.00806818,-0.000743117,57,103,-15.9068,-15.9068,-66.689,-66.689,1.56
1.49663,1.50084,1.03559,1.03716,-0.0117149,-0.000201985,-0.00810609,-0.000696947,57,105,-16.0914,-16.0914,-67.0749,-67.0749,1.564
1.49658,1.50084,1.03556,1.03715,-0.0117698,-0.000249821,-0.00814407,-0.000637377,58,106,-16.2763,-16.2763,-67.4657,-67.4657,1.568
1.49654,1.50084,1.03553,1.03715,-0.0118247,-0.000339293,-0.00818212,-0.000568873,58,108,-16.462,-16.462,-67.8622,-67.8622,1.572
1.49649,1.50084,1.03549,1.03715,-0.0118798,-0.000341359,-0.00822025,-0.000580785,58,109,-16.6479,-16.6479,-68.2645,-68.2645,1.576
1.49644,1.50083,1.03546,1.03715,-0.011935,-0.000371527,-0.00825844,-0.000588726,59,110,-16.8349,-16.8349,-68.6695,-68.6695,1.58
1.49639,1.50083,1.03543,1.03715,-0.0119903,-0.000362848,-0.0082967,-0.000622812,59,111,-17.0229,-17.0229,-69.0771,-69.0771,1.584
1.49634,1.50083,1.03539,1.03714,-0.0120457,-0.000357063,-0.00833504,-0.000645535,60,112,-17.2122,-17.2122,-69.4864,-69.4864,1.588
1.4963,1.50083,1.03536,1.03714,-0.0121012,-0.000266833,-0.00837344,-0.000631893,60,113,-17.4029,-17.4029,-69.898,-69.898,1.592
1.49625,1.50083,1.03533,1.03714,-0.0121568,-0.000206679,-0.00841191,-0.000622799,61,114,-17.5958,-17.5958,-70.3132,-70.3132,1.596
1.4962,1.50083,1.03529,1.03714,-0.0122125,-0.000137786,-0.00845046,-0.000616736,62,116,-17.7907,-17.7907,-70.732,-70.732,1.6
1.49615,1.50083,1.03526,1.03713,-0.0122683,-0.000120648,-0.00848907,-0.000583903,62,117,-17.9876,-17.9876,-71.1542,-71.1542,1.604
1.4961,1.50083,1.03523,1.03713,-0.0123242,-0.000109223,-0.00852775,-0.000562014,63,118,-18.1859,-18.1859,-71.581,-71.581,1.608
1.49605,1.50083,1.03519,1.03713,-0.0123802,-7.28155e-05,-0.00856651,-0.000547422,63,120,-18.3856,-18.3856,-72.0118,-72.0118,1.612
1.496,1.50083,1.03516,1.03713,-0.0124364,-7.73346e-05,-0.00860533,-0.000508902,64,121,-18.587,-18.587,-72.4466,-72.4466,1.616
1.49595,1.50083,1.03512,1.03713,-0.0124926,-8.03473e-05,-0.00864422,-0.000483223,64,123,-18.7896,-18.7896,-72.8861,-72.8861,1.62
1.4959,1.50083,1.03509,1.03712,-0.0125489,-8.23558e-05,-0.00868318,-0.000494894,65,124,-18.9935,-18.9935,-73.3299,-73.3299,1.624
1.49585,1.50083,1.03505,1.03712,-0.0126053,-0.000112486,-0.00872221,-0.000473884,65,125,-19.1986,-19.1986,-73.7765,-73.7765,1.628
1.4958,1.50083,1.03502,1.03712,-0.0126618,-0.000132572,-0.0087613,-0.000488668,66,126,-19.4047,-19.4047,-74.2272,-74.2272,1.632
1.49575,1.50083,1.03498,1.03712,-0.0127184,-0.000145963,-0.00880047,-0.000498524,66,127,-19.6118,-19.6118,-74.6806,-74.6806,1.636
1.4957,1.50083,1.03495,1.03712,-0.0127751,-0.0001261,-0.0088397,-0.000533886,67,128,-19.8201,-19.8201,-75.1367,-75.1367,1.64
1.49565,1.50083,1.03491,1.03711,-0.0128319,-0.000141648,-0.00887901,-0.00052867,67,129,-20.0298,-20.0298,-75.5947,-75.5947,1.644
1.4956,1.50083,1.03488,1.03711,-0.0128888,-0.000152014,-0.00891838,-0.000525192,68,131,-20.2408,-20.2408,-76.0562,-76.0562,1.648
1.49554,1.50083,1.03484,1.03711,-0.0129458,-0.000158925,-0.00895782,-0.000551664,68,132,-20.4528,-20.4528,-76.521,-76.521,1.652
1.49549,1.50082,1.03481,1.03711,-0.0130029,-0.000163532,-0.00899732,-0.000598104,69,132,-20.6662,-20.6662,-76.988,-76.988,1.656
1.49544,1.50082,1.03477,1.0371,-0.0130601,-0.000166603,-0.0090369,-0.000571481,69,134,-20.8808,-20.8808,-77.4565,-77.4565,1.66
1.49539,1.50082,1.03473,1.0371,-0.0131173,-0.000197441,-0.00907654,-0.000582524,70,135,-21.0966,-21.0966,-77.9294,-77.9294,1.664
1.49534,1.50082,1.0347,1.0371,-0.0131747,-0.000189209,-0.00911625,-0.000647468,70,135,-21.3135,-21.3135,-78.405,-78.405,1.668
1.49528,1.50082,1.03466,1.0371,-0.0132322,-0.000154931,-0.00915603,-0.000690763,71,136,-21.5318,-21.5318,-78.8812,-78.8812,1.672
1.49523,1.50082,1.03462,1.03709,-0.0132898,-0.000160869,-0.00919588,-0.000719627,71,137,-21.7517,-21.7517,-79.3589,-79.3589,1.676
1.49518,1.50082,1.03459,1.03709,-0.0133475,-0.000136037,-0.00923579,-0.000767661,72,138,-21.973,-21.973,-79.8387,-79.8387,1.68
1.49512,1.50082,1.03455,1.03709,-0.0134053,-0.000119482,-0.00927577,-0.000742101,72,139,-22.1959,-22.1959,-80.32,-80.32,1.684
1.49507,1.50082,1.03451,1.03708,-0.0134632,-0.000137237,-0.00931582,-0.000753852,73,141,-22.4203,-22.4203,-80.8056,-80.8056,1.688
1.49502,1.50082,1.03447,1.03708,-0.0135211,-0.000149073,-0.00935593,-0.000819268,73,141,-22.6458,-22.6458,-81.2939,-81.2939,1.692
1.49496,1.50082,1.03444,1.03708,-0.0135792,-0.000214546,-0.00939612,-0.000776506,74,143,-22.8725,-22.8725,-81.7831,-81.7831,1.696
1.49491,1.50082,1.0344,1.03707,-0.0136374,-0.000258194,-0.00943636,-0.000834371,74,144,-23.0998,-23.0998,-82.2772,-82.2772,1.7
1.49485,1.50081,1.03436,1.03707,-0.0136956,-0.000287293,-0.00947668,-0.00095932,75,144,-23.328,-23.328,-82.7721,-82.7721,1.704
1.4948,1.50081,1.03432,1.03706,-0.013754,-0.000277902,-0.00951706,-0.000985038,75,145,-23.5573,-23.5573,-83.2653,-83.2653,1.708
1.49474,1.50081,1.03429,1.03706,-0.0138124,-0.00027164,-0.00955751,-0.00114614,76,144,-23.788,-23.788,-83.7604,-83.7604,1.712
1.49469,1.50081,1.03425,1.03705,-0.013871,-0.000238675,-0.00959802,-0.00128233,76,144,-24.0202,-24.0202,-84.2521,-84.2521,1.716
1.49463,1.50081,1.03421,1.03705,-0.0139296,-0.000216699,-0.0096386,-0.00137312,77,145,-24.2541,-24.2541,-84.7415,-84.7415,1.72
1.49458,1.50081,1.03417,1.03704,-0.0139884,-0.000144466,-0.00967924,-0.00146244,78,145,-24.4897,-24.4897,-85.2303,-85.2303,1.724
1.49452,1.50081,1.03413,1.03703,-0.0140472,-0.000125102,-0.00971996,-0.00152199,78,146,-24.7275,-24.7275,-85.7187,-85.7187,1.728
1.49446,1.50081,1.03409,1.03703,-0.0141061,-8.3401e-05,-0.00976073,-0.0015329,79,147,-24.9668,-24.9668,-86.208,-86.208,1.732
1.49441,1.50081,1.03405,1.03702,-0.0141652,-8.43916e-05,-0.00980157,-0.00145379,80,149,-25.2081,-25.2081,-86.7003,-86.7003,1.736
1.49435,1.50081,1.03401,1.03702,-0.0142243,-8.5052e-05,-0.00984248,-0.00137227,80,151,-25.4507,-25.4507,-87.1993,-87.1993,1.74
1.49429,1.50081,1.03397,1.03701,-0.0142835,-8.54923e-05,-0.00988346,-0.00128913,81,153,-25.6947,-25.6947,-87.7052,-87.7052,1.744
1.49424,1.50081,1.03394,1.03701,-0.0143428,-8.57858e-05,-0.00992449,-0.00111854,81,156,-25.9401,-25.9401,-88.2182,-88.2182,1.748
1.49418,1.50081,1.0339,1.03701,-0.0144022,-0.000114772,-0.0099656,-0.000976019,82,159,-26.187,-26.187,-88.7418,-88.7418,1.752
1.49412,1.50081,1.03386,1.037,-0.0144617,-0.000134097,-0.0100068,-0.000852216,82,161,-26.4349,-26.4349,-89.2749,-89.2749,1.756
1.49406,1.50081,1.03382,1.037,-0.0145213,-0.000175771,-0.010048,-0.000740889,83,164,-26.6839,-26.6839,-89.8168,-89.8168,1.76
1.494,1.50081,1.03378,1.037,-0.014581,-0.000203553,-0.0100893,-0.000666672,83,166,-26.934,-26.934,-90.3669,-90.3669,1.764
1.49395,1.50081,1.03373,1.037,-0.0146408,-0.000222075,-0.0101307,-0.000588402,84,168,-27.1851,-27.1851,-90.9237,-90.9237,1.768
1.49389,1.5008,1.03369,1.03699,-0.0147006,-0.000234423,-0.0101721,-0.000593805,84,169,-27.4375,-27.4375,-91.4873,-91.4873,1.772
1.49383,1.5008,1.03365,1.03699,-0.0147606,-0.000242655,-0.0102136,-0.000568615,85,171,-27.6911,-27.6911,-92.0544,-92.0544,1.776
1.49377,1.5008,1.03361,1.03699,-0.0148206,-0.000219352,-0.0102551,-0.000666986,85,171,-27.9461,-27.9461,-92.6259,-92.6259,1.78
1.49371,1.5008,1.03357,1.03699,-0.0148808,-0.000232607,-0.0102968,-0.000646194,86,173,-28.2028,-28.2028,-93.197,-93.197,1.784
1.49365,1.5008,1.03353,1.03698,-0.014941,-0.000270235,-0.0103384,-0.000718705,86,173,-28.4608,-28.4608,-93.7725,-93.7725,1.788
1.49359,1.5008,1.03349,1.03698,-0.0150014,-0.00029532,-0.0103802,-0.000795837,87,174,-28.7198,-28.7198,-94.3486,-94.3486,1.792
1.49353,1.5008,1.03345,1.03698,-0.0150618,-0.000312044,-0.010422,-0.00090484,88,174,-28.9799,-28.9799,-94.9249,-94.9249,1.796
1.49347,1.5008,1.03341,1.03697,-0.0151223,-0.000351984,-0.0104639,-0.0010063,88,175,-29.2413,-29.2413,-95.5002,-95.5002,1.8
1.49341,1.50079,1.03336,1.03697,-0.0151829,-0.00034982,-0.0105058,-0.00110273,89,175,-29.5038,-29.5038,-96.0748,-96.0748,1.804
1.49335,1.50079,1.03332,1.03696,-0.0152436,-0.000319586,-0.0105478,-0.00128218,89,175,-29.7677,-29.7677,-96.6488,-96.6488,1.808
1.49329,1.50079,1.03328,1.03695,-0.0153044,-0.000270639,-0.0105899,-0.0014594,90,175,-30.0335,-30.0335,-97.2187,-97.2187,1.812
1.49323,1.50079,1.03324,1.03694,-0.0153653,-0.000238008,-0.010632,-0.00157754,91,175,-30.3012,-30.3012,-97.7848,-97.7848,1.816
1.49316,1.50079,1.03319,1.03693,-0.0154263,-0.000158672,-0.0106742,-0.00182905,92,174,-30.5709,-30.5709,-98.3491,-98.3491,1.82
1.4931,1.50079,1.03315,1.03692,-0.0154873,-0.000134572,-0.0107164,-0.00208309,92,173,-30.8429,-30.8429,-98.9063,-98.9063,1.824
1.49304,1.50079,1.03311,1.03691,-0.0155485,-0.000118506,-0.0107588,-0.00231004,93,172,-31.1167,-31.1167,-99.4561,-99.4561,1.828
1.49298,1.50079,1.03306,1.0369,-0.0156097,-0.000107795,-0.0108011,-0.00246134,94,172,-31.3922,-31.3922,-99.9999,-99.9999,1.832
1.49291,1.50079,1.03302,1.03689,-0.0156711,-0.000100654,-0.0108436,-0.00244704,94,173,-31.6693,-31.6693,-100.541,-100.541,1.836
1.49285,1.50079,1.03298,1.03688,-0.0157325,-0.000124685,-0.0108861,-0.00237992,95,175,-31.9479,-31.9479,-101.086,-101.086,1.84
1.49279,1.50079,1.03293,1.03688,-0.015794,-0.000111914,-0.0109287,-0.00213364,95,179,-32.2279,-32.2279,-101.638,-101.638,1.844
1.49273,1.50079,1.03289,1.03687,-0.0158556,-0.0001034,-0.0109713,-0.00191187,96,182,-32.5095,-32.5095,-102.204,-102.204,1.848
1.49266,1.50079,1.03285,1.03687,-0.0159173,-0.000126515,-0.011014,-0.00164886,97,186,-32.7926,-32.7926,-102.783,-102.783,1.852
1.4926,1.50079,1.0328,1.03686,-0.0159791,-0.000141925,-0.0110567,-0.00144473,97,190,-33.0771,-33.0771,-103.377,-103.377,1.856
1.49253,1.50079,1.03276,1.03686,-0.016041,-0.000152199,-0.0110995,-0.00130865,98,192,-33.3629,-33.3629,-103.982,-103.982,1.86
1.49247,1.50079,1.03271,1.03685,-0.0161029,-0.000159048,-0.0111424,-0.00124671,98,194,-33.6501,-33.6501,-104.597,-104.597,1.864
1.49241,1.50079,1.03267,1.03685,-0.016165,-0.000134823,-0.0111854,-0.00126301,99,196,-33.9388,-33.9388,-105.219,-105.219,1.868
1.49234,1.50078,1.03262,1.03684,-0.0162271,-0.000147464,-0.0112284,-0.00130266,100,197,-34.2292,-34.2292,-105.843,-105.843,1.872
1.49228,1.50078,1.03258,1.03684,-0.0162894,-0.0001271,-0.0112714,-0.00141547,100,197,-34.5211,-34.5211,-106.469,-106.469,1.876
1.49221,1.50078,1.03253,1.03683,-0.0163517,-0.000142315,-0.0113145,-0.00163463,101,196,-34.8148,-34.8148,-107.094,-107.094,1.88
1.49214,1.50078,1.03249,1.03682,-0.0164141,-0.000152459,-0.0113577,-0.00180952,102,196,-35.1098,-35.1098,-107.714,-107.714,1.884
1.49208,1.50078,1.03244,1.03681,-0.0164766,-0.000159221,-0.011401,-0.00212766,102,195,-35.4063,-35.4063,-108.329,-108.329,1.888
1.49201,1.50078,1.0324,1.0368,-0.0165392,-0.000163729,-0.0114443,-0.00245491,103,193,-35.7043,-35.7043,-108.935,-108.935,1.892
1.49195,1.50078,1.03235,1.03678,-0.0166018,-0.000195526,-0.0114876,-0.00273066,103,192,-36.0037,-36.0037,-109.53,-109.53,1.896
1.49188,1.50078,1.03231,1.03677,-0.0166646,-0.000159141,-0.0115311,-0.00294329,104,191,-36.3044,-36.3044,-110.118,-110.118,1.9
1.49181,1.50078,1.03226,1.03676,-0.0167274,-0.000163676,-0.0115745,-0.00308504,105,191,-36.6071,-36.6071,-110.699,-110.699,1.904
1.49175,1.50078,1.03221,1.03674,-0.0167904,-0.000166699,-0.0116181,-0.00303558,106,193,-36.9114,-36.9114,-111.279,-111.279,1.908
1.49168,1.50078,1.03217,1.03673,-0.0168534,-0.000197506,-0.0116617,-0.00308899,106,194,-37.2171,-37.2171,-111.864,-111.864,1.912
1.49161,1.50078,1.03212,1.03672,-0.0169165,-0.000189252,-0.0117054,-0.0030958,107,195,-37.5241,-37.5241,-112.451,-112.451,1.916
1.49154,1.50078,1.03207,1.03671,-0.0169797,-0.000241332,-0.0117491,-0.00318671,107,195,-37.8328,-37.8328,-113.04,-113.04,1.92
1.49148,1.50077,1.03203,1.03669,-0.017043,-0.000276052,-0.0117929,-0.00318974,108,197,-38.1425,-38.1425,-113.63,-113.63,1.924
1.49141,1.50077,1.03198,1.03668,-0.0171063,-0.000299198,-0.0118367,-0.00322055,109,198,-38.4533,-38.4533,-114.222,-114.222,1.928
1.49134,1.50077,1.03193,1.03667,-0.0171698,-0.000285838,-0.0118806,-0.0032123,109,199,-38.7656,-38.7656,-114.817,-114.817,1.932
1.49127,1.50077,1.03188,1.03665,-0.0172333,-0.000248141,-0.0119246,-0.003178,110,201,-39.0796,-39.0796,-115.416,-115.416,1.936
1.4912,1.50077,1.03184,1.03664,-0.0172969,-0.000194218,-0.0119686,-0.00312635,111,203,-39.3957,-39.3957,-116.02,-116.02,1.94
1.49113,1.50077,1.03179,1.03663,-0.0173606,-0.00015827,-0.0120127,-0.00303433,112,205,-39.714,-39.714,-116.63,-116.63,1.944
1.49106,1.50077,1.03174,1.03662,-0.0174244,-0.000134304,-0.0120568,-0.00288662,112,208,-40.0344,-40.0344,-117.248,-117.248,1.948
1.49099,1.50077,1.03169,1.03661,-0.0174883,-0.000118327,-0.012101,-0.00278814,113,211,-40.3566,-40.3566,-117.875,-117.875,1.952
1.49092,1.50077,1.03164,1.0366,-0.0175523,-0.000136466,-0.0121453,-0.00272249,114,213,-40.6807,-40.6807,-118.51,-118.51,1.956
1.49085,1.50077,1.03159,1.03659,-0.0176163,-0.000148559,-0.0121896,-0.0027363,114,214,-41.0061,-41.0061,-119.151,-119.151,1.96
1.49078,1.50077,1.03155,1.03658,-0.0176805,-0.000156622,-0.012234,-0.00286067,115,214,-41.3331,-41.3331,-119.796,-119.796,1.964
1.49071,1.50077,1.0315,1.03656,-0.0177447,-0.000190787,-0.0122784,-0.00305875,116,214,-41.6616,-41.6616,-120.438,-120.438,1.968
1.49064,1.50077,1.03145,1.03655,-0.017809,-0.000213564,-0.0123229,-0.00324839,116,213,-41.9914,-41.9914,-121.076,-121.076,1.972
1.49057,1.50076,1.0314,1.03653,-0.0178734,-0.000228749,-0.0123675,-0.00348997,117,213,-42.3226,-42.3226,-121.71,-121.71,1.976
1.4905,1.50076,1.03135,1.03651,-0.0179378,-0.000238872,-0.0124121,-0.00379499,118,211,-42.6553,-42.6553,-122.336,-122.336,1.98
1.49042,1.50076,1.0313,1.0365,-0.0180024,-0.000303203,-0.0124567,-0.00399833,118,211,-42.9895,-42.9895,-122.953,-122.953,1.984
1.49035,1.50076,1.03125,1.03648,-0.018067,-0.000259717,-0.0125015,-0.00416268,119,210,-43.3247,-43.3247,-123.566,-123.566,1.988
1.49028,1.50076,1.0312,1.03646,-0.0181318,-0.000230726,-0.0125463,-0.00430104,120,210,-43.662,-43.662,-124.175,-124.175,1.992
1.49021,1.50076,1.03115,1.03644,-0.0181966,-0.0002114,-0.0125911,-0.00442207,121,211,-44.0014,-44.0014,-124.781,-124.781,1.996
1.49013,1.50076,1.0311,1.03642,-0.0182615,-0.000227306,-0.012636,-0.00464671,121,210,-44.3427,-44.3427,-125.386,-125.386,2
1.49006,1.50076,1.03105,1.0364,-0.0183264,-0.000151537,-0.012681,-0.00482526,122,209,-44.6855,-44.6855,-125.985,-125.985,2.004
1.48999,1.50076,1.031,1.03638,-0.0183915,-0.000158607,-0.012726,-0.00500188,123,209,-45.0309,-45.0309,-126.579,-126.579,2.008
1.48991,1.50076,1.03095,1.03636,-0.0184566,-0.00016332,-0.012771,-0.00509083,124,210,-45.3779,-45.3779,-127.17,-127.17,2.012
1.48984,1.50076,1.03089,1.03634,-0.0185218,-0.000166462,-0.0128162,-0.00515013,124,210,-45.7265,-45.7265,-127.76,-127.76,2.016
1.48977,1.50076,1.03084,1.03632,-0.0185871,-0.000254929,-0.0128614,-0.00521846,125,211,-46.0767,-46.0767,-128.351,-128.351,2.02
1.48969,1.50075,1.03079,1.03629,-0.0186525,-0.000227535,-0.0129066,-0.00526401,126,212,-46.4278,-46.4278,-128.943,-128.943,2.024
1.48962,1.50075,1.03074,1.03628,-0.018718,-0.000238062,-0.0129519,-0.00500647,126,216,-46.7808,-46.7808,-129.537,-129.537,2.028
1.48954,1.50075,1.03069,1.03626,-0.0187835,-0.000273872,-0.0129973,-0.00466203,127,221,-47.1355,-47.1355,-130.145,-130.145,2.032
1.48947,1.50075,1.03064,1.03625,-0.0188492,-0.000297745,-0.0130427,-0.00408691,128,228,-47.4914,-47.4914,-130.772,-130.772,2.036
1.48939,1.50075,1.03058,1.03624,-0.0189149,-0.000284869,-0.0130881,-0.00347317,129,235,-47.8489,-47.8489,-131.427,-131.427,2.04
1.48932,1.50075,1.03053,1.03623,-0.0189807,-0.000276286,-0.0131337,-0.00292006,129,242,-48.2082,-48.2082,-132.112,-132.112,2.044
1.48924,1.50075,1.03048,1.03623,-0.0190465,-0.000241772,-0.0131792,-0.00240736,130,249,-48.5693,-48.5693,-132.825,-132.825,2.048
1.48916,1.50075,1.03043,1.03622,-0.0191125,-0.000218763,-0.0132249,-0.0019504,131,255,-48.9326,-48.9326,-133.563,-133.563,2.052
1.48909,1.50075,1.03037,1.03622,-0.0191785,-0.000203424,-0.0132706,-0.00164576,132,259,-49.2978,-49.2978,-134.324,-134.324,2.056
1.48901,1.50075,1.03032,1.03621,-0.0192446,-0.000193198,-0.0133163,-0.00147145,133,263,-49.665,-49.665,-135.102,-135.102,2.06
1.48893,1.50074,1.03027,1.03621,-0.0193108,-0.000215171,-0.0133621,-0.00138404,133,265,-50.034,-50.034,-135.891,-135.891,2.064
1.48885,1.50074,1.03021,1.0362,-0.0193771,-0.000201029,-0.013408,-0.00135456,134,267,-50.4046,-50.4046,-136.689,-136.689,2.068
1.48878,1.50074,1.03016,1.0362,-0.0194435,-0.000220392,-0.0134539,-0.0013349,135,269,-50.777,-50.777,-137.492,-137.492,2.072
1.4887,1.50074,1.0301,1.03619,-0.0195099,-0.00020451,-0.0134999,-0.0013218,136,271,-51.151,-51.151,-138.3,-138.3,2.076
1.48862,1.50074,1.03005,1.03619,-0.0195764,-0.000222713,-0.0135459,-0.00137065,136,273,-51.5269,-51.5269,-139.112,-139.112,2.08
1.48854,1.50074,1.03,1.03618,-0.019643,-0.000234848,-0.013592,-0.00140321,137,274,-51.9043,-51.9043,-139.927,-139.927,2.084
1.48846,1.50074,1.02994,1.03618,-0.0197097,-0.00030052,-0.0136381,-0.00136734,138,276,-52.2834,-52.2834,-140.745,-140.745,2.088
1.48838,1.50074,1.02989,1.03617,-0.0197764,-0.000286719,-0.0136843,-0.00131463,139,279,-52.6635,-52.6635,-141.569,-141.569,2.092
1.48831,1.50074,1.02983,1.03617,-0.0198433,-0.000363892,-0.0137305,-0.00122191,139,281,-53.0455,-53.0455,-142.4,-142.4,2.096
1.48823,1.50073,1.02978,1.03616,-0.0199102,-0.000444131,-0.0137768,-0.00113131,140,284,-53.4284,-53.4284,-143.239,-143.239,2.1
1.48815,1.50073,1.02972,1.03616,-0.0199772,-0.000497624,-0.0138232,-0.000926951,140,288,-53.8122,-53.8122,-144.087,-144.087,2.104
1.48807,1.50073,1.02967,1.03616,-0.0200442,-0.000590868,-0.0138696,-0.000790713,141,291,-54.197,-54.197,-144.947,-144.947,2.108
1.48799,1.50072,1.02961,1.03616,-0.0201114,-0.00065303,-0.0139161,-0.000699887,141,294,-54.5827,-54.5827,-145.818,-145.818,2.112
1.48791,1.50072,1.02956,1.03616,-0.0201786,-0.000665681,-0.0139626,-0.000552964,142,297,-54.9694,-54.9694,-146.697,-146.697,2.116
1.48782,1.50072,1.0295,1.03616,-0.0202459,-0.000760487,-0.0140091,-0.000426225,143,300,-55.3577,-55.3577,-147.587,-147.587,2.12
1.48774,1.50071,1.02944,1.03616,-0.0203133,-0.000794901,-0.0140558,-0.000399314,143,302,-55.7467,-55.7467,-148.487,-148.487,2.124
1.48766,1.50071,1.02939,1.03615,-0.0203807,-0.000817843,-0.0141024,-0.000410164,144,304,-56.1371,-56.1371,-149.392,-149.392,2.128
1.48758,1.50071,1.02933,1.03615,-0.0204483,-0.000833138,-0.0141492,-0.00050377,145,305,-56.5291,-56.5291,-150.302,-150.302,2.132
1.4875,1.5007,1.02927,1.03615,-0.0205159,-0.000872125,-0.014196,-0.000537383,146,307,-56.9226,-56.9226,-151.212,-151.212,2.136
1.48742,1.5007,1.02922,1.03615,-0.0205836,-0.000869326,-0.0142428,-0.000617374,146,308,-57.3175,-57.3175,-152.125,-152.125,2.14
1.48733,1.5007,1.02916,1.03614,-0.0206513,-0.000896251,-0.0142897,-0.000699492,147,309,-57.7143,-57.7143,-153.04,-153.04,2.144
1.48725,1.50069,1.0291,1.03614,-0.0207192,-0.000799037,-0.0143366,-0.000811819,148,310,-58.1126,-58.1126,-153.955,-153.955,2.148
1.48717,1.50069,1.02905,1.03613,-0.0207871,-0.000705437,-0.0143836,-0.000886704,149,311,-58.5138,-58.5138,-154.871,-154.871,2.152
1.48708,1.50069,1.02899,1.03613,-0.0208551,-0.000643037,-0.0144307,-0.001023,150,312,-58.9179,-58.9179,-155.788,-155.788,2.156
1.487,1.50069,1.02893,1.03612,-0.0209232,-0.000486273,-0.0144778,-0.00114265,152,313,-59.3246,-59.3246,-156.704,-156.704,2.16
1.48692,1.50069,1.02887,1.03612,-0.0209913,-0.000410555,-0.0145249,-0.00125122,153,314,-59.7349,-59.7349,-157.619,-157.619,2.164
1.48683,1.50069,1.02881,1.03611,-0.0210595,-0.000331285,-0.0145721,-0.00132359,154,315,-60.148,-60.148,-158.534,-158.534,2.168
1.48675,1.50069,1.02876,1.0361,-0.0211278,-0.000278439,-0.0146194,-0.00142942,155,316,-60.5637,-60.5637,-159.451,-159.451,2.172
1.48666,1.50069,1.0287,1.0361,-0.0211962,-0.000271998,-0.0146667,-0.00149997,155,317,-60.9819,-60.9819,-160.367,-160.367,2.176
1.48658,1.50069,1.02864,1.03609,-0.0212647,-0.000238914,-0.0147141,-0.00146064,156,320,-61.4021,-61.4021,-161.286,-161.286,2.18
1.48649,1.50068,1.02858,1.03609,-0.0213332,-0.000245649,-0.0147615,-0.00140562,157,322,-61.8245,-61.8245,-162.211,-162.211,2.184
1.48641,1.50068,1.02852,1.03608,-0.0214018,-0.00027893,-0.014809,-0.00128257,158,325,-62.2487,-62.2487,-163.143,-163.143,2.188
1.48632,1.50068,1.02846,1.03608,-0.0214705,-0.000243535,-0.0148565,-0.00111417,159,329,-62.6744,-62.6744,-164.085,-164.085,2.192
1.48624,1.50068,1.0284,1.03608,-0.0215392,-0.000191148,-0.0149041,-0.000944314,160,333,-63.1025,-63.1025,-165.038,-165.038,2.196
1.48615,1.50068,1.02834,1.03608,-0.0216081,-0.000213804,-0.0149517,-0.000744707,161,336,-63.5329,-63.5329,-166.004,-166.004,2.2
1.48606,1.50068,1.02828,1.03607,-0.021677,-0.000228909,-0.0149994,-0.000582844,162,340,-63.9651,-63.9651,-166.983,-166.983,2.204
1.48598,1.50068,1.02822,1.03607,-0.0217459,-0.000325352,-0.0150471,-0.000474935,162,343,-64.3988,-64.3988,-167.974,-167.974,2.208
1.48589,1.50068,1.02816,1.03607,-0.021815,-0.000389647,-0.0150949,-0.000431787,163,346,-64.8334,-64.8334,-168.973,-168.973,2.212
1.4858,1.50067,1.0281,1.03607,-0.0218841,-0.000461301,-0.0151427,-0.00034544,164,349,-65.2692,-65.2692,-169.98,-169.98,2.216
1.48572,1.50067,1.02804,1.03607,-0.0219533,-0.000422698,-0.0151906,-0.000374248,164,351,-65.7061,-65.7061,-170.995,-170.995,2.22
1.48563,1.50067,1.02798,1.03607,-0.0220226,-0.000368171,-0.0152385,-0.000451035,165,352,-66.1454,-66.1454,-172.013,-172.013,2.224
1.48554,1.50067,1.02792,1.03606,-0.0220919,-0.000360611,-0.0152865,-0.000531017,166,353,-66.5872,-66.5872,-173.034,-173.034,2.228
1.48545,1.50067,1.02786,1.03606,-0.0221613,-0.000297989,-0.0153345,-0.00061313,167,355,-67.031,-67.031,-174.055,-174.055,2.232
1.48536,1.50067,1.0278,1.03606,-0.0222308,-0.000169869,-0.0153826,-0.000639081,169,357,-67.4775,-67.4775,-175.078,-175.078,2.236
1.48527,1.50067,1.02773,1.03605,-0.0223004,-0.000142037,-0.0154307,-0.000771545,170,357,-67.9274,-67.9274,-176.105,-176.105,2.24
1.48518,1.50067,1.02767,1.03605,-0.02237,-9.46911e-05,-0.0154789,-0.000773482,171,359,-68.3795,-68.3795,-177.131,-177.131,2.244
1.48509,1.50067,1.02761,1.03605,-0.0224397,-9.19183e-05,-0.0155272,-0.000745982,172,362,-68.8341,-68.8341,-178.162,-178.162,2.248
1.485,1.50067,1.02755,1.03605,-0.0225095,-0.000118861,-0.0155754,-0.000727649,172,364,-69.2907,-69.2907,-179.2,-179.2,2.252
1.48491,1.50067,1.02749,1.03604,-0.0225794,-0.000136822,-0.0156238,-0.000629054,173,367,-69.7489,-69.7489,-180.243,-180.243,2.256
1.48482,1.50067,1.02742,1.03604,-0.0226493,-0.000148797,-0.0156722,-0.000563324,174,370,-70.2089,-70.2089,-181.295,-181.295,2.26
1.48473,1.50067,1.02736,1.03604,-0.0227193,-0.00015678,-0.0157206,-0.000577086,175,372,-70.6707,-70.6707,-182.354,-182.354,2.264
1.48464,1.50066,1.0273,1.03604,-0.0227893,-0.000219683,-0.0157691,-0.000499887,176,375,-71.1344,-71.1344,-183.419,-183.419,2.268
1.48455,1.50066,1.02723,1.03604,-0.0228595,-0.000204038,-0.0158176,-0.000534795,177,377,-71.5993,-71.5993,-184.491,-184.491,2.272
1.48446,1.50066,1.02717,1.03603,-0.0229297,-0.00027998,-0.0158662,-0.000558066,177,379,-72.0664,-72.0664,-185.567,-185.567,2.276
1.48437,1.50066,1.02711,1.03603,-0.023,-0.000244235,-0.0159148,-0.000573581,178,381,-72.5346,-72.5346,-186.647,-186.647,2.28
1.48427,1.50066,1.02704,1.03603,-0.0230703,-0.000249196,-0.0159635,-0.000699087,179,382,-73.0052,-73.0052,-187.731,-187.731,2.284
1.48418,1.50066,1.02698,1.03602,-0.0231408,-0.000281294,-0.0160122,-0.000753967,180,384,-73.4777,-73.4777,-188.815,-188.815,2.288
1.48409,1.50066,1.02691,1.03602,-0.0232112,-0.000331484,-0.016061,-0.000876927,181,385,-73.9518,-73.9518,-189.902,-189.902,2.292
1.484,1.50066,1.02685,1.03602,-0.0232818,-0.000278571,-0.0161098,-0.000987691,182,386,-74.4275,-74.4275,-190.988,-190.988,2.296
1.4839,1.50065,1.02679,1.03601,-0.0233525,-0.000329669,-0.0161587,-0.00114791,183,387,-74.9056,-74.9056,-192.075,-192.075,2.3
1.48381,1.50065,1.02672,1.036,-0.0234232,-0.00024857,-0.0162076,-0.0013123,184,387,-75.3853,-75.3853,-193.159,-193.159,2.304
1.48372,1.50065,1.02666,1.036,-0.0234939,-0.000223295,-0.0162566,-0.00150827,185,387,-75.8679,-75.8679,-194.242,-194.242,2.308
1.48362,1.50065,1.02659,1.03599,-0.0235648,-0.000235236,-0.0163056,-0.00175407,186,387,-76.3528,-76.3528,-195.321,-195.321,2.312
1.48353,1.50065,1.02653,1.03598,-0.0236357,-0.000156824,-0.0163547,-0.00200432,187,387,-76.8396,-76.8396,-196.395,-196.395,2.316
1.48343,1.50065,1.02646,1.03597,-0.0237067,-0.000162131,-0.0164038,-0.00219994,188,387,-77.3293,-77.3293,-197.463,-197.463,2.32
1.48334,1.50065,1.02639,1.03595,-0.0237777,-7.92966e-05,-0.016453,-0.00244552,189,387,-77.8211,-77.8211,-198.527,-198.527,2.324
1.48324,1.50065,1.02633,1.03594,-0.0238489,-5.28644e-05,-0.0165022,-0.00252286,190,388,-78.3158,-78.3158,-199.586,-199.586,2.328
1.48315,1.50065,1.02626,1.03593,-0.0239201,-0.000121616,-0.0165515,-0.00260322,191,390,-78.8129,-78.8129,-200.647,-200.647,2.332
1.48305,1.50065,1.0262,1.03592,-0.0239913,-0.000138659,-0.0166008,-0.00251283,192,393,-79.3112,-79.3112,-201.709,-201.709,2.336
1.48295,1.50065,1.02613,1.03591,-0.0240626,-0.000178812,-0.0166501,-0.002395,193,396,-79.8114,-79.8114,-202.78,-202.78,2.34
1.48286,1.50065,1.02606,1.03591,-0.024134,-0.000263163,-0.0166995,-0.00202853,193,402,-80.3131,-80.3131,-203.861,-203.861,2.344
1.48276,1.50065,1.026,1.03591,-0.0242055,-0.000233024,-0.016749,-0.00161147,195,408,-80.8161,-80.8161,-204.963,-204.963,2.348
1.48266,1.50065,1.02593,1.0359,-0.024277,-0.000299304,-0.0167985,-0.00127585,195,414,-81.3214,-81.3214,-206.088,-206.088,2.352
1.48257,1.50064,1.02586,1.0359,-0.0243487,-0.0003147,-0.016848,-0.00122485,196,417,-81.828,-81.828,-207.231,-207.231,2.356
1.48247,1.50064,1.02579,1.03589,-0.0244203,-0.000353754,-0.0168976,-0.00156513,197,416,-82.3365,-82.3365,-208.381,-208.381,2.36
1.48237,1.50064,1.02573,1.03588,-0.0244921,-0.000322209,-0.0169473,-0.00219506,198,412,-82.8466,-82.8466,-209.521,-209.521,2.364
1.48227,1.50064,1.02566,1.03586,-0.0245639,-0.000358761,-0.016997,-0.00321962,199,404,-83.3592,-83.3592,-210.638,-210.638,2.368
1.48218,1.50064,1.02559,1.03583,-0.0246357,-0.000411919,-0.0170467,-0.00444969,200,394,-83.8735,-83.8735,-211.716,-211.716,2.372
1.48208,1.50064,1.02552,1.03579,-0.0247077,-0.000389777,-0.0170965,-0.00613346,201,380,-84.3893,-84.3893,-212.746,-212.746,2.376
1.48198,1.50063,1.02545,1.03574,-0.0247797,-0.000461388,-0.0171463,-0.0081197,202,362,-84.9075,-84.9075,-213.708,-213.708,2.38
1.48188,1.50063,1.02539,1.03568,-0.0248518,-0.000537919,-0.0171962,-0.010394,203,342,-85.427,-85.427,-214.588,-214.588,2.384
1.48178,1.50063,1.02532,1.03561,-0.0249239,-0.00058894,-0.0172461,-0.0128027,204,320,-85.9478,-85.9478,-215.375,-215.375,2.388
1.48168,1.50063,1.02525,1.03553,-0.0249961,-0.000622954,-0.0172961,-0.0155889,204,294,-86.4702,-86.4702,-216.062,-216.062,2.392
1.48158,1.50062,1.02518,1.03543,-0.0250684,-0.00064563,-0.0173461,-0.0183965,205,268,-86.9945,-86.9945,-216.633,-216.633,2.396
1.48148,1.50062,1.02511,1.03532,-0.0251407,-0.000603166,-0.0173961,-0.0216789,207,237,-87.5209,-87.5209,-217.085,-217.085,2.4
1.48138,1.50062,1.02504,1.03519,-0.0252131,-0.000546065,-0.0174462,-0.025422,208,201,-88.05,-88.05,-217.398,-217.398,2.404
1.48128,1.50062,1.02497,1.03504,-0.0252856,-0.000507998,-0.0174964,-0.029069,209,166,-88.5822,-88.5822,-217.554,-217.554,2.408
1.48118,1.50061,1.0249,1.03489,-0.0253582,-0.000511411,-0.0175466,-0.0322776,210,135,-89.1171,-89.1171,-217.554,-217.554,2.412
1.48107,1.50061,1.02483,1.03472,-0.0254308,-0.000484895,-0.0175968,-0.0350502,211,108,-89.6544,-89.6544,-217.419,-217.419,2.416
1.48097,1.50061,1.02476,1.03456,-0.0255034,-0.000438427,-0.0176471,-0.0372728,212,86,-90.1944,-90.1944,-217.166,-217.166,2.42
1.48087,1.50061,1.02469,1.03438,-0.0255762,-0.000493821,-0.0176974,-0.0395319,213,63,-90.7373,-90.7373,-216.816,-216.816,2.424
1.48077,1.50061,1.02462,1.03421,-0.025649,-0.000530751,-0.0177478,-0.0409228,214,48,-91.282,-91.282,-216.37,-216.37,2.428
1.48066,1.5006,1.02455,1.03403,-0.0257218,-0.000497788,-0.0177982,-0.0419077,216,38,-91.8288,-91.8288,-215.864,-215.864,2.432
1.48056,1.5006,1.02447,1.03386,-0.0257948,-0.000562186,-0.0178487,-0.0421612,216,34,-92.3784,-92.3784,-215.314,-215.314,2.436
1.48046,1.5006,1.0244,1.03369,-0.0258678,-0.000489955,-0.0178992,-0.0425893,218,29,-92.9299,-92.9299,-214.751,-214.751,2.44
1.48035,1.5006,1.02433,1.03352,-0.0259408,-0.000413009,-0.0179497,-0.0423564,219,30,-93.4846,-93.4846,-214.169,-214.169,2.444
1.48025,1.5006,1.02426,1.03335,-0.026014,-0.000332921,-0.0180003,-0.0423452,220,29,-94.0427,-94.0427,-213.593,-213.593,2.448
1.48015,1.5006,1.02419,1.03319,-0.0260871,-0.000279529,-0.018051,-0.0416755,222,34,-94.6042,-94.6042,-213.016,-213.016,2.452
1.48004,1.5006,1.02411,1.03302,-0.0261604,-0.000157562,-0.0181017,-0.041373,223,36,-95.1689,-95.1689,-212.465,-212.465,2.456
1.47994,1.5006,1.02404,1.03287,-0.0262337,-0.000133832,-0.0181524,-0.0407682,224,41,-95.7374,-95.7374,-211.925,-211.925,2.46
1.47983,1.5006,1.02397,1.03271,-0.0263071,-0.000118012,-0.0182032,-0.0400772,226,47,-96.3087,-96.3087,-211.408,-211.408,2.464
1.47973,1.5006,1.0239,1.03256,-0.0263805,-0.000107466,-0.018254,-0.0395589,227,51,-96.8826,-96.8826,-210.919,-210.919,2.468
1.47962,1.5006,1.02382,1.03241,-0.026454,-0.000186808,-0.0183049,-0.0389542,228,56,-97.4591,-97.4591,-210.449,-210.449,2.472
1.47952,1.5006,1.02375,1.03226,-0.0265276,-0.00018212,-0.0183558,-0.0384359,229,60,-98.0373,-98.0373,-210.003,-210.003,2.476
1.47941,1.50059,1.02368,1.03211,-0.0266012,-0.00032295,-0.0184067,-0.0376586,230,66,-98.6179,-98.6179,-209.579,-209.579,2.48
1.4793,1.50059,1.0236,1.03197,-0.0266749,-0.000416836,-0.0184577,-0.0370827,230,71,-99.1994,-99.1994,-209.185,-209.185,2.484
1.4792,1.50059,1.02353,1.03183,-0.0267487,-0.0005658,-0.0185087,-0.036267,231,79,-99.7823,-99.7823,-208.814,-208.814,2.488
1.47909,1.50058,1.02345,1.03169,-0.0268225,-0.0006939,-0.0185598,-0.0357519,232,83,-100.366,-100.366,-208.477,-208.477,2.492
1.47898,1.50058,1.02338,1.03155,-0.0268964,-0.000865673,-0.0186109,-0.0354086,233,86,-100.951,-100.951,-208.159,-208.159,2.496
1.47887,1.50057,1.02331,1.03142,-0.0269703,-0.000951397,-0.0186621,-0.0347766,234,91,-101.536,-101.536,-207.856,-207.856,2.5
1.47877,1.50057,1.02323,1.03128,-0.0270443,-0.00112371,-0.0187133,-0.0342977,234,95,-102.122,-102.122,-207.578,-207.578,2.504
1.47866,1.50056,1.02316,1.03115,-0.0271184,-0.00129617,-0.0187646,-0.0340072,235,98,-102.709,-102.709,-207.32,-207.32,2.508
1.47855,1.50055,1.02308,1.03102,-0.0271925,-0.00143993,-0.0188159,-0.0337848,236,99,-103.297,-103.297,-207.073,-207.073,2.512
1.47844,1.50055,1.02301,1.03088,-0.0272667,-0.00153577,-0.0188672,-0.0337516,237,99,-103.885,-103.885,-206.834,-206.834,2.516
1.47833,1.50054,1.02293,1.03075,-0.027341,-0.00157088,-0.0189186,-0.0335568,238,101,-104.475,-104.475,-206.596,-206.596,2.52
1.47822,1.50054,1.02285,1.03062,-0.0274153,-0.00145032,-0.01897,-0.0335133,239,101,-105.067,-105.067,-206.366,-206.366,2.524
1.47811,1.50053,1.02278,1.03048,-0.0274897,-0.00134116,-0.0190215,-0.0333691,241,102,-105.663,-105.663,-206.137,-206.137,2.528
1.478,1.50053,1.0227,1.03035,-0.0275641,-0.00118202,-0.019073,-0.0333306,242,102,-106.263,-106.263,-205.913,-205.913,2.532
1.47789,1.50053,1.02263,1.03022,-0.0276386,-0.000989549,-0.0191245,-0.0335352,244,100,-106.867,-106.867,-205.69,-205.69,2.536
1.47778,1.50052,1.02255,1.03008,-0.0277132,-0.000774863,-0.0191761,-0.0335853,246,99,-107.476,-107.476,-205.458,-205.458,2.54
1.47767,1.50052,1.02247,1.02995,-0.0277878,-0.000631739,-0.0192277,-0.0334747,247,99,-108.089,-108.089,-205.224,-205.224,2.544
1.47756,1.50052,1.0224,1.02981,-0.0278625,-0.000507532,-0.0192794,-0.0334585,249,99,-108.708,-108.708,-204.993,-204.993,2.548
1.47745,1.50052,1.02232,1.02968,-0.0279372,-0.000453518,-0.0193311,-0.033419,250,99,-109.33,-109.33,-204.763,-204.763,2.552
1.47733,1.50052,1.02224,1.02955,-0.028012,-0.000331137,-0.0193829,-0.0335366,252,98,-109.955,-109.955,-204.533,-204.533,2.556
1.47722,1.50052,1.02216,1.02941,-0.0280869,-0.00027834,-0.0194347,-0.033615,253,97,-110.584,-110.584,-204.298,-204.298,2.56
1.47711,1.50052,1.02208,1.02928,-0.0281618,-0.000271932,-0.0194865,-0.0335233,254,97,-111.217,-111.217,-204.059,-204.059,2.564
1.477,1.50052,1.02201,1.02914,-0.0282368,-0.000296452,-0.0195384,-0.0336349,255,96,-111.852,-111.852,-203.823,-203.823,2.568
1.47688,1.50052,1.02193,1.02901,-0.0283118,-0.000312798,-0.0195903,-0.0335078,257,97,-112.49,-112.49,-203.583,-203.583,2.572
1.47677,1.50052,1.02185,1.02887,-0.0283869,-0.000294905,-0.0196423,-0.0336821,258,94,-113.13,-113.13,-203.347,-203.347,2.576
1.47666,1.50051,1.02177,1.02873,-0.028462,-0.000455722,-0.0196943,-0.0339135,259,92,-113.773,-113.773,-203.103,-203.103,2.58
1.47654,1.50051,1.02169,1.0286,-0.0285372,-0.000534142,-0.0197463,-0.0339239,260,91,-114.416,-114.416,-202.848,-202.848,2.584
1.47643,1.50051,1.02161,1.02846,-0.0286125,-0.000615213,-0.0197984,-0.0338444,261,92,-115.062,-115.062,-202.593,-202.593,2.588
1.47631,1.5005,1.02153,1.02833,-0.0286879,-0.000698051,-0.0198505,-0.033849,262,91,-115.709,-115.709,-202.341,-202.341,2.592
1.4762,1.5005,1.02145,1.02819,-0.0287632,-0.000695695,-0.0199027,-0.0337368,263,92,-116.357,-116.357,-202.088,-202.088,2.596
1.47608,1.5005,1.02138,1.02806,-0.0288387,-0.000694124,-0.0199549,-0.0337773,264,91,-117.009,-117.009,-201.839,-201.839,2.6
1.47597,1.50049,1.0213,1.02793,-0.0289142,-0.000721868,-0.0200072,-0.0334587,266,94,-117.663,-117.663,-201.589,-201.589,2.604
1.47585,1.50049,1.02121,1.0278,-0.0289898,-0.0006252,-0.0200594,-0.0331888,267,96,-118.319,-118.319,-201.352,-201.352,2.608
1.47574,1.50049,1.02113,1.02767,-0.0290654,-0.000675918,-0.0201118,-0.0329512,268,98,-118.98,-118.98,-201.126,-201.126,2.612
1.47562,1.50049,1.02105,1.02754,-0.029141,-0.000623358,-0.0201641,-0.0323034,270,104,-119.642,-119.642,-200.91,-200.91,2.616
1.4755,1.50048,1.02097,1.02742,-0.0292168,-0.000703481,-0.0202165,-0.0319004,271,108,-120.308,-120.308,-200.722,-200.722,2.62
1.47539,1.50048,1.02089,1.0273,-0.0292926,-0.000699315,-0.020269,-0.0313725,272,113,-120.975,-120.975,-200.55,-200.55,2.624
1.47527,1.50048,1.02081,1.02718,-0.0293684,-0.000638955,-0.0203215,-0.0303872,273,122,-121.645,-121.645,-200.403,-200.403,2.628
1.47515,1.50048,1.02073,1.02707,-0.0294443,-0.000483552,-0.020374,-0.0294425,275,132,-122.319,-122.319,-200.297,-200.297,2.632
1.47503,1.50048,1.02065,1.02697,-0.0295203,-0.00037995,-0.0204265,-0.0285823,277,140,-122.997,-122.997,-200.231,-200.231,2.636
1.47491,1.50048,1.02057,1.02686,-0.0295963,-0.0002533,-0.0204791,-0.0276058,278,150,-123.679,-123.679,-200.203,-200.203,2.64
1.4748,1.50048,1.02048,1.02676,-0.0296724,-0.000197658,-0.0205318,-0.0268972,280,157,-124.365,-124.365,-200.217,-200.217,2.644
1.47468,1.50048,1.0204,1.02666,-0.0297485,-0.000160563,-0.0205845,-0.026396,281,162,-125.054,-125.054,-200.262,-200.262,2.648
1.47456,1.50048,1.02032,1.02656,-0.0298247,-0.000193415,-0.0206372,-0.0257739,282,168,-125.747,-125.747,-200.329,-200.329,2.652
1.47444,1.50048,1.02024,1.02647,-0.0299009,-0.000157734,-0.0206899,-0.0252153,284,174,-126.442,-126.442,-200.424,-200.424,2.656
1.47432,1.50047,1.02015,1.02637,-0.0299772,-0.000249111,-0.0207427,-0.0250156,285,176,-127.14,-127.14,-200.543,-200.543,2.66
1.4742,1.50047,1.02007,1.02627,-0.0300536,-0.000310028,-0.0207956,-0.0248537,286,178,-127.839,-127.839,-200.672,-200.672,2.664
1.47408,1.50047,1.01999,1.02617,-0.03013,-0.00035064,-0.0208484,-0.0246594,287,181,-128.541,-128.541,-200.809,-200.809,2.668
1.47396,1.50047,1.0199,1.02607,-0.0302065,-0.00055046,-0.0209014,-0.0245874,288,182,-129.244,-129.244,-200.956,-200.956,2.672
1.47384,1.50046,1.01982,1.02598,-0.030283,-0.000712465,-0.0209543,-0.0246258,289,182,-129.949,-129.949,-201.107,-201.107,2.676
1.47372,1.50046,1.01974,1.02588,-0.0303596,-0.000849258,-0.0210073,-0.0246226,290,182,-130.653,-130.653,-201.258,-201.258,2.68
1.47359,1.50045,1.01965,1.02578,-0.0304362,-0.000940454,-0.0210603,-0.0243614,291,185,-131.359,-131.359,-201.412,-201.412,2.684
1.47347,1.50045,1.01957,1.02569,-0.0305129,-0.000972461,-0.0211134,-0.0240433,292,189,-132.067,-132.067,-201.578,-201.578,2.688
1.47335,1.50045,1.01948,1.0256,-0.0305896,-0.000993798,-0.0211665,-0.0236584,293,193,-132.777,-132.777,-201.76,-201.76,2.692
1.47323,1.50044,1.0194,1.02551,-0.0306664,-0.000979232,-0.0212196,-0.0232291,295,198,-133.489,-133.489,-201.959,-201.959,2.696
1.4731,1.50044,1.01931,1.02542,-0.0307433,-0.000940731,-0.0212728,-0.0227414,296,204,-134.205,-134.205,-202.179,-202.179,2.7
1.47298,1.50043,1.01923,1.02533,-0.0308202,-0.000886272,-0.021326,-0.0224738,298,207,-134.923,-134.923,-202.421,-202.421,2.704
1.47286,1.50043,1.01914,1.02525,-0.0308971,-0.000821176,-0.0213792,-0.0220939,299,211,-135.645,-135.645,-202.677,-202.677,2.708
1.47273,1.50043,1.01906,1.02516,-0.0309741,-0.000748987,-0.0214325,-0.0216967,301,216,-136.37,-136.37,-202.951,-202.951,2.712
1.47261,1.50043,1.01897,1.02508,-0.0310512,-0.00067207,-0.0214859,-0.0212591,302,221,-137.099,-137.099,-203.245,-203.245,2.716
1.47249,1.50043,1.01889,1.025,-0.0311283,-0.000592001,-0.0215392,-0.0210538,304,224,-137.832,-137.832,-203.558,-203.558,2.72
1.47236,1.50042,1.0188,1.02492,-0.0312055,-0.000596204,-0.0215926,-0.021032,305,225,-138.568,-138.568,-203.883,-203.883,2.724
1.47224,1.50042,1.01871,1.02483,-0.0312827,-0.000541424,-0.021646,-0.02096,307,226,-139.307,-139.307,-204.211,-204.211,2.728
1.47211,1.50042,1.01863,1.02475,-0.03136,-0.000476113,-0.0216995,-0.0208831,308,228,-140.05,-140.05,-204.544,-204.544,2.732
1.47199,1.50042,1.01854,1.02466,-0.0314373,-0.000518945,-0.021753,-0.0209759,309,228,-140.796,-140.796,-204.883,-204.883,2.736
1.47186,1.50042,1.01845,1.02458,-0.0315147,-0.000518709,-0.0218066,-0.0211529,311,227,-141.544,-141.544,-205.22,-205.22,2.74
1.47173,1.50041,1.01836,1.02449,-0.0315921,-0.000547342,-0.0218601,-0.0211269,312,228,-142.295,-142.295,-205.552,-205.552,2.744
1.47161,1.50041,1.01828,1.02441,-0.0316696,-0.000566431,-0.0219138,-0.0210232,313,230,-143.048,-143.048,-205.888,-205.888,2.748
1.47148,1.50041,1.01819,1.02433,-0.0317471,-0.000636739,-0.0219674,-0.0208677,315,233,-143.804,-143.804,-206.231,-206.231,2.752
1.47135,1.5004,1.0181,1.02425,-0.0318247,-0.000712402,-0.0220211,-0.0206489,316,236,-144.562,-144.562,-206.583,-206.583,2.756
1.47123,1.5004,1.01801,1.02417,-0.0319024,-0.000849217,-0.0220748,-0.0204454,317,238,-145.322,-145.322,-206.947,-206.947,2.76
1.4711,1.50039,1.01793,1.02409,-0.0319801,-0.000998008,-0.0221286,-0.0202234,318,242,-146.083,-146.083,-207.322,-207.322,2.764
1.47097,1.50039,1.01784,1.02401,-0.0320578,-0.0010972,-0.0221824,-0.0199602,319,245,-146.845,-146.845,-207.709,-207.709,2.768
1.47084,1.50039,1.01775,1.02394,-0.0321356,-0.00107696,-0.0222362,-0.019612,320,250,-147.608,-147.608,-208.11,-208.11,2.772
1.47071,1.50038,1.01766,1.02386,-0.0322134,-0.00106346,-0.0222901,-0.0194375,322,252,-148.375,-148.375,-208.529,-208.529,2.776
1.47058,1.50038,1.01757,1.02378,-0.0322913,-0.000968094,-0.022344,-0.019206,323,256,-149.144,-149.144,-208.958,-208.958,2.78
1.47045,1.50037,1.01748,1.02371,-0.0323693,-0.000933306,-0.0223979,-0.0189076,325,260,-149.918,-149.918,-209.4,-209.4,2.784
1.47032,1.50037,1.01739,1.02364,-0.0324473,-0.00082374,-0.0224519,-0.0187664,327,262,-150.695,-150.695,-209.857,-209.857,2.788
1.47019,1.50037,1.0173,1.02356,-0.0325253,-0.000664324,-0.0225059,-0.0188161,329,263,-151.476,-151.476,-210.323,-210.323,2.792
1.47006,1.50037,1.01721,1.02348,-0.0326034,-0.000500464,-0.0225599,-0.0189069,330,263,-152.261,-152.261,-210.789,-210.789,2.796
1.46993,1.50037,1.01712,1.02341,-0.0326816,-0.000420016,-0.022614,-0.0187946,332,265,-153.052,-153.052,-211.256,-211.256,2.8
1.4698,1.50037,1.01703,1.02334,-0.0327598,-0.000366383,-0.0226681,-0.0186334,334,268,-153.846,-153.846,-211.73,-211.73,2.804
1.46967,1.50037,1.01694,1.02326,-0.032838,-0.000301837,-0.0227223,-0.0185548,335,270,-154.644,-154.644,-212.213,-212.213,2.808
1.46954,1.50037,1.01685,1.02319,-0.0329163,-0.000230016,-0.0227764,-0.0185311,337,271,-155.445,-155.445,-212.704,-212.704,2.812
1.46941,1.50037,1.01676,1.02312,-0.0329947,-0.000239717,-0.0228307,-0.0184865,338,273,-156.251,-156.251,-213.198,-213.198,2.816
1.46928,1.50037,1.01666,1.02304,-0.0330731,-0.000217393,-0.0228849,-0.0182553,340,276,-157.058,-157.058,-213.698,-213.698,2.82
1.46914,1.50036,1.01657,1.02297,-0.0331515,-0.000260092,-0.0229392,-0.0181011,341,279,-157.869,-157.869,-214.21,-214.21,2.824
1.46901,1.50036,1.01648,1.0229,-0.03323,-0.00031735,-0.0229935,-0.0178544,343,283,-158.683,-158.683,-214.733,-214.733,2.828
1.46888,1.50036,1.01639,1.02284,-0.0333086,-0.000384312,-0.0230479,-0.0176323,344,286,-159.498,-159.498,-215.269,-215.269,2.832
1.46874,1.50036,1.0163,1.02277,-0.0333872,-0.000457744,-0.0231022,-0.0175706,345,288,-160.316,-160.316,-215.818,-215.818,2.836
1.46861,1.50036,1.0162,1.0227,-0.0334658,-0.000506699,-0.0231567,-0.0174719,346,290,-161.136,-161.136,-216.373,-216.373,2.84
1.46848,1.50035,1.01611,1.02263,-0.0335445,-0.000539336,-0.0232111,-0.0174062,348,292,-161.958,-161.958,-216.935,-216.935,2.844
1.46834,1.50035,1.01602,1.02256,-0.0336233,-0.000561094,-0.0232656,-0.0174199,349,294,-162.782,-162.782,-217.503,-217.503,2.848
1.46821,1.50035,1.01593,1.02249,-0.033702,-0.000546808,-0.0233201,-0.0176018,351,293,-163.61,-163.61,-218.074,-218.074,2.852
1.46807,1.50035,1.01583,1.02241,-0.0337809,-0.000537284,-0.0233747,-0.017723,352,293,-164.44,-164.44,-218.641,-218.641,2.856
1.46794,1.50034,1.01574,1.02234,-0.0338598,-0.000502144,-0.0234292,-0.0176887,354,295,-165.273,-165.273,-219.206,-219.206,2.86
1.4678,1.50034,1.01564,1.02227,-0.0339387,-0.00056509,-0.0234839,-0.0175506,355,298,-166.11,-166.11,-219.777,-219.777,2.864
1.46767,1.50034,1.01555,1.0222,-0.0340177,-0.000578263,-0.0235385,-0.0174874,357,300,-166.949,-166.949,-220.357,-220.357,2.868
1.46753,1.50034,1.01546,1.02214,-0.0340967,-0.000644627,-0.0235932,-0.017474,358,301,-167.79,-167.79,-220.942,-220.942,2.872
1.46739,1.50033,1.01536,1.02206,-0.0341758,-0.000660079,-0.0236479,-0.0174939,359,302,-168.634,-168.634,-221.532,-221.532,2.876
1.46726,1.50033,1.01527,1.022,-0.0342549,-0.000699171,-0.0237027,-0.0174496,361,304,-169.481,-169.481,-222.124,-222.124,2.88
1.46712,1.50033,1.01517,1.02193,-0.0343341,-0.000725232,-0.0237574,-0.0173912,362,306,-170.33,-170.33,-222.722,-222.722,2.884
1.46698,1.50032,1.01508,1.02186,-0.0344133,-0.000771397,-0.0238123,-0.0173811,364,308,-171.182,-171.182,-223.326,-223.326,2.888
1.46684,1.50032,1.01498,1.02179,-0.0344926,-0.000830965,-0.0238671,-0.017432,365,308,-172.036,-172.036,-223.934,-223.934,2.892
1.46671,1.50032,1.01489,1.02172,-0.0345719,-0.000928259,-0.023922,-0.0174371,366,310,-172.892,-172.892,-224.543,-224.543,2.896
1.46657,1.50031,1.01479,1.02165,-0.0346512,-0.0010507,-0.0239769,-0.0172965,368,313,-173.75,-173.75,-225.156,-225.156,2.9
1.46643,1.5003,1.01469,1.02158,-0.0347306,-0.0012475,-0.0240318,-0.0172316,369,315,-174.609,-174.609,-225.778,-225.778,2.904
1.46629,1.5003,1.0146,1.02151,-0.0348101,-0.00146506,-0.0240868,-0.0171596,369,317,-175.47,-175.47,-226.407,-226.407,2.908
1.46615,1.50029,1.0145,1.02144,-0.0348896,-0.00175406,-0.0241418,-0.0171979,370,318,-176.33,-176.33,-227.042,-227.042,2.912
1.46601,1.50028,1.0144,1.02137,-0.0349691,-0.00209069,-0.0241968,-0.0173386,371,318,-177.19,-177.19,-227.679,-227.679,2.916
1.46587,1.50026,1.01431,1.0213,-0.0350487,-0.00240147,-0.0242519,-0.0174324,371,319,-178.048,-178.048,-228.314,-228.314,2.92
1.46573,1.50025,1.01421,1.02123,-0.0351283,-0.00278141,-0.024307,-0.0174374,372,320,-178.906,-178.906,-228.949,-228.949,2.924
1.46559,1.50023,1.01411,1.02116,-0.035208,-0.00312107,-0.0243621,-0.0175271,373,321,-179.762,-179.762,-229.587,-229.587,2.928
1.46545,1.50022,1.01402,1.02109,-0.0352877,-0.00354905,-0.0244173,-0.0175005,373,322,-180.617,-180.617,-230.225,-230.225,2.932
1.46531,1.5002,1.01392,1.02102,-0.0353675,-0.00412228,-0.0244725,-0.0176267,373,323,-181.469,-181.469,-230.868,-230.868,2.936
1.46517,1.50017,1.01382,1.02095,-0.0354473,-0.00484993,-0.0245277,-0.0177396,372,323,-182.318,-182.318,-231.509,-231.509,2.94
1.46502,1.50014,1.01372,1.02088,-0.0355271,-0.00576688,-0.024583,-0.0177574,371,324,-183.16,-183.16,-232.149,-232.149,2.944
1.46488,1.5001,1.01362,1.0208,-0.035607,-0.00689643,-0.0246383,-0.0179131,370,324,-183.993,-183.993,-232.791,-232.791,2.948
1.46474,1.50006,1.01352,1.02073,-0.035687,-0.00836923,-0.0246936,-0.0183049,367,322,-184.816,-184.816,-233.43,-233.43,2.952
1.4646,1.5,1.01343,1.02065,-0.035767,-0.0100997,-0.0247489,-0.018566,364,321,-185.623,-185.623,-234.057,-234.057,2.956
1.46445,1.49994,1.01333,1.02058,-0.035847,-0.0122898,-0.0248043,-0.0187402,359,320,-186.411,-186.411,-234.676,-234.676,2.96
1.46431,1.49986,1.01323,1.0205,-0.0359271,-0.014959,-0.0248597,-0.0188274,353,321,-187.175,-187.175,-235.291,-235.291,2.964
1.46416,1.49976,1.01313,1.02042,-0.0360072,-0.0180917,-0.0249152,-0.0191448,346,319,-187.909,-187.909,-235.906,-235.906,2.968
1.46402,1.49964,1.01303,1.02034,-0.0360874,-0.0215334,-0.0249706,-0.0195866,338,316,-188.606,-188.606,-236.51,-236.51,2.972
1.46388,1.49951,1.01293,1.02026,-0.0361676,-0.0253537,-0.0250261,-0.0199676,328,314,-189.264,-189.264,-237.1,-237.1,2.976
1.46373,1.49936,1.01283,1.02017,-0.0362478,-0.0295705,-0.0250817,-0.0202791,318,312,-189.877,-189.877,-237.676,-237.676,2.98
1.46359,1.49919,1.01273,1.02009,-0.0363281,-0.0339652,-0.0251372,-0.0206596,306,310,-190.44,-190.44,-238.243,-238.243,2.984
1.46344,1.499,1.01263,1.02,-0.0364085,-0.0386512,-0.0251928,-0.0209708,294,308,-190.951,-190.951,-238.797,-238.797,2.988
1.46329,1.49879,1.01253,1.01991,-0.0364888,-0.0432723,-0.0252484,-0.0214086,282,305,-191.407,-191.407,-239.34,-239.34,2.992
1.46315,1.49856,1.01242,1.01982,-0.0365693,-0.0479078,-0.0253041,-0.0217868,270,303,-191.807,-191.807,-239.869,-239.869,2.996
1.463,1.49831,1.01232,1.01973,-0.0366497,-0.0528408,-0.0253598,-0.0222117,257,300,-192.152,-192.152,-240.384,-240.384,3
1.46286,1.49804,1.01222,1.01963,-0.0367302,-0.0573674,-0.0254155,-0.0227253,245,296,-192.437,-192.437,-240.884,-240.884,3.004
1.46271,1.49776,1.01212,1.01954,-0.0368108,-0.0617671,-0.0254712,-0.0230965,233,293,-192.668,-192.668,-241.365,-241.365,3.008
1.46256,1.49746,1.01202,1.01944,-0.0368914,-0.0661398,-0.025527,-0.0232,221,294,-192.845,-192.845,-241.834,-241.834,3.012
1.46241,1.49715,1.01192,1.01935,-0.036972,-0.0700914,-0.0255828,-0.023269,210,294,-192.969,-192.969,-242.302,-242.302,3.016
1.46227,1.49682,1.01181,1.01926,-0.0370527,-0.0738487,-0.0256386,-0.023315,200,295,-193.044,-193.044,-242.769,-242.769,3.02
1.46212,1.49648,1.01171,1.01916,-0.0371334,-0.0775051,-0.0256944,-0.0232881,190,296,-193.073,-193.073,-243.238,-243.238,3.024
1.46197,1.49613,1.01161,1.01907,-0.0372141,-0.0810656,-0.0257503,-0.0231838,180,298,-193.057,-193.057,-243.71,-243.71,3.028
1.46182,1.49577,1.0115,1.01898,-0.0372949,-0.0842454,-0.0258062,-0.0232582,170,299,-192.997,-192.997,-244.19,-244.19,3.032
1.46167,1.4954,1.0114,1.01889,-0.0373758,-0.0872578,-0.0258622,-0.0233078,162,299,-192.896,-192.896,-244.669,-244.669,3.036
1.46152,1.49501,1.0113,1.01879,-0.0374567,-0.0900722,-0.0259181,-0.0231681,153,302,-192.757,-192.757,-245.149,-245.149,3.04
1.46137,1.49462,1.01119,1.0187,-0.0375376,-0.0927834,-0.0259741,-0.0229599,145,305,-192.582,-192.582,-245.638,-245.638,3.044
1.46122,1.49422,1.01109,1.01861,-0.0376186,-0.0950516,-0.0260301,-0.0227922,138,308,-192.373,-192.373,-246.139,-246.139,3.048
1.46107,1.49381,1.01099,1.01852,-0.0376996,-0.097341,-0.0260862,-0.0227956,131,309,-192.134,-192.134,-246.65,-246.65,3.052
1.46092,1.49339,1.01088,1.01843,-0.0377806,-0.10022,-0.0261423,-0.0229706,123,308,-191.864,-191.864,-247.163,-247.163,3.056
1.46077,1.49297,1.01078,1.01834,-0.0378617,-0.101708,-0.0261984,-0.0229721,118,309,-191.558,-191.558,-247.672,-247.672,3.06
1.46062,1.49255,1.01067,1.01825,-0.0379428,-0.102758,-0.0262545,-0.0228868,114,311,-191.231,-191.231,-248.184,-248.184,3.064
1.46046,1.49213,1.01057,1.01815,-0.038024,-0.103976,-0.0263107,-0.0228874,109,313,-190.889,-190.889,-248.703,-248.703,3.068
1.46031,1.49168,1.01046,1.01806,-0.0381052,-0.106198,-0.0263669,-0.0230031,102,313,-190.529,-190.529,-249.224,-249.224,3.072
1.46016,1.49125,1.01036,1.01797,-0.0381864,-0.106787,-0.0264231,-0.0228786,100,315,-190.14,-190.14,-249.744,-249.744,3.076
1.46001,1.49083,1.01025,1.01788,-0.0382677,-0.10672,-0.0264793,-0.0229684,99,315,-189.742,-189.742,-250.271,-250.271,3.08
1.45985,1.49039,1.01014,1.01778,-0.038349,-0.107797,-0.0265356,-0.0232297,95,314,-189.34,-189.34,-250.798,-250.798,3.084
1.4597,1.48994,1.01004,1.01769,-0.0384304,-0.108861,-0.0265919,-0.0232888,91,315,-188.923,-188.923,-251.317,-251.317,3.088
1.45955,1.4895,1.00993,1.01759,-0.0385118,-0.109714,-0.0266482,-0.023501,87,314,-188.489,-188.489,-251.836,-251.836,3.092
1.45939,1.48905,1.00982,1.0175,-0.0385932,-0.110542,-0.0267046,-0.0239303,84,311,-188.042,-188.042,-252.349,-252.349,3.096
1.45924,1.4886,1.00972,1.0174,-0.0386747,-0.11095,-0.0267609,-0.0241877,81,310,-187.583,-187.583,-252.846,-252.846,3.1
1.45908,1.48815,1.00961,1.0173,-0.0387562,-0.111481,-0.0268173,-0.0243594,79,309,-187.115,-187.115,-253.336,-253.336,3.104
1.45893,1.4877,1.0095,1.0172,-0.0388378,-0.111864,-0.0268738,-0.0245314,77,308,-186.637,-186.637,-253.821,-253.821,3.108
1.45877,1.48725,1.0094,1.0171,-0.0389194,-0.111918,-0.0269302,-0.0245884,75,309,-186.152,-186.152,-254.302,-254.302,3.112
1.45861,1.4868,1.00929,1.017,-0.039001,-0.112242,-0.0269867,-0.0246553,73,309,-185.663,-185.663,-254.784,-254.784,3.116
1.45846,1.48634,1.00918,1.0169,-0.0390827,-0.112889,-0.0270432,-0.0248438,70,309,-185.167,-185.167,-255.265,-255.265,3.12
1.4583,1.48589,1.00907,1.0168,-0.0391644,-0.112947,-0.0270998,-0.0250271,69,308,-184.66,-184.66,-255.741,-255.741,3.124
1.45815,1.48544,1.00896,1.01669,-0.0392461,-0.113014,-0.0271563,-0.0252356,67,307,-184.148,-184.148,-256.212,-256.212,3.128
1.45799,1.48498,1.00885,1.0166,-0.0393279,-0.113232,-0.0272129,-0.0250867,65,310,-183.633,-183.633,-256.677,-256.677,3.132
1.45783,1.48453,1.00875,1.0165,-0.0394097,-0.113233,-0.0272695,-0.0251027,64,311,-183.112,-183.112,-257.152,-257.152,3.136
1.45767,1.48408,1.00864,1.01639,-0.0394916,-0.113089,-0.0273262,-0.0252572,63,310,-182.588,-182.588,-257.628,-257.628,3.14
1.45751,1.48363,1.00853,1.01629,-0.0395735,-0.113224,-0.0273829,-0.0252451,62,311,-182.062,-182.062,-258.101,-258.101,3.144
