peachynonah/Fire_monitor_KIRO_CDSL/csv_datas/trial12/cdsl_data_t12_10_d.csv
joint1_pos_desired, joint1_pos, joint2_pos_desired, joint2_pos, joint1_vel_desired, joint1_vel_filtered, joint2_vel_desired, joint2_vel_filtered, target_torque_joint1, target_torque_joint2, estimated_disturbance_joint1, saturated_DOB_joint1, estimated_disturbance_joint2, saturated_DOB_joint2, current_time
0.756243,0.75532,0.739184,0.737489,-3.62706e-07,0,-3.54525e-07,0,-5,-90,0,0,17.0653,0.1,0.004
0.756243,0.75532,0.739184,0.737409,-1.44966e-06,0,-1.41696e-06,-0.00667949,-5,-155,-0.00583236,-0.00583236,16.9675,0.1,0.008
0.756243,0.75532,0.739184,0.737351,-3.25913e-06,0,-3.18562e-06,-0.00928987,-5,-181,-0.0116592,-0.0116592,16.8052,0.1,0.012
0.756243,0.75532,0.739184,0.737308,-5.78938e-06,0,-5.65878e-06,-0.0098209,-5,-187,-0.0174763,-0.0174763,16.6184,0.1,0.016
0.756243,0.75532,0.739184,0.737286,-9.03865e-06,0,-8.83476e-06,-0.00838989,-5,-173,-0.0232795,-0.0232795,16.4276,0.1,0.02
0.756243,0.75532,0.739184,0.737282,-1.30052e-05,0,-1.27119e-05,-0.00585238,-5,-149,-0.0290645,-0.0290645,16.2523,0.1,0.024
0.756243,0.75532,0.739184,0.737296,-1.76874e-05,0,-1.72884e-05,-0.00280753,-5,-119,-0.0348269,-0.0348269,16.103,0.1,0.028
0.756243,0.75532,0.739184,0.737323,-2.30833e-05,0,-2.25626e-05,0.000402796,-5,-88,-0.0405627,-0.0405627,15.9849,0.1,0.032
0.756243,0.755321,0.739184,0.737358,-2.91914e-05,2.87909e-05,-2.85329e-05,0.003234,-5,-61,-0.0462562,-0.0462562,15.8991,0.1,0.036
0.756243,0.755321,0.739184,0.737402,-3.60098e-05,1.91939e-05,-3.51976e-05,0.00575486,-5,-36,-0.0517682,-0.0517682,15.842,0.1,0.04
0.756242,0.755321,0.739183,0.737447,-4.35369e-05,1.2796e-05,-4.25548e-05,0.0075794,-5,-18,-0.0572927,-0.0572927,15.8103,0.1,0.044
0.756242,0.755321,0.739183,0.737494,-5.17709e-05,8.53064e-06,-5.06031e-05,0.0089685,-5,-4,-0.0628085,-0.0628085,15.7972,0.1,0.048
0.756242,0.755321,0.739183,0.737537,-6.07101e-05,5.6871e-06,-5.93406e-05,0.00960665,-5,2,-0.0682997,-0.0682997,15.798,0.1,0.052
0.756242,0.755321,0.739183,0.73758,-7.03527e-05,3.7914e-06,-6.87657e-05,0.00994572,-5,6,-0.0737548,-0.0737548,15.8056,0.1,0.056
0.756241,0.755321,0.739182,0.73762,-8.06971e-05,2.5276e-06,-7.88768e-05,0.00997023,-5,6,-0.0791644,-0.0791644,15.8169,0.1,0.06
0.756241,0.755321,0.739182,0.737656,-9.17415e-05,1.68507e-06,-8.9672e-05,0.00966987,-5,4,-0.084521,-0.084521,15.8289,0.1,0.064
0.756241,0.755321,0.739182,0.737689,-0.000103484,1.12338e-06,-0.00010115,0.0092393,-5,0,-0.0898183,-0.0898183,15.8382,0.1,0.068
0.75624,0.755321,0.739181,0.73772,-0.000115923,7.48918e-07,-0.000113308,0.00866434,-5,-4,-0.0950506,-0.0950506,15.8437,0.1,0.072
0.75624,0.755321,0.739181,0.737746,-0.000129058,4.99279e-07,-0.000126146,0.00802192,-5,-9,-0.100213,-0.1,15.8438,0.1,0.076
0.756239,0.75532,0.73918,0.73777,-0.000142885,-2.84581e-05,-0.000139662,0.00733452,-5,-16,-0.10531,-0.1,15.8381,0.1,0.08
0.756239,0.755321,0.73918,0.737791,-0.000157403,9.81888e-06,-0.000153853,0.00664593,-5,-22,-0.110441,-0.1,15.826,0.1,0.084
0.756238,0.755321,0.739179,0.73781,-0.000172612,6.54592e-06,-0.000168718,0.00601412,-5,-28,-0.115267,-0.1,15.8075,0.1,0.088
0.756237,0.755321,0.739178,0.737828,-0.000188508,4.36395e-06,-0.000184256,0.00550654,-4,-32,-0.120001,-0.1,15.7834,0.1,0.092
0.756236,0.755321,0.739178,0.737845,-0.000205091,3.17002e-05,-0.000200465,0.00508178,-4,-36,-0.124621,-0.1,15.7547,0.1,0.096
0.756236,0.75532,0.739177,0.737861,-0.000222358,-3.64484e-05,-0.000217342,0.00471224,-5,-39,-0.129007,-0.1,15.7223,0.1,0.1
0.756235,0.75532,0.739176,0.737877,-0.000240308,-2.42989e-05,-0.000234887,0.00446587,-4,-41,-0.133623,-0.1,15.6869,0.1,0.104
0.756234,0.755321,0.739175,0.737893,-0.00025894,1.25916e-05,-0.000253098,0.00433042,-4,-42,-0.138036,-0.1,15.6496,0.1,0.108
0.756233,0.755321,0.739174,0.73791,-0.00027825,8.39443e-06,-0.000271974,0.00426891,-4,-42,-0.14213,-0.1,15.6115,0.1,0.112
0.756231,0.75532,0.739173,0.737928,-0.000298239,-2.31946e-05,-0.000291511,0.00437186,-4,-41,-0.146125,-0.1,15.5735,0.1,0.116
0.75623,0.75532,0.739171,0.737948,-0.000318903,-1.54631e-05,-0.00031171,0.00452687,-4,-39,-0.150146,-0.1,15.5371,0.1,0.12
0.756229,0.755321,0.73917,0.737967,-0.000340242,1.84822e-05,-0.000332567,0.00465899,-4,-37,-0.153974,-0.1,15.5028,0.1,0.124
0.756227,0.755321,0.739169,0.737987,-0.000362254,1.23215e-05,-0.000354082,0.00477587,-3,-36,-0.157484,-0.1,15.4705,0.1,0.128
0.756226,0.75532,0.739167,0.738008,-0.000384936,-4.93675e-05,-0.000376253,0.00494016,-4,-34,-0.160904,-0.1,15.4399,0.1,0.132
0.756224,0.75532,0.739166,0.738027,-0.000408288,-4.12077e-06,-0.000399078,0.00487694,-3,-34,-0.164476,-0.1,15.4114,0.1,0.136
0.756223,0.755321,0.739164,0.738047,-0.000432307,2.60437e-05,-0.000422555,0.00486359,-3,-33,-0.167647,-0.1,15.3829,0.1,0.14
0.756221,0.75532,0.739162,0.738065,-0.000456992,-1.14284e-05,-0.000446684,0.00476831,-3,-34,-0.170518,-0.1,15.3548,0.1,0.144
0.756219,0.75532,0.739161,0.738084,-0.000482342,-7.61895e-06,-0.000471461,0.00473358,-3,-34,-0.173421,-0.1,15.3264,0.1,0.148
0.756217,0.75532,0.739159,0.738101,-0.000508354,-5.0793e-06,-0.000496886,0.00462406,-3,-34,-0.176138,-0.1,15.2983,0.1,0.152
0.756215,0.75532,0.739157,0.738118,-0.000535026,-3.3862e-06,-0.000522957,0.00449346,-3,-35,-0.178673,-0.1,15.2696,0.1,0.156
0.756213,0.75532,0.739154,0.738134,-0.000562358,-2.25747e-06,-0.000549672,0.00434881,-2,-36,-0.181027,-0.1,15.2403,0.1,0.16
0.75621,0.75532,0.739152,0.738148,-0.000590347,-1.50498e-06,-0.00057703,0.00405085,-2,-38,-0.183199,-0.1,15.21,0.1,0.164
0.756208,0.75532,0.73915,0.73816,-0.000618992,-1.00332e-06,-0.000605029,0.00370825,-2,-41,-0.185188,-0.1,15.1774,0.1,0.168
0.756206,0.75532,0.739147,0.738171,-0.000648291,-6.68879e-07,-0.000633667,0.00333589,-2,-44,-0.186991,-0.1,15.1419,0.1,0.172
0.756203,0.75532,0.739145,0.73818,-0.000678242,-4.45919e-07,-0.000662942,0.00300128,-2,-47,-0.188606,-0.1,15.1034,0.1,0.176
0.7562,0.75532,0.739142,0.738187,-0.000708844,-2.9728e-07,-0.000692854,0.00254788,-1,-51,-0.190031,-0.1,15.0621,0.1,0.18
0.756197,0.75532,0.739139,0.738193,-0.000740095,-1.98186e-07,-0.0007234,0.00218803,-1,-54,-0.191261,-0.1,15.017,0.1,0.184
0.756194,0.75532,0.739136,0.738197,-0.000771993,-1.32124e-07,-0.000754579,0.00183297,-1,-57,-0.192295,-0.1,14.9689,0.1,0.188
0.756191,0.75532,0.739133,0.738199,-0.000804537,-8.80829e-08,-0.000786389,0.00136594,-1,-61,-0.193127,-0.1,14.9178,0.1,0.192
0.756188,0.75532,0.73913,0.7382,-0.000837725,-5.87219e-08,-0.000818828,0.000996997,-1,-65,-0.193756,-0.1,14.8628,0.1,0.196
0.756184,0.75532,0.739127,0.7382,-0.000871555,-3.91479e-08,-0.000851895,0.000722246,-1,-67,-0.194177,-0.1,14.8047,0.1,0.2
0.756181,0.75532,0.739123,0.738201,-0.000906026,-2.60986e-08,-0.000885588,0.000510288,0,-69,-0.194388,-0.1,14.7447,0.1,0.204
0.756177,0.75532,0.73912,0.738201,-0.000941135,-1.73991e-08,-0.000919906,0.000368983,0,-70,-0.194385,-0.1,14.6832,0.1,0.208
0.756173,0.75532,0.739116,0.738201,-0.000976882,-1.15994e-08,-0.000954846,0.00027478,0,-70,-0.194164,-0.1,14.621,0.1,0.212
0.756169,0.75532,0.739112,0.738201,-0.00101326,-7.73293e-09,-0.000990408,0.000183186,0,-71,-0.193721,-0.1,14.5586,0.1,0.216
0.756165,0.75532,0.739108,0.738202,-0.00105028,-5.15528e-09,-0.00102659,0.000150915,0,-70,-0.193055,-0.1,14.4959,0.1,0.22
0.756161,0.75532,0.739104,0.738203,-0.00108793,-3.43686e-09,-0.00106339,0.000158192,0,-70,-0.19216,-0.1,14.4336,0.1,0.224
0.756156,0.75532,0.739099,0.738202,-0.00112621,-2.29124e-09,-0.00110081,7.66704e-05,0,-70,-0.191034,-0.1,14.3721,0.1,0.228
0.756152,0.75532,0.739095,0.738203,-0.00116512,-1.52749e-09,-0.00113884,7.99045e-05,0,-70,-0.189674,-0.1,14.3105,0.1,0.232
0.756147,0.75532,0.73909,0.738203,-0.00120465,-1.01833e-09,-0.00117748,5.32697e-05,0,-70,-0.188075,-0.1,14.2496,0.1,0.236
0.756142,0.75532,0.739085,0.738203,-0.00124481,-6.78885e-10,-0.00121673,3.55131e-05,1,-69,-0.186235,-0.1,14.1891,0.1,0.24
0.756137,0.75532,0.739081,0.738203,-0.0012856,-4.5259e-10,-0.0012566,2.36754e-05,1,-69,-0.184149,-0.1,14.1292,0.1,0.244
0.756132,0.75532,0.739075,0.738203,-0.00132701,-3.01727e-10,-0.00129707,4.45745e-05,1,-68,-0.181816,-0.1,14.07,0.1,0.248
0.756127,0.755321,0.73907,0.738203,-0.00136904,2.87907e-05,-0.00133815,2.97164e-05,2,-68,-0.179219,-0.1,14.0116,0.1,0.252
0.756121,0.75532,0.739065,0.738203,-0.00141168,-3.8388e-05,-0.00137984,1.98109e-05,2,-68,-0.176244,-0.1,13.9538,0.1,0.256
0.756115,0.75532,0.739059,0.738203,-0.00145495,3.1989e-06,-0.00142213,1.32073e-05,2,-67,-0.173344,-0.1,13.8967,0.1,0.26
0.756109,0.75532,0.739053,0.738203,-0.00149883,-2.66583e-05,-0.00146502,8.80485e-06,2,-67,-0.169977,-0.1,13.8402,0.1,0.264
0.756103,0.755321,0.739047,0.738203,-0.00154332,3.98096e-05,-0.00150851,5.8699e-06,3,-67,-0.166474,-0.1,13.7844,0.1,0.268
0.756097,0.75532,0.739041,0.738203,-0.00158843,-3.10421e-05,-0.0015526,3.91327e-06,3,-66,-0.162385,-0.1,13.7294,0.1,0.272
0.756091,0.75532,0.739035,0.738203,-0.00163415,-2.06947e-05,-0.00159728,2.60884e-06,3,-66,-0.158388,-0.1,13.675,0.1,0.276
0.756084,0.75532,0.739028,0.738203,-0.00168047,-1.37965e-05,-0.00164256,1.73923e-06,3,-65,-0.15406,-0.1,13.6215,0.1,0.28
0.756077,0.75532,0.739022,0.738203,-0.00172741,-9.19766e-06,-0.00168844,1.15949e-06,4,-65,-0.149416,-0.1,13.5686,0.1,0.284
0.75607,0.75532,0.739015,0.738203,-0.00177495,-6.13177e-06,-0.00173491,7.72991e-07,4,-64,-0.144465,-0.1,13.5166,0.1,0.288
0.756063,0.75532,0.739008,0.738203,-0.00182309,-4.08785e-06,-0.00178196,5.15327e-07,4,-64,-0.139212,-0.1,13.4653,0.1,0.292
0.756055,0.75532,0.739001,0.738203,-0.00187184,-2.72523e-06,-0.00182961,3.43551e-07,5,-63,-0.13366,-0.1,13.4147,0.1,0.296
0.756048,0.75532,0.738993,0.738203,-0.00192118,2.69741e-05,-0.00187785,2.29034e-07,5,-62,-0.127797,-0.1,13.365,0.1,0.3
0.75604,0.75532,0.738986,0.738203,-0.00197113,-1.08082e-05,-0.00192666,1.5269e-07,5,-62,-0.1215,-0.1,13.316,0.1,0.304
0.756032,0.75532,0.738978,0.738203,-0.00202167,-7.20546e-06,-0.00197607,1.01793e-07,5,-61,-0.1151,-0.1,13.2679,0.1,0.308
0.756024,0.75532,0.73897,0.738203,-0.00207281,-4.80364e-06,-0.00202606,6.7862e-08,6,-61,-0.108379,-0.1,13.2205,0.1,0.312
0.756016,0.75532,0.738962,0.738203,-0.00212455,-3.20243e-06,-0.00207662,4.52413e-08,6,-60,-0.10134,-0.1,13.1739,0.1,0.316
0.756007,0.75532,0.738953,0.738203,-0.00217687,-2.13495e-06,-0.00212777,3.01609e-08,7,-60,-0.093984,-0.093984,13.1281,0.1,0.32
0.755998,0.755319,0.738945,0.738203,-0.00222979,-5.90052e-05,-0.00217949,2.01073e-08,7,-59,-0.0863077,-0.0863077,13.0832,0.1,0.324
0.755989,0.75532,0.738936,0.738203,-0.0022833,-1.05458e-05,-0.00223179,1.34048e-08,7,-58,-0.0785601,-0.0785601,13.039,0.1,0.328
0.75598,0.75532,0.738927,0.738203,-0.00233739,-7.03056e-06,-0.00228467,8.93656e-09,8,-58,-0.0702074,-0.0702074,12.9957,0.1,0.332
0.75597,0.75532,0.738918,0.738203,-0.00239208,-4.68704e-06,-0.00233812,5.95771e-09,8,-57,-0.0614782,-0.0614782,12.9531,0.1,0.336
0.755961,0.75532,0.738908,0.738203,-0.00244734,-3.12469e-06,-0.00239214,3.9718e-09,8,-57,-0.0523743,-0.0523743,12.9114,0.1,0.34
0.755951,0.75532,0.738898,0.738203,-0.00250319,-2.08313e-06,-0.00244673,2.64787e-09,9,-56,-0.0428952,-0.0428952,12.8706,0.1,0.344
0.755941,0.75532,0.738889,0.738203,-0.00255962,2.74022e-05,-0.00250188,1.76525e-09,9,-55,-0.0330278,-0.0330278,12.8305,0.1,0.348
0.75593,0.755319,0.738878,0.738203,-0.00261663,-3.93137e-05,-0.00255761,1.17683e-09,9,-55,-0.0226573,-0.0226573,12.7913,0.1,0.352
0.75592,0.755319,0.738868,0.738203,-0.00267422,-2.62092e-05,-0.0026139,7.84554e-10,10,-54,-0.0122477,-0.0122477,12.753,0.1,0.356
0.755909,0.755319,0.738857,0.738203,-0.00273238,-1.74728e-05,-0.00267075,-2.87904e-05,10,-54,-0.00138209,-0.00138209,12.7155,0.1,0.36
0.755898,0.755319,0.738847,0.738203,-0.00279112,-6.92304e-05,-0.00272816,9.59732e-06,11,-53,0.00989779,0.00989779,12.6786,0.1,0.364
0.755887,0.755319,0.738836,0.738203,-0.00285044,-4.61536e-05,-0.00278614,6.39822e-06,11,-52,0.0213114,0.0213114,12.6429,0.1,0.368
0.755875,0.755319,0.738824,0.738203,-0.00291032,-3.07691e-05,-0.00284467,4.26548e-06,12,-51,0.0332487,0.0332487,12.608,0.1,0.372
0.755863,0.755319,0.738813,0.738203,-0.00297077,-2.05127e-05,-0.00290376,2.84365e-06,12,-51,0.0456728,0.0456728,12.574,0.1,0.376
0.755851,0.755318,0.738801,0.738203,-0.0030318,-4.24661e-05,-0.00296341,1.89577e-06,12,-50,0.0585495,0.0585495,12.5408,0.1,0.38
0.755839,0.755318,0.738789,0.738203,-0.00309339,-2.83107e-05,-0.00302361,1.26385e-06,13,-49,0.0717302,0.0717302,12.5085,0.1,0.384
0.755827,0.755318,0.738777,0.738203,-0.00315554,-1.88738e-05,-0.00308436,8.42563e-07,14,-48,0.085405,0.085405,12.4771,0.1,0.388
0.755814,0.755318,0.738765,0.738203,-0.00321826,-1.25825e-05,-0.00314566,5.61709e-07,14,-48,0.0995534,0.0995534,12.4465,0.1,0.392
0.755801,0.755317,0.738752,0.738203,-0.00328154,-6.59702e-05,-0.00320751,3.74473e-07,14,-47,0.11414,0.1,12.4168,0.1,0.396
0.755788,0.755318,0.738739,0.738203,-0.00334538,-1.51892e-05,-0.00326991,2.49648e-07,15,-46,0.128838,0.1,12.3881,0.1,0.4
0.755774,0.755318,0.738726,0.738203,-0.00340978,-1.01261e-05,-0.00333286,1.66432e-07,15,-46,0.144173,0.1,12.3602,0.1,0.404
0.75576,0.755318,0.738712,0.738203,-0.00347473,-6.75076e-06,-0.00339635,1.10955e-07,16,-45,0.159908,0.1,12.3332,0.1,0.408
0.755746,0.755318,0.738698,0.738203,-0.00354024,2.42904e-05,-0.00346038,7.39699e-08,16,-44,0.176049,0.1,12.3071,0.1,0.412
0.755732,0.755317,0.738685,0.738203,-0.00360631,-4.13882e-05,-0.00352496,4.93133e-08,16,-43,0.192705,0.1,12.2819,0.1,0.416
0.755717,0.755317,0.73867,0.738203,-0.00367293,-2.75922e-05,-0.00359007,3.28755e-08,17,-42,0.209407,0.1,12.2577,0.1,0.42
0.755703,0.755317,0.738656,0.738203,-0.00374009,-4.71857e-05,-0.00365573,2.1917e-08,17,-42,0.226559,0.1,12.2343,0.1,0.424
0.755687,0.755317,0.738641,0.738203,-0.00380781,-3.14571e-05,-0.00372192,1.46113e-08,18,-41,0.244003,0.1,12.2119,0.1,0.428
0.755672,0.755317,0.738626,0.738202,-0.00387608,-4.97623e-05,-0.00378864,-5.75721e-05,18,-41,0.261913,0.1,12.1904,0.1,0.432
0.755656,0.755317,0.738611,0.738203,-0.00394489,-3.31749e-05,-0.0038559,-9.59048e-06,19,-39,0.280129,0.1,12.1693,0.1,0.436
0.755641,0.755316,0.738595,0.738203,-0.00401424,-5.09075e-05,-0.00392369,-6.39365e-06,19,-39,0.298821,0.1,12.1496,0.1,0.44
0.755624,0.755317,0.738579,0.738203,-0.00408414,-5.14742e-06,-0.00399201,-4.26244e-06,20,-38,0.31784,0.1,12.1308,0.1,0.444
0.755608,0.755316,0.738563,0.738203,-0.00415458,-6.10135e-05,-0.00406086,-2.84162e-06,20,-37,0.337478,0.1,12.113,0.1,0.448
0.755591,0.755316,0.738547,0.738203,-0.00422556,-6.94666e-05,-0.00413024,-1.89442e-06,20,-36,0.357228,0.1,12.0962,0.1,0.452
0.755574,0.755315,0.73853,0.738203,-0.00429708,-7.5102e-05,-0.00420015,-1.26294e-06,21,-35,0.377342,0.1,12.0803,0.1,0.456
0.755557,0.755315,0.738513,0.738203,-0.00436913,-7.88589e-05,-0.00427057,-8.41963e-07,21,-34,0.397837,0.1,12.0654,0.1,0.46
0.755539,0.755314,0.738496,0.738202,-0.00444172,-0.000110154,-0.00434152,-5.81432e-05,22,-34,0.418715,0.1,12.0514,0.1,0.464
0.755521,0.755314,0.738479,0.738202,-0.00451484,-0.000102227,-0.004413,-3.87621e-05,22,-33,0.439852,0.1,12.0379,0.1,0.468
0.755503,0.755314,0.738461,0.738202,-0.00458849,-9.69424e-05,-0.00448499,2.94952e-06,23,-32,0.461453,0.1,12.0255,0.1,0.472
0.755485,0.755314,0.738443,0.738202,-0.00466268,-6.46283e-05,-0.0045575,1.96635e-06,23,-31,0.483518,0.1,12.0145,0.1,0.476
0.755466,0.755313,0.738424,0.738202,-0.00473739,-0.000129458,-0.00463052,1.3109e-06,24,-30,0.506153,0.1,12.0045,0.1,0.48
0.755447,0.755312,0.738406,0.738202,-0.00481263,-0.000172678,-0.00470407,8.73932e-07,24,-29,0.528863,0.1,11.9954,0.1,0.484
0.755427,0.75531,0.738387,0.738202,-0.00488839,-0.000259073,-0.00477812,-2.82083e-05,24,-28,0.551747,0.1,11.9873,0.1,0.488
0.755408,0.755308,0.738367,0.738202,-0.00496468,-0.000345461,-0.00485269,-1.88055e-05,24,-27,0.574582,0.1,11.98,0.1,0.492
0.755387,0.755305,0.738348,0.738202,-0.00504149,-0.000489426,-0.00492777,-1.2537e-05,24,-26,0.59735,0.1,11.9737,0.1,0.496
0.755367,0.755302,0.738328,0.738201,-0.00511882,-0.000585402,-0.00500335,-6.59399e-05,24,-26,0.619772,0.1,11.9684,0.1,0.5
0.755347,0.755298,0.738308,0.738201,-0.00519667,-0.000678177,-0.00507945,-1.5169e-05,24,-24,0.642102,0.1,11.9637,0.1,0.504
0.755326,0.755294,0.738287,0.738201,-0.00527504,-0.000768818,-0.00515604,-1.01127e-05,24,-23,0.66436,0.1,11.9604,0.1,0.508
0.755304,0.75529,0.738267,0.738201,-0.00535392,-0.000858037,-0.00523315,-6.74177e-06,24,-22,0.68656,0.1,11.9582,0.1,0.512
0.755283,0.755285,0.738245,0.738201,-0.00543332,-0.000975097,-0.00531076,-4.49451e-06,24,-21,0.708703,0.1,11.9571,0.1,0.516
0.755261,0.755282,0.738224,0.738201,-0.00551323,-0.000966765,-0.00538886,-3.17873e-05,24,-21,0.730695,0.1,11.9569,0.1,0.52
0.755239,0.755277,0.738202,0.738201,-0.00559365,-0.00101879,-0.00546747,-2.11915e-05,25,-20,0.753167,0.1,11.9576,0.1,0.524
0.755216,0.755273,0.73818,0.738201,-0.00567458,-0.00102469,-0.00554658,-1.41277e-05,25,-18,0.775828,0.1,11.9593,0.1,0.528
0.755193,0.755269,0.738158,0.738201,-0.00575602,-0.000999824,-0.00562618,-3.82094e-05,26,-18,0.798931,0.1,11.9622,0.1,0.532
0.75517,0.755267,0.738135,0.7382,-0.00583797,-0.000810504,-0.00570628,-8.30548e-05,27,-17,0.822706,0.1,11.9658,0.1,0.536
0.755147,0.755266,0.738112,0.7382,-0.00592042,-0.000684291,-0.00578687,-2.65789e-05,29,-16,0.847984,0.1,11.9701,0.1,0.54
0.755123,0.755266,0.738089,0.7382,-0.00600337,-0.000427403,-0.00586795,-1.77193e-05,31,-14,0.874493,0.1,11.976,0.1,0.544
0.755099,0.755266,0.738065,0.7382,-0.00608683,-0.000284935,-0.00594953,-6.93947e-05,32,-14,0.902871,0.1,11.9829,0.1,0.548
0.755074,0.755266,0.738041,0.7382,-0.00617079,-0.000218748,-0.00603159,-4.62631e-05,33,-13,0.932494,0.1,11.9905,0.1,0.552
0.755049,0.755265,0.738017,0.738199,-0.00625524,-0.000174623,-0.00611414,-5.9633e-05,34,-12,0.96296,0.1,11.9993,0.1,0.556
0.755024,0.755265,0.737992,0.738198,-0.0063402,-0.000173997,-0.00619718,-0.000126128,34,-11,0.994139,0.1,12.009,0.1,0.56
0.754998,0.755264,0.737968,0.738198,-0.00642564,-0.000202371,-0.0062807,-8.40854e-05,35,-10,1.0258,0.1,12.0191,0.1,0.564
0.754973,0.755262,0.737942,0.738198,-0.00651159,-0.000250078,-0.0063647,-8.48479e-05,35,-9,1.05778,0.1,12.0307,0.1,0.568
0.754946,0.75526,0.737917,0.738198,-0.00659802,-0.000339464,-0.00644919,-2.77743e-05,35,-7,1.08997,0.1,12.0434,0.1,0.572
0.75492,0.755259,0.737891,0.738197,-0.00668495,-0.000341473,-0.00653415,-0.000104889,36,-7,1.12218,0.1,12.0577,0.1,0.576
0.754893,0.755256,0.737864,0.738197,-0.00677237,-0.000429185,-0.0066196,-0.000127508,36,-6,1.15485,0.1,12.0723,0.1,0.58
0.754866,0.755255,0.737838,0.738196,-0.00686027,-0.000401287,-0.00670552,-0.000113796,37,-5,1.18757,0.1,12.0878,0.1,0.584
0.754838,0.755252,0.737811,0.738196,-0.00694866,-0.000497852,-0.00679192,-0.000104655,37,-3,1.22091,0.1,12.1045,0.1,0.588
0.75481,0.75525,0.737783,0.738196,-0.00703754,-0.000533438,-0.00687879,-9.85609e-05,37,-2,1.25423,0.1,12.1223,0.1,0.592
0.754782,0.755247,0.737756,0.738195,-0.0071269,-0.000614744,-0.00696613,-9.44982e-05,37,-1,1.28784,0.1,12.1414,0.1,0.596
0.754753,0.755243,0.737728,0.738195,-0.00721674,-0.000697738,-0.00705394,-9.17897e-05,38,0,1.32151,0.1,12.1615,0.1,0.6
0.754724,0.755239,0.737699,0.738195,-0.00730706,-0.000781859,-0.00714223,-8.99841e-05,38,0,1.35522,0.1,12.1828,0.1,0.604
0.754695,0.755235,0.73767,0.738195,-0.00739786,-0.000895521,-0.00723098,-5.99894e-05,38,2,1.38897,0.1,12.2052,0.1,0.608
0.754665,0.75523,0.737641,0.738194,-0.00748913,-0.00100009,-0.0073202,-6.87839e-05,38,3,1.4226,0.1,12.229,0.1,0.612
0.754635,0.755225,0.737612,0.738194,-0.00758089,-0.00109859,-0.00740988,-4.58559e-05,38,4,1.45618,0.1,12.2539,0.1,0.616
0.754604,0.755219,0.737582,0.738194,-0.00767311,-0.00122184,-0.00750003,-3.05706e-05,38,6,1.48971,0.1,12.2801,0.1,0.62
0.754573,0.755211,0.737552,0.738194,-0.00776581,-0.00144796,-0.00759064,-2.03804e-05,38,7,1.52304,0.1,12.3076,0.1,0.624
0.754542,0.755204,0.737521,0.738194,-0.00785899,-0.00159871,-0.00768171,-1.35869e-05,37,8,1.55566,0.1,12.3362,0.1,0.628
0.75451,0.755196,0.73749,0.738194,-0.00795263,-0.0016992,-0.00777323,-6.66398e-05,37,9,1.58799,0.1,12.3661,0.1,0.632
0.754478,0.755187,0.737459,0.738193,-0.00804673,-0.00191016,-0.00786522,-0.000130799,37,9,1.62024,0.1,12.3965,0.1,0.636
0.754446,0.755177,0.737428,0.73819,-0.00814131,-0.00210838,-0.00795766,-0.000288736,37,9,1.65186,0.1,12.4274,0.1,0.64
0.754413,0.755165,0.737396,0.738188,-0.00823635,-0.00235568,-0.00805056,-0.000394027,36,9,1.68288,0.1,12.4579,0.1,0.644
0.75438,0.755152,0.737363,0.738185,-0.00833185,-0.0026933,-0.00814391,-0.000464221,35,10,1.71303,0.1,12.4884,0.1,0.648
0.754347,0.755137,0.73733,0.738183,-0.00842782,-0.00303354,-0.00823771,-0.000511017,34,11,1.74182,0.1,12.5194,0.1,0.652
0.754313,0.755121,0.737297,0.73818,-0.00852425,-0.00337554,-0.00833196,-0.000542215,32,12,1.76926,0.1,12.5511,0.1,0.656
0.754278,0.755103,0.737264,0.738178,-0.00862113,-0.00371869,-0.00842666,-0.000534222,31,13,1.79533,0.1,12.5837,0.1,0.66
0.754244,0.755086,0.73723,0.738176,-0.00871847,-0.00391868,-0.00852181,-0.000557684,31,14,1.82009,0.1,12.6175,0.1,0.664
0.754209,0.755068,0.737196,0.738174,-0.00881627,-0.00408079,-0.0086174,-0.000515744,30,16,1.8443,0.1,12.6522,0.1,0.668
0.754173,0.755051,0.737161,0.738172,-0.00891453,-0.00416007,-0.00871344,-0.000487784,31,17,1.86818,0.1,12.6886,0.1,0.672
0.754137,0.755034,0.737126,0.738171,-0.00901323,-0.00418414,-0.00880992,-0.000469144,31,19,1.8922,0.1,12.7263,0.1,0.676
0.754101,0.755017,0.73709,0.738169,-0.00911239,-0.00422897,-0.00890684,-0.000456717,32,20,1.91664,0.1,12.7654,0.1,0.68
0.754064,0.754999,0.737055,0.738167,-0.009212,-0.00434523,-0.0090042,-0.000448433,32,22,1.94137,0.1,12.8058,0.1,0.684
0.754027,0.754981,0.737018,0.738165,-0.00931205,-0.00439395,-0.009102,-0.000471701,32,23,1.96603,0.1,12.8475,0.1,0.688
0.75399,0.754963,0.736982,0.738162,-0.00941256,-0.00442643,-0.00920023,-0.000544795,32,23,1.991,0.1,12.89,0.1,0.692
0.753952,0.754944,0.736945,0.738159,-0.0095135,-0.00447687,-0.0092989,-0.000622315,33,24,2.01635,0.1,12.9331,0.1,0.696
0.753914,0.754924,0.736907,0.738156,-0.0096149,-0.00465445,-0.00939801,-0.000673995,33,25,2.04194,0.1,12.9765,0.1,0.7
0.753875,0.754903,0.73687,0.738153,-0.00971673,-0.0049168,-0.00949755,-0.000737239,32,25,2.06708,0.1,13.0206,0.1,0.704
0.753836,0.75488,0.736831,0.73815,-0.00981901,-0.00514928,-0.00959751,-0.000750611,31,27,2.09133,0.1,13.0653,0.1,0.708
0.753797,0.754858,0.736793,0.738147,-0.00992172,-0.00530426,-0.00969791,-0.000730735,31,28,2.1149,0.1,13.1111,0.1,0.712
0.753757,0.754836,0.736754,0.738144,-0.0100249,-0.00535,-0.00979874,-0.000746275,31,29,2.13823,0.1,13.1583,0.1,0.716
0.753716,0.754814,0.736714,0.73814,-0.0101285,-0.0053805,-0.00989999,-0.000785426,32,30,2.16188,0.1,13.2065,0.1,0.72
0.753676,0.754791,0.736675,0.738136,-0.0102325,-0.0054872,-0.0100017,-0.000897899,32,31,2.18593,0.1,13.2554,0.1,0.724
0.753635,0.754768,0.736634,0.73813,-0.0103369,-0.00561592,-0.0101038,-0.00105925,32,30,2.20996,0.1,13.3045,0.1,0.728
0.753593,0.754745,0.736594,0.738125,-0.0104418,-0.00567294,-0.0102063,-0.00113803,32,31,2.23389,0.1,13.3531,0.1,0.732
0.753551,0.754722,0.736553,0.738119,-0.0105472,-0.00568216,-0.0103092,-0.00127693,33,31,2.25811,0.1,13.4022,0.1,0.736
0.753509,0.754697,0.736511,0.738112,-0.0106529,-0.00583226,-0.0104126,-0.0014271,33,31,2.28283,0.1,13.4511,0.1,0.74
0.753466,0.754673,0.736469,0.738105,-0.0107591,-0.00587475,-0.0105164,-0.00155601,33,31,2.30734,0.1,13.4997,0.1,0.744
0.753423,0.754649,0.736427,0.738096,-0.0108657,-0.00596065,-0.0106206,-0.00172832,34,31,2.3322,0.1,13.5483,0.1,0.748
0.753379,0.754626,0.736384,0.738088,-0.0109727,-0.00590276,-0.0107252,-0.00187199,35,31,2.35724,0.1,13.5963,0.1,0.752
0.753335,0.754603,0.736341,0.73808,-0.0110802,-0.00580658,-0.0108302,-0.00188139,36,32,2.38323,0.1,13.6443,0.1,0.756
0.75329,0.754581,0.736298,0.738072,-0.011188,-0.00577126,-0.0109357,-0.00191645,37,33,2.41035,0.1,13.6933,0.1,0.76
0.753245,0.754558,0.736254,0.738065,-0.0112963,-0.00569012,-0.0110415,-0.00191104,38,35,2.43829,0.1,13.7433,0.1,0.764
0.7532,0.754536,0.736209,0.738058,-0.011405,-0.00569362,-0.0111478,-0.00184984,39,37,2.46726,0.1,13.7946,0.1,0.768
0.753154,0.754513,0.736165,0.738051,-0.0115142,-0.00566715,-0.0112544,-0.00183784,39,38,2.49684,0.1,13.8477,0.1,0.772
0.753108,0.754492,0.736119,0.738042,-0.0116237,-0.00553435,-0.0113615,-0.00191621,41,39,2.52724,0.1,13.9022,0.1,0.776
0.753061,0.754471,0.736074,0.738033,-0.0117337,-0.00541702,-0.011469,-0.00205483,42,39,2.55899,0.1,13.9571,0.1,0.78
0.753014,0.754453,0.736028,0.738022,-0.011844,-0.00510848,-0.0115769,-0.0022624,45,38,2.59209,0.1,14.0118,0.1,0.784
0.752966,0.754438,0.735981,0.73801,-0.0119548,-0.00467245,-0.0116851,-0.00248716,48,38,2.62761,0.1,14.0657,0.1,0.788
0.752918,0.754425,0.735934,0.737997,-0.012066,-0.00418023,-0.0117938,-0.00275216,51,37,2.66621,0.1,14.1186,0.1,0.792
0.75287,0.754415,0.735887,0.737984,-0.0121776,-0.00367934,-0.0119029,-0.00295762,55,36,2.70821,0.1,14.1702,0.1,0.796
0.752821,0.754406,0.735839,0.73797,-0.0122896,-0.00317267,-0.0120124,-0.00315218,58,36,2.75365,0.1,14.2209,0.1,0.8
0.752771,0.754399,0.735791,0.737955,-0.012402,-0.00269093,-0.0121223,-0.00333946,62,35,2.80256,0.1,14.271,0.1,0.804
0.752722,0.754396,0.735742,0.737939,-0.0125148,-0.00208186,-0.0122325,-0.00355069,66,35,2.85485,0.1,14.3205,0.1,0.808
0.752671,0.754393,0.735693,0.737924,-0.0126281,-0.00164703,-0.0123432,-0.00357634,69,36,2.91113,0.1,14.3692,0.1,0.812
0.752621,0.754391,0.735643,0.73791,-0.0127417,-0.00121318,-0.0124543,-0.00359345,72,37,2.97049,0.1,14.419,0.1,0.816
0.752569,0.75439,0.735593,0.737896,-0.0128557,-0.00089516,-0.0125657,-0.00357606,75,39,3.03288,0.1,14.4698,0.1,0.82
0.752518,0.754389,0.735543,0.737881,-0.0129701,-0.000654355,-0.0126775,-0.00359326,77,40,3.09768,0.1,14.5222,0.1,0.824
0.752466,0.754389,0.735492,0.737867,-0.0130849,-0.000493819,-0.0127898,-0.00360472,79,41,3.16444,0.1,14.5757,0.1,0.828
0.752413,0.754388,0.73544,0.737852,-0.0132001,-0.000415585,-0.0129024,-0.00366995,80,42,3.23272,0.1,14.6303,0.1,0.832
0.75236,0.754386,0.735389,0.737835,-0.0133157,-0.000449802,-0.0130154,-0.0038286,81,42,3.30206,0.1,14.6855,0.1,0.836
0.752307,0.754384,0.735336,0.737816,-0.0134317,-0.000472614,-0.0131287,-0.0041359,82,41,3.37187,0.1,14.7403,0.1,0.84
0.752253,0.754382,0.735284,0.737797,-0.0135481,-0.000487821,-0.0132425,-0.00436956,83,40,3.44221,0.1,14.7934,0.1,0.844
0.752198,0.754379,0.73523,0.737777,-0.0136649,-0.000555542,-0.0133566,-0.00452533,83,40,3.51311,0.1,14.8456,0.1,0.848
0.752143,0.754376,0.735177,0.737757,-0.0137821,-0.000571898,-0.0134712,-0.00474434,84,39,3.58432,0.1,14.8974,0.1,0.852
0.752088,0.754374,0.735123,0.737734,-0.0138996,-0.000611592,-0.0135861,-0.00500551,85,38,3.6561,0.1,14.9483,0.1,0.856
0.752032,0.754371,0.735068,0.737712,-0.0140175,-0.000609265,-0.0137013,-0.00523721,86,37,3.72835,0.1,14.998,0.1,0.86
0.751976,0.754369,0.735013,0.737689,-0.0141359,-0.000578922,-0.013817,-0.00536288,87,38,3.80129,0.1,15.0467,0.1,0.864
0.751919,0.754366,0.734957,0.737666,-0.0142546,-0.000616275,-0.013933,-0.00550425,88,38,3.87505,0.1,15.0954,0.1,0.868
0.751862,0.754364,0.734902,0.737645,-0.0143736,-0.000612387,-0.0140494,-0.00542574,89,40,3.9493,0.1,15.1442,0.1,0.872
0.751804,0.754361,0.734845,0.737622,-0.0144931,-0.000609794,-0.0141662,-0.00551736,90,41,4.02425,0.1,15.195,0.1,0.876
0.751746,0.754359,0.734788,0.737599,-0.0146129,-0.000579275,-0.0142833,-0.00563603,91,41,4.0999,0.1,15.2462,0.1,0.88
0.751687,0.754357,0.734731,0.737575,-0.0147332,-0.000616511,-0.0144008,-0.00571513,92,42,4.17639,0.1,15.2976,0.1,0.884
0.751628,0.754355,0.734673,0.737552,-0.0148537,-0.000583753,-0.0145187,-0.00576787,93,43,4.25338,0.1,15.3495,0.1,0.888
0.751568,0.754351,0.734615,0.737528,-0.0149747,-0.000705869,-0.0146369,-0.00583182,93,44,4.33118,0.1,15.4023,0.1,0.892
0.751508,0.754348,0.734556,0.737504,-0.015096,-0.000729697,-0.0147555,-0.00584566,94,45,4.40903,0.1,15.4557,0.1,0.896
0.751447,0.754344,0.734497,0.737479,-0.0152177,-0.000803165,-0.0148745,-0.00597006,95,45,4.48742,0.1,15.5104,0.1,0.9
0.751386,0.75434,0.734437,0.737456,-0.0153398,-0.000852144,-0.0149938,-0.00590903,95,47,4.5661,0.1,15.5652,0.1,0.904
0.751325,0.754336,0.734377,0.737432,-0.0154623,-0.000913587,-0.0151135,-0.00598351,96,48,4.6452,0.1,15.6219,0.1,0.908
0.751263,0.754331,0.734316,0.737406,-0.0155851,-0.00101213,-0.0152335,-0.00614833,96,48,4.72464,0.1,15.6792,0.1,0.912
0.7512,0.754328,0.734255,0.737378,-0.0157083,-0.000962663,-0.0153539,-0.00645974,98,47,4.80429,0.1,15.7361,0.1,0.916
0.751137,0.754324,0.734193,0.73735,-0.0158318,-0.000958476,-0.0154747,-0.00660977,99,47,4.8849,0.1,15.7913,0.1,0.92
0.751073,0.75432,0.734131,0.737322,-0.0159557,-0.000984475,-0.0155958,-0.00676737,100,47,4.96623,0.1,15.8464,0.1,0.924
0.751009,0.754316,0.734068,0.737293,-0.0160799,-0.000973017,-0.0157172,-0.00690122,101,47,5.04814,0.1,15.9013,0.1,0.928
0.750945,0.754312,0.734005,0.737264,-0.0162046,-0.000936587,-0.015839,-0.00701925,102,48,5.13084,0.1,15.9562,0.1,0.932
0.75088,0.75431,0.733942,0.737234,-0.0163295,-0.000854719,-0.0159612,-0.00712673,103,48,5.21447,0.1,16.0113,0.1,0.936
0.750814,0.754307,0.733878,0.737205,-0.0164549,-0.000771349,-0.0160837,-0.00719838,105,49,5.29927,0.1,16.0668,0.1,0.94
0.750748,0.754306,0.733813,0.737175,-0.0165806,-0.000629396,-0.0162066,-0.00730373,107,49,5.38529,0.1,16.1228,0.1,0.944
0.750681,0.754305,0.733748,0.737146,-0.0167066,-0.00050597,-0.0163298,-0.00731638,109,51,5.47281,0.1,16.1793,0.1,0.948
0.750614,0.754304,0.733682,0.737118,-0.016833,-0.000366104,-0.0164533,-0.00720965,110,54,5.56176,0.1,16.2371,0.1,0.952
0.750547,0.754304,0.733616,0.737092,-0.0169598,-0.000272861,-0.0165772,-0.00696576,112,57,5.65219,0.1,16.2974,0.1,0.956
0.750479,0.754304,0.73355,0.73707,-0.0170868,-0.000210698,-0.0167014,-0.00648646,113,64,5.74386,0.1,16.3616,0.1,0.96
0.75041,0.754303,0.733483,0.73705,-0.0172143,-0.000198047,-0.016826,-0.0059366,115,71,5.83659,0.1,16.4321,0.1,0.964
0.750341,0.754303,0.733415,0.737033,-0.0173421,-0.000132031,-0.0169509,-0.00539728,116,78,5.93014,0.1,16.5095,0.1,0.968
0.750271,0.754302,0.733347,0.737018,-0.0174702,-0.000145603,-0.0170761,-0.00483619,117,85,6.02475,0.1,16.5937,0.1,0.972
0.750201,0.754301,0.733279,0.737005,-0.0175987,-0.000212232,-0.0172017,-0.00428939,118,92,6.12,0.1,16.6849,0.1,0.976
0.750131,0.7543,0.733209,0.736996,-0.0177275,-0.000256652,-0.0173276,-0.00366574,119,100,6.21562,0.1,16.7831,0.1,0.98
0.750059,0.754299,0.73314,0.73699,-0.0178567,-0.000257474,-0.0174539,-0.00296206,120,108,6.31174,0.1,16.889,0.1,0.984
0.749988,0.754297,0.73307,0.736986,-0.0179862,-0.000344395,-0.0175805,-0.00229141,120,117,6.40856,0.1,17.0033,0.1,0.988
0.749916,0.754295,0.732999,0.736984,-0.018116,-0.000373551,-0.0177074,-0.00164277,121,125,6.50565,0.1,17.1257,0.1,0.992
0.749843,0.754293,0.732928,0.736984,-0.0182462,-0.00042178,-0.0178346,-0.00115276,122,132,6.6033,0.1,17.256,0.1,0.996
0.74977,0.754291,0.732857,0.736983,-0.0183767,-0.000453932,-0.0179622,-0.00082609,123,137,6.70143,0.1,17.3925,0.1,1
0.749696,0.75429,0.732784,0.736982,-0.0185076,-0.000388994,-0.0180901,-0.00066589,125,140,6.80016,0.1,17.5337,0.1,1.004
0.749621,0.754289,0.732712,0.736979,-0.0186387,-0.000345702,-0.0182183,-0.000645463,126,143,6.89999,0.1,17.6778,0.1,1.008
0.749547,0.754288,0.732639,0.736976,-0.0187702,-0.000259259,-0.0183468,-0.000689427,128,144,7.00083,0.1,17.8235,0.1,1.012
0.749471,0.754288,0.732565,0.736972,-0.0189021,-0.000172839,-0.0184757,-0.000805109,129,145,7.1029,0.1,17.9701,0.1,1.016
0.749395,0.754288,0.732491,0.736967,-0.0190342,-0.000115226,-0.0186049,-0.000939812,131,146,7.20619,0.1,18.1171,0.1,1.02
0.749319,0.754288,0.732416,0.736962,-0.0191667,-0.000105608,-0.0187344,-0.0010872,132,146,7.31054,0.1,18.2641,0.1,1.024
0.749242,0.754287,0.732341,0.736956,-0.0192996,-0.000127987,-0.0188642,-0.00121424,133,147,7.41568,0.1,18.4111,0.1,1.028
0.749165,0.754286,0.732265,0.736949,-0.0194327,-0.000171698,-0.0189943,-0.00135652,134,148,7.52145,0.1,18.5583,0.1,1.032
0.749087,0.754284,0.732189,0.736943,-0.0195662,-0.00025842,-0.0191248,-0.00142259,135,149,7.62771,0.1,18.7055,0.1,1.036
0.749008,0.754283,0.732112,0.736937,-0.0197,-0.000316234,-0.0192556,-0.00146663,136,151,7.73426,0.1,18.8535,0.1,1.04
0.748929,0.754281,0.732035,0.73693,-0.0198341,-0.000354778,-0.0193867,-0.00152478,137,152,7.84125,0.1,19.0026,0.1,1.044
0.748849,0.754279,0.731957,0.736923,-0.0199685,-0.000438055,-0.0195181,-0.00162113,137,153,7.94877,0.1,19.1524,0.1,1.048
0.748769,0.754277,0.731879,0.736915,-0.0201032,-0.000464782,-0.0196498,-0.00171415,138,154,8.05661,0.1,19.3028,0.1,1.052
0.748689,0.754274,0.7318,0.736908,-0.0202383,-0.0004826,-0.0197818,-0.00177617,140,156,8.16508,0.1,19.4538,0.1,1.056
0.748607,0.754272,0.731721,0.7369,-0.0203737,-0.000494479,-0.0199141,-0.00178872,141,158,8.27421,0.1,19.6056,0.1,1.06
0.748526,0.75427,0.731641,0.736894,-0.0205094,-0.000502398,-0.0200467,-0.00173951,142,160,8.38405,0.1,19.7587,0.1,1.064
0.748443,0.754268,0.73156,0.736888,-0.0206454,-0.000507678,-0.0201797,-0.00164912,143,163,8.49462,0.1,19.9139,0.1,1.068
0.74836,0.754266,0.731479,0.736883,-0.0207817,-0.000482406,-0.0203129,-0.00150249,144,167,8.60594,0.1,20.0715,0.1,1.072
0.748277,0.754265,0.731398,0.736879,-0.0209183,-0.000465559,-0.0204464,-0.00134715,146,170,8.71818,0.1,20.232,0.1,1.076
0.748193,0.754263,0.731316,0.736876,-0.0210552,-0.000483118,-0.0205803,-0.00112843,147,175,8.83128,0.1,20.3956,0.1,1.08
0.748109,0.754261,0.731233,0.736874,-0.0211925,-0.000466033,-0.0207144,-0.00095382,148,179,8.94507,0.1,20.5628,0.1,1.084
0.748024,0.754259,0.73115,0.736871,-0.02133,-0.000483434,-0.0208488,-0.000837417,149,182,9.05972,0.1,20.7332,0.1,1.088
0.747938,0.754256,0.731066,0.736869,-0.0214678,-0.000552617,-0.0209836,-0.000759814,150,185,9.17503,0.1,20.9063,0.1,1.092
0.747852,0.754254,0.730982,0.736865,-0.021606,-0.000569948,-0.0211186,-0.000794452,151,187,9.29077,0.1,21.0816,0.1,1.096
0.747765,0.754251,0.730897,0.736861,-0.0217444,-0.000610293,-0.0212539,-0.000875126,152,188,9.40718,0.1,21.258,0.1,1.1
0.747678,0.754248,0.730812,0.736856,-0.0218832,-0.00066598,-0.0213895,-0.00104407,153,189,9.52414,0.1,21.435,0.1,1.104
0.74759,0.754244,0.730726,0.736849,-0.0220222,-0.000731896,-0.0215255,-0.00127187,154,189,9.64158,0.1,21.6118,0.1,1.108
0.747502,0.75424,0.73064,0.736841,-0.0221616,-0.000833422,-0.0216616,-0.00153889,155,188,9.75943,0.1,21.7878,0.1,1.112
0.747413,0.754235,0.730553,0.736831,-0.0223012,-0.000987478,-0.0217981,-0.00186087,155,187,9.87747,0.1,21.9626,0.1,1.116
0.747323,0.754229,0.730466,0.73682,-0.0224411,-0.00117656,-0.0219349,-0.00216189,156,187,9.99544,0.1,22.1357,0.1,1.12
0.747233,0.754223,0.730378,0.736807,-0.0225813,-0.00130261,-0.022072,-0.00244894,156,186,10.1132,0.1,22.3073,0.1,1.124
0.747143,0.754216,0.730289,0.736793,-0.0227219,-0.00141543,-0.0222093,-0.00281305,157,185,10.231,0.1,22.4774,0.1,1.128
0.747051,0.754208,0.7302,0.736778,-0.0228627,-0.00160581,-0.0223469,-0.00311338,157,184,10.3489,0.1,22.6455,0.1,1.132
0.74696,0.7542,0.73011,0.736764,-0.0230038,-0.00170394,-0.0224848,-0.0033136,158,184,10.4667,0.1,22.8121,0.1,1.136
0.746867,0.754193,0.73002,0.73675,-0.0231451,-0.00174057,-0.022623,-0.00330312,159,186,10.5847,0.1,22.9783,0.1,1.14
0.746775,0.754185,0.729929,0.736737,-0.0232868,-0.00185136,-0.0227615,-0.00329613,160,189,10.7033,0.1,23.1462,0.1,1.144
0.746681,0.754177,0.729838,0.736725,-0.0234288,-0.00186764,-0.0229003,-0.00320511,161,192,10.8221,0.1,23.3157,0.1,1.148
0.746587,0.75417,0.729746,0.736713,-0.023571,-0.0018785,-0.0230393,-0.00317321,162,194,10.9416,0.1,23.4875,0.1,1.152
0.746493,0.754162,0.729654,0.7367,-0.0237135,-0.00185694,-0.0231786,-0.00320953,164,196,11.0619,0.1,23.6612,0.1,1.156
0.746397,0.754156,0.729561,0.736687,-0.0238563,-0.00178499,-0.0233182,-0.00320495,165,198,11.1831,0.1,23.8361,0.1,1.16
0.746302,0.754149,0.729467,0.736672,-0.0239994,-0.00173702,-0.023458,-0.00334585,167,199,11.3056,0.1,24.0125,0.1,1.164
0.746205,0.754143,0.729373,0.736658,-0.0241427,-0.00164746,-0.0235981,-0.003411,169,201,11.4291,0.1,24.189,0.1,1.168
0.746109,0.754138,0.729278,0.736642,-0.0242864,-0.00153017,-0.0237385,-0.00362717,171,201,11.554,0.1,24.3663,0.1,1.172
0.746011,0.754132,0.729183,0.736625,-0.0244303,-0.00150956,-0.0238792,-0.00385766,172,201,11.6804,0.1,24.543,0.1,1.176
0.745913,0.754127,0.729087,0.736606,-0.0245745,-0.00146703,-0.0240201,-0.00409769,174,201,11.8076,0.1,24.7189,0.1,1.18
0.745815,0.754121,0.728991,0.736587,-0.0247189,-0.00149625,-0.0241613,-0.00434409,175,201,11.9359,0.1,24.8939,0.1,1.184
0.745715,0.754113,0.728894,0.736566,-0.0248636,-0.00160211,-0.0243028,-0.00462351,176,200,12.0649,0.1,25.068,0.1,1.188
0.745616,0.754105,0.728796,0.736545,-0.0250086,-0.00173027,-0.0244445,-0.00483859,176,200,12.194,0.1,25.2408,0.1,1.192
0.745515,0.754096,0.728698,0.736524,-0.0251539,-0.00195966,-0.0245865,-0.00498197,176,201,12.3233,0.1,25.4131,0.1,1.196
0.745414,0.754085,0.7286,0.736503,-0.0252994,-0.00219896,-0.0247287,-0.00504877,176,203,12.452,0.1,25.5856,0.1,1.2
0.745313,0.754074,0.7285,0.736484,-0.0254452,-0.00238728,-0.0248712,-0.00500693,177,205,12.5803,0.1,25.7589,0.1,1.204
0.745211,0.754063,0.728401,0.736464,-0.0255913,-0.00254162,-0.025014,-0.00495024,177,208,12.7084,0.1,25.9343,0.1,1.208
0.745108,0.754052,0.7283,0.736446,-0.0257376,-0.00261572,-0.025157,-0.00485487,178,211,12.8365,0.1,26.1117,0.1,1.212
0.745005,0.754041,0.728199,0.736426,-0.0258842,-0.00266513,-0.0253003,-0.00484887,179,214,12.965,0.1,26.2917,0.1,1.216
0.744901,0.754029,0.728098,0.736406,-0.026031,-0.00269806,-0.0254438,-0.00490246,180,215,13.094,0.1,26.4732,0.1,1.22
0.744797,0.754018,0.727996,0.736387,-0.0261781,-0.00272002,-0.0255876,-0.00490939,182,217,13.2238,0.1,26.6558,0.1,1.224
0.744692,0.754007,0.727893,0.736366,-0.0263255,-0.00279224,-0.0257317,-0.00497159,183,219,13.3542,0.1,26.8398,0.1,1.228
0.744586,0.753994,0.72779,0.736346,-0.0264731,-0.00289796,-0.025876,-0.00501306,183,221,13.485,0.1,27.0248,0.1,1.232
0.74448,0.753979,0.727686,0.736324,-0.026621,-0.00316999,-0.0260205,-0.00518466,183,222,13.6161,0.1,27.2109,0.1,1.236
0.744373,0.753962,0.727582,0.7363,-0.0267691,-0.00355287,-0.0261653,-0.00541422,183,222,13.7464,0.1,27.3968,0.1,1.24
0.744266,0.753942,0.727477,0.736276,-0.0269175,-0.00406724,-0.0263103,-0.00565364,181,222,13.8753,0.1,27.5819,0.1,1.244
0.744158,0.753919,0.727371,0.736252,-0.0270661,-0.00464049,-0.0264556,-0.00575566,179,223,14.0022,0.1,27.7663,0.1,1.248
0.744049,0.753891,0.727265,0.736228,-0.027215,-0.00536814,-0.0266011,-0.00582368,177,225,14.1267,0.1,27.9513,0.1,1.252
0.74394,0.753861,0.727159,0.736207,-0.0273642,-0.00611236,-0.0267469,-0.0056387,174,229,14.2479,0.1,28.1373,0.1,1.256
0.74383,0.753826,0.727051,0.736187,-0.0275135,-0.00701158,-0.0268929,-0.00542901,171,233,14.3657,0.1,28.3267,0.1,1.26
0.74372,0.753787,0.726943,0.736169,-0.0276632,-0.00792776,-0.0270392,-0.00511647,167,239,14.4793,0.1,28.5199,0.1,1.264
0.743609,0.753742,0.726835,0.736155,-0.027813,-0.009028,-0.0271857,-0.00456262,162,246,14.5886,0.1,28.7179,0.1,1.268
0.743497,0.753692,0.726726,0.736145,-0.0279632,-0.0101358,-0.0273324,-0.00390547,158,255,14.6925,0.1,28.9231,0.1,1.272
0.743385,0.753637,0.726616,0.736138,-0.0281135,-0.0113349,-0.0274794,-0.00317947,152,265,14.791,0.1,29.1365,0.1,1.276
0.743273,0.753577,0.726506,0.736132,-0.0282641,-0.012595,-0.0276266,-0.0025803,147,273,14.8836,0.1,29.3587,0.1,1.28
0.743159,0.753512,0.726395,0.736128,-0.028415,-0.0138094,-0.027774,-0.00209448,141,280,14.97,0.1,29.5884,0.1,1.284
0.743045,0.753441,0.726284,0.736124,-0.028566,-0.0151084,-0.0279217,-0.00174181,135,286,15.0503,0.1,29.8246,0.1,1.288
0.742931,0.753364,0.726172,0.73612,-0.0287174,-0.0164638,-0.0280696,-0.00147791,129,291,15.1242,0.1,30.0658,0.1,1.292
0.742816,0.753282,0.726059,0.736116,-0.0288689,-0.0178569,-0.0282177,-0.00127318,123,296,15.1914,0.1,30.3112,0.1,1.296
0.7427,0.753194,0.725946,0.736112,-0.0290207,-0.0192175,-0.0283661,-0.00122307,117,299,15.2515,0.1,30.5603,0.1,1.3
0.742583,0.753107,0.725832,0.736108,-0.0291727,-0.020067,-0.0285147,-0.00113208,113,302,15.3051,0.1,30.8114,0.1,1.304
0.742466,0.753014,0.725718,0.736103,-0.029325,-0.0211515,-0.0286635,-0.00118658,108,305,15.3547,0.1,31.065,0.1,1.308
0.742349,0.752917,0.725603,0.736097,-0.0294775,-0.0221625,-0.0288125,-0.0012805,104,306,15.399,0.1,31.3196,0.1,1.312
0.742231,0.752818,0.725488,0.73609,-0.0296302,-0.023038,-0.0289618,-0.00148707,100,307,15.4386,0.1,31.5748,0.1,1.316
0.742112,0.752715,0.725371,0.736082,-0.0297831,-0.0239384,-0.0291113,-0.00162478,96,308,15.4741,0.1,31.8296,0.1,1.32
0.741992,0.752607,0.725255,0.736073,-0.0299363,-0.0249417,-0.029261,-0.00180296,92,309,15.5053,0.1,32.0847,0.1,1.324
0.741872,0.752499,0.725137,0.736065,-0.0300897,-0.0256393,-0.0294109,-0.00189295,89,311,15.532,0.1,32.3396,0.1,1.328
0.741752,0.752388,0.725019,0.736057,-0.0302433,-0.026306,-0.0295611,-0.00192416,86,313,15.5555,0.1,32.5952,0.1,1.332
0.74163,0.752269,0.724901,0.736049,-0.0303971,-0.0274702,-0.0297114,-0.00197376,81,315,15.576,0.1,32.8521,0.1,1.336
0.741508,0.752157,0.724782,0.736042,-0.0305512,-0.0276417,-0.029862,-0.00189166,81,319,15.5912,0.1,33.1103,0.1,1.34
0.741386,0.75204,0.724662,0.736035,-0.0307055,-0.0281879,-0.0300128,-0.00183692,79,322,15.6061,0.1,33.3708,0.1,1.344
0.741263,0.751919,0.724542,0.73603,-0.03086,-0.0288976,-0.0301638,-0.00165648,76,327,15.6188,0.1,33.6336,0.1,1.348
0.741139,0.751797,0.724421,0.736026,-0.0310147,-0.0294282,-0.0303151,-0.00144981,74,331,15.6284,0.1,33.8998,0.1,1.352
0.741015,0.751674,0.724299,0.736021,-0.0311696,-0.0298684,-0.0304665,-0.00131203,72,335,15.636,0.1,34.1697,0.1,1.356
0.74089,0.751549,0.724177,0.736018,-0.0313248,-0.0303058,-0.0306182,-0.0011626,71,339,15.6419,0.1,34.4427,0.1,1.36
0.740764,0.751422,0.724054,0.736015,-0.0314801,-0.0307989,-0.03077,-0.00103418,69,343,15.6463,0.1,34.7187,0.1,1.364
0.740638,0.751297,0.723931,0.736011,-0.0316357,-0.0309837,-0.0309221,-0.000977364,69,347,15.6488,0.1,34.9976,0.1,1.368
0.740511,0.751166,0.723807,0.736008,-0.0317915,-0.03151,-0.0310744,-0.000968276,67,350,15.6511,0.1,35.2787,0.1,1.372
0.740383,0.751038,0.723682,0.736003,-0.0319475,-0.0317169,-0.0312268,-0.00104859,66,352,15.6513,0.1,35.5615,0.1,1.376
0.740255,0.750907,0.723557,0.735998,-0.0321037,-0.0320851,-0.0313795,-0.00113092,65,354,15.6513,0.1,35.8451,0.1,1.38
0.740127,0.750775,0.723431,0.735992,-0.0322601,-0.0323882,-0.0315324,-0.00118581,64,356,15.65,0.1,36.1295,0.1,1.384
0.739997,0.750639,0.723305,0.735986,-0.0324168,-0.032907,-0.0316855,-0.00136636,62,357,15.6479,0.1,36.415,0.1,1.388
0.739867,0.750508,0.723178,0.735978,-0.0325736,-0.0328498,-0.0318388,-0.00154431,64,358,15.6439,0.1,36.7003,0.1,1.392
0.739737,0.750371,0.72305,0.73597,-0.0327306,-0.0332722,-0.0319923,-0.00172052,62,359,15.6409,0.1,36.9855,0.1,1.396
0.739605,0.750237,0.722922,0.735963,-0.0328879,-0.03341,-0.032146,-0.00172283,62,362,15.6366,0.1,37.2706,0.1,1.4
0.739474,0.7501,0.722793,0.735955,-0.0330453,-0.0337033,-0.0322999,-0.00181075,61,364,15.6323,0.1,37.5573,0.1,1.404
0.739341,0.749962,0.722663,0.735948,-0.0332029,-0.0338989,-0.032454,-0.00175419,61,367,15.6273,0.1,37.8449,0.1,1.408
0.739208,0.749821,0.722533,0.735943,-0.0333608,-0.0343459,-0.0326082,-0.00163012,60,371,15.622,0.1,38.1347,0.1,1.412
0.739074,0.749681,0.722402,0.735938,-0.0335188,-0.0345864,-0.0327627,-0.00148982,59,375,15.6151,0.1,38.4274,0.1,1.416
0.73894,0.74954,0.722271,0.735934,-0.033677,-0.0348043,-0.0329174,-0.00130991,59,380,15.6077,0.1,38.7232,0.1,1.42
0.738805,0.749396,0.722139,0.735931,-0.0338355,-0.0351799,-0.0330722,-0.0011036,58,385,15.6,0.1,39.0225,0.1,1.424
0.738669,0.749254,0.722007,0.73593,-0.0339941,-0.0353439,-0.0332273,-0.000850898,57,390,15.5911,0.1,39.3255,0.1,1.428
0.738533,0.749109,0.721873,0.735929,-0.0341529,-0.035626,-0.0333825,-0.000682429,57,395,15.5822,0.1,39.6327,0.1,1.432
0.738396,0.748963,0.721739,0.735927,-0.0343119,-0.035958,-0.0335379,-0.000541326,56,399,15.5725,0.1,39.9432,0.1,1.436
0.738258,0.748817,0.721605,0.735926,-0.0344711,-0.036093,-0.0336935,-0.000476047,56,403,15.5619,0.1,40.2568,0.1,1.44
0.73812,0.74867,0.72147,0.735924,-0.0346305,-0.0363557,-0.0338493,-0.00046132,55,406,15.5514,0.1,40.5726,0.1,1.444
0.737981,0.748523,0.721334,0.735923,-0.0347901,-0.0364733,-0.0340053,-0.000451501,55,409,15.5403,0.1,40.8902,0.1,1.448
0.737842,0.748372,0.721198,0.73592,-0.0349498,-0.0368396,-0.0341614,-0.000502537,54,411,15.5294,0.1,41.2096,0.1,1.452
0.737702,0.748224,0.721061,0.735917,-0.0351098,-0.0369398,-0.0343178,-0.000594143,55,413,15.5175,0.1,41.5302,0.1,1.456
0.737561,0.748073,0.720923,0.735913,-0.0352699,-0.0371794,-0.0344743,-0.000712796,54,415,15.5058,0.1,41.8514,0.1,1.46
0.73742,0.747922,0.720785,0.735908,-0.0354302,-0.0373679,-0.034631,-0.00087827,54,417,15.4937,0.1,42.1731,0.1,1.464
0.737277,0.747772,0.720646,0.735903,-0.0355907,-0.037436,-0.0347879,-0.00101738,54,418,15.4814,0.1,42.4949,0.1,1.468
0.737135,0.747619,0.720507,0.735899,-0.0357514,-0.0377405,-0.0349449,-0.00102374,53,421,15.4696,0.1,42.817,0.1,1.472
0.736991,0.747467,0.720367,0.735894,-0.0359122,-0.0377708,-0.0351021,-0.00111436,54,423,15.4571,0.1,43.1407,0.1,1.476
0.736847,0.747315,0.720226,0.735889,-0.0360732,-0.0379061,-0.0352595,-0.00111719,54,426,15.4453,0.1,43.4652,0.1,1.48
0.736703,0.747162,0.720085,0.735884,-0.0362345,-0.0379963,-0.0354171,-0.00123424,55,428,15.4336,0.1,43.7912,0.1,1.484
0.736558,0.747008,0.719943,0.735878,-0.0363958,-0.0381428,-0.0355748,-0.00128348,55,431,15.4223,0.1,44.1179,0.1,1.488
0.736412,0.746853,0.7198,0.735873,-0.0365574,-0.0383269,-0.0357327,-0.00128752,54,434,15.4111,0.1,44.4457,0.1,1.492
0.736265,0.7467,0.719657,0.735868,-0.0367191,-0.0383632,-0.0358908,-0.00126142,55,437,15.3998,0.1,44.7752,0.1,1.496
0.736118,0.746539,0.719513,0.735861,-0.036881,-0.0389921,-0.0360491,-0.00144555,52,438,15.3889,0.1,45.1066,0.1,1.5
0.73597,0.746387,0.719368,0.735852,-0.0370431,-0.0386051,-0.0362075,-0.00168348,55,439,15.3759,0.1,45.4377,0.1,1.504
0.735822,0.74623,0.719223,0.735842,-0.0372053,-0.0388366,-0.0363661,-0.00195725,55,439,15.3656,0.1,45.7681,0.1,1.508
0.735672,0.746074,0.719077,0.73583,-0.0373677,-0.0389334,-0.0365248,-0.00231252,55,439,15.3551,0.1,46.0975,0.1,1.512
0.735523,0.745916,0.718931,0.735816,-0.0375303,-0.0390555,-0.0366837,-0.0027509,55,438,15.3448,0.1,46.4249,0.1,1.516
0.735372,0.745759,0.718784,0.735799,-0.0376931,-0.0391368,-0.0368428,-0.00324469,56,436,15.3349,0.1,46.7496,0.1,1.52
0.735221,0.745599,0.718636,0.735778,-0.037856,-0.0393926,-0.037002,-0.00386179,55,433,15.3253,0.1,47.0709,0.1,1.524
0.735069,0.745436,0.718488,0.735753,-0.038019,-0.0398511,-0.0371614,-0.00467626,54,428,15.315,0.1,47.3877,0.1,1.528
0.734917,0.74528,0.718339,0.735723,-0.0381823,-0.0396097,-0.037321,-0.00559353,56,422,15.3034,0.1,47.698,0.1,1.532
0.734764,0.745118,0.718189,0.735685,-0.0383457,-0.0398806,-0.0374807,-0.00689602,55,412,15.2939,0.1,48.0005,0.1,1.536
0.73461,0.744953,0.718039,0.735639,-0.0385092,-0.0403203,-0.0376406,-0.00842654,54,400,15.2837,0.1,48.2916,0.1,1.54
0.734456,0.744794,0.717888,0.735586,-0.0386729,-0.0401528,-0.0378006,-0.0100515,55,387,15.2722,0.1,48.569,0.1,1.544
0.734301,0.744632,0.717737,0.735521,-0.0388368,-0.0403003,-0.0379607,-0.0121137,55,370,15.2623,0.1,48.8315,0.1,1.548
0.734145,0.744468,0.717585,0.735444,-0.0390008,-0.040485,-0.0381211,-0.0144962,55,350,15.2526,0.1,49.0749,0.1,1.552
0.733989,0.744306,0.717432,0.735354,-0.039165,-0.0405505,-0.0382815,-0.0171498,56,326,15.2428,0.1,49.296,0.1,1.556
0.733832,0.744139,0.717278,0.735253,-0.0393293,-0.0408821,-0.0384422,-0.0198977,55,302,15.2334,0.1,49.4921,0.1,1.56
0.733674,0.74397,0.717124,0.735134,-0.0394938,-0.0413911,-0.0386029,-0.0231692,53,273,15.2231,0.1,49.6621,0.1,1.564
0.733516,0.743808,0.71697,0.735014,-0.0396585,-0.0410682,-0.0387639,-0.0254654,55,252,15.2111,0.1,49.8015,0.1,1.568
0.733357,0.743642,0.716814,0.734877,-0.0398233,-0.0412272,-0.0389249,-0.0283781,55,226,15.2017,0.1,49.9193,0.1,1.572
0.733197,0.743475,0.716658,0.734731,-0.0399882,-0.0413908,-0.0390862,-0.0310973,55,202,15.1923,0.1,50.0096,0.1,1.576
0.733037,0.743306,0.716501,0.734579,-0.0401533,-0.0417014,-0.0392475,-0.0333708,55,182,15.1829,0.1,50.0747,0.1,1.58
0.732876,0.743137,0.716344,0.734417,-0.0403185,-0.0418797,-0.039409,-0.0357213,55,161,15.1728,0.1,50.1185,0.1,1.584
0.732714,0.74297,0.716186,0.734257,-0.0404839,-0.0418546,-0.0395707,-0.037202,56,148,15.1627,0.1,50.141,0.1,1.588
0.732552,0.7428,0.716028,0.734093,-0.0406494,-0.0420394,-0.0397324,-0.038477,55,137,15.1536,0.1,50.1504,0.1,1.592
0.732389,0.742629,0.715868,0.733927,-0.0408151,-0.042249,-0.0398944,-0.039471,55,129,15.1444,0.1,50.1488,0.1,1.596
0.732226,0.74246,0.715708,0.733757,-0.0409809,-0.0422736,-0.0400564,-0.0404215,56,121,15.135,0.1,50.139,0.1,1.6
0.732061,0.742284,0.715548,0.733583,-0.0411468,-0.0428657,-0.0402186,-0.0414583,54,113,15.1262,0.1,50.1212,0.1,1.604
0.731896,0.742117,0.715387,0.733415,-0.0413129,-0.0424544,-0.040381,-0.0416601,57,112,15.1154,0.1,50.0952,0.1,1.608
0.731731,0.741944,0.715225,0.733244,-0.0414791,-0.0427272,-0.0405435,-0.0420537,56,110,15.1077,0.1,50.0688,0.1,1.612
0.731565,0.741773,0.715062,0.733069,-0.0416455,-0.0427363,-0.0407061,-0.042604,57,106,15.0994,0.1,50.04,0.1,1.616
0.731398,0.741597,0.714899,0.732887,-0.041812,-0.0431742,-0.0408688,-0.0435179,55,99,15.0919,0.1,50.0072,0.1,1.62
0.73123,0.741428,0.714735,0.732713,-0.0419786,-0.0428328,-0.0410317,-0.0435226,58,100,15.0832,0.1,49.9673,0.1,1.624
0.731062,0.741252,0.714571,0.732533,-0.0421454,-0.0432386,-0.0411947,-0.0440439,57,96,15.077,0.1,49.9288,0.1,1.628
0.730893,0.74108,0.714406,0.732348,-0.0423123,-0.0431348,-0.0413578,-0.0447657,58,91,15.0697,0.1,49.8867,0.1,1.632
0.730723,0.740903,0.71424,0.732162,-0.0424793,-0.0435263,-0.0415211,-0.0453909,57,86,15.0638,0.1,49.8391,0.1,1.636
0.730553,0.740731,0.714074,0.731975,-0.0426464,-0.0433554,-0.0416844,-0.0458365,59,83,15.0568,0.1,49.787,0.1,1.64
0.730382,0.740553,0.713907,0.731786,-0.0428137,-0.0437309,-0.041848,-0.0462775,58,80,15.0516,0.1,49.7321,0.1,1.644
0.730211,0.740378,0.713739,0.731592,-0.0429811,-0.0437797,-0.0420116,-0.0470034,58,75,15.0453,0.1,49.6743,0.1,1.648
0.730038,0.740197,0.713571,0.731396,-0.0431487,-0.0442441,-0.0421754,-0.04766,57,70,15.0395,0.1,49.611,0.1,1.652
0.729865,0.740026,0.713401,0.73121,-0.0433164,-0.0437476,-0.0423392,-0.0473205,60,74,15.0325,0.1,49.5433,0.1,1.656
0.729692,0.739847,0.713232,0.731018,-0.0434841,-0.0441076,-0.0425032,-0.0475259,59,74,15.0289,0.1,49.4804,0.1,1.66
0.729518,0.73967,0.713061,0.730824,-0.0436521,-0.0441172,-0.0426674,-0.0478645,60,72,15.0243,0.1,49.417,0.1,1.664
0.729343,0.739488,0.71289,0.73063,-0.0438201,-0.0445555,-0.0428316,-0.0480613,59,71,15.0205,0.1,49.3521,0.1,1.668
0.729167,0.739311,0.712719,0.730439,-0.0439882,-0.0444734,-0.042996,-0.0479911,60,73,15.0154,0.1,49.2869,0.1,1.672
0.728991,0.739128,0.712546,0.730244,-0.0441565,-0.0448793,-0.0431605,-0.0482033,59,72,15.0115,0.1,49.2241,0.1,1.676
0.728814,0.738947,0.712374,0.73005,-0.0443249,-0.045006,-0.043325,-0.0483448,59,72,15.0064,0.1,49.1608,0.1,1.68
0.728636,0.738764,0.7122,0.729855,-0.0444934,-0.0453208,-0.0434898,-0.048468,58,73,15.0015,0.1,49.0978,0.1,1.684
0.728458,0.738582,0.712026,0.729663,-0.044662,-0.0453291,-0.0436546,-0.048291,59,76,14.9959,0.1,49.0354,0.1,1.688
0.728279,0.738397,0.711851,0.729467,-0.0448308,-0.0456513,-0.0438195,-0.0485184,58,75,14.9911,0.1,48.9763,0.1,1.692
0.728099,0.738214,0.711675,0.729275,-0.0449996,-0.0457222,-0.0439846,-0.0483822,59,77,14.9855,0.1,48.9168,0.1,1.696
0.727919,0.738021,0.711499,0.729076,-0.0451686,-0.0464892,-0.0441497,-0.0488096,55,75,14.9802,0.1,48.86,0.1,1.7
0.727738,0.737841,0.711322,0.728892,-0.0453377,-0.0460505,-0.044315,-0.0478565,59,85,14.9721,0.1,48.8014,0.1,1.704
0.727556,0.737653,0.711144,0.728704,-0.0455069,-0.0463338,-0.0444803,-0.0475954,58,89,14.9671,0.1,48.7537,0.1,1.708
0.727374,0.737466,0.710966,0.728521,-0.0456762,-0.0464651,-0.0446458,-0.0469606,58,97,14.9615,0.1,48.7105,0.1,1.712
0.727191,0.737279,0.710787,0.728342,-0.0458456,-0.0465814,-0.0448114,-0.0462784,59,105,14.9562,0.1,48.6753,0.1,1.716
0.727007,0.737084,0.710608,0.728157,-0.0460151,-0.0472923,-0.0449771,-0.0462266,56,107,14.9509,0.1,48.6484,0.1,1.72
0.726823,0.736896,0.710427,0.727979,-0.0461847,-0.0472481,-0.0451429,-0.0456739,57,114,14.9429,0.1,48.624,0.1,1.724
0.726638,0.736709,0.710246,0.727807,-0.0463544,-0.0470458,-0.0453088,-0.0447295,59,125,14.9362,0.1,48.607,0.1,1.728
0.726452,0.736521,0.710065,0.727632,-0.0465242,-0.0470549,-0.0454748,-0.0444743,60,129,14.9315,0.1,48.6008,0.1,1.732
0.726265,0.736329,0.709883,0.727457,-0.0466942,-0.0473777,-0.0456409,-0.0442177,59,133,14.9276,0.1,48.5989,0.1,1.736
0.726078,0.736138,0.7097,0.727278,-0.0468642,-0.0475065,-0.0458071,-0.0443346,59,133,14.923,0.1,48.6011,0.1,1.74
0.72589,0.735944,0.709516,0.727102,-0.0470343,-0.0477939,-0.0459733,-0.0442686,58,136,14.9185,0.1,48.6039,0.1,1.744
0.725702,0.735752,0.709332,0.726926,-0.0472046,-0.0478704,-0.0461397,-0.044167,59,138,14.9134,0.1,48.6091,0.1,1.748
0.725513,0.735557,0.709147,0.726749,-0.0473749,-0.0481805,-0.0463062,-0.0441856,58,140,14.9088,0.1,48.617,0.1,1.752
0.725323,0.735361,0.708961,0.726568,-0.0475453,-0.048416,-0.0464728,-0.0445435,58,138,14.9034,0.1,48.6263,0.1,1.756
0.725132,0.735164,0.708775,0.72639,-0.0477158,-0.0487169,-0.0466395,-0.0445806,57,139,14.8976,0.1,48.6338,0.1,1.76
0.724941,0.734872,0.708588,0.726128,-0.0478864,-0.0567775,-0.0468062,-0.0515151,13,74,14.8875,0.1,48.6393,0.1,1.764
0.724749,0.734775,0.708401,0.726039,-0.0480571,-0.0459995,-0.0469731,-0.0417715,74,170,14.841,0.1,48.5852,0.1,1.768
0.724557,0.734578,0.708213,0.725859,-0.0482279,-0.0470484,-0.04714,-0.0428189,69,161,14.8517,0.1,48.6251,0.1,1.772
0.724364,0.734382,0.708024,0.725682,-0.0483988,-0.04769,-0.0473071,-0.0433445,66,158,14.8575,0.1,48.6566,0.1,1.776
0.72417,0.734181,0.707834,0.725501,-0.0485698,-0.0485209,-0.0474742,-0.043954,63,154,14.8606,0.1,48.6844,0.1,1.78
0.723975,0.733983,0.707644,0.725317,-0.0487409,-0.0488445,-0.0476414,-0.0446194,62,149,14.8601,0.1,48.7078,0.1,1.784
0.72378,0.733778,0.707453,0.725126,-0.048912,-0.0496936,-0.0478087,-0.0456677,58,141,14.8586,0.1,48.7261,0.1,1.788
0.723584,0.733578,0.707261,0.724938,-0.0490833,-0.0497414,-0.0479761,-0.0461074,59,138,14.8535,0.1,48.7359,0.1,1.792
0.723387,0.733377,0.707069,0.72475,-0.0492546,-0.0499748,-0.0481435,-0.0463717,58,137,14.849,0.1,48.7431,0.1,1.796
0.72319,0.733173,0.706876,0.724558,-0.049426,-0.0502744,-0.0483111,-0.0469798,58,133,14.8442,0.1,48.7492,0.1,1.8
0.722992,0.732969,0.706683,0.724364,-0.0495975,-0.0505029,-0.0484787,-0.0474428,57,130,14.8387,0.1,48.751,0.1,1.804
0.722793,0.732765,0.706488,0.724173,-0.0497691,-0.0507416,-0.0486464,-0.0475499,57,131,14.8329,0.1,48.7501,0.1,1.808
0.722593,0.732562,0.706293,0.723982,-0.0499407,-0.050728,-0.0488142,-0.0476213,58,132,14.8268,0.1,48.7498,0.1,1.812
0.722393,0.732356,0.706098,0.723788,-0.0501124,-0.0509493,-0.048982,-0.0478993,58,131,14.8217,0.1,48.7505,0.1,1.816
0.722193,0.732153,0.705902,0.723598,-0.0502843,-0.0508953,-0.04915,-0.0477678,59,134,14.8165,0.1,48.7503,0.1,1.82
0.721991,0.731948,0.705705,0.723405,-0.0504561,-0.0510032,-0.049318,-0.0479394,59,134,14.8124,0.1,48.7529,0.1,1.824
0.721789,0.731744,0.705507,0.723214,-0.0506281,-0.0510464,-0.0494861,-0.0478522,60,136,14.8088,0.1,48.7557,0.1,1.828
0.721586,0.731541,0.705309,0.723024,-0.0508002,-0.0509312,-0.0496542,-0.047794,62,138,14.806,0.1,48.7611,0.1,1.832
0.721382,0.731334,0.70511,0.722839,-0.0509723,-0.0511711,-0.0498225,-0.0472658,61,145,14.8048,0.1,48.7691,0.1,1.836
0.721178,0.73113,0.70491,0.722659,-0.0511445,-0.0511007,-0.0499908,-0.0465106,63,154,14.8033,0.1,48.7842,0.1,1.84
0.720973,0.730924,0.70471,0.722483,-0.0513167,-0.0512265,-0.0501591,-0.0456329,63,165,14.8031,0.1,48.8087,0.1,1.844
0.720768,0.730718,0.704509,0.722312,-0.0514891,-0.051368,-0.0503276,-0.044731,63,175,14.8032,0.1,48.8437,0.1,1.848
0.720561,0.730511,0.704307,0.722145,-0.0516615,-0.0514911,-0.0504961,-0.0436691,63,187,14.8035,0.1,48.8895,0.1,1.852
0.720354,0.730305,0.704105,0.721981,-0.0518339,-0.051458,-0.0506647,-0.0427884,64,198,14.8041,0.1,48.9477,0.1,1.856
0.720147,0.730098,0.703902,0.721818,-0.0520065,-0.0515511,-0.0508333,-0.0421725,65,206,14.8059,0.1,49.0162,0.1,1.86
0.719938,0.72989,0.703698,0.721649,-0.0521791,-0.0517571,-0.051002,-0.0421362,65,208,14.8081,0.1,49.0924,0.1,1.864
0.719729,0.729679,0.703494,0.721479,-0.0523517,-0.0520672,-0.0511708,-0.0423135,64,208,14.8101,0.1,49.1706,0.1,1.868
0.71952,0.729468,0.703289,0.721304,-0.0525245,-0.0523027,-0.0513396,-0.0427772,64,206,14.8113,0.1,49.2486,0.1,1.872
0.719309,0.729256,0.703083,0.721128,-0.0526973,-0.0524885,-0.0515085,-0.0431439,64,204,14.8121,0.1,49.3237,0.1,1.876
0.719098,0.729048,0.702877,0.720949,-0.0528701,-0.0523821,-0.0516775,-0.0437051,65,201,14.813,0.1,49.3968,0.1,1.88
0.718886,0.728841,0.70267,0.720774,-0.0530431,-0.0521384,-0.0518465,-0.0437049,67,203,14.8157,0.1,49.4663,0.1,1.884
0.718674,0.728632,0.702462,0.720595,-0.053216,-0.0522062,-0.0520156,-0.0440503,68,201,14.8206,0.1,49.5373,0.1,1.888
0.71846,0.728419,0.702254,0.720419,-0.0533891,-0.0525106,-0.0521847,-0.0440503,67,203,14.826,0.1,49.6068,0.1,1.892
0.718247,0.728205,0.702045,0.720243,-0.0535622,-0.0528286,-0.0523539,-0.044079,67,205,14.8306,0.1,49.6781,0.1,1.896
0.718032,0.727993,0.701835,0.720073,-0.0537353,-0.0529543,-0.0525232,-0.0435223,67,212,14.8346,0.1,49.7511,0.1,1.9
0.717817,0.727776,0.701624,0.719906,-0.0539085,-0.0533836,-0.0526925,-0.0428921,66,221,14.8387,0.1,49.8314,0.1,1.904
0.717601,0.72756,0.701413,0.719743,-0.0540818,-0.0535258,-0.0528618,-0.0422129,66,229,14.8415,0.1,49.9199,0.1,1.908
0.717384,0.727344,0.701202,0.719579,-0.0542551,-0.0537358,-0.0530313,-0.0417888,66,235,14.8444,0.1,50.0168,0.1,1.912
0.717167,0.727124,0.700989,0.719417,-0.0544285,-0.0541349,-0.0532007,-0.0413909,64,241,14.847,0.1,50.1196,0.1,1.916
0.716949,0.726907,0.700776,0.719251,-0.0546019,-0.0541706,-0.0533702,-0.0413848,65,244,14.8485,0.1,50.228,0.1,1.92
0.71673,0.726687,0.700562,0.719086,-0.0547754,-0.0544536,-0.0535398,-0.0413519,64,246,14.8506,0.1,50.3382,0.1,1.924
0.71651,0.726468,0.700348,0.718915,-0.0549489,-0.0545846,-0.0537094,-0.0418195,65,244,14.8522,0.1,50.4502,0.1,1.928
0.71629,0.726246,0.700132,0.718741,-0.0551225,-0.0548447,-0.053879,-0.0423615,64,240,14.854,0.1,50.5593,0.1,1.932
0.716069,0.726026,0.699917,0.718566,-0.0552961,-0.0549318,-0.0540487,-0.042838,65,238,14.8554,0.1,50.6647,0.1,1.936
0.715848,0.725806,0.6997,0.71839,-0.0554697,-0.0549322,-0.0542185,-0.0432132,66,236,14.8573,0.1,50.7671,0.1,1.94
0.715626,0.725586,0.699483,0.718213,-0.0556435,-0.0549901,-0.0543883,-0.0436074,66,235,14.8602,0.1,50.8675,0.1,1.944
0.715403,0.725365,0.699265,0.718036,-0.0558172,-0.0550287,-0.0545581,-0.0438413,67,235,14.8639,0.1,50.9657,0.1,1.948
0.715179,0.725147,0.699046,0.71786,-0.055991,-0.0548241,-0.054728,-0.0438245,69,237,14.8684,0.1,51.0635,0.1,1.952
0.714955,0.724928,0.698827,0.717686,-0.0561648,-0.0548604,-0.0548979,-0.043727,70,240,14.875,0.1,51.1633,0.1,1.956
0.71473,0.724711,0.698607,0.717512,-0.0563387,-0.0546255,-0.0550678,-0.043662,72,243,14.8826,0.1,51.2658,0.1,1.96
0.714504,0.724494,0.698387,0.717335,-0.0565126,-0.0544977,-0.0552378,-0.0438489,74,243,14.8925,0.1,51.3705,0.1,1.964
0.714278,0.72428,0.698165,0.717163,-0.0566866,-0.054211,-0.0554079,-0.0435705,77,248,14.9042,0.1,51.4753,0.1,1.968
0.714051,0.724068,0.697943,0.716987,-0.0568606,-0.0537895,-0.0555779,-0.0437016,80,249,14.9187,0.1,51.5845,0.1,1.972
0.713823,0.723856,0.697721,0.716807,-0.0570346,-0.0535085,-0.055748,-0.0441345,83,247,14.9366,0.1,51.694,0.1,1.976
0.713594,0.723647,0.697497,0.716626,-0.0572087,-0.0531196,-0.0559182,-0.044567,86,244,14.9571,0.1,51.8008,0.1,1.98
0.713365,0.723439,0.697273,0.716441,-0.0573828,-0.0526876,-0.0560883,-0.0451145,90,241,14.981,0.1,51.9051,0.1,1.984
0.713135,0.723235,0.697049,0.716255,-0.0575569,-0.0521693,-0.0562585,-0.0455658,94,239,15.0085,0.1,52.0056,0.1,1.988
0.712905,0.723035,0.696823,0.716067,-0.057731,-0.0513919,-0.0564288,-0.0460683,99,236,15.0402,0.1,52.1033,0.1,1.992
0.712673,0.722837,0.696597,0.715879,-0.0579052,-0.0507873,-0.056599,-0.0463744,104,235,15.0773,0.1,52.1978,0.1,1.996
0.712441,0.722647,0.69637,0.715692,-0.0580795,-0.049722,-0.0567693,-0.0464922,111,236,15.1192,0.1,52.2911,0.1,2
0.712209,0.72246,0.696143,0.715504,-0.0582537,-0.0486951,-0.0569397,-0.0465995,118,237,15.1684,0.1,52.385,0.1,2.004
0.711975,0.722282,0.695915,0.715312,-0.058428,-0.0473195,-0.05711,-0.0470741,127,235,15.2247,0.1,52.4794,0.1,2.008
0.711741,0.722111,0.695686,0.715124,-0.0586023,-0.0458266,-0.0572804,-0.047045,137,237,15.2901,0.1,52.571,0.1,2.012
0.711507,0.72195,0.695457,0.714932,-0.0587766,-0.0439677,-0.0574508,-0.0473999,148,236,15.3655,0.1,52.6644,0.1,2.016
0.711271,0.7218,0.695227,0.714744,-0.058951,-0.0417495,-0.0576212,-0.047291,162,239,15.4529,0.1,52.7563,0.1,2.02
0.711035,0.721662,0.694996,0.714553,-0.0591254,-0.0393205,-0.0577917,-0.0474487,177,239,15.5544,0.1,52.8509,0.1,2.024
0.710798,0.721532,0.694764,0.714363,-0.0592998,-0.0370967,-0.0579621,-0.0474387,191,242,15.6711,0.1,52.9457,0.1,2.028
0.710561,0.721416,0.694532,0.714177,-0.0594742,-0.0344049,-0.0581326,-0.0470865,208,247,15.8021,0.1,53.0426,0.1,2.032
0.710322,0.721314,0.694299,0.713994,-0.0596487,-0.0314011,-0.0583031,-0.0466502,227,253,15.95,0.1,53.1448,0.1,2.036
0.710083,0.721222,0.694066,0.713812,-0.0598231,-0.02865,-0.0584737,-0.0463305,244,259,16.1164,0.1,53.253,0.1,2.04
0.709844,0.721138,0.693831,0.713626,-0.0599976,-0.0260962,-0.0586442,-0.0463765,260,260,16.2999,0.1,53.366,0.1,2.044
0.709603,0.721066,0.693596,0.713447,-0.0601721,-0.0233572,-0.0588148,-0.0458314,278,268,16.4995,0.1,53.4807,0.1,2.048
0.709362,0.721,0.693361,0.713265,-0.0603466,-0.0210705,-0.0589854,-0.0456983,293,271,16.716,0.1,53.6023,0.1,2.052
0.709121,0.720938,0.693125,0.713079,-0.0605212,-0.0192582,-0.059156,-0.0459263,305,271,16.9468,0.1,53.7269,0.1,2.056
0.708878,0.720877,0.692888,0.712892,-0.0606957,-0.017906,-0.0593266,-0.0462798,315,270,17.1892,0.1,53.8508,0.1,2.06
0.708635,0.720816,0.69265,0.7127,-0.0608703,-0.0170333,-0.0594972,-0.0468321,322,267,17.4403,0.1,53.9729,0.1,2.064
0.708391,0.720754,0.692412,0.712502,-0.0610449,-0.0165379,-0.0596678,-0.0476898,327,261,17.6976,0.1,54.091,0.1,2.068
0.708147,0.720689,0.692173,0.712304,-0.0612194,-0.0164092,-0.0598385,-0.0482904,330,257,17.9587,0.1,54.2024,0.1,2.072
0.707901,0.720621,0.691933,0.712101,-0.061394,-0.0165825,-0.0600091,-0.0490939,331,251,18.2216,0.1,54.3095,0.1,2.076
0.707656,0.720547,0.691693,0.711895,-0.0615687,-0.017245,-0.0601798,-0.0499174,329,245,18.4845,0.1,54.4102,0.1,2.08
0.707409,0.72047,0.691451,0.711698,-0.0617433,-0.0178883,-0.0603505,-0.0497179,328,250,18.7446,0.1,54.505,0.1,2.084
0.707162,0.720385,0.69121,0.711498,-0.0619179,-0.0190081,-0.0605212,-0.0498152,324,251,19.0018,0.1,54.6034,0.1,2.088
0.706914,0.720294,0.690967,0.711298,-0.0620925,-0.0202441,-0.0606919,-0.0498225,319,253,19.2536,0.1,54.7026,0.1,2.092
0.706665,0.720197,0.690724,0.711098,-0.0622672,-0.0216439,-0.0608626,-0.0499425,313,254,19.4992,0.1,54.8034,0.1,2.096
0.706415,0.720087,0.69048,0.710894,-0.0624418,-0.0235272,-0.0610333,-0.0502817,305,252,19.7376,0.1,54.9047,0.1,2.1
0.706165,0.719977,0.690236,0.710699,-0.0626164,-0.0248691,-0.061204,-0.0497304,299,260,19.9662,0.1,55.0047,0.1,2.104
0.705914,0.719856,0.689991,0.710502,-0.0627911,-0.026685,-0.0613747,-0.049622,291,263,20.1879,0.1,55.1119,0.1,2.108
0.705663,0.719723,0.689745,0.7103,-0.0629657,-0.0288745,-0.0615454,-0.0498952,281,263,20.3999,0.1,55.2216,0.1,2.112
0.705411,0.719578,0.689498,0.710095,-0.0631404,-0.0313419,-0.0617161,-0.0503365,268,260,20.6,0.1,55.3303,0.1,2.116
0.705158,0.719433,0.689251,0.7099,-0.063315,-0.0329868,-0.0618868,-0.0497958,261,268,20.7872,0.1,55.4369,0.1,2.12
0.704904,0.719271,0.689003,0.709695,-0.0634897,-0.0354365,-0.0620575,-0.0502702,249,265,20.9654,0.1,55.55,0.1,2.124
0.70465,0.7191,0.688755,0.709487,-0.0636643,-0.0379334,-0.0622282,-0.0508744,237,262,21.1302,0.1,55.6602,0.1,2.128
0.704395,0.71892,0.688506,0.709279,-0.0638389,-0.0402315,-0.0623989,-0.0512772,225,260,21.2816,0.1,55.7661,0.1,2.132
0.704139,0.718739,0.688256,0.709079,-0.0640136,-0.0419362,-0.0625696,-0.0508259,217,266,21.4209,0.1,55.8701,0.1,2.136
0.703883,0.718543,0.688005,0.708871,-0.0641882,-0.0442819,-0.0627403,-0.0512161,206,265,21.5509,0.1,55.98,0.1,2.14
0.703626,0.71834,0.687754,0.708664,-0.0643628,-0.0464503,-0.062911,-0.0513898,195,265,21.6682,0.1,56.0879,0.1,2.144
0.703368,0.718128,0.687502,0.708455,-0.0645374,-0.0486157,-0.0630816,-0.0516496,184,265,21.7739,0.1,56.1957,0.1,2.148
0.703109,0.717901,0.687249,0.708239,-0.064712,-0.0513261,-0.0632523,-0.0524562,170,259,21.8677,0.1,56.3024,0.1,2.152
0.70285,0.717682,0.686996,0.708038,-0.0648866,-0.0524997,-0.063423,-0.0516983,165,268,21.9472,0.1,56.4036,0.1,2.156
0.70259,0.717448,0.686742,0.707829,-0.0650612,-0.0544624,-0.0635936,-0.0519128,155,269,22.0206,0.1,56.5136,0.1,2.16
0.70233,0.717195,0.686487,0.70761,-0.0652358,-0.0574408,-0.0637642,-0.0528332,139,262,22.0829,0.1,56.6228,0.1,2.164
0.702068,0.716959,0.686231,0.707408,-0.0654104,-0.0579581,-0.0639349,-0.0521224,138,271,22.13,0.1,56.7254,0.1,2.168
0.701806,0.716709,0.685975,0.707197,-0.0655849,-0.0594258,-0.0641055,-0.052282,130,271,22.1745,0.1,56.8364,0.1,2.172
0.701544,0.716449,0.685719,0.706983,-0.0657594,-0.061268,-0.0642761,-0.052705,121,269,22.2113,0.1,56.9474,0.1,2.176
0.70128,0.716183,0.685461,0.706761,-0.065934,-0.0630719,-0.0644466,-0.0536204,112,263,22.2383,0.1,57.0557,0.1,2.18
0.701016,0.715914,0.685203,0.706543,-0.0661085,-0.0644185,-0.0646172,-0.0539428,105,262,22.2559,0.1,57.1568,0.1,2.184
0.700752,0.71564,0.684944,0.706323,-0.0662829,-0.0658056,-0.0647878,-0.0542729,98,260,22.2665,0.1,57.2564,0.1,2.188
0.700486,0.715358,0.684685,0.706096,-0.0664574,-0.067335,-0.0649583,-0.0550688,91,255,22.27,0.1,57.3543,0.1,2.192
0.70022,0.715075,0.684425,0.705874,-0.0666318,-0.0684986,-0.0651288,-0.0552827,85,255,22.2656,0.1,57.4462,0.1,2.196
0.699953,0.714784,0.684164,0.705644,-0.0668063,-0.0699077,-0.0652993,-0.0559435,78,250,22.2552,0.1,57.5375,0.1,2.2
0.699685,0.714496,0.683902,0.705418,-0.0669807,-0.070588,-0.0654697,-0.0562113,75,250,22.2379,0.1,57.624,0.1,2.204
0.699417,0.714205,0.68364,0.705189,-0.067155,-0.0713582,-0.0656402,-0.056505,72,249,22.2175,0.1,57.7096,0.1,2.208
0.699148,0.713909,0.683377,0.704957,-0.0673294,-0.0722172,-0.0658106,-0.0570463,68,246,22.1936,0.1,57.7939,0.1,2.212
0.698878,0.713612,0.683113,0.704723,-0.0675037,-0.0729338,-0.065981,-0.0574647,64,244,22.1657,0.1,57.8746,0.1,2.216
0.698608,0.713314,0.682849,0.70449,-0.067678,-0.0733827,-0.0661514,-0.0577725,63,243,22.1347,0.1,57.9528,0.1,2.22
0.698337,0.713017,0.682584,0.704256,-0.0678523,-0.0737396,-0.0663217,-0.0579777,62,243,22.1022,0.1,58.0298,0.1,2.224
0.698065,0.71272,0.682319,0.70402,-0.0680266,-0.0738623,-0.0664921,-0.0583448,62,241,22.0686,0.1,58.1063,0.1,2.228
0.697793,0.712422,0.682052,0.703784,-0.0682008,-0.0740881,-0.0666624,-0.0585319,61,241,22.0353,0.1,58.181,0.1,2.232
0.69752,0.712118,0.681785,0.703543,-0.068375,-0.0747281,-0.0668326,-0.0591173,58,238,22.0016,0.1,58.2554,0.1,2.236
0.697246,0.711823,0.681518,0.703305,-0.0685492,-0.0743774,-0.0670029,-0.0592485,61,238,21.9655,0.1,58.3258,0.1,2.24
0.696971,0.711523,0.681249,0.703063,-0.0687233,-0.0745754,-0.0671731,-0.0596814,61,236,21.9323,0.1,58.3965,0.1,2.244
0.696696,0.711225,0.68098,0.70282,-0.0688974,-0.0746211,-0.0673432,-0.0600564,62,234,21.899,0.1,58.4646,0.1,2.248
0.69642,0.710927,0.680711,0.702574,-0.0690715,-0.0745076,-0.0675134,-0.0604792,63,232,21.8666,0.1,58.5307,0.1,2.252
0.696144,0.710628,0.68044,0.70233,-0.0692455,-0.0746047,-0.0676835,-0.0607034,63,232,21.8357,0.1,58.5944,0.1,2.256
0.695866,0.710329,0.680169,0.702085,-0.0694195,-0.0746982,-0.0678536,-0.0609105,64,232,21.8054,0.1,58.6576,0.1,2.26
0.695588,0.710029,0.679897,0.701838,-0.0695935,-0.0747317,-0.0680236,-0.0611925,64,231,21.7756,0.1,58.7204,0.1,2.264
0.695309,0.709728,0.679625,0.701593,-0.0697674,-0.0749268,-0.0681936,-0.0612078,64,233,21.7465,0.1,58.7822,0.1,2.268
0.69503,0.70943,0.679352,0.701349,-0.0699413,-0.0747978,-0.0683636,-0.0611316,66,235,21.7175,0.1,58.8457,0.1,2.272
0.69475,0.70913,0.679078,0.701099,-0.0701151,-0.0748269,-0.0685335,-0.0615414,67,233,21.6902,0.1,58.9114,0.1,2.276
0.694469,0.708832,0.678804,0.700853,-0.0702889,-0.07476,-0.0687034,-0.0615843,68,235,21.6638,0.1,58.9749,0.1,2.28
0.694188,0.70853,0.678528,0.700602,-0.0704627,-0.075032,-0.0688732,-0.0619584,67,233,21.6387,0.1,59.0396,0.1,2.284
0.693905,0.708224,0.678253,0.700344,-0.0706364,-0.0755013,-0.069043,-0.0627837,65,227,21.6129,0.1,59.102,0.1,2.288
0.693622,0.707932,0.677976,0.7001,-0.0708101,-0.0746626,-0.0692128,-0.062211,71,235,21.5861,0.1,59.1585,0.1,2.292
0.693339,0.707635,0.677699,0.699849,-0.0709837,-0.074564,-0.0693825,-0.062405,73,235,21.5649,0.1,59.2221,0.1,2.296
0.693055,0.707338,0.677421,0.699596,-0.0711573,-0.074412,-0.0695522,-0.0626783,74,234,21.5453,0.1,59.2855,0.1,2.3
0.69277,0.707035,0.677142,0.699335,-0.0713309,-0.0748576,-0.0697218,-0.0635227,73,228,21.5274,0.1,59.3476,0.1,2.304
0.692484,0.706751,0.676863,0.699087,-0.0715044,-0.0736,-0.0698914,-0.0629915,81,235,21.5088,0.1,59.4036,0.1,2.308
0.692198,0.706459,0.676583,0.698833,-0.0716779,-0.073395,-0.070061,-0.0631845,83,235,21.4982,0.1,59.4663,0.1,2.312
0.691911,0.706168,0.676303,0.698577,-0.0718513,-0.0731432,-0.0702305,-0.0634283,86,234,21.4899,0.1,59.5288,0.1,2.316
0.691623,0.705881,0.676021,0.698319,-0.0720246,-0.0727162,-0.0703999,-0.0637923,89,233,21.4843,0.1,59.5905,0.1,2.32
0.691334,0.705595,0.67574,0.698061,-0.0721979,-0.0722587,-0.0705693,-0.0640063,93,232,21.4823,0.1,59.6503,0.1,2.324
0.691045,0.705314,0.675457,0.697805,-0.0723712,-0.0716083,-0.0707387,-0.0640625,97,234,21.4842,0.1,59.7098,0.1,2.328
0.690755,0.705034,0.675174,0.697543,-0.0725444,-0.0711171,-0.070908,-0.0645318,101,231,21.491,0.1,59.7703,0.1,2.332
0.690465,0.704756,0.67489,0.697281,-0.0727176,-0.0705881,-0.0710772,-0.064816,106,230,21.5018,0.1,59.8278,0.1,2.336
0.690174,0.704481,0.674605,0.69702,-0.0728907,-0.0699475,-0.0712464,-0.0650054,110,230,21.5169,0.1,59.8843,0.1,2.34
0.689882,0.70421,0.67432,0.696757,-0.0730637,-0.0692038,-0.0714156,-0.0651892,116,230,21.537,0.1,59.9406,0.1,2.344
0.689589,0.703942,0.674034,0.696495,-0.0732367,-0.0684488,-0.0715847,-0.0653694,121,230,21.5626,0.1,59.9968,0.1,2.348
0.689296,0.703667,0.673747,0.696222,-0.0734096,-0.0686077,-0.0717537,-0.0663244,122,223,21.5934,0.1,60.0525,0.1,2.352
0.689002,0.703413,0.67346,0.695965,-0.0735825,-0.066871,-0.0719227,-0.0656367,133,232,21.6253,0.1,60.1011,0.1,2.356
0.688707,0.703156,0.673172,0.695697,-0.0737553,-0.0660011,-0.0720916,-0.0660132,139,230,21.6682,0.1,60.1579,0.1,2.36
0.688412,0.702903,0.672883,0.695426,-0.0739281,-0.0650469,-0.0722604,-0.0666673,146,225,21.7175,0.1,60.2124,0.1,2.364
0.688116,0.702656,0.672594,0.695153,-0.0741008,-0.0639501,-0.0724292,-0.0671897,154,222,21.7737,0.1,60.2621,0.1,2.368
0.687819,0.702417,0.672303,0.694879,-0.0742734,-0.0625855,-0.072598,-0.0675955,163,220,21.8378,0.1,60.3084,0.1,2.372
0.687522,0.702181,0.672013,0.694603,-0.074446,-0.0613591,-0.0727667,-0.0680676,171,217,21.9111,0.1,60.3523,0.1,2.376
0.687223,0.701953,0.671721,0.694329,-0.0746185,-0.0599081,-0.0729353,-0.0682384,181,217,21.9931,0.1,60.3934,0.1,2.38
0.686925,0.701729,0.671429,0.694051,-0.0747909,-0.058624,-0.0731038,-0.0686402,190,215,22.0848,0.1,60.4343,0.1,2.384
0.686625,0.701516,0.671137,0.693782,-0.0749633,-0.0568755,-0.0732723,-0.0681595,202,222,22.1856,0.1,60.4733,0.1,2.388
0.686325,0.701303,0.670843,0.693512,-0.0751356,-0.0556234,-0.0734408,-0.0679541,211,226,22.2979,0.1,60.5188,0.1,2.392
0.686024,0.701097,0.670549,0.69324,-0.0753079,-0.0542417,-0.0736091,-0.0679612,220,227,22.4189,0.1,60.5679,0.1,2.396
0.685722,0.700892,0.670254,0.69297,-0.0754801,-0.0532341,-0.0737774,-0.067822,228,231,22.5493,0.1,60.6187,0.1,2.4
0.68542,0.700693,0.669959,0.692698,-0.0756522,-0.0521018,-0.0739457,-0.0679019,236,232,22.6869,0.1,60.6725,0.1,2.404
0.685117,0.700497,0.669663,0.692424,-0.0758242,-0.0510878,-0.0741138,-0.0680416,244,232,22.8324,0.1,60.7272,0.1,2.408
0.684814,0.700294,0.669366,0.692136,-0.0759962,-0.0509876,-0.0742819,-0.0693727,246,221,22.9848,0.1,60.7816,0.1,2.412
0.684509,0.700113,0.669068,0.691868,-0.0761681,-0.0490206,-0.0744499,-0.0685614,259,231,23.1399,0.1,60.8255,0.1,2.416
0.684204,0.699927,0.66877,0.691589,-0.0763399,-0.0481987,-0.0746179,-0.0689995,266,228,23.3075,0.1,60.8786,0.1,2.42
0.683899,0.699745,0.668471,0.691306,-0.0765117,-0.0473053,-0.0747858,-0.0695794,273,225,23.4812,0.1,60.9289,0.1,2.424
0.683592,0.699564,0.668172,0.691022,-0.0766834,-0.0465945,-0.0749536,-0.0700524,279,222,23.6614,0.1,60.9751,0.1,2.428
0.683285,0.699385,0.667872,0.690733,-0.076855,-0.0460343,-0.0751213,-0.070742,284,217,23.8471,0.1,61.0182,0.1,2.432
0.682977,0.69921,0.667571,0.690446,-0.0770265,-0.0452289,-0.075289,-0.0711442,291,215,24.0374,0.1,61.0562,0.1,2.436
0.682669,0.699038,0.66727,0.690159,-0.077198,-0.0444905,-0.0754566,-0.0712971,297,215,24.2338,0.1,61.0921,0.1,2.44
0.68236,0.698864,0.666967,0.68987,-0.0773693,-0.0441998,-0.0756241,-0.0716294,301,214,24.4356,0.1,61.128,0.1,2.444
0.68205,0.698694,0.666665,0.689584,-0.0775406,-0.0436028,-0.0757915,-0.071563,307,216,24.6406,0.1,61.1625,0.1,2.448
0.681739,0.698525,0.666361,0.6893,-0.0777119,-0.0431473,-0.0759589,-0.0714324,311,219,24.8503,0.1,61.1994,0.1,2.452
0.681428,0.698357,0.666057,0.68901,-0.077883,-0.0427861,-0.0761262,-0.0717196,315,218,25.0638,0.1,61.2391,0.1,2.456
0.681116,0.698191,0.665752,0.688723,-0.0780541,-0.0423149,-0.0762934,-0.0717959,320,219,25.2809,0.1,61.2777,0.1,2.46
0.680804,0.698022,0.665447,0.688424,-0.078225,-0.0423463,-0.0764605,-0.0727393,322,212,25.5017,0.1,61.3168,0.1,2.464
0.680491,0.697865,0.66514,0.688142,-0.0783959,-0.0413019,-0.0766275,-0.0720151,330,220,25.7241,0.1,61.349,0.1,2.468
0.680177,0.697704,0.664833,0.68785,-0.0785667,-0.0408936,-0.0767945,-0.0723096,335,219,25.9537,0.1,61.3896,0.1,2.472
0.679862,0.697547,0.664526,0.687556,-0.0787375,-0.0403911,-0.0769613,-0.0727363,340,217,26.1871,0.1,61.4289,0.1,2.476
0.679547,0.697387,0.664218,0.687261,-0.0789081,-0.0402864,-0.0771281,-0.0730495,343,216,26.4245,0.1,61.4656,0.1,2.48
0.679231,0.697229,0.663909,0.686961,-0.0790787,-0.040015,-0.0772948,-0.073719,347,211,26.6639,0.1,61.5007,0.1,2.484
0.678914,0.69707,0.663599,0.686661,-0.0792491,-0.0398917,-0.0774615,-0.0741365,350,209,26.906,0.1,61.531,0.1,2.488
0.678597,0.696914,0.663289,0.686363,-0.0794195,-0.0396368,-0.077628,-0.0742997,353,209,27.1502,0.1,61.5588,0.1,2.492
0.678279,0.696752,0.662978,0.686056,-0.0795898,-0.0398987,-0.0777945,-0.0750707,354,203,27.3969,0.1,61.5865,0.1,2.496
0.67796,0.696592,0.662667,0.685754,-0.07976,-0.0399581,-0.0779608,-0.075268,356,203,27.6433,0.1,61.6083,0.1,2.5
0.677641,0.696432,0.662355,0.685448,-0.0799301,-0.0399689,-0.0781271,-0.075601,358,201,27.8906,0.1,61.6298,0.1,2.504
0.677321,0.69627,0.662042,0.685142,-0.0801001,-0.0401489,-0.0782933,-0.0759382,359,200,28.139,0.1,61.6497,0.1,2.508
0.677,0.696109,0.661728,0.684835,-0.0802701,-0.0401825,-0.0784594,-0.0762494,361,198,28.3876,0.1,61.6678,0.1,2.512
0.676678,0.695944,0.661414,0.68453,-0.0804399,-0.0405216,-0.0786254,-0.0762265,361,200,28.637,0.1,61.6847,0.1,2.516
0.676356,0.695782,0.661099,0.684225,-0.0806096,-0.0405173,-0.0787913,-0.0762113,364,202,28.8857,0.1,61.7035,0.1,2.52
0.676034,0.695614,0.660784,0.683922,-0.0807793,-0.041004,-0.0789571,-0.0760572,363,205,29.1355,0.1,61.7243,0.1,2.524
0.67571,0.695447,0.660468,0.683621,-0.0809488,-0.0412708,-0.0791228,-0.0758105,364,209,29.3836,0.1,61.7482,0.1,2.528
0.675386,0.695276,0.660151,0.68332,-0.0811183,-0.0417654,-0.0792884,-0.0755884,363,213,29.6311,0.1,61.7764,0.1,2.532
0.675061,0.695105,0.659833,0.683022,-0.0812876,-0.0420663,-0.079454,-0.0752388,363,218,29.8769,0.1,61.8085,0.1,2.536
0.674736,0.694935,0.659515,0.682723,-0.0814569,-0.0422381,-0.0796194,-0.0750922,365,222,30.1222,0.1,61.8456,0.1,2.54
0.674409,0.694767,0.659196,0.682424,-0.081626,-0.0421223,-0.0797847,-0.0749944,368,224,30.3677,0.1,61.8859,0.1,2.544
0.674083,0.694596,0.658877,0.682123,-0.0817951,-0.0423043,-0.07995,-0.0750444,369,226,30.6151,0.1,61.9288,0.1,2.548
0.673755,0.69443,0.658557,0.681819,-0.081964,-0.0420513,-0.0801151,-0.0753368,372,225,30.8627,0.1,61.9727,0.1,2.552
0.673427,0.694263,0.658236,0.681514,-0.0821329,-0.0419978,-0.0802802,-0.0757045,375,223,31.113,0.1,62.0153,0.1,2.556
0.673098,0.694095,0.657915,0.681204,-0.0823016,-0.0419333,-0.0804451,-0.0762375,378,219,31.3648,0.1,62.0558,0.1,2.56
0.672769,0.693925,0.657593,0.680894,-0.0824703,-0.0421207,-0.0806099,-0.0767369,379,216,31.6182,0.1,62.0926,0.1,2.564
0.672438,0.693754,0.65727,0.680578,-0.0826388,-0.042332,-0.0807747,-0.0774152,380,211,31.8716,0.1,62.126,0.1,2.568
0.672107,0.693583,0.656946,0.680264,-0.0828072,-0.0425304,-0.0809393,-0.0777811,381,210,32.1249,0.1,62.1545,0.1,2.572
0.671776,0.69341,0.656622,0.679947,-0.0829756,-0.0427203,-0.0811038,-0.0782841,382,206,32.3783,0.1,62.1809,0.1,2.576
0.671444,0.693238,0.656297,0.67963,-0.0831438,-0.0428756,-0.0812683,-0.0786195,383,205,32.6317,0.1,62.2039,0.1,2.58
0.671111,0.693064,0.655972,0.679312,-0.0833119,-0.0430656,-0.0814326,-0.0789006,384,204,32.8854,0.1,62.2254,0.1,2.584
0.670777,0.692891,0.655646,0.678994,-0.0834799,-0.0431347,-0.0815968,-0.0791169,386,203,33.1392,0.1,62.2457,0.1,2.588
0.670443,0.692714,0.655319,0.678677,-0.0836478,-0.0434974,-0.0817609,-0.0791459,386,205,33.3936,0.1,62.2655,0.1,2.592
0.670108,0.692536,0.654992,0.678359,-0.0838156,-0.0437968,-0.0819249,-0.0792803,387,205,33.6471,0.1,62.2867,0.1,2.596
0.669772,0.692351,0.654664,0.678035,-0.0839833,-0.0446298,-0.0820888,-0.0798595,384,201,33.8997,0.1,62.308,0.1,2.6
0.669436,0.692175,0.654335,0.677724,-0.0841508,-0.0444078,-0.0822526,-0.0791515,388,210,34.1489,0.1,62.3258,0.1,2.604
0.669099,0.691995,0.654006,0.677409,-0.0843183,-0.0446053,-0.0824163,-0.0789962,389,213,34.4005,0.1,62.3521,0.1,2.608
0.668762,0.691813,0.653676,0.677094,-0.0844856,-0.0448809,-0.0825798,-0.0789502,389,215,34.652,0.1,62.3815,0.1,2.612
0.668423,0.691631,0.653345,0.676777,-0.0846528,-0.045151,-0.0827433,-0.0790636,390,216,34.903,0.1,62.413,0.1,2.616
0.668084,0.691449,0.653014,0.67646,-0.0848199,-0.0452735,-0.0829066,-0.0791103,392,217,35.1537,0.1,62.445,0.1,2.62
0.667745,0.691268,0.652682,0.676141,-0.0849869,-0.04524,-0.0830698,-0.079343,394,216,35.4049,0.1,62.4781,0.1,2.624
0.667404,0.691086,0.652349,0.67582,-0.0851538,-0.045304,-0.0832329,-0.0796133,396,215,35.6576,0.1,62.5105,0.1,2.628
0.667063,0.690903,0.652016,0.675494,-0.0853205,-0.0454906,-0.0833959,-0.0802254,397,211,35.9109,0.1,62.5416,0.1,2.632
0.666722,0.690716,0.651682,0.67516,-0.0854872,-0.0458742,-0.0835588,-0.0812956,397,202,36.1643,0.1,62.568,0.1,2.636
0.66638,0.690542,0.651348,0.674843,-0.0856537,-0.0450934,-0.0837216,-0.0806847,404,210,36.4171,0.1,62.5862,0.1,2.64
0.666037,0.690353,0.651012,0.674505,-0.0858201,-0.0457821,-0.0838842,-0.0819186,402,200,36.6752,0.1,62.6112,0.1,2.644
0.665693,0.690177,0.650677,0.674185,-0.0859864,-0.0452336,-0.0840467,-0.0813016,408,207,36.9309,0.1,62.6265,0.1,2.648
0.665349,0.689992,0.65034,0.673854,-0.0861525,-0.0455589,-0.0842091,-0.081754,408,205,37.1909,0.1,62.649,0.1,2.652
0.665004,0.689808,0.650003,0.673521,-0.0863185,-0.0456893,-0.0843714,-0.0822283,410,202,37.4501,0.1,62.6687,0.1,2.656
0.664658,0.689622,0.649665,0.673191,-0.0864844,-0.0459779,-0.0845336,-0.0823718,410,202,37.7097,0.1,62.6854,0.1,2.66
0.664312,0.689436,0.649327,0.672857,-0.0866502,-0.0461702,-0.0846956,-0.0826978,411,200,37.9688,0.1,62.7021,0.1,2.664
0.663965,0.68925,0.648988,0.672524,-0.0868159,-0.0462697,-0.0848575,-0.0828863,413,200,38.228,0.1,62.7174,0.1,2.668
0.663617,0.689064,0.648648,0.67219,-0.0869814,-0.0463648,-0.0850193,-0.0830984,415,200,38.4877,0.1,62.7323,0.1,2.672
0.663269,0.688874,0.648307,0.671855,-0.0871468,-0.0467448,-0.085181,-0.0833261,415,199,38.748,0.1,62.7468,0.1,2.676
0.66292,0.688687,0.647966,0.67152,-0.0873121,-0.0466815,-0.0853425,-0.0834779,418,199,39.0074,0.1,62.7607,0.1,2.68
0.662571,0.688499,0.647625,0.671184,-0.0874772,-0.0468409,-0.085504,-0.0836367,419,199,39.2684,0.1,62.7746,0.1,2.684
0.66222,0.688306,0.647282,0.670839,-0.0876422,-0.0472926,-0.0856653,-0.0844912,418,193,39.5294,0.1,62.7882,0.1,2.688
0.661869,0.688116,0.646939,0.670505,-0.0878071,-0.0473346,-0.0858264,-0.0842258,421,197,39.789,0.1,62.7955,0.1,2.692
0.661518,0.687933,0.646596,0.67018,-0.0879719,-0.0468732,-0.0859875,-0.0831852,426,208,40.0499,0.1,62.8075,0.1,2.696
0.661166,0.687743,0.646251,0.669848,-0.0881365,-0.047055,-0.0861484,-0.0831537,427,210,40.3146,0.1,62.831,0.1,2.7
0.660813,0.68755,0.645907,0.669516,-0.088301,-0.0474353,-0.0863091,-0.0831039,427,212,40.5793,0.1,62.8565,0.1,2.704
0.660459,0.687355,0.645561,0.66918,-0.0884654,-0.0478904,-0.0864698,-0.0833586,426,212,40.8428,0.1,62.8839,0.1,2.708
0.660105,0.687156,0.645215,0.668848,-0.0886296,-0.0485393,-0.0866303,-0.0832693,425,214,41.1046,0.1,62.9106,0.1,2.712
0.65975,0.686955,0.644868,0.668512,-0.0887937,-0.0490295,-0.0867907,-0.0834688,424,214,41.3636,0.1,62.9397,0.1,2.716
0.659395,0.686743,0.64452,0.668165,-0.0889576,-0.0503927,-0.086951,-0.0846383,418,204,41.6204,0.1,62.9678,0.1,2.72
0.659039,0.686543,0.644172,0.667834,-0.0891214,-0.0502651,-0.0871111,-0.0839497,421,213,41.8706,0.1,62.9868,0.1,2.724
0.658682,0.686332,0.643824,0.667491,-0.0892851,-0.0510725,-0.0872711,-0.0845558,419,208,42.1223,0.1,63.0137,0.1,2.728
0.658324,0.686116,0.643474,0.667143,-0.0894487,-0.0520427,-0.0874309,-0.085363,415,202,42.3701,0.1,63.036,0.1,2.732
0.657966,0.685903,0.643124,0.6668,-0.0896121,-0.0524591,-0.0875906,-0.0855557,415,202,42.6133,0.1,63.0522,0.1,2.736
0.657607,0.685684,0.642773,0.666451,-0.0897753,-0.053255,-0.0877502,-0.0861159,412,198,42.8549,0.1,63.0678,0.1,2.74
0.657248,0.685461,0.642422,0.666101,-0.0899384,-0.0540735,-0.0879097,-0.086547,409,195,43.0927,0.1,63.0795,0.1,2.744
0.656888,0.685231,0.64207,0.665748,-0.0901014,-0.0551662,-0.088069,-0.0870936,405,192,43.3265,0.1,63.0885,0.1,2.748
0.656527,0.684998,0.641718,0.665398,-0.0902643,-0.0562113,-0.0882281,-0.0872852,401,191,43.5546,0.1,63.0937,0.1,2.752
0.656166,0.684761,0.641364,0.665046,-0.090427,-0.0572536,-0.0883871,-0.0874705,396,191,43.7774,0.1,63.0987,0.1,2.756
0.655804,0.684518,0.64101,0.664695,-0.0905895,-0.0584379,-0.088546,-0.087594,391,191,43.9947,0.1,63.1034,0.1,2.76
0.655441,0.684272,0.640656,0.664344,-0.0907519,-0.0594289,-0.0887048,-0.0876476,387,192,44.2058,0.1,63.1085,0.1,2.764
0.655078,0.684026,0.640301,0.663995,-0.0909142,-0.0601184,-0.0888634,-0.0875106,385,195,44.4121,0.1,63.1148,0.1,2.768
0.654714,0.683776,0.639945,0.663644,-0.0910763,-0.0609236,-0.0890218,-0.087592,382,196,44.6151,0.1,63.124,0.1,2.772
0.654349,0.683525,0.639589,0.663295,-0.0912383,-0.0614891,-0.0891802,-0.0874447,381,199,44.8143,0.1,63.134,0.1,2.776
0.653984,0.683264,0.639232,0.662934,-0.0914001,-0.0627587,-0.0893383,-0.088383,375,192,45.0108,0.1,63.1466,0.1,2.78
0.653618,0.683018,0.638874,0.662593,-0.0915618,-0.0623959,-0.0894963,-0.0873386,379,203,45.2013,0.1,63.1523,0.1,2.784
0.653251,0.682761,0.638516,0.662242,-0.0917233,-0.0629889,-0.0896542,-0.0875061,378,203,45.3948,0.1,63.1695,0.1,2.788
0.652884,0.6825,0.638157,0.661891,-0.0918847,-0.0637585,-0.089812,-0.0875602,375,204,45.5857,0.1,63.1867,0.1,2.792
0.652516,0.682238,0.637797,0.661538,-0.0920459,-0.0643292,-0.0899696,-0.087769,373,204,45.773,0.1,63.2049,0.1,2.796
0.652148,0.681975,0.637437,0.661185,-0.092207,-0.0647672,-0.090127,-0.0879658,373,203,45.9579,0.1,63.2225,0.1,2.8
0.651779,0.681711,0.637076,0.660833,-0.0923679,-0.0652032,-0.0902843,-0.0880106,372,205,46.1412,0.1,63.2398,0.1,2.804
0.651409,0.681446,0.636715,0.660482,-0.0925286,-0.0655802,-0.0904414,-0.0879253,371,207,46.323,0.1,63.2584,0.1,2.808
0.651038,0.681173,0.636353,0.66012,-0.0926893,-0.0664362,-0.0905984,-0.0887322,368,201,46.5033,0.1,63.2789,0.1,2.812
0.650667,0.680915,0.63599,0.659782,-0.0928497,-0.0657688,-0.0907553,-0.0873699,374,216,46.6802,0.1,63.294,0.1,2.816
0.650296,0.680651,0.635627,0.659433,-0.09301,-0.0658422,-0.0909119,-0.0872966,376,218,46.8621,0.1,63.3237,0.1,2.82
0.649923,0.680384,0.635263,0.659085,-0.0931702,-0.0661789,-0.0910685,-0.0871614,375,221,47.0446,0.1,63.3558,0.1,2.824
0.64955,0.680116,0.634898,0.658736,-0.0933302,-0.0664035,-0.0912249,-0.0871865,376,222,47.2262,0.1,63.3907,0.1,2.828
0.649177,0.679846,0.634533,0.658384,-0.09349,-0.0667835,-0.0913811,-0.087491,376,221,47.4075,0.1,63.4268,0.1,2.832
0.648802,0.67957,0.634167,0.658027,-0.0936497,-0.0675839,-0.0915372,-0.0880684,372,217,47.5873,0.1,63.4613,0.1,2.836
0.648427,0.679299,0.6338,0.657679,-0.0938092,-0.067628,-0.0916931,-0.0877335,374,222,47.7636,0.1,63.4921,0.1,2.84
0.648052,0.679019,0.633433,0.657322,-0.0939685,-0.068406,-0.0918488,-0.0882588,371,218,47.9404,0.1,63.5273,0.1,2.844
0.647676,0.678738,0.633066,0.656963,-0.0941277,-0.0690398,-0.0920044,-0.088753,369,215,48.1135,0.1,63.5589,0.1,2.848
0.647299,0.678454,0.632697,0.656602,-0.0942868,-0.0696351,-0.0921599,-0.0891976,367,213,48.2838,0.1,63.5871,0.1,2.852
0.646921,0.678167,0.632328,0.65624,-0.0944456,-0.0704062,-0.0923152,-0.0896955,364,209,48.4513,0.1,63.6124,0.1,2.856
0.646543,0.677879,0.631959,0.655874,-0.0946044,-0.0708627,-0.0924703,-0.090229,363,206,48.6152,0.1,63.6342,0.1,2.86
0.646165,0.677591,0.631589,0.65551,-0.0947629,-0.071311,-0.0926253,-0.0905559,363,204,48.7774,0.1,63.6523,0.1,2.864
0.645785,0.677299,0.631218,0.65514,-0.0949213,-0.0718402,-0.0927801,-0.0912057,361,199,48.9379,0.1,63.6686,0.1,2.868
0.645405,0.67701,0.630846,0.654775,-0.0950795,-0.0719627,-0.0929347,-0.091207,362,201,49.0964,0.1,63.6803,0.1,2.872
0.645025,0.676717,0.630474,0.654406,-0.0952375,-0.0723898,-0.0930892,-0.0915534,361,199,49.255,0.1,63.6933,0.1,2.876
0.644643,0.67642,0.630102,0.654033,-0.0953954,-0.0729913,-0.0932435,-0.0921298,359,195,49.4121,0.1,63.7043,0.1,2.88
0.644261,0.676126,0.629728,0.653663,-0.0955532,-0.0731619,-0.0933977,-0.0922261,360,196,49.5667,0.1,63.7113,0.1,2.884
0.643879,0.675834,0.629355,0.653297,-0.0957107,-0.073103,-0.0935517,-0.0919449,362,200,49.7215,0.1,63.7191,0.1,2.888
0.643496,0.675539,0.62898,0.652925,-0.0958681,-0.0733515,-0.0937055,-0.092362,363,197,49.8776,0.1,63.7309,0.1,2.892
0.643112,0.675241,0.628605,0.652551,-0.0960253,-0.0737188,-0.0938592,-0.0926977,362,196,50.0333,0.1,63.7401,0.1,2.896
0.642727,0.674943,0.628229,0.652176,-0.0961823,-0.0739924,-0.0940127,-0.0930942,362,193,50.1879,0.1,63.7475,0.1,2.9
0.642342,0.674642,0.627853,0.6518,-0.0963392,-0.074434,-0.094166,-0.0933297,361,192,50.3417,0.1,63.7525,0.1,2.904
0.641957,0.674337,0.627476,0.651424,-0.0964959,-0.0750162,-0.0943192,-0.0935443,359,192,50.4939,0.1,63.7568,0.1,2.908
0.64157,0.67403,0.627098,0.651048,-0.0966524,-0.0755772,-0.0944722,-0.093745,358,191,50.6434,0.1,63.7604,0.1,2.912
0.641184,0.673712,0.62672,0.650659,-0.0968088,-0.07693,-0.094625,-0.0948865,351,182,50.7901,0.1,63.7631,0.1,2.916
0.640796,0.673408,0.626341,0.650292,-0.096965,-0.0765651,-0.0947777,-0.0938912,355,193,50.9302,0.1,63.757,0.1,2.92
0.640408,0.673095,0.625962,0.649915,-0.097121,-0.077128,-0.0949302,-0.094005,353,193,51.0732,0.1,63.7618,0.1,2.924
0.640019,0.67278,0.625582,0.649537,-0.0972768,-0.077676,-0.0950825,-0.0941673,352,193,51.2138,0.1,63.767,0.1,2.928
0.63963,0.672456,0.625201,0.64915,-0.0974325,-0.0788187,-0.0952346,-0.0949664,346,187,51.3517,0.1,63.7717,0.1,2.932
0.63924,0.672148,0.62482,0.648784,-0.0975879,-0.0782273,-0.0953866,-0.0938581,351,199,51.4844,0.1,63.771,0.1,2.936
0.638849,0.671828,0.624438,0.64841,-0.0977432,-0.0787831,-0.0955384,-0.0937239,350,202,51.6213,0.1,63.7824,0.1,2.94
0.638458,0.671507,0.624056,0.648035,-0.0978984,-0.0792976,-0.09569,-0.0937495,348,203,51.7559,0.1,63.7966,0.1,2.944
0.638066,0.671185,0.623673,0.647662,-0.0980533,-0.079727,-0.0958415,-0.0935939,347,206,51.8883,0.1,63.8122,0.1,2.948
0.637673,0.670861,0.623289,0.647287,-0.0982081,-0.0800709,-0.0959927,-0.0936629,347,207,52.0191,0.1,63.8308,0.1,2.952
0.63728,0.670539,0.622905,0.646911,-0.0983626,-0.0802713,-0.0961438,-0.0937376,347,208,52.1489,0.1,63.8501,0.1,2.956
0.636886,0.670216,0.62252,0.646532,-0.098517,-0.0804337,-0.0962947,-0.0940754,348,206,52.2786,0.1,63.8701,0.1,2.96
0.636492,0.669893,0.622134,0.646153,-0.0986713,-0.0804844,-0.0964455,-0.0943006,349,205,52.4084,0.1,63.8883,0.1,2.964
0.636097,0.669562,0.621748,0.645765,-0.0988253,-0.0812956,-0.096596,-0.0951993,346,198,52.5386,0.1,63.9054,0.1,2.968
0.635701,0.66925,0.621361,0.645399,-0.0989792,-0.0801377,-0.0967464,-0.093927,355,212,52.6659,0.1,63.9161,0.1,2.972
0.635305,0.668926,0.620974,0.645021,-0.0991328,-0.0804886,-0.0968966,-0.0941728,354,211,52.8009,0.1,63.9404,0.1,2.976
0.634908,0.668599,0.620586,0.644644,-0.0992863,-0.0808665,-0.0970467,-0.0941928,353,213,52.9348,0.1,63.9638,0.1,2.98
0.634511,0.668258,0.620198,0.644252,-0.0994396,-0.0823276,-0.0971965,-0.0954153,346,202,53.0668,0.1,63.9879,0.1,2.984
0.634113,0.667938,0.619809,0.643884,-0.0995927,-0.0816031,-0.0973462,-0.0943301,352,214,53.1917,0.1,64.0024,0.1,2.988
0.633714,0.667604,0.619419,0.643503,-0.0997457,-0.0821853,-0.0974956,-0.0946143,350,213,53.3216,0.1,64.0286,0.1,2.992
0.633315,0.667269,0.619029,0.643119,-0.0998984,-0.0827462,-0.0976449,-0.0950629,348,210,53.4489,0.1,64.0534,0.1,2.996
0.632915,0.666922,0.618638,0.642724,-0.100051,-0.0840414,-0.097794,-0.0963409,342,199,53.5733,0.1,64.0748,0.1,3
0.632514,0.666593,0.618246,0.642347,-0.100203,-0.0834366,-0.097943,-0.0956094,347,208,53.6915,0.1,64.0859,0.1,3.004
0.632113,0.666255,0.617854,0.641964,-0.100355,-0.0838107,-0.0980917,-0.0956975,346,209,53.8141,0.1,64.1054,0.1,3.008
0.631712,0.665916,0.617462,0.641579,-0.100507,-0.0840889,-0.0982403,-0.0958426,346,209,53.9356,0.1,64.1255,0.1,3.012
0.631309,0.665577,0.617068,0.641192,-0.100659,-0.0843607,-0.0983886,-0.0961409,346,207,54.0563,0.1,64.1456,0.1,3.016
0.630906,0.66524,0.616675,0.640804,-0.100811,-0.0843117,-0.0985368,-0.0964262,348,206,54.1766,0.1,64.1641,0.1,3.02
0.630503,0.664905,0.61628,0.640417,-0.100962,-0.084135,-0.0986848,-0.0965012,351,207,54.2984,0.1,64.1814,0.1,3.024
0.630099,0.664574,0.615885,0.640031,-0.101113,-0.0836717,-0.0988326,-0.0965224,355,208,54.4226,0.1,64.1995,0.1,3.028
0.629694,0.664243,0.615489,0.639643,-0.101265,-0.0833628,-0.0989802,-0.0966804,359,208,54.551,0.1,64.2187,0.1,3.032
0.629288,0.663913,0.615093,0.639255,-0.101415,-0.0830993,-0.0991277,-0.0967858,362,208,54.6825,0.1,64.2379,0.1,3.036
0.628882,0.663582,0.614696,0.638865,-0.101566,-0.0829237,-0.0992749,-0.0970288,365,208,54.8168,0.1,64.2575,0.1,3.04
0.628476,0.663253,0.614299,0.638476,-0.101716,-0.082749,-0.0994219,-0.0971045,368,208,54.9534,0.1,64.2761,0.1,3.044
0.628069,0.662922,0.613901,0.638085,-0.101867,-0.0827477,-0.0995688,-0.0973276,369,208,55.0922,0.1,64.2955,0.1,3.048
0.627661,0.662585,0.613502,0.637691,-0.102017,-0.0832651,-0.0997155,-0.0977068,368,205,55.2319,0.1,64.314,0.1,3.052
0.627253,0.662256,0.613103,0.637307,-0.102167,-0.0828902,-0.0998619,-0.0971533,372,212,55.3699,0.1,64.3307,0.1,3.056
0.626844,0.661919,0.612704,0.636916,-0.102316,-0.0833601,-0.100008,-0.0973314,371,212,55.511,0.1,64.354,0.1,3.06
0.626434,0.661578,0.612303,0.636525,-0.102466,-0.0839612,-0.100154,-0.0975365,369,212,55.65,0.1,64.3771,0.1,3.064
0.626024,0.661224,0.611902,0.636121,-0.102615,-0.0854561,-0.1003,-0.0986522,361,202,55.7858,0.1,64.399,0.1,3.068
0.625613,0.660888,0.611501,0.635741,-0.102764,-0.0849843,-0.100446,-0.0974093,365,216,55.9139,0.1,64.4125,0.1,3.072
0.625202,0.660538,0.611099,0.635349,-0.102913,-0.0858214,-0.100591,-0.097646,362,215,56.0455,0.1,64.4391,0.1,3.076
0.62479,0.660184,0.610696,0.634956,-0.103061,-0.086725,-0.100737,-0.0978614,358,214,56.1727,0.1,64.4649,0.1,3.08
0.624377,0.659828,0.610293,0.634563,-0.10321,-0.0874713,-0.100882,-0.0979762,354,215,56.2952,0.1,64.49,0.1,3.084
0.623964,0.659471,0.609889,0.63417,-0.103358,-0.0881128,-0.101027,-0.0980816,352,215,56.4138,0.1,64.5154,0.1,3.088
0.62355,0.659112,0.609485,0.633772,-0.103506,-0.0886556,-0.101171,-0.0984973,350,213,56.5294,0.1,64.5411,0.1,3.092
0.623136,0.658752,0.60908,0.633372,-0.103654,-0.0890751,-0.101316,-0.0990047,349,209,56.6426,0.1,64.564,0.1,3.096
0.622721,0.6584,0.608674,0.632979,-0.103802,-0.0887502,-0.10146,-0.098796,353,213,56.7545,0.1,64.5836,0.1,3.1
0.622306,0.658044,0.608268,0.632581,-0.103949,-0.0888214,-0.101604,-0.0990312,354,212,56.8695,0.1,64.6065,0.1,3.104
0.62189,0.657687,0.607861,0.632183,-0.104096,-0.0889265,-0.101748,-0.0991303,355,212,56.9852,0.1,64.6286,0.1,3.108
0.621473,0.657331,0.607454,0.631787,-0.104243,-0.0889966,-0.101892,-0.0990813,356,214,57.1012,0.1,64.6512,0.1,3.112
0.621056,0.656968,0.607046,0.631391,-0.10439,-0.0895903,-0.102035,-0.099135,353,215,57.2177,0.1,64.6758,0.1,3.116
0.620638,0.656613,0.606638,0.631001,-0.104537,-0.0892952,-0.102179,-0.0985086,357,223,57.3318,0.1,64.7016,0.1,3.12
0.620219,0.656252,0.606229,0.630611,-0.104683,-0.0895878,-0.102322,-0.0982061,357,227,57.4486,0.1,64.7349,0.1,3.124
0.6198,0.655891,0.605819,0.630219,-0.104829,-0.0898117,-0.102465,-0.0981197,357,230,57.5647,0.1,64.7727,0.1,3.128
0.619381,0.655528,0.605409,0.629825,-0.104975,-0.0901338,-0.102607,-0.0982348,356,230,57.6803,0.1,64.8126,0.1,3.132
0.618961,0.655167,0.604998,0.62943,-0.105121,-0.0901757,-0.10275,-0.0984267,357,230,57.795,0.1,64.8527,0.1,3.136
0.61854,0.654804,0.604587,0.629034,-0.105266,-0.0903764,-0.102892,-0.098641,358,229,57.9105,0.1,64.8924,0.1,3.14
0.618118,0.654437,0.604175,0.628635,-0.105412,-0.0908269,-0.103034,-0.0990429,356,227,58.0256,0.1,64.9313,0.1,3.144
0.617697,0.654068,0.603763,0.628232,-0.105557,-0.0912712,-0.103176,-0.0995701,355,223,58.1388,0.1,64.9675,0.1,3.148
0.617274,0.653702,0.60335,0.627832,-0.105702,-0.091337,-0.103317,-0.0996911,356,224,58.2503,0.1,65,0.1,3.152
0.616851,0.653333,0.602936,0.627429,-0.105847,-0.0916689,-0.103459,-0.100031,356,222,58.3624,0.1,65.0326,0.1,3.156
0.616427,0.652963,0.602522,0.627025,-0.105991,-0.0919189,-0.1036,-0.100401,356,220,58.4734,0.1,65.0633,0.1,3.16
0.616003,0.652581,0.602107,0.626606,-0.106135,-0.0931796,-0.103741,-0.1018,349,208,58.5832,0.1,65.0911,0.1,3.164
0.615578,0.652216,0.601692,0.626207,-0.106279,-0.0924941,-0.103882,-0.101149,355,215,58.6869,0.1,65.1074,0.1,3.168
0.615153,0.65185,0.601276,0.625806,-0.106423,-0.0921524,-0.104022,-0.100888,359,219,58.796,0.1,65.1314,0.1,3.172
0.614727,0.651478,0.60086,0.625398,-0.106567,-0.0924427,-0.104163,-0.101203,358,218,58.9082,0.1,65.1592,0.1,3.176
0.6143,0.651104,0.600443,0.624992,-0.10671,-0.0928091,-0.104303,-0.101298,357,218,59.0195,0.1,65.1853,0.1,3.18
0.613873,0.650721,0.600026,0.624575,-0.106853,-0.093773,-0.104443,-0.102283,353,210,59.129,0.1,65.2115,0.1,3.184
0.613445,0.650351,0.599608,0.624171,-0.106996,-0.0933217,-0.104583,-0.101845,357,216,59.2341,0.1,65.2299,0.1,3.188
0.613017,0.649975,0.599189,0.623761,-0.107139,-0.0935965,-0.104722,-0.1021,357,215,59.3428,0.1,65.2537,0.1,3.192
0.612588,0.649598,0.59877,0.62335,-0.107281,-0.0938086,-0.104861,-0.102328,357,214,59.4508,0.1,65.2764,0.1,3.196
0.612159,0.64922,0.59835,0.622939,-0.107424,-0.0940363,-0.105001,-0.10248,357,214,59.5585,0.1,65.2983,0.1,3.2
0.611729,0.648828,0.59793,0.622513,-0.107566,-0.0953398,-0.105139,-0.103819,350,202,59.6651,0.1,65.3194,0.1,3.204
0.611298,0.648463,0.597509,0.62212,-0.107708,-0.0939631,-0.105278,-0.101948,361,222,59.7656,0.1,65.3302,0.1,3.208
0.610867,0.648085,0.597088,0.62171,-0.107849,-0.0941969,-0.105416,-0.10214,361,221,59.8755,0.1,65.36,0.1,3.212
0.610436,0.647706,0.596666,0.621301,-0.107991,-0.0943816,-0.105555,-0.102124,361,223,59.985,0.1,65.3895,0.1,3.216
0.610003,0.647326,0.596243,0.620894,-0.108132,-0.0945623,-0.105693,-0.102056,361,225,60.0943,0.1,65.4205,0.1,3.22
0.60957,0.646943,0.59582,0.620486,-0.108273,-0.0949131,-0.10583,-0.10204,360,227,60.2034,0.1,65.4536,0.1,3.224
0.609137,0.646559,0.595396,0.620077,-0.108414,-0.0953485,-0.105968,-0.102057,359,228,60.3112,0.1,65.4882,0.1,3.228
0.608703,0.646171,0.594972,0.619666,-0.108554,-0.0958403,-0.106105,-0.102357,357,227,60.417,0.1,65.5238,0.1,3.232
0.608269,0.645785,0.594548,0.619259,-0.108694,-0.096053,-0.106242,-0.102125,358,230,60.5208,0.1,65.5582,0.1,3.236
0.607834,0.645395,0.594122,0.618844,-0.108834,-0.0965691,-0.106379,-0.102632,356,227,60.6241,0.1,65.5958,0.1,3.24
0.607398,0.645006,0.593697,0.618428,-0.108974,-0.0968267,-0.106516,-0.103143,355,223,60.725,0.1,65.6298,0.1,3.244
0.606962,0.644617,0.59327,0.618009,-0.109114,-0.0969697,-0.106652,-0.103686,356,220,60.8254,0.1,65.6599,0.1,3.248
0.606525,0.644211,0.592843,0.617573,-0.109253,-0.098447,-0.106789,-0.105458,348,204,60.925,0.1,65.6854,0.1,3.252
0.606088,0.643831,0.592416,0.617166,-0.109392,-0.0972726,-0.106925,-0.104163,357,218,61.0174,0.1,65.696,0.1,3.256
0.60565,0.643433,0.591988,0.616742,-0.109531,-0.0980155,-0.10706,-0.104798,353,213,61.1176,0.1,65.7201,0.1,3.26
0.605212,0.643033,0.591559,0.616321,-0.10967,-0.0987124,-0.107196,-0.104961,350,213,61.2139,0.1,65.7393,0.1,3.264
0.604773,0.642617,0.59113,0.615889,-0.109808,-0.100473,-0.107331,-0.105963,340,204,61.306,0.1,65.758,0.1,3.268
0.604333,0.642219,0.590701,0.615482,-0.109946,-0.10012,-0.107466,-0.104529,344,220,61.3884,0.1,65.7691,0.1,3.272
0.603893,0.641812,0.590271,0.615069,-0.110084,-0.100691,-0.107601,-0.10412,342,225,61.4737,0.1,65.7955,0.1,3.276
0.603452,0.6414,0.58984,0.614657,-0.110222,-0.101446,-0.107736,-0.103761,338,230,61.5561,0.1,65.8273,0.1,3.28
0.603011,0.640974,0.589409,0.614232,-0.11036,-0.103159,-0.10787,-0.104558,328,224,61.6338,0.1,65.8635,0.1,3.284
0.60257,0.64057,0.588977,0.613833,-0.110497,-0.1024,-0.108004,-0.102988,334,240,61.7024,0.1,65.8943,0.1,3.288
0.602127,0.640152,0.588545,0.613418,-0.110634,-0.103133,-0.108138,-0.103236,331,239,61.7762,0.1,65.9412,0.1,3.292
0.601684,0.639732,0.588112,0.613004,-0.110771,-0.103707,-0.108272,-0.103345,328,240,61.8462,0.1,65.987,0.1,3.296
0.601241,0.639297,0.587679,0.612569,-0.110907,-0.105415,-0.108405,-0.105115,318,224,61.9126,0.1,66.0323,0.1,3.3
0.600797,0.63889,0.587245,0.612162,-0.111044,-0.104221,-0.108539,-0.103993,328,236,61.9702,0.1,66.0625,0.1,3.304
0.600353,0.638465,0.58681,0.611737,-0.11118,-0.104836,-0.108672,-0.104741,325,230,62.0358,0.1,66.1045,0.1,3.308
0.599908,0.638037,0.586375,0.611305,-0.111316,-0.105563,-0.108805,-0.105845,321,221,62.0982,0.1,66.1401,0.1,3.312
0.599462,0.637609,0.58594,0.610873,-0.111451,-0.106047,-0.108937,-0.106581,319,215,62.1568,0.1,66.1661,0.1,3.316
0.599016,0.637185,0.585504,0.610438,-0.111587,-0.106082,-0.109069,-0.107273,320,210,62.2133,0.1,66.1861,0.1,3.32
0.59857,0.63677,0.585067,0.610004,-0.111722,-0.105299,-0.109201,-0.107677,327,207,62.2712,0.1,66.2006,0.1,3.324
0.598122,0.636358,0.58463,0.609571,-0.111857,-0.104547,-0.109333,-0.107888,333,207,62.3354,0.1,66.2125,0.1,3.328
0.597675,0.635948,0.584193,0.609139,-0.111991,-0.103815,-0.109465,-0.107943,339,207,62.4058,0.1,66.2237,0.1,3.332
0.597226,0.635538,0.583754,0.608711,-0.112126,-0.103356,-0.109596,-0.107634,343,212,62.4821,0.1,66.2358,0.1,3.336
0.596778,0.63513,0.583316,0.608282,-0.11226,-0.102935,-0.109727,-0.107485,348,214,62.5626,0.1,66.2523,0.1,3.34
0.596328,0.634724,0.582877,0.607856,-0.112394,-0.102424,-0.109858,-0.107127,352,219,62.6471,0.1,66.2718,0.1,3.344
0.595879,0.634319,0.582437,0.607431,-0.112527,-0.102054,-0.109989,-0.10686,356,223,62.7361,0.1,66.296,0.1,3.348
0.595428,0.633908,0.581997,0.606997,-0.112661,-0.102297,-0.110119,-0.10743,356,219,62.8283,0.1,66.3239,0.1,3.352
0.594977,0.633514,0.581556,0.606582,-0.112794,-0.10102,-0.11025,-0.106198,366,232,62.9207,0.1,66.3483,0.1,3.356
0.594526,0.63311,0.581115,0.606156,-0.112927,-0.101003,-0.11038,-0.106269,367,233,63.0223,0.1,66.3857,0.1,3.36
0.594074,0.632701,0.580673,0.605725,-0.11306,-0.101453,-0.110509,-0.106748,366,230,63.1247,0.1,66.4235,0.1,3.364
0.593621,0.632291,0.580231,0.605297,-0.113192,-0.101781,-0.110639,-0.106895,365,230,63.2252,0.1,66.458,0.1,3.368
0.593168,0.631877,0.579788,0.604867,-0.113324,-0.102374,-0.110768,-0.107051,363,230,63.3242,0.1,66.4923,0.1,3.372
0.592715,0.631457,0.579345,0.604436,-0.113456,-0.103231,-0.110897,-0.107269,358,229,63.4201,0.1,66.5263,0.1,3.376
0.592261,0.631026,0.578901,0.603994,-0.113588,-0.10478,-0.111026,-0.108365,349,220,63.5107,0.1,66.559,0.1,3.38
0.591806,0.630602,0.578456,0.603563,-0.113719,-0.10518,-0.111154,-0.108146,348,223,63.5923,0.1,66.5827,0.1,3.384
0.591351,0.63018,0.578011,0.603134,-0.113851,-0.105302,-0.111282,-0.107884,349,227,63.6723,0.1,66.6099,0.1,3.388
