peachynonah/Fire_monitor_KIRO_CDSL/csv_datas/trial12/cdsl_data_t12_15_u.csv
joint1_pos_desired, joint1_pos, joint2_pos_desired, joint2_pos, joint1_vel_desired, joint1_vel_filtered, joint2_vel_desired, joint2_vel_filtered, target_torque_joint1, target_torque_joint2, estimated_disturbance_joint1, saturated_DOB_joint1, estimated_disturbance_joint2, saturated_DOB_joint2, current_time
5.02099e-10,0.00367464,3.8377e-10,-0.000106757,3.76499e-07,0,2.8777e-07,0,40,-1,-0,-0,-98.3494,-98.3494,0.004
4.01438e-09,0.00367326,3.06831e-09,-0.000106757,1.50479e-06,-0.000115164,1.15016e-06,0,39,-1,-0.179337,-0.179337,-98.3442,-98.3442,0.008
1.35404e-08,0.00367222,1.03493e-08,-0.000106757,3.38307e-06,-0.000163149,2.58578e-06,0,39,-1,-0.353834,-0.353834,-98.339,-98.339,0.012
3.20765e-08,0.00366946,2.45171e-08,-0.000106757,6.00952e-06,-0.000339093,4.59327e-06,0,37,-1,-0.525752,-0.525752,-98.3337,-98.3337,0.016
6.26118e-08,0.00366255,4.78561e-08,-0.000106757,9.38236e-06,-0.000801881,7.17123e-06,0,33,-1,-0.689013,-0.689013,-98.3283,-98.3283,0.02
1.08128e-07,0.00365426,8.26457e-08,-0.000106757,1.34998e-05,-0.00122557,1.03183e-05,0,29,-1,-0.832105,-0.832105,-98.3228,-98.3228,0.024
1.716e-07,0.00364459,1.31159e-07,-0.000106757,1.836e-05,-0.00162319,1.40331e-05,0,25,-1,-0.956559,-0.956559,-98.3172,-98.3172,0.028
2.55996e-07,0.00363422,1.95665e-07,-0.000106757,2.39611e-05,-0.00194586,1.83142e-05,0,22,-1,-1.06354,-1.06354,-98.3114,-98.3114,0.032
3.64275e-07,0.00362455,2.78427e-07,-0.000106757,3.03014e-05,-0.00210338,2.31603e-05,0,20,-1,-1.15647,-1.15647,-98.3054,-98.3054,0.036
4.9939e-07,0.00361626,3.817e-07,-0.000106757,3.73792e-05,-0.00209324,2.85701e-05,0,20,-1,-1.24241,-1.24241,-98.2992,-98.2992,0.04
6.64289e-07,0.00360935,5.07737e-07,-0.000106757,4.51925e-05,-0.00197131,3.4542e-05,0,21,-1,-1.32842,-1.32842,-98.2928,-98.2928,0.044
8.61909e-07,0.00360278,6.58784e-07,-0.000106757,5.37396e-05,-0.00186123,4.10748e-05,0,22,-1,-1.41892,-1.41892,-98.2861,-98.2861,0.048
1.09518e-06,0.0035976,8.37081e-07,-0.000106757,6.30187e-05,-0.00167269,4.81671e-05,0,24,-1,-1.51368,-1.51368,-98.2792,-98.2792,0.052
1.36703e-06,0.00359345,1.04486e-06,-0.000106757,7.3028e-05,-0.00146062,5.58176e-05,0,26,-1,-1.61591,-1.61591,-98.2719,-98.2719,0.056
1.68038e-06,0.00358896,1.28436e-06,-0.000106757,8.37657e-05,-0.00134803,6.40247e-05,0,27,-1,-1.72627,-1.72627,-98.2642,-98.2642,0.06
2.03813e-06,0.00358482,1.5578e-06,-0.000107448,9.52301e-05,-0.00124417,7.27873e-05,-5.75818e-05,28,-2,-1.84072,-1.84072,-98.2561,-98.2561,0.064
2.44318e-06,0.00357998,1.8674e-06,-0.000106757,0.000107419,-0.00123252,8.21039e-05,1.91939e-05,28,-1,-1.95861,-1.95861,-98.2455,-98.2455,0.068
2.89844e-06,0.00357583,2.21537e-06,-0.000106757,0.000120332,-0.00116717,9.19731e-05,1.2796e-05,29,-2,-2.0764,-2.0764,-98.2375,-98.2375,0.072
3.4068e-06,0.0035703,2.60392e-06,-0.000106757,0.000133965,-0.00123877,0.000102394,8.53064e-06,28,-2,-2.19578,-2.19578,-98.2288,-98.2288,0.076
3.97112e-06,0.00356581,3.03525e-06,-0.000106757,0.000148318,-0.00120013,0.000113364,5.6871e-06,28,-2,-2.31155,-2.31155,-98.2195,-98.2195,0.08
4.5943e-06,0.00356167,3.51157e-06,-0.000106757,0.000163389,-0.00114558,0.000124883,3.7914e-06,29,-2,-2.42816,-2.42816,-98.2095,-98.2095,0.084
5.27919e-06,0.00355718,4.03505e-06,-0.000106757,0.000179176,-0.001138,0.000136949,2.5276e-06,29,-2,-2.54608,-2.54608,-98.199,-98.199,0.088
6.02866e-06,0.00355372,4.60789e-06,-0.000106066,0.000195676,-0.00104658,0.000149562,5.92669e-05,29,-2,-2.66365,-2.66365,-98.1881,-98.1881,0.092
6.84555e-06,0.00355027,5.23227e-06,-0.000106757,0.00021289,-0.000985627,0.000162718,-1.80706e-05,30,-3,-2.78413,-2.78413,-98.1786,-98.1786,0.096
7.73272e-06,0.00354681,5.91036e-06,-0.000106411,0.000230814,-0.000944994,0.000176418,1.67439e-05,30,-2,-2.9062,-2.9062,-98.1655,-98.1655,0.1
8.693e-06,0.0035437,6.64433e-06,-0.000107102,0.000249446,-0.000889114,0.00019066,-4.64193e-05,31,-3,-3.02908,-3.02908,-98.1531,-98.1531,0.104
9.72923e-06,0.0035399,7.43636e-06,-0.000107102,0.000268786,-0.000909443,0.000205442,-3.09462e-05,30,-3,-3.15312,-3.15312,-98.1375,-98.1375,0.108
1.08442e-05,0.0035361,8.28859e-06,-0.000106411,0.000288831,-0.000922995,0.000220763,3.69511e-05,30,-3,-3.27524,-3.27524,-98.1221,-98.1221,0.112
1.20408e-05,0.00353161,9.20317e-06,-0.000106411,0.00030958,-0.000989612,0.000236621,2.4634e-05,29,-3,-3.39552,-3.39552,-98.1086,-98.1086,0.116
1.33218e-05,0.00352712,1.01823e-05,-0.000106411,0.00033103,-0.00103402,0.000253017,1.64227e-05,29,-3,-3.51185,-3.51185,-98.0939,-98.0939,0.12
1.469e-05,0.00352228,1.1228e-05,-0.000106411,0.00035318,-0.00109242,0.000269947,1.09485e-05,28,-4,-3.62503,-3.62503,-98.0782,-98.0782,0.124
1.61482e-05,0.00351572,1.23426e-05,-0.000106411,0.000376029,-0.00127531,0.000287411,7.29898e-06,26,-4,-3.73408,-3.73408,-98.0614,-98.0614,0.128
1.76992e-05,0.00350812,1.3528e-05,-0.000106411,0.000399574,-0.00148361,0.000305407,4.86598e-06,24,-4,-3.83386,-3.83386,-98.0437,-98.0437,0.132
1.93457e-05,0.00349913,1.47865e-05,-0.000106411,0.000423814,-0.00173763,0.000323934,3.24399e-06,21,-4,-3.92312,-3.92312,-98.0251,-98.0251,0.136
2.10906e-05,0.00348946,1.61202e-05,-0.000106411,0.000448746,-0.00196457,0.000342991,2.16266e-06,18,-4,-4.00004,-4.00004,-98.0055,-98.0055,0.14
2.29366e-05,0.0034791,1.75311e-05,-0.000106411,0.00047437,-0.00217344,0.000362576,1.44177e-06,16,-5,-4.06567,-4.06567,-97.9851,-97.9851,0.144
2.48865e-05,0.00346873,1.90215e-05,-0.000106411,0.000500683,-0.00231269,0.000382688,9.61182e-07,14,-5,-4.12089,-4.12089,-97.9637,-97.9637,0.148
2.6943e-05,0.00345837,2.05934e-05,-0.000106411,0.000527684,-0.00240552,0.000403326,6.40788e-07,13,-5,-4.16855,-4.16855,-97.9413,-97.9413,0.152
2.91089e-05,0.00344904,2.22488e-05,-0.000106411,0.000555371,-0.00238103,0.000424488,4.27192e-07,13,-5,-4.21084,-4.21084,-97.918,-97.918,0.156
3.13869e-05,0.00344109,2.399e-05,-0.000106411,0.000583742,-0.00224955,0.000446172,2.84795e-07,14,-6,-4.25275,-4.25275,-97.8937,-97.8937,0.16
3.37797e-05,0.00343453,2.58189e-05,-0.000106411,0.000612796,-0.00204673,0.000468379,1.89863e-07,16,-6,-4.2988,-4.2988,-97.8684,-97.8684,0.164
3.62901e-05,0.00342934,2.77377e-05,-0.000106411,0.00064253,-0.00179635,0.000491106,1.26575e-07,18,-6,-4.35198,-4.35198,-97.842,-97.842,0.168
3.89208e-05,0.00342693,2.97484e-05,-0.000106066,0.000672943,-0.0013991,0.000514351,2.88753e-05,21,-6,-4.41467,-4.41467,-97.8147,-97.8147,0.172
4.16746e-05,0.00342658,3.18532e-05,-0.000106066,0.000704033,-0.000961525,0.000538114,1.92502e-05,25,-7,-4.49294,-4.49294,-97.7874,-97.7874,0.176
4.4554e-05,0.00342693,3.4054e-05,-0.000106066,0.000735798,-0.000612226,0.000562394,1.28335e-05,28,-7,-4.58818,-4.58818,-97.7586,-97.7586,0.18
4.75619e-05,0.00342693,3.6353e-05,-0.00010572,0.000768238,-0.000408151,0.000587188,3.73466e-05,30,-7,-4.69643,-4.69643,-97.7285,-97.7285,0.184
5.07008e-05,0.00342693,3.87522e-05,-0.00010572,0.000801349,-0.0002721,0.000612496,2.48977e-05,31,-7,-4.81168,-4.81168,-97.6981,-97.6981,0.188
5.39735e-05,0.00342693,4.12537e-05,-0.000105375,0.00083513,-0.0001814,0.000638316,4.53894e-05,32,-7,-4.93103,-4.93103,-97.6662,-97.6662,0.192
5.73827e-05,0.00342693,4.38594e-05,-0.000105375,0.00086958,-0.000120934,0.000664647,3.02596e-05,32,-8,-5.05257,-5.05257,-97.6338,-97.6338,0.196
6.09311e-05,0.00342658,4.65715e-05,-0.000105029,0.000904697,-0.000109413,0.000691488,4.8964e-05,32,-8,-5.1749,-5.1749,-97.5996,-97.5996,0.2
6.46212e-05,0.00342658,4.9392e-05,-0.000105029,0.000940478,-7.29422e-05,0.000718837,3.26427e-05,32,-9,-5.2961,-5.2961,-97.5648,-97.5648,0.204
6.84558e-05,0.00342658,5.23229e-05,-0.000104684,0.000976923,-4.86281e-05,0.000746693,5.05527e-05,32,-9,-5.41711,-5.41711,-97.5282,-97.5282,0.208
7.24375e-05,0.00342658,5.53662e-05,-0.000104338,0.00101403,-3.24188e-05,0.000775054,6.24927e-05,32,-9,-5.53739,-5.53739,-97.491,-97.491,0.212
7.65689e-05,0.00342658,5.8524e-05,-0.000104338,0.0010518,-2.16125e-05,0.00080392,4.16618e-05,32,-10,-5.65657,-5.65657,-97.4528,-97.4528,0.216
8.08527e-05,0.00342658,6.17982e-05,-0.000103993,0.00109022,-1.44083e-05,0.000833289,5.65655e-05,32,-10,-5.77437,-5.77437,-97.4125,-97.4125,0.22
8.52915e-05,0.00342658,6.5191e-05,-0.000103302,0.0011293,-9.60556e-06,0.000863159,9.52922e-05,31,-10,-5.89062,-5.89062,-97.3715,-97.3715,0.224
8.9888e-05,0.00342658,6.87042e-05,-0.000102611,0.00116904,-6.4037e-06,0.00089353,0.00012111,31,-10,-6.00518,-6.00518,-97.3308,-97.3308,0.228
9.46447e-05,0.00342658,7.23399e-05,-0.000102265,0.00120942,-4.26914e-06,0.0009244,0.000109531,31,-10,-6.11795,-6.11795,-97.2895,-97.2895,0.232
9.95642e-05,0.00342658,7.61001e-05,-0.00010192,0.00125046,-2.84609e-06,0.000955767,0.000101812,30,-11,-6.22884,-6.22884,-97.2464,-97.2464,0.236
0.000104649,0.00342658,7.99867e-05,-0.00010192,0.00129215,-1.89739e-06,0.000987631,6.78743e-05,30,-11,-6.33779,-6.33779,-97.2013,-97.2013,0.24
0.000109902,0.00342658,8.40018e-05,-0.000101574,0.00133449,-1.26493e-06,0.00101999,7.40405e-05,30,-12,-6.44475,-6.44475,-97.1533,-97.1533,0.244
0.000115326,0.00342658,8.81473e-05,-0.000100883,0.00137747,-8.43286e-07,0.00105284,0.000106942,29,-12,-6.54966,-6.54966,-97.1042,-97.1042,0.248
0.000120923,0.00342658,9.24252e-05,-0.000100538,0.00142109,-5.62191e-07,0.00108619,0.000100086,29,-12,-6.65248,-6.65248,-97.0548,-97.0548,0.252
0.000126696,0.00342658,9.68374e-05,-9.95014e-05,0.00146536,-3.74794e-07,0.00112002,0.000153097,29,-12,-6.75318,-6.75318,-97.0036,-97.0036,0.256
0.000132647,0.00342658,0.000101386,-9.91559e-05,0.00151027,-2.49863e-07,0.00115435,0.000130855,28,-13,-6.8517,-6.8517,-96.9529,-96.9529,0.26
0.000138779,0.00342658,0.000106073,-9.88105e-05,0.00155582,-1.66575e-07,0.00118916,0.000116028,28,-14,-6.94801,-6.94801,-96.8995,-96.8995,0.264
0.000145094,0.00342658,0.0001109,-9.8465e-05,0.00160201,-1.1105e-07,0.00122446,0.000106143,27,-14,-7.04208,-7.04208,-96.8439,-96.8439,0.268
0.000151596,0.00342658,0.000115869,-9.7774e-05,0.00164883,-7.40333e-08,0.00126025,0.000128344,27,-14,-7.13386,-7.13386,-96.7863,-96.7863,0.272
0.000158286,0.00342658,0.000120983,-9.7083e-05,0.00169629,-4.93556e-08,0.00129652,0.000143144,26,-15,-7.22332,-7.22332,-96.7278,-96.7278,0.276
0.000165167,0.00342658,0.000126242,-9.6392e-05,0.00174437,-3.29037e-08,0.00133328,0.000153011,26,-15,-7.31042,-7.31042,-96.6682,-96.6682,0.28
0.000172241,0.00342693,0.000131649,-9.53555e-05,0.00179309,2.8769e-05,0.00137052,0.00018838,26,-15,-7.39521,-7.39521,-96.6073,-96.6073,0.284
0.000179512,0.00342658,0.000137207,-9.39736e-05,0.00184244,-9.6116e-06,0.00140823,0.000240751,25,-15,-7.47862,-7.47862,-96.5461,-96.5461,0.288
0.000186982,0.00342693,0.000142916,-9.22461e-05,0.00189241,2.23832e-05,0.00144643,0.000304455,25,-15,-7.55811,-7.55811,-96.4855,-96.4855,0.292
0.000194652,0.00342693,0.000148779,-9.01732e-05,0.00194301,1.49221e-05,0.00148511,0.000375716,24,-15,-7.63636,-7.63636,-96.4257,-96.4257,0.296
0.000202527,0.00342693,0.000154797,-8.84457e-05,0.00199424,9.94809e-06,0.00152426,0.000394432,24,-15,-7.71176,-7.71176,-96.3669,-96.3669,0.3
0.000210607,0.00342693,0.000160974,-8.70638e-05,0.00204608,6.63206e-06,0.00156389,0.000378118,23,-16,-7.78437,-7.78437,-96.307,-96.307,0.304
0.000218896,0.00342693,0.000167309,-8.56818e-05,0.00209855,4.42137e-06,0.00160399,0.000367242,23,-16,-7.85422,-7.85422,-96.2445,-96.2445,0.308
0.000227396,0.00342693,0.000173806,-8.39543e-05,0.00215163,2.94758e-06,0.00164456,0.000388783,22,-17,-7.92133,-7.92133,-96.1797,-96.1797,0.312
0.00023611,0.00342693,0.000180466,-8.29179e-05,0.00220534,1.96505e-06,0.00168561,0.000345561,21,-18,-7.98569,-7.98569,-96.1136,-96.1136,0.316
0.00024504,0.00342693,0.000187292,-8.18814e-05,0.00225965,1.31004e-06,0.00172712,0.000316747,21,-18,-8.04729,-8.04729,-96.0438,-96.0438,0.32
0.000254188,0.00342693,0.000194284,-8.04994e-05,0.00231458,8.73357e-07,0.00176911,0.000326328,20,-19,-8.10609,-8.10609,-95.9707,-95.9707,0.324
0.000263557,0.00342727,0.000201445,-7.91175e-05,0.00237012,2.93732e-05,0.00181156,0.000332716,20,-19,-8.16216,-8.16216,-95.8961,-95.8961,0.328
0.00027315,0.00342727,0.000208777,-7.77355e-05,0.00242628,1.95821e-05,0.00185448,0.000336974,19,-20,-8.21652,-8.21652,-95.8196,-95.8196,0.332
0.000282968,0.00342727,0.000216282,-7.63535e-05,0.00248304,1.30547e-05,0.00189786,0.000339813,19,-20,-8.26759,-8.26759,-95.7411,-95.7411,0.336
0.000293015,0.00342727,0.000223961,-7.49716e-05,0.00254041,8.70316e-06,0.00194171,0.000341706,18,-21,-8.31548,-8.31548,-95.6607,-95.6607,0.34
0.000303292,0.00342727,0.000231816,-7.32441e-05,0.00259838,5.80211e-06,0.00198602,0.000371759,17,-21,-8.36024,-8.36024,-95.5782,-95.5782,0.344
0.000313803,0.00342727,0.000239849,-7.15167e-05,0.00265695,3.86807e-06,0.00203079,0.000391794,17,-22,-8.40189,-8.40189,-95.4949,-95.4949,0.348
0.000324549,0.00342762,0.000248063,-6.94437e-05,0.00271613,3.13696e-05,0.00207602,0.000433941,16,-22,-8.44053,-8.44053,-95.4102,-95.4102,0.352
0.000335533,0.00342762,0.000256458,-6.70253e-05,0.00277591,2.09131e-05,0.00212171,0.000490831,15,-22,-8.47718,-8.47718,-95.3251,-95.3251,0.356
0.000346757,0.00342727,0.000265037,-6.46068e-05,0.00283629,-1.48489e-05,0.00216786,0.000528757,14,-22,-8.51022,-8.51022,-95.2402,-95.2402,0.36
0.000358224,0.00342796,0.000273802,-6.14974e-05,0.00289726,4.76826e-05,0.00221447,0.000611623,14,-22,-8.53887,-8.53887,-95.1547,-95.1547,0.364
0.000369936,0.00342796,0.000282753,-5.87335e-05,0.00295883,3.17884e-05,0.00226152,0.000638076,14,-22,-8.56682,-8.56682,-95.0704,-95.0704,0.368
0.000381895,0.00342831,0.000291894,-5.52786e-05,0.00302099,4.99832e-05,0.00230904,0.000713293,13,-22,-8.59099,-8.59099,-94.985,-94.985,0.372
0.000394104,0.00342831,0.000301226,-5.25146e-05,0.00308374,3.33221e-05,0.002357,0.000705856,12,-23,-8.6126,-8.6126,-94.9003,-94.9003,0.376
0.000406566,0.00342831,0.000310751,-4.94052e-05,0.00314708,2.22148e-05,0.00240541,0.000729689,11,-23,-8.63022,-8.63022,-94.8129,-94.8129,0.38
0.000419282,0.003429,0.00032047,-4.62958e-05,0.00321101,7.23917e-05,0.00245428,0.000745578,11,-24,-8.64424,-8.64424,-94.7242,-94.7242,0.384
0.000432255,0.00342865,0.000330386,-4.31864e-05,0.00327553,1.94702e-05,0.00250359,0.00075617,10,-24,-8.65677,-8.65677,-94.6338,-94.6338,0.388
0.000445487,0.00342865,0.0003405,-4.0077e-05,0.00334064,1.29801e-05,0.00255335,0.000763232,9,-25,-8.66375,-8.66375,-94.5414,-94.5414,0.392
0.000458981,0.003429,0.000350813,-3.66221e-05,0.00340632,3.74443e-05,0.00260356,0.00079673,8,-25,-8.66712,-8.66712,-94.4469,-94.4469,0.396
0.000472738,0.003429,0.000361329,-3.31671e-05,0.00347259,2.49629e-05,0.00265421,0.000819063,7,-25,-8.66797,-8.66797,-94.3513,-94.3513,0.4
0.000486762,0.00342934,0.000372048,-3.04032e-05,0.00353944,4.54329e-05,0.0027053,0.000776369,7,-27,-8.66488,-8.66488,-94.254,-94.254,0.404
0.000501055,0.00342969,0.000382972,-2.79848e-05,0.00360686,5.90795e-05,0.00275684,0.000719116,6,-28,-8.65911,-8.65911,-94.1523,-94.1523,0.408
0.000515618,0.00342934,0.000394103,-2.62573e-05,0.00367487,1.05954e-05,0.00280881,0.000623365,5,-29,-8.65016,-8.65016,-94.0454,-94.0454,0.412
0.000530454,0.00343038,0.000405443,-2.38389e-05,0.00374344,9.34364e-05,0.00286123,0.000617113,5,-30,-8.6359,-8.6359,-93.9321,-93.9321,0.416
0.000545566,0.00343038,0.000416993,-2.1075e-05,0.00381259,6.22909e-05,0.00291408,0.000641736,4,-31,-8.62122,-8.62122,-93.816,-93.816,0.42
0.000560956,0.00343073,0.000428756,-1.79655e-05,0.00388232,7.03182e-05,0.00296738,0.000686943,3,-31,-8.60164,-8.60164,-93.6982,-93.6982,0.424
0.000576625,0.00343107,0.000440733,-1.41651e-05,0.00395261,7.56697e-05,0.0030211,0.000774662,2,-31,-8.57866,-8.57866,-93.5799,-93.5799,0.428
0.000592577,0.00343142,0.000452925,-1.03647e-05,0.00402347,7.92374e-05,0.00307526,0.000833141,1,-31,-8.55215,-8.55215,-93.4625,-93.4625,0.432
0.000608814,0.00343245,0.000465335,-5.52786e-06,0.0040949,0.000139198,0.00312986,0.000958501,1,-31,-8.52217,-8.52217,-93.3451,-93.3451,0.436
0.000625337,0.00343245,0.000477965,-6.90982e-07,0.00416689,9.27985e-05,0.00318488,0.00104207,0,-30,-8.49063,-8.49063,-93.2301,-93.2301,0.44
0.00064215,0.00343315,0.000490815,4.49138e-06,0.00423945,0.000119448,0.00324034,0.00112658,0,-30,-8.45343,-8.45343,-93.1161,-93.1161,0.444
0.000659254,0.0034328,0.000503888,1.00192e-05,0.00431256,5.08407e-05,0.00329623,0.00121171,-2,-30,-8.41319,-8.41319,-93.0029,-93.0029,0.448
0.000676651,0.00343315,0.000517186,1.55471e-05,0.00438624,6.26848e-05,0.00335254,0.00126846,-3,-30,-8.36628,-8.36628,-92.8904,-92.8904,0.452
0.000694344,0.00343315,0.000530709,2.14204e-05,0.00446048,4.17898e-05,0.00340928,0.00133509,-4,-31,-8.31578,-8.31578,-92.7777,-92.7777,0.456
0.000712336,0.00343349,0.00054446,2.83303e-05,0.00453527,5.66508e-05,0.00346645,0.00146588,-5,-30,-8.26045,-8.26045,-92.6651,-92.6651,0.46
0.000730627,0.00343349,0.000558441,3.45491e-05,0.00461062,3.77672e-05,0.00352404,0.00149549,-6,-31,-8.2016,-8.2016,-92.5551,-92.5551,0.464
0.000749221,0.00343349,0.000572653,4.18044e-05,0.00468652,2.51781e-05,0.00358206,0.0016016,-7,-30,-8.13783,-8.13783,-92.4438,-92.4438,0.468
0.00076812,0.00343384,0.000587098,4.87142e-05,0.00476298,4.55764e-05,0.00364049,0.00164355,-8,-31,-8.06947,-8.06947,-92.3339,-92.3339,0.472
0.000787326,0.00343384,0.000601778,5.59696e-05,0.00483998,3.03842e-05,0.00369935,0.00170031,-9,-31,-7.99769,-7.99769,-92.223,-92.223,0.476
0.000806841,0.00343418,0.000616694,6.35704e-05,0.00491753,4.90471e-05,0.00375862,0.00176694,-10,-31,-7.92112,-7.92112,-92.1117,-92.1117,0.48
0.000826667,0.00343487,0.000631847,7.18621e-05,0.00499563,9.02799e-05,0.00381832,0.00186894,-10,-31,-7.84117,-7.84117,-92.0005,-92.0005,0.484
0.000846807,0.00343591,0.000647241,7.98084e-05,0.00507428,0.000146559,0.00387843,0.00190815,-11,-31,-7.75875,-7.75875,-91.8905,-91.8905,0.488
0.000867262,0.00343729,0.000662875,8.84457e-05,0.00515347,0.00021287,0.00393896,0.00199188,-11,-31,-7.67446,-7.67446,-91.7794,-91.7794,0.492
0.000888035,0.00343902,0.000678753,9.7774e-05,0.0052332,0.000285868,0.0039999,0.00210527,-12,-31,-7.58871,-7.58871,-91.6691,-91.6691,0.496
0.000909128,0.00344075,0.000694875,0.000107793,0.00531347,0.000334533,0.00406125,0.00223845,-12,-30,-7.50167,-7.50167,-91.5607,-91.5607,0.5
0.000930543,0.00344351,0.000711243,0.000117121,0.00539428,0.00045335,0.00412302,0.00226966,-12,-31,-7.41254,-7.41254,-91.4548,-91.4548,0.504
0.000952283,0.00344558,0.00072786,0.000126795,0.00547563,0.000474979,0.00418519,0.00231925,-13,-31,-7.32382,-7.32382,-91.3473,-91.3473,0.508
0.000974349,0.00344696,0.000744725,0.000135433,0.00555751,0.000431816,0.00424778,0.00226594,-15,-32,-7.23139,-7.23139,-91.2386,-91.2386,0.512
0.000996744,0.00344938,0.000761842,0.000144415,0.00563993,0.000489414,0.00431077,0.00225919,-15,-33,-7.1329,-7.1329,-91.1247,-91.1247,0.516
0.00101947,0.00345077,0.000779212,0.000154089,0.00572288,0.00044144,0.00437417,0.00231227,-17,-34,-7.03205,-7.03205,-91.0076,-91.0076,0.52
0.00104253,0.00345249,0.000796836,0.000163417,0.00580636,0.000438248,0.00443798,0.00231887,-18,-34,-6.92468,-6.92468,-90.8896,-90.8896,0.524
0.00106592,0.00345387,0.000814717,0.000173782,0.00589036,0.000407329,0.00450219,0.00240964,-19,-34,-6.81248,-6.81248,-90.769,-90.769,0.528
0.00108965,0.00345422,0.000832854,0.000184492,0.0059749,0.000300343,0.0045668,0.00249895,-22,-34,-6.69405,-6.69405,-90.6492,-90.6492,0.532
0.00111372,0.00345526,0.000851252,0.000195893,0.00605996,0.000286602,0.00463182,0.00261606,-23,-34,-6.56656,-6.56656,-90.5301,-90.5301,0.536
0.00113813,0.00345629,0.000869909,0.00020764,0.00614555,0.000277441,0.00469724,0.00272293,-24,-34,-6.43373,-6.43373,-90.4129,-90.4129,0.54
0.00116289,0.00345733,0.00088883,0.000220078,0.00623166,0.000271333,0.00476305,0.00285176,-26,-33,-6.29572,-6.29572,-90.2972,-90.2972,0.544
0.00118799,0.00345837,0.000908014,0.000232516,0.00631829,0.000267262,0.00482927,0.00293765,-27,-33,-6.1526,-6.1526,-90.1837,-90.1837,0.548
0.00121343,0.00345975,0.000927465,0.000244608,0.00640544,0.000293338,0.00489588,0.00296611,-28,-34,-6.00451,-6.00451,-90.0705,-90.0705,0.552
0.00123923,0.00346148,0.000947182,0.000256009,0.00649311,0.000339513,0.00496288,0.00292751,-29,-35,-5.85269,-5.85269,-89.9552,-89.9552,0.556
0.00126538,0.00346355,0.000967168,0.000266719,0.00658129,0.000399088,0.00503028,0.00284419,-29,-37,-5.69796,-5.69796,-89.8348,-89.8348,0.56
0.00129188,0.00346528,0.000987425,0.000277084,0.00666999,0.000410013,0.00509808,0.00275986,-31,-38,-5.54068,-5.54068,-89.7076,-89.7076,0.564
0.00131874,0.00346804,0.00100795,0.00028814,0.0067592,0.000503669,0.00516627,0.00276121,-31,-39,-5.37911,-5.37911,-89.5737,-89.5737,0.568
0.00134596,0.00346977,0.00102876,0.000300232,0.00684892,0.000479734,0.00523484,0.00284849,-32,-39,-5.21619,-5.21619,-89.4367,-89.4367,0.572
0.00137353,0.00347219,0.00104983,0.00031336,0.00693915,0.000521359,0.00530381,0.00299305,-33,-39,-5.04736,-5.04736,-89.3003,-89.3003,0.576
0.00140147,0.00347426,0.00107119,0.000326835,0.00702989,0.000520318,0.00537317,0.00311821,-35,-39,-4.87508,-4.87508,-89.1667,-89.1667,0.58
0.00142977,0.00347599,0.00109282,0.000340309,0.00712114,0.000490834,0.00544291,0.00320165,-36,-39,-4.69753,-4.69753,-89.0349,-89.0349,0.584
0.00145844,0.00347702,0.00111473,0.000354128,0.00721289,0.000413595,0.00551304,0.00328607,-38,-39,-4.51336,-4.51336,-88.9033,-88.9033,0.588
0.00148747,0.00347771,0.00113692,0.000367257,0.00730515,0.000333312,0.00558355,0.00328477,-41,-40,-4.3206,-4.3206,-88.7717,-88.7717,0.592
0.00151688,0.0034784,0.0011594,0.000380731,0.0073979,0.00027979,0.00565445,0.00331269,-43,-40,-4.11915,-4.11915,-88.6367,-88.6367,0.596
0.00154666,0.00347944,0.00118216,0.000394205,0.00749116,0.000272899,0.00572573,0.00333131,-44,-41,-3.91017,-3.91017,-88.4994,-88.4994,0.6
0.00157681,0.00348186,0.00120521,0.000409061,0.00758492,0.000383469,0.00579739,0.00345888,-44,-41,-3.69587,-3.69587,-88.3597,-88.3597,0.604
0.00160734,0.00348462,0.00122854,0.000424609,0.00767917,0.000485974,0.00586943,0.00360151,-45,-40,-3.48089,-3.48089,-88.222,-88.222,0.608
0.00163824,0.00348739,0.00125216,0.000441538,0.00777392,0.00055431,0.00594185,0.00381176,-46,-39,-3.26481,-3.26481,-88.0872,-88.0872,0.612
0.00166953,0.0034905,0.00127607,0.000458121,0.00786916,0.000628658,0.00601464,0.00392314,-46,-39,-3.04624,-3.04624,-87.9576,-87.9576,0.616
0.0017012,0.00349395,0.00130028,0.000474359,0.00796489,0.000707015,0.00608782,0.0039686,-47,-39,-2.82541,-2.82541,-87.829,-87.829,0.62
0.00173325,0.0034981,0.00132478,0.000489906,0.00806112,0.000816834,0.00616136,0.00394133,-48,-41,-2.60255,-2.60255,-87.6987,-87.6987,0.624
0.00176569,0.00350259,0.00134957,0.000506144,0.00815783,0.000918838,0.00623529,0.00398072,-48,-41,-2.37888,-2.37888,-87.5639,-87.5639,0.628
0.00179851,0.00350812,0.00137466,0.000523419,0.00825503,0.00107321,0.00630958,0.00409336,-48,-41,-2.15423,-2.15423,-87.4274,-87.4274,0.632
0.00183173,0.00351434,0.00140005,0.000540348,0.00835272,0.00123371,0.00638425,0.00413966,-48,-42,-1.93071,-1.93071,-87.292,-87.292,0.636
0.00186534,0.00352228,0.00142573,0.000558314,0.00845089,0.00148467,0.00645928,0.0042569,-47,-41,-1.70883,-1.70883,-87.1551,-87.1551,0.64
0.00189934,0.00353092,0.00145172,0.000575934,0.00854955,0.00170955,0.00653469,0.00430627,-46,-42,-1.49215,-1.49215,-87.0195,-87.0195,0.644
0.00193373,0.00354197,0.00147801,0.000593208,0.00864868,0.00206101,0.00661046,0.00431039,-44,-43,-1.28002,-1.28002,-86.8822,-86.8822,0.648
0.00196853,0.00355545,0.00150461,0.000610483,0.0087483,0.00249685,0.0066866,0.00431314,-41,-44,-1.0778,-1.0778,-86.7414,-86.7414,0.652
0.00200372,0.00356996,0.00153151,0.000628448,0.00884839,0.00287379,0.0067631,0.00437256,-39,-44,-0.888749,-0.888749,-86.5973,-86.5973,0.656
0.00203931,0.00358585,0.00155871,0.000646414,0.00894896,0.00324024,0.00683997,0.00441217,-37,-45,-0.710496,-0.710496,-86.4519,-86.4519,0.66
0.00207531,0.00360382,0.00158623,0.00066507,0.00905,0.00365729,0.0069172,0.00449615,-34,-45,-0.54281,-0.54281,-86.3046,-86.3046,0.664
0.00211172,0.00362282,0.00161405,0.000684072,0.00915152,0.00402169,0.00699479,0.00458094,-32,-45,-0.387602,-0.387602,-86.1572,-86.1572,0.668
0.00214853,0.00364217,0.00164218,0.000702729,0.00925351,0.00429342,0.00707275,0.00460867,-31,-46,-0.242508,-0.242508,-86.0095,-86.0095,0.672
0.00218574,0.0036629,0.00167063,0.000722767,0.00935597,0.00458974,0.00715106,0.00474232,-29,-46,-0.103897,-0.103897,-85.8595,-85.8595,0.676
0.00222337,0.00368294,0.00169939,0.000743151,0.0094589,0.0047297,0.00722973,0.00486021,-29,-45,0.0277048,0.0277048,-85.7114,-85.7114,0.68
0.00226142,0.00370297,0.00172847,0.000763881,0.00956229,0.00482301,0.00730876,0.0049676,-30,-45,0.158726,0.158726,-85.5645,-85.5645,0.684
0.00229987,0.00372267,0.00175786,0.000785301,0.00966615,0.00485642,0.00738814,0.00509677,-31,-45,0.291244,0.291244,-85.4185,-85.4185,0.688
0.00233875,0.00374098,0.00178758,0.000807413,0.00977048,0.00476353,0.00746788,0.00524046,-33,-45,0.428081,0.428081,-85.2743,-85.2743,0.692
0.00237804,0.00375929,0.00181761,0.000829524,0.00987527,0.00470161,0.00754797,0.00533626,-35,-45,0.57427,0.57427,-85.1322,-85.1322,0.696
0.00241775,0.00377795,0.00184796,0.000851981,0.00998051,0.00468911,0.00762842,0.00542892,-36,-45,0.728468,0.728468,-84.9905,-84.9905,0.7
0.00245788,0.00379695,0.00187864,0.000874783,0.0100862,0.00470958,0.00770921,0.00551948,-38,-45,0.888636,0.888636,-84.8488,-84.8488,0.704
0.00249844,0.00381837,0.00190963,0.000898277,0.0101924,0.00492476,0.00779036,0.00563744,-37,-45,1.05289,1.05289,-84.7073,-84.7073,0.708
0.00253942,0.00384082,0.00194096,0.000923152,0.010299,0.00515458,0.00787185,0.00583124,-36,-44,1.21337,1.21337,-84.5672,-84.5672,0.712
0.00258083,0.00386466,0.00197261,0.000946646,0.0104061,0.00542296,0.00795369,0.00584527,-35,-45,1.36937,1.36937,-84.431,-84.431,0.716
0.00262267,0.00388885,0.00200459,0.000969794,0.0105136,0.00563067,0.00803588,0.00582584,-34,-46,1.51952,1.51952,-84.2915,-84.2915,0.72
0.00266494,0.00391269,0.0020369,0.00099225,0.0106216,0.00574036,0.00811841,0.0057553,-35,-48,1.66654,1.66654,-84.147,-84.147,0.724
0.00270764,0.00393756,0.00206954,0.00101333,0.01073,0.00589985,0.00820129,0.00559312,-35,-51,1.81424,1.81424,-83.9953,-83.9953,0.728
0.00275078,0.00396175,0.00210251,0.00103267,0.0108389,0.0059486,0.00828451,0.00534104,-35,-54,1.96096,1.96096,-83.8323,-83.8323,0.732
0.00279436,0.00398731,0.00213581,0.00105064,0.0109482,0.00609626,0.00836807,0.00505782,-35,-58,2.11089,2.11089,-83.6544,-83.6544,0.736
0.00283837,0.00401288,0.00216945,0.00106515,0.011058,0.0061947,0.00845197,0.0045811,-36,-64,2.2602,2.2602,-83.4596,-83.4596,0.74
0.00288282,0.00404155,0.00220343,0.0010769,0.0111682,0.00651945,0.00853621,0.00403296,-34,-70,2.41022,2.41022,-83.2398,-83.2398,0.744
0.00292771,0.00407161,0.00223774,0.00108622,0.0112789,0.00685111,0.00862079,0.00346599,-32,-77,2.5518,2.5518,-82.992,-82.992,0.748
0.00297305,0.00410098,0.0022724,0.00109382,0.01139,0.00701463,0.0087057,0.00294406,-32,-83,2.68517,2.68517,-82.7155,-82.7155,0.752
0.00301883,0.00413035,0.00230739,0.00110073,0.0115015,0.00712365,0.00879095,0.00253853,-32,-89,2.81724,2.81724,-82.4123,-82.4123,0.756
0.00306506,0.0041604,0.00234272,0.00110764,0.0116135,0.00725391,0.00887654,0.00226817,-33,-93,2.95016,2.95016,-82.0873,-82.0873,0.76
0.00311174,0.00418943,0.0023784,0.00111455,0.0117259,0.00725438,0.00896246,0.00208793,-34,-96,3.08349,3.08349,-81.7461,-81.7461,0.764
0.00315887,0.00421948,0.00241442,0.00112112,0.0118387,0.00734106,0.00904871,0.00193898,-35,-99,3.22221,3.22221,-81.3923,-81.3923,0.768
0.00320645,0.00424919,0.00245079,0.00112837,0.011952,0.00737006,0.00913529,0.00189726,-36,-101,3.36306,3.36306,-81.0275,-81.0275,0.772
0.00325449,0.00428133,0.00248751,0.00113597,0.0120657,0.00759093,0.0092222,0.00189824,-35,-102,3.5078,3.5078,-80.6558,-80.6558,0.776
0.00330298,0.00431346,0.00252457,0.00114358,0.0121799,0.00773818,0.00930944,0.0018989,-35,-104,3.64897,3.64897,-80.2792,-80.2792,0.78
0.00335193,0.00434559,0.00256198,0.00115083,0.0122944,0.00783634,0.00939701,0.00187054,-36,-106,3.78967,3.78967,-79.8973,-79.8973,0.784
0.00340134,0.00437875,0.00259975,0.00115705,0.0124094,0.00798816,0.0094849,0.00176526,-35,-108,3.93173,3.93173,-79.5088,-79.5088,0.788
0.0034512,0.00441261,0.00263786,0.00116189,0.0125248,0.00814695,0.00957312,0.00157992,-35,-112,4.07299,4.07299,-79.1103,-79.1103,0.792
0.00350153,0.00444716,0.00267633,0.00116569,0.0126407,0.00831039,0.00966166,0.00136998,-35,-115,4.21316,4.21316,-78.6986,-78.6986,0.796
0.00355233,0.0044824,0.00271516,0.0011688,0.0127569,0.00847693,0.00975053,0.00117244,-35,-119,4.35206,4.35206,-78.2725,-78.2725,0.8
0.00360359,0.00451833,0.00275434,0.00117052,0.0128736,0.00864555,0.00983972,0.000925579,-35,-123,4.48956,4.48956,-77.8324,-77.8324,0.804
0.00365532,0.00455392,0.00279387,0.00117191,0.0129907,0.00872916,0.00992922,0.000732216,-35,-127,4.62586,4.62586,-77.3764,-77.3764,0.808
0.00370752,0.0045895,0.00283377,0.00117294,0.0131083,0.00878491,0.010019,0.000574517,-36,-130,4.76446,4.76446,-76.9066,-76.9066,0.812
0.00376019,0.00462543,0.00287403,0.00117398,0.0132262,0.00885086,0.0101092,0.000469384,-37,-133,4.90649,4.90649,-76.4246,-76.4246,0.816
0.00381333,0.00466309,0.00291465,0.00117571,0.0133446,0.00903878,0.0101997,0.000456877,-37,-134,5.05119,5.05119,-75.9326,-75.9326,0.82
0.00386694,0.00470041,0.00295563,0.00117778,0.0134633,0.00913528,0.0102904,0.00047733,-37,-136,5.19395,5.19395,-75.4346,-75.4346,0.824
0.00392103,0.00473668,0.00299697,0.00117985,0.0135825,0.00911323,0.0103815,0.000490966,-39,-138,5.33882,5.33882,-74.9316,-74.9316,0.828
0.0039756,0.00477192,0.00303868,0.00118227,0.0137021,0.00901216,0.0104729,0.000528847,-42,-139,5.49085,5.49085,-74.4235,-74.4235,0.832
0.00403065,0.00480544,0.00308075,0.00118538,0.0138221,0.00880083,0.0105647,0.000611683,-45,-140,5.65361,5.65361,-73.9114,-73.9114,0.836
0.00408618,0.00483757,0.0031232,0.00118918,0.0139425,0.00854477,0.0106567,0.000724489,-49,-141,5.83174,5.83174,-73.397,-73.397,0.84
0.00414219,0.00486832,0.00316601,0.00119264,0.0140633,0.00825891,0.010749,0.000770902,-54,-142,6.02721,6.02721,-72.8815,-72.8815,0.844
0.00419869,0.00489561,0.00320919,0.00119713,0.0141845,0.00778042,0.0108417,0.000888217,-60,-143,6.24191,6.24191,-72.3624,-72.3624,0.848
0.00425567,0.00491945,0.00325274,0.00120093,0.0143061,0.00717352,0.0109346,0.000908845,-68,-145,6.4841,6.4841,-71.8421,-71.8421,0.852
0.00431314,0.00493914,0.00329667,0.00120611,0.0144282,0.00642343,0.0110279,0.00103776,-77,-145,6.75952,6.75952,-71.3171,-71.3171,0.856
0.00437109,0.00495572,0.00334096,0.00121233,0.0145506,0.00566425,0.0111215,0.00121008,-86,-146,7.07413,7.07413,-70.792,-70.792,0.86
0.00442954,0.00497162,0.00338564,0.00121855,0.0146734,0.00510055,0.0112153,0.00132495,-94,-146,7.4279,7.4279,-70.2681,-70.2681,0.864
0.00448848,0.00498544,0.00343069,0.00122511,0.0147966,0.004552,0.0113095,0.00143033,-101,-147,7.81308,7.81308,-69.7432,-69.7432,0.868
0.00454792,0.00499926,0.00347611,0.00123202,0.0149202,0.00418631,0.011404,0.00152937,-107,-148,8.22866,8.22866,-69.2169,-69.2169,0.872
0.00460784,0.00501273,0.00352192,0.00123928,0.0150442,0.00391372,0.0114988,0.00162419,-111,-149,8.66712,8.66712,-68.689,-68.689,0.876
0.00466827,0.0050262,0.0035681,0.00124619,0.0151686,0.00373199,0.0115938,0.00165861,-115,-151,9.12454,9.12454,-68.1589,-68.1589,0.88
0.00472919,0.00504002,0.00361467,0.00125275,0.0152934,0.00363963,0.0116892,0.00165277,-118,-152,9.5971,9.5971,-67.6243,-67.6243,0.884
0.00479062,0.00505419,0.00366162,0.00125897,0.0154186,0.00360685,0.0117849,0.00162008,-121,-155,10.0811,10.0811,-67.0834,-67.0834,0.888
0.00485254,0.0050687,0.00370895,0.00126484,0.0155441,0.00361378,0.0118809,0.0015695,-123,-157,10.574,10.574,-66.535,-66.535,0.892
0.00491497,0.00508287,0.00375667,0.00126968,0.0156701,0.00358962,0.0119771,0.00144941,-126,-160,11.0744,11.0744,-65.9781,-65.9781,0.896
0.0049779,0.00509668,0.00380477,0.00127452,0.0157964,0.00354472,0.0120737,0.00136934,-128,-163,11.5836,11.5836,-65.4101,-65.4101,0.9
0.00504134,0.00510947,0.00385326,0.00127901,0.0159231,0.00342841,0.0121706,0.00128718,-132,-166,12.1028,12.1028,-64.8325,-64.8325,0.904
0.00510529,0.00512018,0.00390213,0.00128315,0.0160502,0.00317812,0.0122677,0.00120361,-137,-169,12.6353,12.6353,-64.2451,-64.2451,0.908
0.00516975,0.00512916,0.0039514,0.00128661,0.0161777,0.00286731,0.0123651,0.00109032,-142,-172,13.1868,13.1868,-63.6478,-63.6478,0.912
0.00523471,0.00513573,0.00400105,0.00129006,0.0163056,0.00245857,0.0124629,0.00101479,-148,-174,13.76,13.76,-63.0395,-63.0395,0.916
0.00530019,0.00514091,0.0040511,0.00129386,0.0164338,0.00207091,0.0125609,0.000993224,-155,-177,14.3589,14.3589,-62.4218,-62.4218,0.92
0.00536618,0.00514471,0.00410154,0.00129732,0.0165624,0.00169731,0.0126592,0.000950059,-161,-179,14.9829,14.9829,-61.7966,-61.7966,0.924
0.00543269,0.00514851,0.00415238,0.00130077,0.0166914,0.00144824,0.0127578,0.000921282,-166,-182,15.6309,15.6309,-61.1632,-61.1632,0.928
0.00549971,0.00515231,0.0042036,0.00130492,0.0168208,0.00128219,0.0128566,0.000959679,-170,-183,16.298,16.298,-60.5223,-60.5223,0.932
0.00556726,0.00515611,0.00425523,0.00131045,0.0169505,0.0011715,0.0129558,0.00110044,-174,-184,16.9807,16.9807,-59.8769,-59.8769,0.936
0.00563532,0.00516198,0.00430725,0.00131528,0.0170806,0.00127044,0.0130552,0.0011367,-175,-186,17.6761,17.6761,-59.2307,-59.2307,0.94
0.0057039,0.0051682,0.00435967,0.0013215,0.0172111,0.0013652,0.013155,0.00127604,-177,-187,18.3759,18.3759,-58.5798,-58.5798,0.944
0.00577301,0.00517546,0.00441249,0.00132738,0.0173419,0.00151474,0.013255,0.00134014,-178,-188,19.0801,19.0801,-57.9281,-57.9281,0.948
0.00584264,0.00518409,0.00446571,0.00133463,0.0174731,0.0017296,0.0133552,0.00149803,-179,-189,19.7863,19.7863,-57.273,-57.273,0.952
0.00591279,0.00519342,0.00451933,0.00134154,0.0176047,0.00193042,0.0134558,0.00157451,-180,-190,20.492,20.492,-56.6177,-56.6177,0.956
0.00598348,0.00520379,0.00457336,0.0013488,0.0177366,0.00215068,0.0135566,0.00165428,-180,-191,21.1976,21.1976,-55.9592,-55.9592,0.96
0.00605469,0.00521415,0.00462779,0.00135605,0.0178689,0.00229751,0.0136577,0.00170746,-181,-193,21.9027,21.9027,-55.2975,-55.2975,0.964
0.00612643,0.00522486,0.00468262,0.00136296,0.0180015,0.00242419,0.0137591,0.00171413,-183,-195,22.6101,22.6101,-54.6313,-54.6313,0.968
0.0061987,0.00523661,0.00473786,0.00136953,0.0181345,0.00259502,0.0138608,0.00168978,-184,-198,23.3207,23.3207,-53.9587,-53.9587,0.972
0.0062715,0.00524766,0.00479351,0.00137575,0.0182679,0.00265132,0.0139627,0.00164476,-186,-200,24.0329,24.0329,-53.2782,-53.2782,0.976
0.00634484,0.00525907,0.00484956,0.00138093,0.0184016,0.00271765,0.0140649,0.00152837,-188,-204,24.7515,24.7515,-52.589,-52.589,0.98
0.00641872,0.0052677,0.00490603,0.00138646,0.0185357,0.00253154,0.0141674,0.00147957,-193,-206,25.4767,25.4767,-51.8882,-51.8882,0.984
0.00649313,0.00527599,0.0049629,0.00139198,0.0186701,0.00237868,0.0142702,0.00144703,-197,-209,26.2187,26.2187,-51.1785,-51.1785,0.988
0.00656808,0.00528221,0.00502019,0.00139648,0.0188049,0.00210402,0.0143732,0.00133897,-202,-212,26.9766,26.9766,-50.4604,-50.4604,0.992
0.00664357,0.0052867,0.00507789,0.00140097,0.01894,0.00177696,0.0144765,0.00126693,-208,-215,27.7556,27.7556,-49.7309,-49.7309,0.996
0.0067196,0.00529051,0.005136,0.00140511,0.0190755,0.00150134,0.01458,0.00119011,-214,-218,28.5576,28.5576,-48.9913,-48.9913,1
0.00679617,0.00529396,0.00519453,0.00140891,0.0192113,0.0012888,0.0146838,0.00111011,-219,-221,29.3806,29.3806,-48.2415,-48.2415,1.004
0.00687329,0.00529776,0.00525347,0.00141237,0.0193475,0.0011759,0.0147879,0.00102798,-223,-225,30.2217,30.2217,-47.4811,-47.4811,1.008
0.00695095,0.00530294,0.00531283,0.00141548,0.019484,0.0012158,0.0148922,0.000944439,-226,-228,31.0767,31.0767,-46.7102,-46.7102,1.012
0.00702916,0.00530882,0.00537261,0.00141962,0.0196208,0.00129998,0.0149968,0.000975117,-228,-230,31.9392,31.9392,-45.929,-45.929,1.016
0.00710792,0.00531745,0.00543281,0.00142308,0.019758,0.00158643,0.0151017,0.000937987,-228,-233,32.8068,32.8068,-45.1417,-45.1417,1.02
0.00718723,0.0053292,0.00549342,0.00142653,0.0198956,0.00203651,0.0152068,0.000913234,-227,-235,33.671,33.671,-44.3456,-44.3456,1.024
0.00726709,0.0053444,0.00555446,0.00143033,0.0200334,0.00262447,0.0153122,0.000925523,-224,-238,34.5247,34.5247,-43.5414,-43.5414,1.028
0.0073475,0.00536409,0.00561592,0.00143517,0.0201717,0.00339073,0.0154178,0.00102009,-219,-239,35.3618,35.3618,-42.7307,-42.7307,1.032
0.00742846,0.00538932,0.0056778,0.0014407,0.0203102,0.00436223,0.0155237,0.00114071,-213,-240,36.1743,36.1743,-41.9168,-41.9168,1.036
0.00750998,0.00541937,0.00574011,0.00144761,0.0204491,0.00541296,0.0156299,0.00133629,-205,-241,36.9537,36.9537,-41.1011,-41.1011,1.04
0.00759205,0.00545703,0.00580284,0.00145452,0.0205883,0.00674685,0.0157363,0.00146668,-195,-242,37.6957,37.6957,-40.2863,-40.2863,1.044
0.00767468,0.00550264,0.005866,0.00146246,0.0207278,0.0082983,0.0158429,0.00163998,-182,-243,38.3881,38.3881,-39.4699,-39.4699,1.048
0.00775788,0.00555446,0.00592959,0.00147076,0.0208677,0.00985084,0.0159498,0.0017843,-170,-244,39.0219,39.0219,-38.6536,-38.6536,1.052
0.00784163,0.00561216,0.0059936,0.00147974,0.0210079,0.0113753,0.016057,0.0019381,-157,-245,39.5968,39.5968,-37.8362,-37.8362,1.056
0.00792594,0.00567573,0.00605804,0.00148941,0.0211484,0.0128811,0.0161644,0.00209821,-145,-246,40.1139,40.1139,-37.0182,-37.0182,1.06
0.00801081,0.00574517,0.00612292,0.00149909,0.0212893,0.0143744,0.016272,0.00220495,-132,-247,40.5736,40.5736,-36.1995,-36.1995,1.064
0.00809625,0.00582152,0.00618822,0.00150876,0.0214304,0.0159457,0.0163799,0.00227611,-119,-249,40.9759,40.9759,-35.3781,-35.3781,1.068
0.00818226,0.00590306,0.00625396,0.00151774,0.0215719,0.0174251,0.0164881,0.00226597,-106,-252,41.3178,41.3178,-34.5521,-34.5521,1.072
0.00826883,0.00598909,0.00632012,0.00152534,0.0217137,0.0187857,0.0165965,0.00214405,-95,-255,41.603,41.603,-33.718,-33.718,1.076
0.00835597,0.00607892,0.00638673,0.00153225,0.0218559,0.0200094,0.0167051,0.00200518,-84,-259,41.8364,41.8364,-32.8713,-32.8713,1.08
0.00844368,0.00617358,0.00645377,0.00153744,0.0219983,0.0212283,0.016814,0.00176865,-74,-264,42.0235,42.0235,-32.0108,-32.0108,1.084
0.00853196,0.00627101,0.00652124,0.00154124,0.0221411,0.0222713,0.0169231,0.0014958,-65,-269,42.1647,42.1647,-31.1326,-31.1326,1.088
0.00862081,0.00636947,0.00658915,0.00154262,0.0222842,0.0230529,0.0170325,0.00111237,-59,-276,42.2678,42.2678,-30.2348,-30.2348,1.092
0.00871023,0.00646898,0.0066575,0.001544,0.0224276,0.0236604,0.0171421,0.000856741,-55,-281,42.3436,42.3436,-29.3132,-29.3132,1.096
0.00880023,0.00657159,0.00672629,0.00154365,0.0225713,0.0243245,0.0172519,0.00054237,-50,-287,42.3988,42.3988,-28.3726,-28.3726,1.1
0.0088908,0.00667489,0.00679552,0.001544,0.0227153,0.0248248,0.017362,0.000390371,-46,-291,42.4317,42.4317,-27.4112,-27.4112,1.104
0.00898195,0.00677715,0.00686518,0.00154469,0.0228596,0.025072,0.0174723,0.000317829,-45,-294,42.4495,42.4495,-26.4356,-26.4356,1.108
0.00907368,0.0068808,0.0069353,0.00154573,0.0230043,0.0253519,0.0175829,0.000298259,-44,-297,42.4622,42.4622,-25.449,-25.449,1.112
0.00916598,0.00698583,0.00700585,0.00154711,0.0231492,0.0256537,0.0176937,0.000314003,-42,-300,42.4685,42.4685,-24.4537,-24.4537,1.116
0.00925887,0.00708913,0.00707684,0.00154918,0.0232945,0.025711,0.0178047,0.000382081,-43,-302,42.4682,42.4682,-23.4511,-23.4511,1.12
0.00935234,0.00719312,0.00714829,0.00155126,0.02344,0.0258067,0.0179159,0.000427466,-43,-305,42.4711,42.4711,-22.4433,-22.4433,1.124
0.00944639,0.00729712,0.00722017,0.00155436,0.0235859,0.0258705,0.0180274,0.000544096,-44,-306,42.4757,42.4757,-21.4295,-21.4295,1.128
0.00954103,0.00740042,0.00729251,0.00155886,0.023732,0.0258555,0.0181391,0.000737012,-45,-307,42.4835,42.4835,-20.4129,-20.4129,1.132
0.00963625,0.00750407,0.00736529,0.00156438,0.0238785,0.0258743,0.0182511,0.000951996,-46,-308,42.4977,42.4977,-19.3965,-19.3965,1.136
0.00973206,0.00760944,0.00743851,0.00157026,0.0240253,0.0260308,0.0183633,0.00112411,-46,-309,42.5166,42.5166,-18.381,-18.381,1.14
0.00982845,0.00771516,0.00751219,0.00157682,0.0241723,0.0261639,0.0184757,0.00129643,-46,-310,42.5346,42.5346,-17.3649,-17.3649,1.144
0.00992544,0.0078195,0.00758632,0.00158511,0.0243197,0.0261374,0.0185883,0.00155527,-48,-311,42.5533,42.5533,-16.3483,-16.3483,1.148
0.010023,0.00792522,0.0076609,0.0015941,0.0244673,0.026235,0.0187011,0.00178541,-48,-311,42.5786,42.5786,-15.3346,-15.3346,1.152
0.0101212,0.00803232,0.00773593,0.00160481,0.0246152,0.0264152,0.0188142,0.00208279,-48,-311,42.6055,42.6055,-14.3229,-14.3229,1.156
0.0102199,0.00813942,0.00781141,0.00161759,0.0247635,0.0265353,0.0189275,0.00245379,-48,-311,42.6307,42.6307,-13.3161,-13.3161,1.16
0.0103193,0.00824584,0.00788735,0.00163037,0.024912,0.0265578,0.019041,0.00270113,-49,-311,42.657,42.657,-12.3169,-12.3169,1.164
0.0104192,0.0083557,0.00796374,0.00164212,0.0250608,0.0268607,0.0191547,0.00277964,-48,-313,42.6875,42.6875,-11.3197,-11.3197,1.168
0.0105198,0.00846557,0.00804059,0.00165248,0.0252099,0.0270627,0.0192687,0.00271682,-47,-316,42.7112,42.7112,-10.3175,-10.3175,1.172
0.0106209,0.00857509,0.00811789,0.00166078,0.0253593,0.0271685,0.0193829,0.0025022,-47,-321,42.7325,42.7325,-9.30414,-9.30414,1.176
0.0107226,0.00868599,0.00819565,0.00166665,0.0255089,0.0273542,0.0194973,0.00215758,-47,-328,42.7551,42.7551,-8.27306,-8.27306,1.18
0.010825,0.00879793,0.00827387,0.00167045,0.0256589,0.0275644,0.0196119,0.00175508,-46,-334,42.7755,42.7755,-7.21883,-7.21883,1.184
0.0109279,0.00890952,0.00835255,0.0016739,0.0258091,0.0276757,0.0197267,0.00145797,-47,-340,42.7932,42.7932,-6.13936,-6.13936,1.188
0.0110315,0.00902354,0.00843168,0.00167563,0.0259596,0.0279515,0.0198417,0.00111593,-45,-347,42.8117,42.8117,-5.03862,-5.03862,1.192
0.0111356,0.00913824,0.00851128,0.0016777,0.0261104,0.0281929,0.019957,0.0009167,-44,-352,42.8243,42.8243,-3.91516,-3.91516,1.196
0.0112403,0.00925122,0.00859134,0.00168081,0.0262615,0.0282099,0.0200724,0.000870252,-46,-355,42.8333,42.8333,-2.77505,-2.77505,1.2
0.0113457,0.00936661,0.00867186,0.00168392,0.0264128,0.0284228,0.0201881,0.000839286,-45,-359,42.847,42.847,-1.62439,-1.62439,1.204
0.0114516,0.00948269,0.00875284,0.00168807,0.0265644,0.0286223,0.020304,0.000905015,-44,-361,42.8577,42.8577,-0.464037,-0.464037,1.208
0.0115582,0.00959809,0.00883429,0.0016936,0.0267163,0.0286977,0.0204201,0.001064,-45,-363,42.8661,42.8661,0.701889,0.701889,1.212
0.0116654,0.00971486,0.00891621,0.00170189,0.0268685,0.0288631,0.0205364,0.00140031,-45,-362,42.8772,42.8772,1.86914,1.86914,1.216
0.0117731,0.00983371,0.00899858,0.00171191,0.0270209,0.0291462,0.0206529,0.00176848,-43,-362,42.8868,42.8868,3.03053,3.03053,1.22
0.0118815,0.00995118,0.00908143,0.00172538,0.0271736,0.0292197,0.0207696,0.00230183,-44,-360,42.8909,42.8909,4.18425,4.18425,1.224
0.0119905,0.010069,0.00916474,0.00174093,0.0273266,0.0292975,0.0208865,0.00283015,-45,-358,42.898,42.898,5.32366,5.32366,1.228
0.0121001,0.0101882,0.00924852,0.00175924,0.0274798,0.0294645,0.0210037,0.00341268,-44,-355,42.9076,42.9076,6.44874,6.44874,1.232
0.0122104,0.0103063,0.00933277,0.00177652,0.0276333,0.0294895,0.021121,0.00371467,-46,-355,42.9166,42.9166,7.55809,7.55809,1.236
0.0123212,0.0104273,0.00941749,0.0017931,0.0277871,0.0297365,0.0212385,0.00385841,-45,-357,42.93,42.93,8.66333,8.66333,1.24
0.0124327,0.0105482,0.00950268,0.00180899,0.0279411,0.0299012,0.0213562,0.00389666,-44,-360,42.9391,42.9391,9.77109,9.77109,1.244
0.0125447,0.0106677,0.00958834,0.00182523,0.0280954,0.0298958,0.0214742,0.00395094,-46,-362,42.9479,42.9479,10.8855,10.8855,1.248
0.0126574,0.0107897,0.00967447,0.00184216,0.0282499,0.0300937,0.0215923,0.00404472,-45,-364,42.9625,42.9625,12.0059,12.0059,1.252
0.0127707,0.0109116,0.00976108,0.00185943,0.0284047,0.0302257,0.0217106,0.00413602,-46,-366,42.975,42.975,13.1307,13.1307,1.256
0.0128847,0.0110329,0.00984816,0.0018774,0.0285598,0.0302561,0.0218291,0.00425448,-47,-368,42.9884,42.9884,14.2599,14.2599,1.26
0.0129992,0.0111566,0.00993571,0.0018964,0.0287151,0.0304779,0.0219478,0.00441982,-46,-370,43.0062,43.0062,15.3924,15.3924,1.264
0.0131144,0.0112806,0.0100237,0.00191333,0.0288707,0.0306545,0.0220668,0.0043573,-46,-373,43.0208,43.0208,16.5268,16.5268,1.268
0.0132302,0.011404,0.0101122,0.0019306,0.0290265,0.0307147,0.0221859,0.00434441,-46,-376,43.0344,43.0344,17.6723,17.6723,1.272
0.0133466,0.011529,0.0102012,0.00194788,0.0291826,0.0308988,0.0223052,0.00433582,-46,-380,43.0514,43.0514,18.8268,18.8268,1.276
0.0134637,0.0116541,0.0102907,0.0019655,0.0293389,0.0310215,0.0224246,0.00435889,-46,-382,43.067,43.067,19.9901,19.9901,1.28
0.0135813,0.0117792,0.0103806,0.00198381,0.0294955,0.0311033,0.0225443,0.00443184,-47,-385,43.0837,43.0837,21.1609,21.1609,1.284
0.0136996,0.0119067,0.010471,0.00200212,0.0296523,0.0313594,0.0226642,0.00448048,-46,-388,43.1027,43.1027,22.3372,22.3372,1.288
0.0138185,0.0120324,0.0105619,0.00202078,0.0298094,0.0313862,0.0227842,0.0045417,-47,-390,43.1178,43.1178,23.5199,23.5199,1.292
0.0139381,0.0121592,0.0106533,0.00203978,0.0299667,0.0314904,0.0229045,0.0046113,-48,-393,43.1378,43.1378,24.7087,24.7087,1.296
0.0140583,0.0122877,0.0107452,0.00205809,0.0301242,0.0317038,0.0230249,0.00460012,-47,-396,43.1594,43.1594,25.9033,25.9033,1.3
0.0141791,0.0124145,0.0108375,0.00207709,0.030282,0.0317021,0.0231455,0.00465025,-49,-398,43.1789,43.1789,27.107,27.107,1.304
0.0143005,0.0125434,0.0109303,0.00209644,0.0304401,0.0318738,0.0232663,0.00471246,-48,-401,43.2044,43.2044,28.3171,28.3171,1.308
0.0144226,0.0126736,0.0110236,0.00211751,0.0305984,0.0321034,0.0233873,0.00489788,-48,-402,43.2288,43.2288,29.5329,29.5329,1.312
0.0145453,0.0128018,0.0111174,0.00213928,0.0307569,0.0320837,0.0235084,0.00507908,-49,-404,43.2504,43.2504,30.7495,30.7495,1.316
0.0146687,0.0129317,0.0112117,0.00216208,0.0309156,0.0322145,0.0236298,0.00528626,-50,-405,43.279,43.279,31.9669,31.9669,1.32
0.0147926,0.0130616,0.0113065,0.00218592,0.0310746,0.0323017,0.0237513,0.00551075,-50,-406,43.3086,43.3086,33.1842,33.1842,1.324
0.0149173,0.0131922,0.0114017,0.00220907,0.0312339,0.0324175,0.023873,0.00560282,-51,-408,43.3409,43.3409,34.4009,34.4009,1.328
0.0150425,0.0133252,0.0114975,0.00223429,0.0313933,0.0326961,0.0239949,0.00583695,-49,-409,43.3742,43.3742,35.6219,35.6219,1.332
0.0151684,0.0134572,0.0115937,0.00225848,0.031553,0.0327956,0.0241169,0.00590667,-50,-412,43.4026,43.4026,36.8421,36.8421,1.336
0.0152949,0.0135909,0.0116904,0.00228059,0.0317129,0.0330058,0.0242392,0.0057804,-49,-416,43.433,43.433,38.0686,38.0686,1.34
0.0154221,0.0137267,0.0117876,0.00230201,0.0318731,0.0333187,0.0243616,0.00563864,-48,-421,43.4605,43.4605,39.3093,39.3093,1.344
0.0155499,0.0138597,0.0118853,0.0023217,0.0320335,0.033297,0.0244842,0.00540017,-50,-426,43.4821,43.4821,40.5652,40.5652,1.348
0.0156784,0.0139962,0.0119835,0.00234208,0.0321941,0.0335704,0.0246069,0.00529878,-48,-431,43.5104,43.5104,41.8397,41.8397,1.352
0.0158075,0.0141333,0.0120821,0.00236212,0.0323549,0.0338103,0.0247298,0.00520239,-48,-435,43.5335,43.5335,43.1276,43.1276,1.356
0.0159372,0.0142695,0.0121813,0.00238078,0.0325159,0.0338838,0.0248529,0.00502297,-48,-440,43.5534,43.5534,44.4288,44.4288,1.36
0.0160676,0.0144073,0.012281,0.00239633,0.0326772,0.0340768,0.0249762,0.00464424,-48,-447,43.5763,43.5763,45.7474,45.7474,1.364
0.0161986,0.0145448,0.0123811,0.00241153,0.0328387,0.0341766,0.0250996,0.00436296,-49,-453,43.5978,43.5978,47.0911,47.0911,1.368
0.0163303,0.0146851,0.0124818,0.00242742,0.0330004,0.0344735,0.0252232,0.00423302,-47,-458,43.621,43.621,48.4556,48.4556,1.372
0.0164626,0.0148254,0.0125829,0.00244366,0.0331623,0.0346715,0.025347,0.00417519,-47,-462,43.6383,43.6383,49.8347,49.8347,1.376
0.0165956,0.0149639,0.0126845,0.00246197,0.0333245,0.0346595,0.025471,0.00430938,-48,-464,43.6543,43.6543,51.2251,51.2251,1.38
0.0167292,0.0151056,0.0127867,0.00247994,0.0334869,0.0349106,0.0255951,0.00437005,-47,-467,43.6767,43.6767,52.6194,52.6194,1.384
0.0168635,0.0152455,0.0128893,0.00249963,0.0336494,0.0349341,0.0257193,0.00455445,-49,-469,43.6957,43.6957,54.02,54.02,1.388
0.0169984,0.0153871,0.0129924,0.00251759,0.0338122,0.0350937,0.0258437,0.00453343,-49,-473,43.7198,43.7198,55.4227,55.4227,1.392
0.017134,0.0155302,0.0130961,0.00253418,0.0339752,0.0353152,0.0259683,0.00440425,-48,-477,43.7436,43.7436,56.8361,56.8361,1.396
0.0172702,0.0156718,0.0132002,0.00255076,0.0341385,0.0353478,0.0260931,0.00431813,-49,-482,43.7651,43.7651,58.2643,58.2643,1.4
0.0174071,0.0158149,0.0133048,0.00256734,0.0343019,0.0354846,0.026218,0.00426072,-50,-486,43.7916,43.7916,59.7057,59.7057,1.404
0.0175446,0.0159575,0.0134099,0.00258324,0.0344655,0.0355471,0.0263431,0.00416486,-51,-491,43.8192,43.8192,61.1591,61.1591,1.408
0.0176828,0.0161016,0.0135155,0.0025974,0.0346294,0.0357039,0.0264683,0.003957,-51,-496,43.8505,43.8505,62.6266,62.6266,1.412
0.0178217,0.0162464,0.0136217,0.00261088,0.0347934,0.035866,0.0265937,0.00376085,-51,-502,43.8819,43.8819,64.1127,64.1127,1.416
0.0179612,0.0163908,0.0137283,0.00262366,0.0349576,0.0359453,0.0267192,0.0035725,-51,-507,43.9133,43.9133,65.6169,65.6169,1.42
0.0181013,0.016538,0.0138354,0.0026361,0.0351221,0.0362284,0.0268449,0.00341814,-50,-513,43.9475,43.9475,67.1388,67.1388,1.424
0.0182422,0.0166827,0.0139431,0.0026475,0.0352867,0.0362157,0.0269708,0.00322886,-52,-518,43.9771,43.9771,68.6773,68.6773,1.428
0.0183836,0.0168309,0.0140512,0.00265752,0.0354516,0.0364951,0.0270968,0.00298751,-51,-524,44.0133,44.0133,70.234,70.234,1.432
0.0185258,0.0169795,0.0141598,0.00266719,0.0356167,0.0367102,0.0272229,0.00279782,-50,-530,44.0444,44.0444,71.811,71.811,1.436
0.0186686,0.0171277,0.014269,0.00267652,0.0357819,0.0368247,0.0273492,0.00264257,-51,-535,44.0734,44.0734,73.406,73.406,1.44
0.018812,0.0172763,0.0143786,0.00268619,0.0359473,0.0369299,0.0274757,0.00256786,-51,-540,44.1043,44.1043,75.0175,75.0175,1.444
0.0189561,0.0174252,0.0144888,0.0026969,0.036113,0.0370288,0.0276023,0.00260442,-52,-544,44.1376,44.1376,76.6422,76.6422,1.448
0.0191009,0.0175772,0.0145994,0.002709,0.0362788,0.0373539,0.027729,0.00274396,-50,-546,44.1728,44.1728,78.2751,78.2751,1.452
0.0192464,0.0177268,0.0147106,0.00272074,0.0364448,0.0373691,0.0278559,0.0028082,-52,-550,44.2017,44.2017,79.9125,79.9125,1.456
0.0193925,0.0178795,0.0148223,0.00273249,0.0366111,0.0376383,0.027983,0.00285103,-51,-553,44.2362,44.2362,81.5575,81.5575,1.46
0.0195393,0.0180319,0.0149345,0.00274354,0.0367775,0.037789,0.0281102,0.00282199,-51,-557,44.2663,44.2663,83.2111,83.2111,1.464
0.0196867,0.0181842,0.0150472,0.00275391,0.0369441,0.0378895,0.0282375,0.00274506,-51,-562,44.2969,44.2969,84.8764,84.8764,1.468
0.0198348,0.01834,0.0151604,0.00276289,0.0371109,0.0382443,0.028365,0.0025786,-50,-568,44.3293,44.3293,86.5556,86.5556,1.472
0.0199836,0.0184938,0.0152741,0.00277118,0.0372778,0.0383082,0.0284926,0.00241005,-50,-573,44.3543,44.3543,88.2523,88.2523,1.476
0.020133,0.0186503,0.0153883,0.00277948,0.037445,0.0385811,0.0286204,0.00229768,-49,-579,44.3827,44.3827,89.9666,89.9666,1.48
0.0202832,0.0188061,0.0155031,0.00278777,0.0376123,0.0387054,0.0287483,0.00222277,-50,-583,44.4067,44.4067,91.696,91.696,1.484
0.0204339,0.0189644,0.0156183,0.00279675,0.0377798,0.0389899,0.0288763,0.00223041,-49,-588,44.4318,44.4318,93.439,93.439,1.488
0.0205854,0.0191226,0.0157341,0.00280642,0.0379475,0.0391795,0.0290045,0.00229309,-48,-591,44.4519,44.4519,95.1921,95.1921,1.492
0.0207375,0.0192819,0.0158503,0.00281679,0.0381154,0.0393923,0.0291328,0.00239245,-48,-594,44.4705,44.4705,96.953,96.953,1.496
0.0208903,0.0194415,0.0159671,0.00282784,0.0382835,0.0395629,0.0292613,0.00251628,-48,-597,44.4871,44.4871,98.7202,98.7202,1.5
0.0210438,0.0195994,0.0160844,0.00283821,0.0384517,0.0395327,0.0293898,0.00254125,-50,-601,44.5038,44.5038,100.493,100.493,1.504
0.0211979,0.0197617,0.0162022,0.00284857,0.0386201,0.0398869,0.0295186,0.00255789,-48,-605,44.5276,44.5276,102.275,102.275,1.508
0.0213528,0.0199214,0.0163206,0.00285756,0.0387887,0.0398927,0.0296474,0.00245383,-49,-610,44.5441,44.5441,104.068,104.068,1.512
0.0215082,0.0200831,0.0164394,0.00286447,0.0389575,0.0400693,0.0297764,0.0022117,-49,-617,44.5669,44.5669,105.877,105.877,1.516
0.0216644,0.0202437,0.0165588,0.00286965,0.0391264,0.0401006,0.0299055,0.00190633,-50,-624,44.5894,44.5894,107.706,107.706,1.52
0.0218213,0.0204082,0.0166787,0.00287414,0.0392955,0.0404382,0.0300348,0.00164517,-49,-631,44.6167,44.6167,109.56,109.56,1.524
0.0219788,0.0205702,0.0167991,0.00287829,0.0394648,0.0404618,0.0301642,0.00144227,-50,-637,44.6373,44.6373,111.436,111.436,1.528
0.022137,0.0207343,0.01692,0.00288209,0.0396342,0.0406502,0.0302937,0.00127821,-50,-643,44.6635,44.6635,113.331,113.331,1.532
0.0222959,0.020897,0.0170414,0.00288692,0.0398038,0.0406607,0.0304233,0.00125522,-51,-648,44.6891,44.6891,115.244,115.244,1.536
0.0224554,0.0210622,0.0171634,0.00289383,0.0399736,0.0408692,0.0305531,0.00141263,-51,-651,44.7207,44.7207,117.168,117.168,1.54
0.0226156,0.0212287,0.0172858,0.00290282,0.0401435,0.0411233,0.0306829,0.00169032,-50,-653,44.7503,44.7503,119.097,119.097,1.544
0.0227766,0.0213945,0.0174088,0.00291318,0.0403136,0.0412352,0.030813,0.00199061,-51,-654,44.7764,44.7764,121.024,121.024,1.548
0.0229381,0.0215618,0.0175323,0.00292735,0.0404839,0.0414249,0.0309431,0.0025075,-51,-654,44.8045,44.8045,122.95,122.95,1.552
0.0231004,0.02173,0.0176564,0.00294358,0.0406543,0.0416378,0.0310734,0.00302484,-50,-653,44.8314,44.8314,124.864,124.864,1.556
0.0232634,0.0218993,0.0177809,0.00296328,0.0408249,0.0418661,0.0312037,0.00365764,-49,-651,44.8561,44.8561,126.767,126.767,1.56
0.023427,0.0220669,0.017906,0.00298332,0.0409956,0.0418743,0.0313342,0.0041083,-51,-651,44.8788,44.8788,128.654,128.654,1.564
0.0235913,0.0222372,0.0180316,0.00300335,0.0411665,0.0421101,0.0314649,0.00440874,-50,-653,44.9075,44.9075,130.532,130.532,1.568
0.0237564,0.0224058,0.0181577,0.00302201,0.0413376,0.0421234,0.0315956,0.00449387,-52,-656,44.9338,44.9338,132.41,132.41,1.572
0.0239221,0.0225785,0.0182844,0.00304274,0.0415088,0.0424777,0.0317265,0.00472337,-50,-658,44.9657,44.9657,134.294,134.294,1.576
0.0240884,0.0227496,0.0184115,0.00306451,0.0416801,0.04257,0.0318574,0.00496274,-51,-660,44.9902,44.9902,136.179,136.179,1.58
0.0242555,0.0229209,0.0185392,0.00308627,0.0418517,0.0426603,0.0319885,0.00512232,-52,-663,45.0178,45.0178,138.065,138.065,1.584
0.0244232,0.0230933,0.0186674,0.00310735,0.0420233,0.0428069,0.0321197,0.00517113,-52,-667,45.0486,45.0486,139.955,139.955,1.588
0.0245917,0.0232688,0.0187962,0.00312773,0.0421951,0.0431637,0.0322511,0.00514608,-50,-672,45.0795,45.0795,141.854,141.854,1.592
0.0247608,0.0234412,0.0189255,0.00314811,0.0423671,0.0431425,0.0323825,0.00512939,-52,-676,45.1033,45.1033,143.765,143.765,1.596
0.0249306,0.0236171,0.0190552,0.00316988,0.0425392,0.0434162,0.032514,0.00523342,-51,-679,45.1344,45.1344,145.687,145.687,1.6
0.0251011,0.0237912,0.0191856,0.00319372,0.0427115,0.0434548,0.0326457,0.00547552,-52,-681,45.1615,45.1615,147.615,147.615,1.604
0.0252723,0.0239691,0.0193164,0.00321687,0.0428839,0.0437972,0.0327775,0.00557934,-50,-685,45.1932,45.1932,149.544,149.544,1.608
0.0254442,0.024145,0.0194478,0.00324036,0.0430564,0.0438527,0.0329094,0.00567734,-51,-688,45.2182,45.2182,151.48,151.48,1.612
0.0256168,0.0243226,0.0195797,0.00326455,0.0432291,0.0440337,0.0330413,0.00580026,-51,-692,45.2477,45.2477,153.422,153.422,1.616
0.02579,0.0244991,0.0197121,0.00328804,0.0434019,0.0440679,0.0331734,0.00582462,-53,-696,45.277,45.277,155.37,155.37,1.62
0.025964,0.0246788,0.0198451,0.00331153,0.0435749,0.0443499,0.0333056,0.00584086,-52,-700,45.3113,45.3113,157.328,157.328,1.624
0.0261386,0.0248557,0.0199786,0.00333503,0.043748,0.0443076,0.033438,0.00585169,-54,-704,45.3416,45.3416,159.296,159.296,1.628
0.026314,0.0250364,0.0201126,0.00335748,0.0439212,0.044596,0.0335704,0.00577254,-53,-710,45.3801,45.3801,161.275,161.275,1.632
0.02649,0.0252153,0.0202471,0.00337787,0.0440946,0.0446444,0.0337029,0.00554702,-54,-716,45.414,45.414,163.268,163.268,1.636
0.0266667,0.0253981,0.0203822,0.00339549,0.0442681,0.0449933,0.0338355,0.00516635,-52,-724,45.4523,45.4523,165.283,165.283,1.64
0.0268441,0.0255784,0.0205178,0.00341034,0.0444418,0.0450244,0.0339682,0.00468225,-53,-734,45.4838,45.4838,167.326,167.326,1.644
0.0270222,0.0257609,0.0206539,0.00342485,0.0446156,0.0452179,0.0341011,0.00433072,-53,-742,45.5207,45.5207,169.4,169.4,1.648
0.0272011,0.0259436,0.0207906,0.00344005,0.0447895,0.0453757,0.034234,0.00415394,-53,-748,45.5566,45.5566,171.5,171.5,1.652
0.0273806,0.0261288,0.0209278,0.00345457,0.0449635,0.0456824,0.034367,0.00397852,-52,-755,45.5926,45.5926,173.62,173.62,1.656
0.0275608,0.0263119,0.0210656,0.00346666,0.0451377,0.0457141,0.0345001,0.00366003,-53,-762,45.6235,45.6235,175.758,175.758,1.66
0.0277417,0.0264974,0.0212038,0.0034784,0.045312,0.0459368,0.0346334,0.00341891,-53,-770,45.6598,45.6598,177.922,177.922,1.664
0.0279233,0.0266809,0.0213426,0.00348842,0.0454864,0.0459125,0.0347667,0.00311421,-55,-777,45.6945,45.6945,180.108,180.108,1.668
0.0281056,0.0268682,0.021482,0.00349982,0.0456609,0.046213,0.0349001,0.00302624,-54,-783,45.7366,45.7366,182.318,182.318,1.672
0.0282886,0.0270537,0.0216218,0.00351192,0.0458356,0.0462694,0.0350336,0.00302518,-55,-788,45.7739,45.7739,184.544,184.544,1.676
0.0284722,0.0272396,0.0217622,0.00352677,0.0460104,0.0463358,0.0351672,0.00325479,-56,-791,45.8161,45.8161,186.781,186.781,1.68
0.0286566,0.0274275,0.0219032,0.00354405,0.0461853,0.0465528,0.0353009,0.00360941,-56,-792,45.8623,45.8623,189.019,189.019,1.684
0.0288417,0.0276154,0.0220446,0.00356374,0.0463604,0.0466975,0.0354347,0.00404736,-56,-793,45.9068,45.9068,191.254,191.254,1.688
0.0290275,0.0278055,0.0221866,0.00358482,0.0465355,0.0469666,0.0355686,0.00445448,-55,-794,45.952,45.952,193.481,193.481,1.692
0.029214,0.0279941,0.0223292,0.00360589,0.0467108,0.0470309,0.0357025,0.0047259,-56,-796,45.9937,45.9937,195.704,195.704,1.696
0.0294012,0.0281855,0.0224723,0.00362835,0.0468862,0.0473041,0.0358366,0.00502201,-55,-798,46.0393,46.0393,197.926,197.926,1.7
0.0295891,0.0283762,0.0226159,0.0036546,0.0470617,0.0474287,0.0359707,0.00553612,-56,-798,46.0811,46.0811,200.147,200.147,1.704
0.0297777,0.028568,0.02276,0.00368397,0.0472373,0.0475981,0.036105,0.00613797,-56,-797,46.1247,46.1247,202.357,202.357,1.708
0.029967,0.0287604,0.0229047,0.00371507,0.0474131,0.0477686,0.0362393,0.00668317,-56,-796,46.1684,46.1684,204.553,204.553,1.712
0.030157,0.0289542,0.0230499,0.00374858,0.0475889,0.0479974,0.0363737,0.00724816,-55,-796,46.2121,46.2121,206.737,206.737,1.716
0.0303477,0.0291467,0.0231957,0.00378796,0.0477649,0.0480348,0.0365082,0.00811427,-57,-792,46.2538,46.2538,208.908,208.908,1.72
0.0305391,0.0293412,0.023342,0.00383115,0.0479409,0.0482325,0.0366427,0.00900838,-56,-788,46.3009,46.3009,211.052,211.052,1.724
0.0307312,0.0295347,0.0234888,0.00387917,0.0481171,0.0482779,0.0367774,0.0100075,-58,-783,46.3475,46.3475,213.169,213.169,1.728
0.0309241,0.0297309,0.0236362,0.00393065,0.0482934,0.0485385,0.0369121,0.0109615,-57,-778,46.3988,46.3988,215.254,215.254,1.732
0.0311176,0.0299271,0.0237841,0.0039842,0.0484698,0.0487123,0.037047,0.0117703,-57,-775,46.4467,46.4467,217.309,217.309,1.736
0.0313118,0.0301223,0.0239326,0.00403914,0.0486463,0.0487417,0.0371819,0.0124246,-58,-773,46.495,46.495,219.341,219.341,1.74
0.0315068,0.0303224,0.0240816,0.00409545,0.0488229,0.0491644,0.0373168,0.012976,-56,-772,46.5483,46.5483,221.355,221.355,1.744
0.0317024,0.0305186,0.0242311,0.00415246,0.0489996,0.0491295,0.0374519,0.0134012,-58,-772,46.5923,46.5923,223.357,223.357,1.748
0.0318988,0.0307183,0.0243812,0.00421188,0.0491764,0.0493942,0.037587,0.0138861,-57,-772,46.6443,46.6443,225.351,225.351,1.752
0.0320958,0.0309163,0.0245318,0.00427269,0.0493533,0.0494266,0.0377222,0.0143246,-59,-772,46.6932,46.6932,227.334,227.334,1.756
0.0322936,0.0311163,0.024683,0.00433626,0.0495303,0.049621,0.0378575,0.0148473,-59,-771,46.7477,46.7477,229.309,229.309,1.76
0.0324921,0.031315,0.0248347,0.0044019,0.0497074,0.0496355,0.0379929,0.0153685,-60,-770,46.8019,46.8019,231.271,231.271,1.764
0.0326912,0.0315143,0.0249869,0.00446755,0.0498846,0.0497027,0.0381283,0.0157159,-61,-771,46.8628,46.8628,233.222,233.222,1.768
0.0328911,0.0317147,0.0251397,0.0045325,0.0500619,0.0498339,0.0382638,0.01589,-62,-774,46.9283,46.9283,235.168,235.168,1.772
0.0330917,0.031914,0.025293,0.00459607,0.0502392,0.0498349,0.0383994,0.0158908,-64,-778,46.9962,46.9962,237.118,237.118,1.776
0.033293,0.0321151,0.0254469,0.00465826,0.0504167,0.0499796,0.0385351,0.0157763,-64,-783,47.0711,47.0711,239.078,239.078,1.78
0.0334951,0.0323141,0.0256013,0.00472044,0.0505943,0.0499033,0.0386708,0.0156999,-67,-788,47.1482,47.1482,241.053,241.053,1.784
0.0336978,0.0325162,0.0257563,0.00478229,0.0507719,0.0501116,0.0388066,0.0156202,-66,-793,47.2355,47.2355,243.042,243.042,1.788
0.0339012,0.0327173,0.0259118,0.00484344,0.0509497,0.050164,0.0389424,0.0155094,-68,-799,47.3219,47.3219,245.044,245.044,1.792
0.0341054,0.0329187,0.0260678,0.00490632,0.0511275,0.0502278,0.0390784,0.0155796,-69,-802,47.4137,47.4137,247.061,247.061,1.796
0.0343103,0.0331229,0.0262244,0.00497162,0.0513055,0.0505006,0.0392144,0.0158279,-68,-804,47.51,47.51,249.084,249.084,1.8
0.0345158,0.0333261,0.0263815,0.00504072,0.0514835,0.0505962,0.0393504,0.0163101,-69,-804,47.6028,47.6028,251.107,251.107,1.804
0.0347221,0.033532,0.0265392,0.00510981,0.0516616,0.0508902,0.0394866,0.0166316,-68,-805,47.6986,47.6986,253.119,253.119,1.808
0.0349291,0.0337344,0.0266974,0.00517788,0.0518398,0.0507983,0.0396227,0.0167595,-71,-808,47.7906,47.7906,255.129,255.129,1.812
0.0351368,0.033941,0.0268562,0.00524559,0.052018,0.0510825,0.039759,0.016816,-70,-812,47.8933,47.8933,257.143,257.143,1.816
0.0353453,0.0341459,0.0270155,0.00531365,0.0521964,0.051128,0.0398953,0.0168825,-71,-816,47.9922,47.9922,259.166,259.166,1.82
0.0355544,0.0343498,0.0271754,0.00538275,0.0523748,0.051072,0.0400317,0.0170132,-74,-819,48.0973,48.0973,261.195,261.195,1.824
0.0357643,0.0345553,0.0273358,0.00545116,0.0525533,0.0511786,0.0401681,0.0170427,-74,-823,48.2121,48.2121,263.23,263.23,1.828
0.0359748,0.0347588,0.0274967,0.00551957,0.0527319,0.0510769,0.0403046,0.0170624,-77,-827,48.3309,48.3309,265.273,265.273,1.832
0.0361861,0.034963,0.0276582,0.00558901,0.0529105,0.0510667,0.0404412,0.0171619,-79,-831,48.4618,48.4618,267.326,267.326,1.836
0.0363981,0.0351637,0.0278202,0.00565811,0.0530893,0.050772,0.0405778,0.0171995,-84,-835,48.602,48.602,269.385,269.385,1.84
0.0366108,0.0353669,0.0279828,0.00572721,0.0532681,0.0507771,0.0407145,0.0172245,-86,-839,48.762,48.762,271.452,271.452,1.844
0.0368243,0.0355662,0.0281459,0.00579216,0.053447,0.0504637,0.0408512,0.0168957,-91,-846,48.9309,48.9309,273.53,273.53,1.848
0.0370384,0.0357649,0.0283096,0.005854,0.0536259,0.0501973,0.040988,0.0164174,-96,-855,49.1215,49.1215,275.633,275.633,1.852
0.0372533,0.0359636,0.0284738,0.00591446,0.053805,0.0500196,0.0411248,0.0159833,-100,-864,49.3316,49.3316,277.767,277.767,1.856
0.0374689,0.0361615,0.0286386,0.00597561,0.0539841,0.0498436,0.0412617,0.0157515,-104,-871,49.5577,49.5577,279.93,279.93,1.86
0.0376852,0.0363533,0.0288039,0.006034,0.0541632,0.049208,0.0413987,0.0153667,-112,-879,49.8013,49.8013,282.113,282.113,1.864
0.0379022,0.036546,0.0289698,0.0060955,0.0543425,0.0488707,0.0415356,0.0153692,-118,-884,50.08,50.08,284.323,284.323,1.868
0.0381199,0.0367368,0.0291362,0.006157,0.0545218,0.0484731,0.0416727,0.015371,-124,-889,50.3823,50.3823,286.544,286.544,1.872
0.0383383,0.0369188,0.0293032,0.00621849,0.0547011,0.0474882,0.0418098,0.0153721,-136,-893,50.7123,50.7123,288.775,288.775,1.876
0.0385575,0.0371009,0.0294707,0.00627965,0.0548806,0.0468316,0.0419469,0.0153441,-145,-898,51.0929,51.0929,291.018,291.018,1.88
0.0387774,0.0372719,0.0296388,0.00633873,0.0550601,0.0454726,0.0420841,0.0151526,-160,-905,51.5132,51.5132,293.273,293.273,1.884
0.038998,0.0374371,0.0298074,0.0063978,0.0552396,0.0440771,0.0422214,0.015025,-177,-911,52.0019,52.0019,295.547,295.547,1.888
0.0392193,0.0375912,0.0299765,0.00645827,0.0554193,0.0422255,0.0423587,0.0150551,-198,-916,52.5621,52.5621,297.837,297.837,1.892
0.0394413,0.0377373,0.0301462,0.00651907,0.0555989,0.0403289,0.042496,0.0151039,-219,-920,53.2126,53.2126,300.137,300.137,1.896
0.0396641,0.0378738,0.0303165,0.00658057,0.0557787,0.0382583,0.0426334,0.0151941,-243,-924,53.9563,53.9563,302.446,302.446,1.9
0.0398876,0.0379978,0.0304873,0.00664241,0.0559585,0.0358415,0.0427708,0.015283,-270,-928,54.8014,54.8014,304.762,304.762,1.904
0.0401118,0.0381298,0.0306587,0.0067084,0.0561383,0.0348925,0.0429083,0.0156877,-283,-929,55.7581,55.7581,307.085,307.085,1.908
0.0403367,0.0382642,0.0308306,0.0067775,0.0563182,0.0344613,0.0430458,0.0162167,-291,-928,56.766,56.766,309.401,309.401,1.912
0.0405623,0.0384093,0.031003,0.00684936,0.0564982,0.0350664,0.0431833,0.0167996,-288,-928,57.8013,57.8013,311.705,311.705,1.916
0.0407887,0.0385665,0.031176,0.00692191,0.0566782,0.0364775,0.0433209,0.0172458,-278,-928,58.8199,58.8199,313.995,313.995,1.92
0.0410157,0.0387389,0.0313496,0.00699378,0.0568583,0.038685,0.0434586,0.0174857,-260,-930,59.7867,59.7867,316.278,316.278,1.924
0.0412435,0.0389268,0.0315237,0.00706875,0.0570384,0.0414523,0.0435962,0.0179048,-237,-931,60.6678,60.6678,318.561,318.561,1.928
0.041472,0.039131,0.0316984,0.0071451,0.0572186,0.0446503,0.0437339,0.0182993,-208,-932,61.4388,61.4388,320.837,320.837,1.932
0.0417013,0.0393476,0.0318736,0.00722145,0.0573988,0.0478188,0.0438717,0.0185623,-180,-934,62.082,62.082,323.108,323.108,1.936
0.0419312,0.0395777,0.0320493,0.00730023,0.057579,0.0510539,0.0440095,0.0189392,-151,-935,62.5976,62.5976,325.377,325.377,1.94
0.0421619,0.039936,0.0322257,0.0074208,0.0577594,0.0638921,0.0441473,0.0226742,-28,-903,62.9533,62.9533,327.631,327.631,1.944
0.0423933,0.0400625,0.0324025,0.00746226,0.0579397,0.0531322,0.0442851,0.018571,-135,-948,62.8331,62.8331,329.758,329.758,1.948
0.0426254,0.040314,0.0325799,0.0075438,0.0581201,0.0563813,0.044423,0.0191753,-105,-947,63.1434,63.1434,332.058,332.058,1.952
0.0428583,0.0405683,0.0327579,0.00762602,0.0583006,0.0587776,0.0445609,0.0196358,-84,-947,63.3241,63.3241,334.343,334.343,1.956
0.0430918,0.0408222,0.0329364,0.00770929,0.058481,0.0603464,0.0446989,0.0200291,-70,-948,63.4114,63.4114,336.619,336.619,1.96
0.0433261,0.0410799,0.0331155,0.0077967,0.0586616,0.061709,0.0448369,0.0206369,-58,-947,63.439,63.439,338.889,338.889,1.964
0.0435611,0.0413359,0.0332951,0.00788687,0.0588421,0.0624734,0.0449749,0.0212723,-53,-945,63.4167,63.4167,341.143,341.143,1.968
0.0437969,0.0415909,0.0334753,0.0079767,0.0590228,0.0628966,0.0451129,0.0216672,-50,-946,63.3694,63.3694,343.38,343.38,1.972
0.0440333,0.0418435,0.033656,0.00806411,0.0592034,0.0629773,0.045251,0.0217289,-51,-950,63.3118,63.3118,345.613,345.613,1.976
0.0442705,0.0420943,0.0338373,0.00815013,0.0593841,0.062887,0.0453891,0.0216549,-53,-955,63.2582,63.2582,347.853,347.853,1.98
0.0445084,0.0423437,0.0340191,0.00823651,0.0595648,0.0627117,0.0455272,0.0216343,-56,-960,63.2159,63.2159,350.107,350.107,1.984
0.044747,0.0425901,0.0342015,0.0083215,0.0597455,0.0623358,0.0456654,0.0215054,-62,-966,63.1888,63.1888,352.373,352.373,1.988
0.0449863,0.0428361,0.0343845,0.00840649,0.0599263,0.0620563,0.0458036,0.0214195,-66,-971,63.1848,63.1848,354.654,354.654,1.992
0.0452264,0.0430831,0.034568,0.0084939,0.0601072,0.0619564,0.0459418,0.0215638,-69,-975,63.1997,63.1997,356.949,356.949,1.996
0.0454672,0.0433277,0.034752,0.00858234,0.060288,0.0616882,0.04608,0.0217463,-73,-977,63.2267,63.2267,359.249,359.249,2
0.0457087,0.043574,0.0349366,0.00866734,0.0604689,0.0616534,0.0462183,0.0215801,-75,-984,63.2721,63.2721,361.552,361.552,2.004
0.045951,0.0438242,0.0351217,0.00875025,0.0606498,0.0619469,0.0463565,0.0212966,-74,-991,63.3255,63.3255,363.873,363.873,2.008
0.0461939,0.0440729,0.0353074,0.00883248,0.0608307,0.0620274,0.0464948,0.02105,-75,-998,63.3743,63.3743,366.217,366.217,2.012
0.0464376,0.0443282,0.0354937,0.00891713,0.0610117,0.0626281,0.0466331,0.0210871,-71,-1003,63.4255,63.4255,368.582,368.582,2.016
0.046682,0.0445766,0.0356805,0.00899728,0.0611927,0.0624527,0.0467715,0.0207375,-74,-1011,63.4606,63.4606,370.957,370.957,2.02
0.0469271,0.044832,0.0358679,0.00907951,0.0613737,0.0629117,0.0469098,0.0206773,-71,-1017,63.5088,63.5088,373.357,373.357,2.024
0.047173,0.0450862,0.0360558,0.0091607,0.0615547,0.0631312,0.0470482,0.0205507,-71,-1023,63.5453,63.5453,375.771,375.771,2.028
0.0474196,0.0453443,0.0362443,0.0092405,0.0617358,0.0635943,0.0471866,0.0203512,-68,-1030,63.579,63.579,378.201,378.201,2.032
0.0476669,0.0456072,0.0364333,0.00932342,0.0619169,0.0643061,0.047325,0.0204773,-63,-1033,63.5994,63.5994,380.65,380.65,2.036
0.0479149,0.0458671,0.0366229,0.00940358,0.062098,0.0645215,0.0474634,0.020331,-62,-1040,63.5978,63.5978,383.105,383.105,2.04
0.0481637,0.0461244,0.036813,0.00948339,0.0622791,0.0644636,0.0476019,0.0202047,-65,-1046,63.5949,63.5949,385.578,385.578,2.044
0.0484131,0.0463773,0.0370037,0.00956492,0.0624602,0.0640507,0.0477403,0.0202645,-70,-1050,63.603,63.603,388.067,388.067,2.048
0.0486633,0.046634,0.0371949,0.00965095,0.0626414,0.0640921,0.0478788,0.0206786,-72,-1051,63.6349,63.6349,390.563,390.563,2.052
0.0489143,0.0468869,0.0373867,0.00973836,0.0628226,0.063803,0.0480172,0.0210698,-76,-1053,63.6735,63.6735,393.053,393.053,2.056
0.0491659,0.0471381,0.0375791,0.0098268,0.0630037,0.0634664,0.0481557,0.021417,-81,-1054,63.7323,63.7323,395.538,395.538,2.06
0.0494183,0.047391,0.037772,0.0099187,0.0631849,0.0633859,0.0482942,0.0219364,-84,-1054,63.8125,63.8125,398.018,398.018,2.064
0.0496714,0.0476418,0.0379654,0.0100137,0.0633662,0.0631595,0.0484327,0.0225418,-88,-1053,63.9042,63.9042,400.486,400.486,2.068
0.0499252,0.0478913,0.0381594,0.0101098,0.0635474,0.0628933,0.0485713,0.0230317,-92,-1053,64.0137,64.0137,402.94,402.94,2.072
0.0501798,0.0481438,0.038354,0.0102103,0.0637286,0.0629751,0.0487098,0.0237326,-94,-1051,64.1415,64.1415,405.383,405.383,2.076
0.0504351,0.0483954,0.0385491,0.0103153,0.0639099,0.0629432,0.0488483,0.0245742,-96,-1048,64.2739,64.2739,407.806,407.806,2.08
0.0506911,0.0486483,0.0387448,0.0104231,0.0640911,0.0630371,0.0489868,0.0253656,-97,-1045,64.4153,64.4153,410.204,410.204,2.084
0.0509478,0.0489018,0.038941,0.0105326,0.0642724,0.0631573,0.0491254,0.0260371,-98,-1043,64.5605,64.5605,412.579,412.579,2.088
0.0512052,0.0491572,0.0391378,0.0106439,0.0644537,0.0633813,0.0492639,0.0266287,-97,-1042,64.7081,64.7081,414.936,414.936,2.092
0.0514634,0.0494101,0.0393351,0.0107603,0.0646349,0.0633292,0.0494025,0.027455,-100,-1039,64.8548,64.8548,417.277,417.277,2.096
0.0517223,0.0496626,0.039533,0.0108774,0.0648162,0.0632656,0.0495411,0.0280635,-102,-1038,65.0119,65.0119,419.593,419.593,2.1
0.051982,0.0499128,0.0397314,0.0109959,0.0649975,0.0630217,0.0496796,0.0285843,-107,-1037,65.1802,65.1802,421.893,421.893,2.104
0.0522423,0.0501653,0.0399304,0.0111151,0.0651788,0.0630606,0.0498182,0.0289891,-108,-1038,65.3664,65.3664,424.182,424.182,2.108
0.0525034,0.0504151,0.04013,0.0112343,0.0653601,0.0628563,0.0499567,0.0292589,-112,-1040,65.5598,65.5598,426.463,426.463,2.112
0.0527652,0.0506639,0.0403301,0.0113556,0.0655414,0.0626336,0.0500953,0.0296116,-117,-1041,65.7703,65.7703,428.743,428.743,2.116
0.0530277,0.050914,0.0405307,0.0114779,0.0657227,0.0626004,0.0502339,0.029933,-119,-1042,65.9981,65.9981,431.018,431.018,2.12
0.053291,0.0511634,0.0407319,0.0115971,0.0659039,0.0625206,0.0503724,0.0298882,-122,-1047,66.2358,66.2358,433.289,433.289,2.124
0.0535549,0.0514118,0.0409337,0.0117146,0.0660852,0.0623811,0.050511,0.0297144,-126,-1053,66.4856,66.4856,435.573,435.573,2.128
0.0538196,0.051663,0.041136,0.0118313,0.0662665,0.0625184,0.0506496,0.0295409,-126,-1060,66.749,66.749,437.874,437.874,2.132
0.0540851,0.0519152,0.0413389,0.011945,0.0664478,0.0626963,0.0507881,0.0291662,-127,-1068,67.0148,67.0148,440.193,440.193,2.136
0.0543512,0.0521667,0.0415423,0.0120563,0.066629,0.0627573,0.0509267,0.0287148,-128,-1077,67.2818,67.2818,442.539,442.539,2.14
0.0546181,0.0524224,0.0417463,0.0121658,0.0668103,0.0631435,0.0510652,0.0282699,-127,-1086,67.5537,67.5537,444.913,444.913,2.144
0.0548857,0.0526798,0.0419509,0.0122725,0.0669916,0.0635449,0.0512037,0.027743,-125,-1096,67.8172,67.8172,447.318,447.318,2.148
0.055154,0.052941,0.042156,0.0123786,0.0671728,0.0641292,0.0513423,0.0273342,-122,-1104,68.0713,68.0713,449.755,449.755,2.152
0.0554231,0.0532032,0.0423616,0.0124867,0.067354,0.0646051,0.0514808,0.0272343,-119,-1110,68.3089,68.3089,452.219,452.219,2.156
0.0556929,0.0534692,0.0425678,0.0125956,0.0675353,0.0652391,0.0516193,0.0272254,-115,-1115,68.5336,68.5336,454.698,454.698,2.16
0.0559634,0.0537394,0.0427746,0.0127034,0.0677165,0.0660072,0.0517578,0.027133,-109,-1121,68.7388,68.7388,457.188,457.188,2.164
0.0562346,0.0540086,0.0429819,0.0128118,0.0678977,0.066433,0.0518963,0.027129,-107,-1126,68.92,68.92,459.693,459.693,2.168
0.0565066,0.0542784,0.0431897,0.0129203,0.0680788,0.0667743,0.0520348,0.0271264,-106,-1131,69.091,69.091,462.208,462.208,2.172
0.0567792,0.0545475,0.0433981,0.0130271,0.06826,0.0669444,0.0521733,0.0269806,-106,-1137,69.2558,69.2558,464.734,464.734,2.176
0.0570526,0.0548153,0.0436071,0.0131366,0.0684412,0.0669425,0.0523117,0.0271138,-108,-1141,69.4218,69.4218,467.277,467.277,2.18
0.0573268,0.0550789,0.0438166,0.0132475,0.0686223,0.0665958,0.0524502,0.0273178,-114,-1144,69.5969,69.5969,469.825,469.825,2.184
0.0576016,0.055337,0.0440267,0.0133581,0.0688034,0.065904,0.0525886,0.0274249,-122,-1148,69.7962,69.7962,472.374,472.374,2.188
0.0578772,0.0555912,0.0442373,0.0134724,0.0689845,0.0651262,0.052727,0.0278131,-132,-1149,70.0339,70.0339,474.929,474.929,2.192
0.0581535,0.0558417,0.0444485,0.0135927,0.0691656,0.0642909,0.0528654,0.0285613,-143,-1147,70.3138,70.3138,477.477,477.477,2.196
0.0584305,0.0560881,0.0446603,0.0137157,0.0693466,0.0633885,0.0530038,0.0292904,-154,-1145,70.6387,70.6387,480.004,480.004,2.2
0.0587083,0.0563292,0.0448726,0.0138393,0.0695277,0.0623551,0.0531422,0.0298341,-166,-1144,71.0119,71.0119,482.511,482.511,2.204
0.0589867,0.05657,0.0450854,0.0139641,0.0697087,0.0616373,0.0532805,0.0302829,-176,-1145,71.4379,71.4379,485.004,485.004,2.208
0.0592659,0.056806,0.0452988,0.0140909,0.0698897,0.0607557,0.0534189,0.0307549,-187,-1145,71.9046,71.9046,487.489,487.489,2.212
0.0595459,0.0570382,0.0455128,0.0142221,0.0700706,0.0598513,0.0535572,0.0314438,-199,-1143,72.419,72.419,489.964,489.964,2.216
0.0598265,0.0572721,0.0457273,0.0143538,0.0702516,0.0593923,0.0536955,0.0319319,-206,-1143,72.9808,72.9808,492.419,492.419,2.22
0.0601079,0.0574994,0.0459423,0.014483,0.0704325,0.0585393,0.0538337,0.0320557,-217,-1147,73.5734,73.5734,494.865,494.865,2.224
0.06039,0.0577257,0.0461579,0.014617,0.0706134,0.0578843,0.053972,0.0325414,-226,-1147,74.2123,74.2123,497.314,497.314,2.228
0.0606728,0.0579534,0.0463741,0.0147504,0.0707942,0.0575627,0.0541102,0.0328075,-232,-1149,74.8887,74.8887,499.754,499.754,2.232
0.0609563,0.0581769,0.0465908,0.0148841,0.070975,0.0570029,0.0542484,0.0330138,-241,-1151,75.59,75.59,502.192,502.192,2.236
0.0612406,0.0584004,0.0468081,0.0150192,0.0711558,0.0566297,0.0543866,0.0332664,-248,-1154,76.3254,76.3254,504.631,504.631,2.24
0.0615256,0.0586253,0.0470259,0.0151532,0.0713366,0.056496,0.0545248,0.0333485,-252,-1158,77.0867,77.0867,507.07,507.07,2.244
0.0618113,0.0588468,0.0472443,0.0152904,0.0715173,0.056119,0.0546629,0.0336623,-259,-1159,77.8651,77.8651,509.514,509.514,2.248
0.0620977,0.0590683,0.0474632,0.0154293,0.071698,0.0558676,0.054801,0.0340155,-265,-1160,78.6701,78.6701,511.955,511.955,2.252
0.0623849,0.0592873,0.0476827,0.0155702,0.0718786,0.0554985,0.0549391,0.0344237,-272,-1161,79.4972,79.4972,514.391,514.391,2.256
0.0626727,0.0595036,0.0479027,0.0157164,0.0720592,0.0550221,0.0550771,0.0351277,-280,-1159,80.3514,80.3514,516.818,516.818,2.26
0.0629613,0.0597171,0.0481233,0.0158643,0.0722398,0.0544742,0.0552152,0.035741,-288,-1158,81.2374,81.2374,519.224,519.224,2.264
0.0632506,0.0599278,0.0483444,0.0160201,0.0724204,0.0538786,0.0553531,0.036812,-298,-1152,82.1584,82.1584,521.613,521.613,2.268
0.0635407,0.0601372,0.0485661,0.01618,0.0726009,0.0533664,0.0554911,0.0378715,-306,-1146,83.1163,83.1163,523.965,523.965,2.272
0.0638315,0.0603435,0.0487884,0.0163504,0.0727813,0.0527658,0.055629,0.0394416,-316,-1135,84.1079,84.1079,526.28,526.28,2.276
0.0641229,0.060547,0.0490112,0.0165286,0.0729617,0.052135,0.0557669,0.0411505,-326,-1123,85.1372,85.1372,528.536,528.536,2.28
0.0644151,0.0607515,0.0492345,0.0167121,0.0731421,0.0518009,0.0559048,0.0427217,-333,-1112,86.2046,86.2046,530.728,530.728,2.284
0.0647081,0.0609546,0.0494584,0.0169,0.0733225,0.051463,0.0560426,0.0441434,-340,-1102,87.2983,87.2983,532.862,532.862,2.288
0.0650017,0.0611585,0.0496828,0.0170956,0.0735027,0.0512953,0.0561804,0.0457246,-345,-1090,88.418,88.418,534.942,534.942,2.292
0.0652961,0.061363,0.0499078,0.0172915,0.073683,0.0512411,0.0563182,0.0468075,-350,-1084,89.5566,89.5566,536.964,536.964,2.296
0.0655912,0.0615693,0.0501334,0.0174908,0.0738632,0.0513489,0.0564559,0.0478174,-352,-1078,90.7092,90.7092,538.947,538.947,2.3
0.065887,0.0617731,0.0503595,0.017686,0.0740433,0.0512193,0.0565936,0.0481451,-358,-1078,91.8699,91.8699,540.897,540.897,2.304
0.0661835,0.061978,0.0505861,0.0178857,0.0742234,0.0512192,0.0567313,0.0487379,-362,-1076,93.048,93.048,542.84,542.84,2.308
0.0664808,0.0621839,0.0508133,0.0180837,0.0744035,0.0513055,0.0568689,0.0489891,-365,-1077,94.238,94.238,544.765,544.765,2.312
0.0667788,0.0623867,0.0510411,0.0182841,0.0745835,0.051104,0.0570065,0.0493582,-371,-1077,95.4373,95.4373,546.687,546.687,2.316
0.0670775,0.0625909,0.0512694,0.0184893,0.0747634,0.0510847,0.057144,0.0500072,-375,-1074,96.657,96.657,548.599,548.599,2.32
0.0673769,0.0627951,0.0514982,0.0186942,0.0749433,0.0510719,0.0572815,0.0504112,-379,-1074,97.8899,97.8899,550.492,550.492,2.324
0.067677,0.0630013,0.0517276,0.0189056,0.0751232,0.0512361,0.057419,0.0512275,-381,-1070,99.1351,99.1351,552.373,552.373,2.328
0.0679779,0.0632093,0.0519576,0.0191177,0.075303,0.0514896,0.0575564,0.0518293,-383,-1067,100.385,100.385,554.227,554.227,2.332
0.0682794,0.0634163,0.0521881,0.0193347,0.0754827,0.0515721,0.0576938,0.0526336,-386,-1063,101.637,101.637,556.061,556.061,2.336
0.0685817,0.0636308,0.0524191,0.0195541,0.0756624,0.0522606,0.0578311,0.0533713,-383,-1059,102.896,102.896,557.868,557.868,2.34
0.0688847,0.0638468,0.0526507,0.0197718,0.075842,0.0528347,0.0579684,0.0537191,-382,-1059,104.138,104.138,559.652,559.652,2.344
0.0691885,0.0640675,0.0528829,0.0199891,0.0760216,0.0536205,0.0581057,0.0539222,-378,-1060,105.367,105.367,561.427,561.427,2.348
0.0694929,0.0642959,0.0531156,0.0201967,0.0762011,0.0547778,0.0582429,0.0532515,-371,-1070,106.572,106.572,563.203,563.203,2.352
0.0697981,0.0645256,0.0533488,0.0203971,0.0763806,0.0556645,0.05838,0.0521997,-366,-1083,107.741,107.741,565.016,565.016,2.356
0.0701039,0.0647595,0.0535826,0.0205906,0.0765599,0.0566011,0.0585172,0.0509227,-360,-1099,108.882,108.882,566.881,566.881,2.36
0.0704105,0.0649948,0.053817,0.0207796,0.0767393,0.0573407,0.0586542,0.0496971,-357,-1115,109.995,109.995,568.808,568.808,2.364
0.0707179,0.0652277,0.0540519,0.0209661,0.0769185,0.0576322,0.0587912,0.0486785,-358,-1128,111.089,111.089,570.795,570.795,2.368
0.0710259,0.0654699,0.0542873,0.0211599,0.0770977,0.0586039,0.0589282,0.0486041,-352,-1133,112.18,112.18,572.83,572.83,2.372
0.0713346,0.0656976,0.0545233,0.0213475,0.0772769,0.0580425,0.0590651,0.0480362,-361,-1142,113.245,113.245,574.878,574.878,2.376
0.0716441,0.0659283,0.0547598,0.0215414,0.0774559,0.0579273,0.059202,0.0481758,-366,-1145,114.344,114.344,576.955,576.955,2.38
0.0719543,0.0661612,0.0549969,0.0217428,0.077635,0.0580233,0.0593388,0.0489023,-369,-1142,115.459,115.459,579.033,579.033,2.384
0.0722652,0.0663934,0.0552345,0.0219456,0.0778139,0.0580297,0.0594756,0.0495018,-372,-1140,116.582,116.582,581.088,581.088,2.388
0.0725768,0.0666248,0.0554727,0.0221539,0.0779928,0.0579764,0.0596123,0.0503621,-377,-1135,117.716,117.716,583.125,583.125,2.392
0.0728891,0.0668584,0.0557114,0.0223643,0.0781716,0.0581136,0.059749,0.0511084,-379,-1132,118.863,118.863,585.132,585.132,2.396
0.0732022,0.067093,0.0559507,0.0225744,0.0783503,0.0582914,0.0598856,0.0515772,-381,-1131,120.016,120.016,587.116,587.116,2.4
0.0735159,0.0673238,0.0561905,0.0227865,0.0785289,0.0580933,0.0600221,0.0520624,-387,-1130,121.173,121.173,589.087,589.087,2.404
0.0738304,0.0675563,0.0564309,0.0229959,0.0787075,0.0581052,0.0601586,0.0521556,-390,-1132,122.351,122.351,591.046,591.046,2.408
0.0741456,0.067785,0.0566718,0.0232046,0.078886,0.0577964,0.0602951,0.0521601,-397,-1136,123.54,123.54,593.008,593.008,2.412
0.0744615,0.068012,0.0569132,0.0234146,0.0790645,0.0574465,0.0604314,0.0522783,-405,-1138,124.754,124.754,594.977,594.977,2.416
0.0747781,0.0682386,0.0571552,0.0236285,0.0792428,0.0571845,0.0605678,0.0526738,-411,-1138,125.996,125.996,596.948,596.948,2.42
0.0750954,0.0684656,0.0573978,0.0238458,0.0794211,0.0570387,0.0607041,0.0532253,-416,-1136,127.26,127.26,598.908,598.908,2.424
0.0754135,0.0686919,0.0576409,0.0240686,0.0795993,0.0568838,0.0608403,0.0540537,-422,-1132,128.542,128.542,600.852,600.852,2.428
0.0757322,0.0689203,0.0578845,0.0242963,0.0797775,0.0569534,0.0609764,0.055009,-425,-1126,129.842,129.842,602.766,602.766,2.432
0.0760517,0.0691494,0.0581287,0.0245302,0.0799555,0.0570573,0.0611125,0.0561641,-428,-1118,131.152,131.152,604.646,604.646,2.436
0.0763719,0.0693826,0.0583734,0.0247683,0.0801335,0.0574721,0.0612485,0.0572797,-428,-1111,132.467,132.467,606.484,606.484,2.44
0.0766928,0.0696182,0.0586187,0.0250142,0.0803114,0.0579501,0.0613845,0.0586856,-428,-1100,133.777,133.777,608.279,608.279,2.444
0.0770144,0.0698548,0.0588645,0.0252654,0.0804892,0.0583552,0.0615204,0.0600547,-428,-1090,135.079,135.079,610.021,610.021,2.448
0.0773367,0.0700943,0.0591108,0.0255207,0.0806669,0.0588556,0.0616563,0.061313,-427,-1081,136.374,136.374,611.71,611.71,2.452
0.0776597,0.070334,0.0593577,0.0257802,0.0808446,0.059218,0.061792,0.0624973,-427,-1073,137.66,137.66,613.351,613.351,2.456
0.0779834,0.0705731,0.0596052,0.0260459,0.0810222,0.059402,0.0619278,0.0638051,-429,-1063,138.943,138.943,614.947,614.947,2.46
0.0783079,0.0708105,0.0598532,0.0263147,0.0811996,0.0593807,0.0620634,0.0649361,-434,-1055,140.231,140.231,616.493,616.493,2.464
0.078633,0.0710482,0.0601017,0.0265897,0.081377,0.0593953,0.062199,0.0662083,-437,-1045,141.53,141.53,617.995,617.995,2.468
0.0789589,0.0712862,0.0603507,0.0268699,0.0815543,0.0594338,0.0623345,0.0674883,-441,-1035,142.842,142.842,619.448,619.448,2.472
0.0792855,0.0715274,0.0606004,0.027158,0.0817316,0.0597186,0.06247,0.0690038,-442,-1023,144.162,144.162,620.85,620.85,2.476
0.0796127,0.0717706,0.0608505,0.0274489,0.0819087,0.0600812,0.0626054,0.0702445,-443,-1013,145.482,145.482,622.192,622.192,2.48
0.0799407,0.0720173,0.0611012,0.0277426,0.0820857,0.0606109,0.0627407,0.071302,-441,-1005,146.798,146.798,623.486,623.486,2.484
0.0802694,0.0722684,0.0613524,0.0280369,0.0822627,0.0613382,0.0628759,0.0720645,-438,-1000,148.101,148.101,624.74,624.74,2.488
0.0805988,0.0725245,0.0616042,0.0283327,0.0824395,0.0622262,0.0630111,0.072688,-434,-996,149.385,149.385,625.965,625.965,2.492
0.0809289,0.072785,0.0618565,0.0286281,0.0826163,0.0631925,0.0631462,0.0730749,-428,-994,150.641,150.641,627.168,627.168,2.496
0.0812598,0.0730493,0.0621094,0.0289249,0.082793,0.0641534,0.0632813,0.073448,-422,-993,151.867,151.867,628.359,628.359,2.5
0.0815913,0.0733177,0.0623628,0.0292223,0.0829695,0.0651395,0.0634162,0.0737543,-416,-992,153.063,153.063,629.537,629.537,2.504
0.0819235,0.0735917,0.0626167,0.029516,0.083146,0.0662575,0.0635511,0.0736418,-409,-995,154.227,154.227,630.708,630.708,2.508
0.0822565,0.0738691,0.0628712,0.0298097,0.0833224,0.0672908,0.0636859,0.0735668,-402,-997,155.353,155.353,631.886,631.886,2.512
0.0825901,0.074151,0.0631262,0.0301019,0.0834987,0.0683539,0.0638207,0.0734017,-396,-1001,156.446,156.446,633.073,633.073,2.516
0.0829244,0.0744367,0.0633817,0.0303963,0.0836749,0.0693794,0.0639553,0.0734643,-389,-1003,157.503,157.503,634.269,634.269,2.52
0.0832595,0.0747273,0.0636378,0.0306948,0.083851,0.0704661,0.0640899,0.0738516,-382,-1001,158.526,158.526,635.465,635.465,2.524
0.0835953,0.0750241,0.0638945,0.0309937,0.084027,0.0717088,0.0642244,0.0741385,-373,-1000,159.512,159.512,636.649,636.649,2.528
0.0839317,0.0753288,0.0641516,0.0312984,0.0842029,0.0731995,0.0643589,0.0748193,-361,-996,160.454,160.454,637.824,637.824,2.532
0.0842689,0.0756373,0.0644093,0.0316028,0.0843787,0.0745099,0.0644933,0.0752443,-352,-993,161.341,161.341,638.974,638.974,2.536
0.0846067,0.0759441,0.0646676,0.0319002,0.0845544,0.0752396,0.0646275,0.0749519,-347,-998,162.183,162.183,640.111,640.111,2.54
0.0849453,0.0762571,0.0649264,0.032205,0.0847299,0.0762443,0.0647617,0.0753615,-341,-996,163.002,163.002,641.262,641.262,2.544
0.0852846,0.0765778,0.0651857,0.0325145,0.0849054,0.0775475,0.0648959,0.0760377,-331,-992,163.786,163.786,642.399,642.399,2.548
0.0856246,0.0768925,0.0654455,0.0328223,0.0850808,0.0779269,0.0650299,0.0763445,-330,-991,164.525,164.525,643.511,643.511,2.552
0.0859652,0.0772142,0.0657059,0.0331385,0.0852561,0.0787556,0.0651639,0.07724,-324,-984,165.255,165.255,644.612,644.612,2.556
0.0863066,0.0775379,0.0659668,0.0334577,0.0854312,0.0794808,0.0652978,0.0780962,-320,-977,165.959,165.959,645.678,645.678,2.56
0.0866487,0.0778661,0.0662283,0.0337794,0.0856063,0.0803386,0.0654316,0.0788685,-314,-971,166.64,166.64,646.711,646.711,2.564
0.0869915,0.0781888,0.0664903,0.0340955,0.0857812,0.0804498,0.0655653,0.0789227,-316,-973,167.294,167.294,647.716,647.716,2.568
0.0873349,0.078516,0.0667528,0.0344099,0.0859561,0.0808982,0.0656989,0.0788149,-314,-975,167.951,167.951,648.722,648.722,2.572
0.0876791,0.0788428,0.0670159,0.0347181,0.0861308,0.0811683,0.0658325,0.0782247,-314,-983,168.598,168.598,649.737,649.737,2.576
0.088024,0.0791679,0.0672795,0.0350214,0.0863054,0.0812045,0.0659659,0.0774283,-316,-992,169.242,169.242,650.782,650.782,2.58
0.0883695,0.0794916,0.0675436,0.0353154,0.0864799,0.0811134,0.0660993,0.0761199,-319,-1007,169.893,169.893,651.866,651.866,2.584
0.0887158,0.0798133,0.0678083,0.0356042,0.0866543,0.08088,0.0662326,0.0748158,-324,-1022,170.558,170.558,653.009,653.009,2.588
0.0890628,0.0801342,0.0680735,0.0358862,0.0868286,0.0806667,0.0663658,0.0733706,-329,-1038,171.24,171.24,654.213,654.213,2.592
0.0894104,0.0804511,0.0683392,0.0361577,0.0870028,0.0801791,0.0664989,0.0715434,-336,-1058,171.942,171.942,655.483,655.483,2.596
0.0897588,0.0807675,0.0686055,0.0364227,0.0871768,0.0798252,0.066632,0.0697782,-343,-1077,172.673,172.673,656.837,656.837,2.6
0.0901079,0.0810809,0.0688722,0.0366836,0.0873508,0.0793302,0.0667649,0.068256,-350,-1095,173.428,173.428,658.271,658.271,2.604
0.0904576,0.0813936,0.0691396,0.0369451,0.0875246,0.0789426,0.0668978,0.0672987,-357,-1107,174.213,174.213,659.773,659.773,2.608
0.0908081,0.0817059,0.0694074,0.0372056,0.0876983,0.0786554,0.0670305,0.0665742,-362,-1117,175.024,175.024,661.321,661.321,2.612
0.0911592,0.0820179,0.0696758,0.0374692,0.0878718,0.0784351,0.0671632,0.0663503,-368,-1122,175.856,175.856,662.905,662.905,2.616
0.091511,0.0823302,0.0699447,0.0377408,0.0880453,0.0783171,0.0672958,0.0668632,-372,-1120,176.707,176.707,664.501,664.501,2.62
0.0918636,0.0826473,0.0702142,0.0380171,0.0882186,0.0786415,0.0674283,0.0676082,-371,-1115,177.57,177.57,666.081,666.081,2.624
0.0922168,0.082968,0.0704842,0.0383025,0.0883919,0.0791456,0.0675607,0.0688534,-369,-1106,178.429,178.429,667.633,667.633,2.628
0.0925707,0.0832934,0.0707547,0.0385958,0.088565,0.0798848,0.067693,0.0703458,-365,-1094,179.274,179.274,669.136,669.136,2.632
0.0929253,0.0836254,0.0710257,0.0388968,0.0887379,0.0809246,0.0678252,0.0719741,-358,-1081,180.095,180.095,670.58,670.58,2.636
0.0932806,0.0839619,0.0712973,0.0392056,0.0889108,0.0819921,0.0679573,0.0737218,-350,-1066,180.88,180.88,671.958,671.958,2.64
0.0936366,0.084304,0.0715694,0.0395166,0.0890835,0.0831644,0.0680893,0.0750597,-341,-1056,181.628,181.628,673.268,673.268,2.644
0.0939933,0.0846498,0.071842,0.0398337,0.0892561,0.0842627,0.0682212,0.0764699,-333,-1044,182.334,182.334,674.524,674.524,2.648
0.0943506,0.0849991,0.0721151,0.0401561,0.0894286,0.0852827,0.068353,0.0778418,-326,-1033,183.001,183.001,675.724,675.724,2.652
0.0947087,0.0853494,0.0723888,0.0404829,0.0896009,0.0860492,0.0684848,0.0791308,-321,-1022,183.633,183.633,676.869,676.869,2.656
0.0950674,0.0857025,0.072663,0.0408156,0.0897731,0.0867904,0.0686164,0.0804795,-316,-1011,184.24,184.24,677.963,677.963,2.66
0.0954269,0.0860553,0.0729377,0.0411563,0.0899452,0.0872558,0.0687479,0.0820409,-314,-998,184.824,184.824,679.001,679.001,2.664
0.095787,0.0864087,0.073213,0.0415035,0.0901172,0.0876237,0.0688794,0.0836288,-313,-984,185.396,185.396,679.976,679.976,2.668
0.0961478,0.0867587,0.0734888,0.0418545,0.090289,0.087581,0.0690107,0.0850041,-315,-972,185.961,185.961,680.885,680.885,2.672
0.0965093,0.087109,0.0737651,0.0422114,0.0904607,0.0875813,0.0691419,0.0864104,-318,-960,186.535,186.535,681.739,681.739,2.676
0.0968715,0.0874559,0.0740419,0.0425714,0.0906322,0.0872936,0.069273,0.0876071,-323,-950,187.119,187.119,682.535,682.535,2.68
0.0972344,0.0878007,0.0743193,0.0429328,0.0908037,0.0869291,0.0694041,0.08852,-329,-942,187.723,187.723,683.282,683.282,2.684
0.0975979,0.0881434,0.0745971,0.0432956,0.0909749,0.0865133,0.069535,0.0892438,-335,-936,188.35,188.35,683.993,683.993,2.688
0.0979622,0.0884855,0.0748755,0.043658,0.0911461,0.0861786,0.0696658,0.0896976,-341,-933,189.004,189.004,684.675,684.675,2.692
0.0983271,0.0888289,0.0751545,0.0440214,0.0913171,0.0860706,0.0697965,0.0900864,-345,-930,189.68,189.68,685.34,685.34,2.696
0.0986927,0.089173,0.0754339,0.0443828,0.091488,0.0860561,0.0699271,0.0901729,-347,-930,190.368,190.368,685.991,685.991,2.7
0.099059,0.0895185,0.0757139,0.0447414,0.0916588,0.0861617,0.0700576,0.0900003,-349,-933,191.065,191.065,686.64,686.64,2.704
0.099426,0.0898681,0.0759944,0.0450963,0.0918294,0.0865775,0.070188,0.0895685,-347,-938,191.765,191.765,687.299,687.299,2.708
0.0997936,0.0902181,0.0762754,0.0454445,0.0919998,0.0868836,0.0703183,0.0887336,-347,-947,192.455,192.455,687.98,687.98,2.712
0.100162,0.0905715,0.0765569,0.0457872,0.0921702,0.0873755,0.0704485,0.0877163,-345,-958,193.14,193.14,688.699,688.699,2.716
0.100531,0.090926,0.076839,0.0461258,0.0923403,0.0877898,0.0705786,0.0866926,-343,-969,193.812,193.812,689.464,689.464,2.72
0.100901,0.0912825,0.0771216,0.0464596,0.0925104,0.0882388,0.0707086,0.0856071,-341,-981,194.474,194.474,690.275,690.275,2.724
0.101271,0.0916394,0.0774046,0.0467912,0.0926803,0.0885669,0.0708384,0.0847107,-341,-992,195.125,195.125,691.134,691.134,2.728
0.101642,0.0919974,0.0776883,0.0471208,0.09285,0.088872,0.0709682,0.0839403,-340,-1001,195.771,195.771,692.035,692.035,2.732
0.102014,0.0923529,0.0779724,0.0474459,0.0930197,0.0888739,0.0710978,0.0830525,-343,-1011,196.412,196.412,692.971,692.971,2.736
0.102386,0.0927098,0.078257,0.0477693,0.0931891,0.0889903,0.0712274,0.0823166,-344,-1020,197.06,197.06,693.949,693.949,2.74
0.102759,0.0930649,0.0785422,0.0480879,0.0933585,0.0889239,0.0713568,0.081423,-347,-1030,197.712,197.712,694.962,694.962,2.744
0.103133,0.0934201,0.0788279,0.0484071,0.0935276,0.0888797,0.0714861,0.0808848,-350,-1037,198.375,198.375,696.015,696.015,2.748
0.103508,0.0937742,0.0791141,0.0487253,0.0936967,0.0887638,0.0716153,0.0804396,-354,-1043,199.048,199.048,697.095,697.095,2.752
0.103883,0.0941301,0.0794008,0.0490459,0.0938655,0.0888305,0.0717444,0.0803444,-355,-1046,199.734,199.734,698.197,698.197,2.756
0.104259,0.0944853,0.0796881,0.0493607,0.0940343,0.0888174,0.0718733,0.0797915,-358,-1054,200.426,200.426,699.308,699.308,2.76
0.104635,0.0948432,0.0799758,0.0496782,0.0942029,0.089039,0.0720022,0.0796532,-359,-1057,201.125,201.125,700.445,700.445,2.764
0.105012,0.0952018,0.0802641,0.0499929,0.0943713,0.0892443,0.0721309,0.0793306,-359,-1062,201.823,201.823,701.593,701.593,2.768
0.10539,0.0955649,0.0805529,0.0503049,0.0945396,0.0897555,0.0722595,0.0788853,-357,-1069,202.519,202.519,702.759,702.759,2.772
0.105768,0.0959297,0.0808421,0.0506148,0.0947077,0.0902402,0.0723881,0.0784157,-354,-1075,203.202,203.202,703.948,703.948,2.776
0.106148,0.096297,0.081132,0.0509192,0.0948757,0.0907649,0.0725164,0.0776419,-352,-1085,203.871,203.871,705.163,705.163,2.78
0.106527,0.0966653,0.0814223,0.0512229,0.0950435,0.0912011,0.0726447,0.0770685,-350,-1093,204.527,204.527,706.415,706.415,2.784
0.106908,0.0970367,0.0817131,0.0515248,0.0952112,0.0917509,0.0727729,0.0765423,-347,-1100,205.171,205.171,707.695,707.695,2.788
0.107289,0.0974098,0.0820045,0.0518247,0.0953787,0.0922615,0.0729009,0.0760187,-344,-1108,205.799,205.799,709.003,709.003,2.792
0.107671,0.0977843,0.0822963,0.0521232,0.095546,0.092717,0.0730288,0.0755545,-342,-1115,206.413,206.413,710.338,710.338,2.796
0.108054,0.0981599,0.0825887,0.0524203,0.0957132,0.0931071,0.0731566,0.0751299,-341,-1121,207.015,207.015,711.698,711.698,2.8
0.108437,0.0985368,0.0828816,0.0527181,0.0958803,0.0934823,0.0732843,0.0749043,-339,-1126,207.608,207.608,713.08,713.08,2.804
0.108821,0.0989151,0.083175,0.0530198,0.0960471,0.0938476,0.0734118,0.0750707,-338,-1127,208.193,208.193,714.476,714.476,2.808
0.109205,0.0992931,0.0834689,0.0533241,0.0962139,0.0940623,0.0735393,0.0754119,-338,-1126,208.769,208.769,715.869,715.869,2.812
0.10959,0.0996721,0.0837633,0.0536295,0.0963804,0.0942919,0.0736666,0.0757258,-338,-1126,209.344,209.344,717.253,717.253,2.816
0.109976,0.100052,0.0840582,0.0539395,0.0965468,0.0945025,0.0737938,0.0763093,-339,-1122,209.917,209.917,718.627,718.627,2.82
0.110363,0.100433,0.0843536,0.0542525,0.0967131,0.0947292,0.0739208,0.0769575,-339,-1119,210.488,210.488,719.982,719.982,2.824
0.11075,0.100813,0.0846496,0.0545676,0.0968791,0.0948804,0.0740478,0.0775623,-339,-1115,211.057,211.057,721.313,721.313,2.828
0.111138,0.101195,0.084946,0.0548878,0.0970451,0.0950964,0.0741746,0.0783974,-340,-1109,211.627,211.627,722.623,722.623,2.832
0.111526,0.101577,0.085243,0.0552102,0.0972108,0.0951828,0.0743012,0.0791269,-341,-1105,212.195,212.195,723.901,723.901,2.836
0.111915,0.101958,0.0855404,0.0555363,0.0973764,0.0952116,0.0744278,0.0799299,-343,-1099,212.767,212.767,725.153,725.153,2.84
0.112305,0.102338,0.0858384,0.0558638,0.0975418,0.0951444,0.0745542,0.0805804,-346,-1095,213.346,213.346,726.375,726.375,2.844
0.112696,0.102716,0.0861369,0.05619,0.097707,0.0949557,0.0746805,0.0808989,-350,-1094,213.935,213.935,727.575,727.575,2.848
0.113087,0.103096,0.0864358,0.0565134,0.0978721,0.094945,0.0748067,0.0808809,-352,-1096,214.539,214.539,728.765,728.765,2.852
0.113479,0.103477,0.0867353,0.0568374,0.098037,0.0950818,0.0749328,0.0809265,-353,-1098,215.151,215.151,729.961,729.961,2.856
0.113871,0.103859,0.0870353,0.0571622,0.0982018,0.0952307,0.0750587,0.0810145,-354,-1099,215.765,215.765,731.159,731.159,2.86
0.114264,0.104244,0.0873358,0.0574901,0.0983664,0.0955602,0.0751845,0.0813322,-353,-1098,216.379,216.379,732.356,732.356,2.864
0.114658,0.104631,0.0876368,0.057819,0.0985308,0.0958951,0.0753101,0.0816304,-352,-1098,216.987,216.987,733.545,733.545,2.868
0.115053,0.105019,0.0879383,0.0581462,0.098695,0.0963198,0.0754357,0.0816853,-351,-1099,217.587,217.587,734.725,734.725,2.872
0.115448,0.105413,0.0882403,0.0584726,0.0988591,0.0970637,0.0755611,0.0816643,-346,-1101,218.176,218.176,735.907,735.907,2.876
0.115843,0.105809,0.0885427,0.0587915,0.099023,0.0976747,0.0756863,0.0810169,-342,-1110,218.74,218.74,737.096,737.096,2.88
0.11624,0.10621,0.0888457,0.0591077,0.0991867,0.0985427,0.0758115,0.080355,-336,-1119,219.285,219.285,738.317,738.317,2.884
0.116637,0.106612,0.0891492,0.0594193,0.0993502,0.0992078,0.0759365,0.0795394,-331,-1129,219.8,219.8,739.571,739.571,2.888
0.117035,0.107016,0.0894532,0.0597323,0.0995136,0.0997951,0.0760613,0.0791108,-328,-1135,220.293,220.293,740.864,740.864,2.892
0.117433,0.107419,0.0897577,0.0600477,0.0996768,0.1001,0.0761861,0.0790267,-327,-1138,220.769,220.769,742.179,742.179,2.896
0.117832,0.10782,0.0900627,0.0603684,0.0998398,0.10016,0.0763107,0.0794024,-328,-1137,221.239,221.239,743.5,743.5,2.9
0.118232,0.108221,0.0903682,0.0606897,0.100003,0.100171,0.0764351,0.0797105,-330,-1137,221.714,221.714,744.811,744.811,2.904
0.118632,0.108619,0.0906742,0.0610113,0.100165,0.0999188,0.0765594,0.0799447,-334,-1137,222.196,222.196,746.113,746.113,2.908
0.119033,0.109015,0.0909807,0.061333,0.100328,0.0996645,0.0766836,0.0801008,-339,-1137,222.695,222.695,747.41,747.41,2.912
0.119435,0.109409,0.0912877,0.0616529,0.10049,0.0992359,0.0768077,0.0800609,-345,-1140,223.213,223.213,748.706,748.706,2.916
0.119837,0.109804,0.0915952,0.0619749,0.100652,0.0990653,0.0769316,0.0802071,-349,-1141,223.756,223.756,750.007,750.007,2.92
0.12024,0.110197,0.0919031,0.0622983,0.100814,0.0988364,0.0770554,0.0804197,-354,-1141,224.314,224.314,751.306,751.306,2.924
0.120644,0.110594,0.0922116,0.0626265,0.100976,0.0990005,0.077179,0.0809645,-354,-1138,224.888,224.888,752.6,752.6,2.928
0.121048,0.110989,0.0925206,0.0629568,0.101137,0.0988796,0.0773025,0.0815005,-358,-1135,225.462,225.462,753.876,753.876,2.932
0.121453,0.111384,0.09283,0.0632933,0.101299,0.0988565,0.0774259,0.082376,-360,-1129,226.049,226.049,755.131,755.131,2.936
0.121858,0.11178,0.09314,0.0636336,0.10146,0.0988987,0.0775491,0.0832764,-362,-1123,226.644,226.644,756.354,756.354,2.94
0.122264,0.112175,0.0934504,0.0639777,0.101621,0.0988405,0.0776721,0.0841934,-365,-1116,227.245,227.245,757.542,757.542,2.944
0.122671,0.112571,0.0937613,0.064326,0.101782,0.0989169,0.0777951,0.0851502,-366,-1109,227.855,227.855,758.694,758.694,2.948
0.123079,0.11297,0.0940728,0.0646794,0.101943,0.0991405,0.0779179,0.0862199,-366,-1100,228.469,228.469,759.809,759.809,2.952
0.123487,0.113369,0.0943847,0.0650352,0.102103,0.0994048,0.0780405,0.0871346,-366,-1093,229.08,229.08,760.882,760.882,2.956
0.123895,0.113771,0.0946971,0.0653949,0.102263,0.0996961,0.078163,0.0880611,-365,-1086,229.688,229.688,761.92,761.92,2.96
0.124305,0.114174,0.09501,0.065758,0.102423,0.100121,0.0782854,0.0889666,-364,-1079,230.289,230.289,762.921,762.921,2.964
0.124715,0.11458,0.0953234,0.0661267,0.102583,0.100548,0.0784076,0.090031,-362,-1070,230.88,230.88,763.886,763.886,2.968
0.125125,0.114986,0.0956372,0.0664974,0.102743,0.100861,0.0785296,0.0909133,-361,-1063,231.46,231.46,764.809,764.809,2.972
0.125537,0.115393,0.0959516,0.0668719,0.102902,0.101185,0.0786516,0.0918183,-360,-1056,232.033,232.033,765.697,765.697,2.976
0.125949,0.1158,0.0962665,0.067246,0.103062,0.101344,0.0787733,0.0923927,-360,-1052,232.6,232.6,766.55,766.55,2.98
0.126361,0.116205,0.0965818,0.0676192,0.103221,0.101305,0.078895,0.0926894,-363,-1050,233.168,233.168,767.381,767.381,2.984
0.126774,0.116609,0.0968976,0.0679902,0.10338,0.101251,0.0790164,0.0927144,-366,-1051,233.745,233.745,768.204,768.204,2.988
0.127188,0.117014,0.0972139,0.0683623,0.103539,0.101244,0.0791378,0.0928174,-368,-1052,234.331,234.331,769.027,769.027,2.992
0.127603,0.117414,0.0975307,0.0687323,0.103697,0.100778,0.079259,0.0927133,-375,-1054,234.926,234.926,769.849,769.849,2.996
0.128018,0.117813,0.097848,0.0691041,0.103856,0.100468,0.07938,0.0927879,-380,-1055,235.548,235.548,770.678,770.678,3
0.128434,0.118213,0.0981658,0.0694762,0.104014,0.100261,0.0795009,0.0928664,-384,-1056,236.19,236.19,771.505,771.505,3.004
0.12885,0.118613,0.098484,0.0698455,0.104172,0.100209,0.0796216,0.0926885,-387,-1059,236.848,236.848,772.333,772.333,3.008
0.129267,0.119015,0.0988027,0.0702135,0.104329,0.100348,0.0797422,0.0924546,-388,-1062,237.515,237.515,773.171,773.171,3.012
0.129685,0.119419,0.0991219,0.0705793,0.104487,0.100555,0.0798626,0.092126,-389,-1067,238.183,238.183,774.022,774.022,3.016
0.130103,0.119826,0.0994416,0.070949,0.104644,0.100895,0.0799829,0.0922236,-388,-1068,238.85,238.85,774.889,774.889,3.02
0.130522,0.120234,0.0997618,0.0713218,0.104801,0.101323,0.080103,0.0925478,-386,-1066,239.509,239.509,775.754,775.754,3.024
0.130941,0.120638,0.100082,0.0716925,0.104958,0.101205,0.080223,0.0925912,-389,-1067,240.158,240.158,776.608,776.608,3.028
0.131361,0.121045,0.100404,0.0720646,0.105115,0.101357,0.0803428,0.0927353,-390,-1067,240.819,240.819,777.462,777.462,3.032
0.131782,0.121454,0.100725,0.0724391,0.105272,0.101689,0.0804625,0.0930329,-389,-1065,241.481,241.481,778.313,778.313,3.036
0.132204,0.121864,0.101047,0.0728112,0.105428,0.10191,0.080582,0.0930298,-389,-1067,242.136,242.136,779.155,779.155,3.04
