peachynonah/Fire_monitor_KIRO_CDSL/csv_datas/trial12/cdsl_data_deb.csv
joint1_pos_desired, joint1_pos, joint2_pos_desired, joint2_pos, joint1_vel_desired, joint1_vel_filtered, joint2_vel_desired, joint2_vel_filtered, target_torque_joint1, target_torque_joint2, estimated_disturbance_joint1, saturated_DOB_joint1, estimated_disturbance_joint2, saturated_DOB_joint2, current_time
0.036394,0.0372899,0.218861,0.0187001,3.76499e-07,0,0.0500001,0,0,0,0,0,23.0522,1,0.004
0.036394,0.0372899,0.219061,0.0187001,1.50479e-06,0,0.0500006,0,0,0,0.0102628,0.0102628,20.1099,1,0.008
0.036394,0.0372902,0.219261,0.0187001,3.38307e-06,2.87909e-05,0.0500013,0,0,0,0.0205328,0.0205328,17.1783,1,0.012
0.036394,0.0372902,0.219461,0.0187001,6.00952e-06,1.91939e-05,0.0500023,0,0,0,0.031087,0.031087,14.2575,1,0.016
0.0363941,0.0372902,0.219661,0.0187001,9.38236e-06,1.2796e-05,0.0500036,0,0,0,0.0415026,0.0415026,11.3472,1,0.02
0.0363941,0.0372899,0.219861,0.0187001,1.34998e-05,-2.02603e-05,0.0500052,0,0,0,0.0517863,0.0517863,8.44757,1,0.024
0.0363942,0.0372899,0.220061,0.0187001,1.836e-05,-1.35069e-05,0.050007,0,0,0,0.0616675,0.0616675,5.55845,1,0.028
0.0363943,0.0372899,0.220261,0.0187001,2.39611e-05,-9.00457e-06,0.0500092,0,0,0,0.0715675,0.0715675,2.67982,1,0.032
0.0363944,0.0372899,0.220461,0.0187001,3.03014e-05,-6.00305e-06,0.0500116,0,0,0,0.0814523,0.0814523,-0.188366,-0.188366,0.036
0.0363945,0.0372899,0.220661,0.0187001,3.73792e-05,-4.00203e-06,0.0500143,0,0,0,0.0912963,0.0912963,-3.05143,-1,0.04
0.0363947,0.0372899,0.220861,0.0187001,4.51925e-05,-2.66802e-06,0.0500173,0,0,0,0.10108,0.10108,-5.90771,-1,0.044
0.0363949,0.0372899,0.221061,0.0186994,5.37396e-05,-1.77868e-06,0.0500205,-5.75818e-05,0,0,0.110786,0.110786,-8.75371,-1,0.048
0.0363951,0.0372895,0.221261,0.0187001,6.30187e-05,-2.99767e-05,0.0500241,1.91939e-05,0,0,0.120381,0.120381,-11.59,-1,0.052
0.0363954,0.0372895,0.221462,0.0187001,7.3028e-05,-1.99845e-05,0.0500279,1.2796e-05,0,0,0.129567,0.129567,-14.4152,-1,0.056
0.0363957,0.0372895,0.221662,0.0187001,8.37657e-05,-1.3323e-05,0.050032,8.53064e-06,0,0,0.138746,0.138746,-17.2304,-1,0.06
0.036396,0.0372895,0.221862,0.0187001,9.52301e-05,-8.88199e-06,0.0500363,5.6871e-06,0,0,0.147873,0.147873,-20.0354,-1,0.064
0.0363964,0.0372899,0.222062,0.0187001,0.000107419,2.28696e-05,0.050041,3.7914e-06,0,0,0.156934,0.156934,-22.8304,-1,0.068
0.0363969,0.0372895,0.222262,0.0187001,0.000120332,-1.35445e-05,0.0500459,2.5276e-06,0,0,0.16617,0.16617,-25.6153,-1,0.072
0.0363974,0.0372895,0.222462,0.0187001,0.000133965,-9.02968e-06,0.0500511,1.68507e-06,0,0,0.17486,0.17486,-28.3903,-1,0.076
0.036398,0.0372895,0.222663,0.0187001,0.000148318,-6.01979e-06,0.0500566,1.12338e-06,0,0,0.183438,0.183438,-31.1554,-1,0.08
0.0363986,0.0372895,0.222863,0.0187001,0.000163389,-4.01319e-06,0.0500623,7.48918e-07,0,0,0.191878,0.191878,-33.9105,-1,0.084
0.0363993,0.0372895,0.223063,0.0187001,0.000179176,-2.67546e-06,0.0500683,4.99279e-07,0,0,0.200161,0.200161,-36.6559,-1,0.088
0.0364,0.0372895,0.223263,0.0187001,0.000195676,-1.78364e-06,0.0500746,3.32852e-07,0,0,0.208269,0.208269,-39.3914,-1,0.092
0.0364008,0.0372895,0.223464,0.0187001,0.00021289,-1.18909e-06,0.0500812,2.21902e-07,0,0,0.216189,0.216189,-42.1171,-1,0.096
0.0364017,0.0372895,0.223664,0.0187001,0.000230814,-7.92729e-07,0.050088,1.47934e-07,0,0,0.223908,0.223908,-44.8332,-1,0.1
0.0364027,0.0372895,0.223864,0.0187001,0.000249446,-5.28486e-07,0.0500951,9.86229e-08,0,0,0.231416,0.231416,-47.5396,-1,0.104
0.0364037,0.0372895,0.224065,0.0187001,0.000268786,-3.52324e-07,0.0501025,6.57486e-08,0,0,0.238702,0.238702,-50.2364,-1,0.108
0.0364048,0.0372895,0.224265,0.0187001,0.000288831,-2.34883e-07,0.0501101,4.38324e-08,0,0,0.245755,0.245755,-52.9236,-1,0.112
0.036406,0.0372895,0.224466,0.0187001,0.00030958,-1.56589e-07,0.050118,2.92216e-08,0,0,0.252567,0.252567,-55.6013,-1,0.116
0.0364073,0.0372895,0.224666,0.0186994,0.00033103,-1.04392e-07,0.0501262,-5.75624e-05,0,0,0.259128,0.259128,-58.2695,-1,0.12
0.0364087,0.0372895,0.224867,0.0187004,0.00035318,-6.95949e-08,0.0501346,4.79979e-05,0,0,0.265428,0.265428,-60.9289,-1,0.124
0.0364101,0.0372895,0.225067,0.0187001,0.000376029,-4.63966e-08,0.0501433,3.20765e-06,0,0,0.271459,0.271459,-63.5778,-1,0.128
0.0364117,0.0372895,0.225268,0.0187001,0.000399574,-3.09311e-08,0.0501522,2.13843e-06,0,0,0.277211,0.277211,-66.2178,-1,0.132
0.0364133,0.0372895,0.225468,0.0187001,0.000423814,-2.06207e-08,0.0501615,1.42562e-06,0,0,0.282675,0.282675,-68.8485,-1,0.136
0.0364151,0.0372895,0.225669,0.0187001,0.000448746,-1.37471e-08,0.050171,9.50415e-07,0,0,0.287842,0.287842,-71.47,-1,0.14
0.0364169,0.0372895,0.22587,0.0187001,0.00047437,-9.16476e-09,0.0501807,6.3361e-07,0,0,0.292702,0.292702,-74.0823,-1,0.144
0.0364189,0.0372895,0.22607,0.0187001,0.000500683,-6.10984e-09,0.0501907,4.22407e-07,0,0,0.297248,0.297248,-76.6854,-1,0.148
0.0364209,0.0372895,0.226271,0.0187001,0.000527684,-4.07323e-09,0.050201,2.81604e-07,0,0,0.301469,0.301469,-79.2794,-1,0.152
0.0364231,0.0372895,0.226472,0.0187001,0.000555371,-2.71548e-09,0.0502115,1.87736e-07,0,0,0.305357,0.305357,-81.8643,-1,0.156
0.0364254,0.0372895,0.226673,0.0187001,0.000583742,-1.81032e-09,0.0502223,1.25158e-07,0,0,0.308902,0.308902,-84.4402,-1,0.16
0.0364278,0.0372895,0.226874,0.0187001,0.000612796,-1.20688e-09,0.0502333,8.34383e-08,0,0,0.312095,0.312095,-87.0071,-1,0.164
0.0364303,0.0372895,0.227075,0.0187001,0.00064253,-8.04588e-10,0.0502446,5.56256e-08,0,0,0.314927,0.314927,-89.565,-1,0.168
0.0364329,0.0372895,0.227276,0.0187001,0.000672943,-5.36392e-10,0.0502562,3.70837e-08,0,0,0.317389,0.317389,-92.1141,-1,0.172
0.0364357,0.0372895,0.227477,0.0187001,0.000704033,-3.57595e-10,0.050268,2.47225e-08,0,0,0.319473,0.319473,-94.6543,-1,0.176
0.0364386,0.0372895,0.227678,0.0187001,0.000735798,-2.38396e-10,0.05028,1.64816e-08,0,0,0.321167,0.321167,-97.1856,-1,0.18
0.0364416,0.0372895,0.227879,0.0187001,0.000768238,-1.58931e-10,0.0502924,1.09878e-08,0,0,0.322465,0.322465,-99.7082,-1,0.184
0.0364447,0.0372895,0.22808,0.0187001,0.000801349,-1.05954e-10,0.0503049,7.32518e-09,0,0,0.323355,0.323355,-102.222,-1,0.188
0.036448,0.0372895,0.228282,0.0187001,0.00083513,-7.0636e-11,0.0503178,4.88345e-09,0,0,0.32383,0.32383,-104.727,-1,0.192
0.0364514,0.0372895,0.228483,0.0187001,0.00086958,-4.70907e-11,0.0503308,3.25563e-09,0,0,0.323879,0.323879,-107.224,-1,0.196
0.0364549,0.0372895,0.228684,0.0187001,0.000904697,-3.13938e-11,0.0503442,2.17042e-09,0,0,0.323494,0.323494,-109.712,-1,0.2
0.0364586,0.0372895,0.228886,0.0187001,0.000940478,-2.09292e-11,0.0503577,1.44695e-09,0,0,0.322665,0.322665,-112.191,-1,0.204
0.0364625,0.0372895,0.229087,0.0187001,0.000976923,-1.39528e-11,0.0503716,9.64632e-10,0,0,0.321384,0.321384,-114.662,-1,0.208
0.0364664,0.0372895,0.229289,0.0187001,0.00101403,-9.30186e-12,0.0503857,6.43088e-10,0,0,0.31964,0.31964,-117.124,-1,0.212
0.0364706,0.0372895,0.22949,0.0187001,0.0010518,-6.20124e-12,0.0504,4.28725e-10,0,0,0.317425,0.317425,-119.578,-1,0.216
0.0364749,0.0372895,0.229692,0.0187001,0.00109022,-4.13416e-12,0.0504145,2.85817e-10,0,0,0.31473,0.31473,-122.023,-1,0.22
0.0364793,0.0372895,0.229893,0.0187001,0.0011293,-2.75611e-12,0.0504294,1.90545e-10,0,0,0.311544,0.311544,-124.461,-1,0.224
0.0364839,0.0372895,0.230095,0.0187001,0.00116904,-1.8374e-12,0.0504444,1.2703e-10,0,0,0.307859,0.307859,-126.889,-1,0.228
0.0364886,0.0372895,0.230297,0.0187001,0.00120942,-1.22494e-12,0.0504597,8.46865e-11,0,0,0.303666,0.303666,-129.31,-1,0.232
0.0364936,0.0372895,0.230499,0.0187001,0.00125046,-8.16624e-13,0.0504753,5.64577e-11,0,0,0.298955,0.298955,-131.722,-1,0.236
0.0364986,0.0372895,0.230701,0.0187001,0.00129215,-5.44416e-13,0.0504911,3.76384e-11,0,0,0.293717,0.293717,-134.126,-1,0.24
0.0365039,0.0372895,0.230903,0.0187001,0.00133449,-3.62944e-13,0.0505071,2.50923e-11,0,0,0.287942,0.287942,-136.522,-1,0.244
0.0365093,0.0372895,0.231105,0.0187001,0.00137747,-2.41963e-13,0.0505234,1.67282e-11,0,0,0.281621,0.281621,-138.91,-1,0.248
0.0365149,0.0372895,0.231307,0.0187001,0.00142109,-1.61308e-13,0.05054,1.11521e-11,0,0,0.274745,0.274745,-141.29,-1,0.252
0.0365207,0.0372895,0.231509,0.0187001,0.00146536,-1.07539e-13,0.0505567,7.43476e-12,0,0,0.267304,0.267304,-143.661,-1,0.256
0.0365266,0.0372895,0.231711,0.0187001,0.00151027,-7.16926e-14,0.0505737,4.9565e-12,0,0,0.25929,0.25929,-146.025,-1,0.26
0.0365328,0.0372895,0.231914,0.0187001,0.00155582,-4.77951e-14,0.050591,3.30434e-12,0,0,0.250692,0.250692,-148.381,-1,0.264
0.0365391,0.0372895,0.232116,0.0187001,0.00160201,-3.18634e-14,0.0506085,2.20289e-12,0,0,0.241501,0.241501,-150.728,-1,0.268
0.0365456,0.0372895,0.232319,0.0187001,0.00164883,-2.12423e-14,0.0506262,1.46859e-12,0,0,0.231708,0.231708,-153.068,-1,0.272
0.0365523,0.0372895,0.232521,0.0187004,0.00169629,-1.41615e-14,0.0506441,2.87909e-05,0,0,0.221303,0.221303,-155.4,-1,0.276
0.0365592,0.0372895,0.232724,0.0187001,0.00174437,-9.44101e-15,0.0506623,-9.59697e-06,0,0,0.210278,0.210278,-157.724,-1,0.28
0.0365662,0.0372895,0.232927,0.0187004,0.00179309,-6.294e-15,0.0506808,2.23929e-05,0,0,0.198622,0.198622,-160.041,-1,0.284
0.0365735,0.0372895,0.233129,0.0187001,0.00184244,-4.196e-15,0.0506994,-1.38623e-05,0,0,0.186326,0.186326,-162.349,-1,0.288
0.036581,0.0372895,0.233332,0.0187001,0.00189241,-2.79734e-15,0.0507183,-9.24153e-06,0,0,0.173381,0.173381,-164.65,-1,0.292
0.0365887,0.0372895,0.233535,0.0187001,0.00194301,-1.86489e-15,0.0507375,-6.16102e-06,0,0,0.159777,0.159777,-166.944,-1,0.296
0.0365965,0.0372895,0.233738,0.0187001,0.00199424,-1.24326e-15,0.0507569,-4.10735e-06,0,0,0.145505,0.145505,-169.23,-1,0.3
0.0366046,0.0372895,0.233941,0.0187001,0.00204608,-8.2884e-16,0.0507765,-2.73823e-06,0,0,0.130555,0.130555,-171.508,-1,0.304
0.0366129,0.0372895,0.234144,0.0187001,0.00209855,-5.5256e-16,0.0507963,-1.82549e-06,0,0,0.114917,0.114917,-173.778,-1,0.308
0.0366214,0.0372895,0.234347,0.0187001,0.00215163,-3.68373e-16,0.0508163,-1.21699e-06,0,0,0.0985834,0.0985834,-176.042,-1,0.312
0.0366301,0.0372895,0.234551,0.0187001,0.00220534,-2.45582e-16,0.0508366,-8.11328e-07,0,0,0.0815431,0.0815431,-178.297,-1,0.316
0.036639,0.0372895,0.234754,0.0187001,0.00225965,-1.63722e-16,0.0508572,-5.40885e-07,0,0,0.0637871,0.0637871,-180.545,-1,0.32
0.0366482,0.0372895,0.234958,0.0187001,0.00231458,-1.09148e-16,0.0508779,-3.6059e-07,0,0,0.0453057,0.0453057,-182.786,-1,0.324
0.0366576,0.0372895,0.235161,0.0187001,0.00237012,-7.27651e-17,0.0508989,-2.40393e-07,0,0,0.0260895,0.0260895,-185.02,-1,0.328
0.0366671,0.0372895,0.235365,0.0187001,0.00242628,-4.85101e-17,0.0509201,-1.60262e-07,0,0,0.00612894,0.00612894,-187.246,-1,0.332
0.036677,0.0372895,0.235569,0.0187001,0.00248304,-3.23401e-17,0.0509415,-1.06842e-07,0,0,-0.0145856,-0.0145856,-189.464,-1,0.336
0.036687,0.0372895,0.235772,0.0187004,0.00254041,-2.156e-17,0.0509632,2.87197e-05,0,0,-0.0360636,-0.0360636,-191.676,-1,0.34
0.0366973,0.0372895,0.235976,0.0187001,0.00259838,-1.43734e-17,0.0509851,-9.64446e-06,0,0,-0.0583146,-0.0583146,-193.88,-1,0.344
0.0367078,0.0372895,0.23618,0.0187001,0.00265695,-9.58224e-18,0.0510072,-6.42964e-06,0,0,-0.0813483,-0.0813483,-196.077,-1,0.348
0.0367185,0.0372895,0.236384,0.0186994,0.00271613,-6.38816e-18,0.0510295,-6.18683e-05,0,0,-0.105174,-0.105174,-198.267,-1,0.352
0.0367295,0.0372895,0.236588,0.0187001,0.00277591,-4.25877e-18,0.0510521,1.63363e-05,0,0,-0.129802,-0.129802,-200.451,-1,0.356
0.0367408,0.0372895,0.236793,0.0187001,0.00283629,-2.83918e-18,0.0510749,1.08909e-05,0,0,-0.155241,-0.155241,-202.626,-1,0.36
0.0367522,0.0372895,0.236997,0.0187001,0.00289726,-1.89279e-18,0.0510979,7.26059e-06,0,0,-0.181501,-0.181501,-204.795,-1,0.364
0.0367639,0.0372895,0.237201,0.0187001,0.00295883,-1.26186e-18,0.0511211,4.84039e-06,0,0,-0.208592,-0.208592,-206.957,-1,0.368
0.0367759,0.0372895,0.237406,0.0187001,0.00302099,-8.41239e-19,0.0511445,3.22693e-06,0,0,-0.236523,-0.236523,-209.111,-1,0.372
0.0367881,0.0372895,0.237611,0.0187001,0.00308374,-5.60826e-19,0.0511682,2.15129e-06,0,0,-0.265304,-0.265304,-211.259,-1,0.376
0.0368006,0.0372895,0.237815,0.0187001,0.00314708,-3.73884e-19,0.051192,1.43419e-06,0,0,-0.294945,-0.294945,-213.4,-1,0.38
0.0368133,0.0372895,0.23802,0.0186994,0.00321101,-2.49256e-19,0.0512161,-5.66257e-05,0,0,-0.325455,-0.325455,-215.534,-1,0.384
0.0368263,0.0372895,0.238225,0.0187001,0.00327553,-1.66171e-19,0.0512405,1.98314e-05,0,0,-0.356843,-0.356843,-217.662,-1,0.388
0.0368395,0.0372895,0.23843,0.0187001,0.00334064,-1.1078e-19,0.051265,1.32209e-05,0,0,-0.389121,-0.389121,-219.782,-1,0.392
0.036853,0.0372895,0.238635,0.0187001,0.00340632,-7.38536e-20,0.0512897,8.81394e-06,0,0,-0.422296,-0.422296,-221.895,-1,0.396
0.0368667,0.0372895,0.23884,0.0187001,0.00347259,-4.92357e-20,0.0513147,5.87596e-06,0,0,-0.456379,-0.456379,-224.002,-1,0.4
0.0368808,0.0372895,0.239046,0.0187001,0.00353944,-3.28238e-20,0.0513399,3.91731e-06,0,0,-0.49138,-0.49138,-226.102,-1,0.404
0.0368951,0.0372895,0.239251,0.0187001,0.00360686,-2.18826e-20,0.0513653,2.61154e-06,0,0,-0.527308,-0.527308,-228.196,-1,0.408
0.0369096,0.0372895,0.239457,0.0187001,0.00367487,-1.45884e-20,0.0513909,1.74103e-06,0,0,-0.564173,-0.564173,-230.283,-1,0.412
0.0369245,0.0372895,0.239662,0.0186997,0.00374344,-9.72558e-21,0.0514167,-2.76302e-05,0,0,-0.601985,-0.601985,-232.363,-1,0.416
0.0369396,0.0372895,0.239868,0.0187001,0.00381259,-6.48372e-21,0.0514427,1.03708e-05,0,0,-0.640753,-0.640753,-234.437,-1,0.42
0.036955,0.0372895,0.240074,0.0187001,0.00388232,-4.32248e-21,0.0514689,6.91384e-06,0,0,-0.680488,-0.680488,-236.504,-1,0.424
0.0369706,0.0372895,0.24028,0.0187001,0.00395261,-2.88165e-21,0.0514954,4.60923e-06,0,0,-0.721198,-0.721198,-238.564,-1,0.428
0.0369866,0.0372895,0.240486,0.0187001,0.00402347,-1.9211e-21,0.051522,3.07282e-06,0,0,-0.762894,-0.762894,-240.618,-1,0.432
0.0370028,0.0372895,0.240692,0.0187001,0.0040949,-1.28073e-21,0.0515489,2.04855e-06,0,0,-0.805585,-0.805585,-242.666,-1,0.436
0.0370193,0.0372895,0.240898,0.0187001,0.00416689,-8.53823e-22,0.051576,1.3657e-06,0,0,-0.849281,-0.849281,-244.707,-1,0.44
0.0370361,0.0372895,0.241105,0.0187001,0.00423945,-5.69215e-22,0.0516032,9.10465e-07,0,0,-0.893992,-0.893992,-246.742,-1,0.444
0.0370533,0.0372895,0.241311,0.0187001,0.00431256,-3.79477e-22,0.0516307,6.06977e-07,0,0,-0.939728,-0.939728,-248.771,-1,0.448
0.0370707,0.0372895,0.241518,0.0187001,0.00438624,-2.52985e-22,0.0516584,4.04651e-07,0,0,-0.986498,-0.986498,-250.793,-1,0.452
0.0370883,0.0372895,0.241724,0.0187001,0.00446048,-1.68656e-22,0.0516863,2.69767e-07,0,0,-1.03431,-1,-252.809,-1,0.456
0.0371063,0.0372895,0.241931,0.0187001,0.00453527,-1.12438e-22,0.0517144,1.79845e-07,0,0,-1.08303,-1,-254.819,-1,0.46
0.0371246,0.0372895,0.242138,0.0187001,0.00461062,-7.49584e-23,0.0517427,1.19897e-07,0,0,-1.13259,-1,-256.822,-1,0.464
0.0371432,0.0372895,0.242345,0.0187001,0.00468652,-4.99723e-23,0.0517712,7.99311e-08,0,0,-1.18301,-1,-258.82,-1,0.468
0.0371621,0.0372895,0.242552,0.0187001,0.00476298,-3.33149e-23,0.0518,5.32874e-08,0,0,-1.23429,-1,-260.811,-1,0.472
0.0371813,0.0372895,0.242759,0.0187001,0.00483998,-2.22099e-23,0.0518289,3.55249e-08,0,0,-1.28644,-1,-262.796,-1,0.476
0.0372008,0.0372895,0.242967,0.0187001,0.00491753,-1.48066e-23,0.051858,2.36833e-08,0,0,-1.33946,-1,-264.775,-1,0.48
0.0372207,0.0372895,0.243174,0.0187001,0.00499563,-9.87107e-24,0.0518873,1.57889e-08,0,0,-1.39335,-1,-266.748,-1,0.484
0.0372408,0.0372895,0.243382,0.0187001,0.00507428,-6.58071e-24,0.0519168,1.05259e-08,0,0,-1.44813,-1,-268.714,-1,0.488
0.0372613,0.0372895,0.24359,0.0187001,0.00515347,-4.38714e-24,0.0519465,7.01727e-09,0,0,-1.5038,-1,-270.675,-1,0.492
0.037282,0.0372895,0.243797,0.0187001,0.0052332,-2.92476e-24,0.0519765,4.67818e-09,0,0,-1.56037,-1,-272.63,-1,0.496
0.0373031,0.0372895,0.244005,0.0187001,0.00531347,-1.94984e-24,0.0520066,3.11879e-09,0,0,-1.61784,-1,-274.579,-1,0.5
0.0373245,0.0372895,0.244213,0.0187001,0.00539428,-1.29989e-24,0.0520369,2.07919e-09,0,0,-1.67622,-1,-276.522,-1,0.504
0.0373463,0.0372895,0.244422,0.0187001,0.00547563,-8.66596e-25,0.0520674,1.38613e-09,0,0,-1.73551,-1,-278.459,-1,0.508
0.0373683,0.0372895,0.24463,0.0187001,0.00555751,-5.77731e-25,0.0520981,9.24085e-10,0,0,-1.79572,-1,-280.39,-1,0.512
0.0373907,0.0372895,0.244838,0.0187001,0.00563993,-3.85154e-25,0.052129,6.16056e-10,0,0,-1.85685,-1,-282.316,-1,0.516
0.0374135,0.0372895,0.245047,0.0187001,0.00572288,-2.56769e-25,0.0521601,4.10704e-10,0,0,-1.91892,-1,-284.235,-1,0.52
0.0374365,0.0372895,0.245256,0.0187001,0.00580636,-1.71179e-25,0.0521913,2.73803e-10,0,0,-1.98192,-1,-286.149,-1,0.524
0.0374599,0.0372895,0.245465,0.0187001,0.00589036,-1.1412e-25,0.0522228,1.82535e-10,0,0,-2.04587,-1,-288.057,-1,0.528
0.0374837,0.0372895,0.245674,0.0187001,0.0059749,-7.60797e-26,0.0522545,1.2169e-10,0,0,-2.11076,-1,-289.96,-1,0.532
0.0375077,0.0372895,0.245883,0.0187001,0.00605996,-5.07198e-26,0.0522863,8.11268e-11,0,0,-2.17661,-1,-291.856,-1,0.536
0.0375321,0.0372895,0.246092,0.0187001,0.00614555,-3.38132e-26,0.0523184,5.40845e-11,0,0,-2.24342,-1,-293.747,-1,0.54
0.0375569,0.0372895,0.246301,0.0187001,0.00623166,-2.25421e-26,0.0523506,3.60563e-11,0,0,-2.31119,-1,-295.633,-1,0.544
0.037582,0.0372895,0.246511,0.0187001,0.00631829,-1.50281e-26,0.0523831,2.40376e-11,0,0,-2.37993,-1,-297.513,-1,0.548
0.0376074,0.0372895,0.24672,0.0187001,0.00640544,-1.00187e-26,0.0524157,1.6025e-11,0,0,-2.44966,-1,-299.387,-1,0.552
0.0376332,0.0372895,0.24693,0.0187001,0.00649311,-6.67915e-27,0.0524485,1.06834e-11,0,0,-2.52036,-1,-301.256,-1,0.556
0.0376594,0.0372889,0.24714,0.0187001,0.00658129,-5.75818e-05,0.0524815,7.12224e-12,0,0,-2.59209,-1,-303.119,-1,0.56
0.0376859,0.0372895,0.24735,0.0187001,0.00666999,1.91939e-05,0.0525147,4.74816e-12,0,0,-2.66539,-1,-304.977,-1,0.564
0.0377127,0.0372895,0.24756,0.0187001,0.0067592,1.2796e-05,0.052548,3.16544e-12,0,0,-2.73885,-1,-306.829,-1,0.568
0.03774,0.0372895,0.24777,0.0187001,0.00684892,8.53064e-06,0.0525816,2.11029e-12,0,0,-2.8134,-1,-308.676,-1,0.572
0.0377675,0.0372895,0.247981,0.0187001,0.00693915,5.6871e-06,0.0526153,1.40686e-12,0,0,-2.889,-1,-310.517,-1,0.576
0.0377955,0.0372895,0.248191,0.0187001,0.00702989,3.7914e-06,0.0526493,9.37908e-13,0,0,-2.96565,-1,-312.353,-1,0.58
0.0378238,0.0372895,0.248402,0.0187001,0.00712114,2.5276e-06,0.0526834,6.25272e-13,0,0,-3.04334,-1,-314.184,-1,0.584
0.0378524,0.0372895,0.248613,0.0187001,0.00721289,1.68507e-06,0.0527177,4.16848e-13,0,0,-3.12207,-1,-316.009,-1,0.588
0.0378815,0.0372895,0.248824,0.0187001,0.00730515,1.12338e-06,0.0527521,2.77899e-13,0,0,-3.20185,-1,-317.83,-1,0.592
0.0379109,0.0372895,0.249035,0.0187001,0.0073979,7.48918e-07,0.0527868,1.85266e-13,0,0,-3.28267,-1,-319.644,-1,0.596
0.0379407,0.0372895,0.249246,0.0187001,0.00749116,4.99279e-07,0.0528216,1.23511e-13,0,0,-3.36453,-1,-321.454,-1,0.6
0.0379708,0.0372895,0.249457,0.0187001,0.00758492,3.32852e-07,0.0528566,8.23404e-14,0,0,-3.44745,-1,-323.258,-1,0.604
0.0380013,0.0372895,0.249669,0.0187001,0.00767917,2.21902e-07,0.0528918,5.48936e-14,0,0,-3.53142,-1,-325.058,-1,0.608
0.0380322,0.0372895,0.24988,0.0187001,0.00777392,1.47934e-07,0.0529272,3.65957e-14,0,0,-3.61645,-1,-326.852,-1,0.612
0.0380635,0.0372895,0.250092,0.0187001,0.00786916,9.86229e-08,0.0529627,2.43971e-14,0,0,-3.70255,-1,-328.641,-1,0.616
0.0380952,0.0372895,0.250304,0.0187001,0.00796489,6.57486e-08,0.0529985,1.62648e-14,0,0,-3.78972,-1,-330.425,-1,0.62
0.0381273,0.0372895,0.250516,0.0187001,0.00806112,4.38324e-08,0.0530344,1.08432e-14,0,0,-3.87796,-1,-332.203,-1,0.624
0.0381597,0.0372895,0.250728,0.0187001,0.00815783,2.92216e-08,0.0530704,7.22878e-15,0,0,-3.96728,-1,-333.977,-1,0.628
0.0381925,0.0372895,0.250941,0.0187001,0.00825503,1.94811e-08,0.0531067,4.81919e-15,0,0,-4.05769,-1,-335.746,-1,0.632
0.0382257,0.0372895,0.251153,0.0187001,0.00835272,1.29874e-08,0.0531431,3.21279e-15,0,0,-4.14919,-1,-337.51,-1,0.636
0.0382593,0.0372895,0.251366,0.0187001,0.00845089,8.65826e-09,0.0531797,2.14186e-15,0,0,-4.24178,-1,-339.268,-1,0.64
0.0382933,0.0372895,0.251579,0.0187001,0.00854955,5.77217e-09,0.0532165,1.42791e-15,0,0,-4.33548,-1,-341.022,-1,0.644
0.0383277,0.0372895,0.251792,0.0187001,0.00864868,3.84811e-09,0.0532535,9.51939e-16,0,0,-4.43028,-1,-342.771,-1,0.648
0.0383625,0.0372889,0.252005,0.0187001,0.0087483,-5.75793e-05,0.0532906,6.34626e-16,0,0,-4.52623,-1,-344.515,-1,0.652
0.0383977,0.0372895,0.252218,0.0187001,0.00884839,1.91957e-05,0.0533279,4.23084e-16,0,0,-4.62388,-1,-346.254,-1,0.656
0.0384333,0.0372895,0.252431,0.0187001,0.00894896,1.27971e-05,0.0533653,2.82056e-16,0,0,-4.72181,-1,-347.988,-1,0.66
0.0384693,0.0372895,0.252645,0.0187001,0.00905,8.5314e-06,0.053403,1.88037e-16,0,0,-4.82094,-1,-349.718,-1,0.664
0.0385057,0.0372895,0.252858,0.0187001,0.00915152,5.6876e-06,0.0534408,1.25358e-16,0,0,-4.92125,-1,-351.442,-1,0.668
0.0385425,0.0372895,0.253072,0.0187001,0.00925351,3.79174e-06,0.0534787,8.35721e-17,0,0,-5.02273,-1,-353.162,-1,0.672
0.0385797,0.0372895,0.253286,0.0187001,0.00935597,2.52782e-06,0.0535169,5.57147e-17,0,0,-5.12538,-1,-354.877,-1,0.676
0.0386174,0.0372895,0.2535,0.0187001,0.0094589,1.68522e-06,0.0535552,3.71432e-17,0,0,-5.22918,-1,-356.588,-1,0.68
0.0386554,0.0372895,0.253715,0.0187001,0.00956229,1.12348e-06,0.0535937,2.47621e-17,0,0,-5.33415,-1,-358.293,-1,0.684
0.0386939,0.0372895,0.253929,0.0187001,0.00966615,7.48985e-07,0.0536323,1.65081e-17,0,0,-5.44028,-1,-359.994,-1,0.688
0.0387327,0.0372895,0.254144,0.0187001,0.00977048,4.99323e-07,0.0536711,1.10054e-17,0,0,-5.54758,-1,-361.691,-1,0.692
0.038772,0.0372895,0.254359,0.0187001,0.00987527,3.32882e-07,0.0537101,7.33692e-18,0,0,-5.65604,-1,-363.382,-1,0.696
0.0388117,0.0372895,0.254573,0.0187001,0.00998051,2.21921e-07,0.0537492,4.89128e-18,0,0,-5.76568,-1,-365.07,-1,0.7
0.0388519,0.0372895,0.254789,0.0187001,0.0100862,1.47948e-07,0.0537885,3.26085e-18,0,0,-5.8765,-1,-366.752,-1,0.704
0.0388924,0.0372895,0.255004,0.0187001,0.0101924,9.86317e-08,0.053828,2.1739e-18,0,0,-5.9885,-1,-368.43,-1,0.708
0.0389334,0.0372895,0.255219,0.0187001,0.010299,6.57545e-08,0.0538676,1.44927e-18,0,0,-6.10169,-1,-370.104,-1,0.712
0.0389748,0.0372895,0.255435,0.0187001,0.0104061,4.38363e-08,0.0539074,9.66179e-19,0,0,-6.21606,-1,-371.773,-1,0.716
0.0390167,0.0372895,0.25565,0.0187001,0.0105136,2.92242e-08,0.0539473,6.44119e-19,0,0,-6.33164,-1,-373.437,-1,0.72
0.0390589,0.0372895,0.255866,0.0187001,0.0106216,1.94828e-08,0.0539874,4.29413e-19,0,0,-6.44841,-1,-375.097,-1,0.724
0.0391016,0.0372895,0.256082,0.0187001,0.01073,1.29885e-08,0.0540277,2.86275e-19,0,0,-6.56639,-1,-376.753,-1,0.728
0.0391448,0.0372895,0.256299,0.0187001,0.0108389,8.65903e-09,0.0540681,1.9085e-19,0,0,-6.68559,-1,-378.404,-1,0.732
0.0391884,0.0372895,0.256515,0.0187001,0.0109482,5.77269e-09,0.0541087,1.27233e-19,0,0,-6.80599,-1,-380.051,-1,0.736
0.0392324,0.0372895,0.256731,0.0187001,0.011058,3.84846e-09,0.0541494,8.48223e-20,0,0,-6.92762,-1,-381.693,-1,0.74
0.0392768,0.0372895,0.256948,0.0187001,0.0111682,2.56564e-09,0.0541903,5.65482e-20,0,0,-7.05047,-1,-383.331,-1,0.744
0.0393217,0.0372895,0.257165,0.0187001,0.0112789,1.71043e-09,0.0542314,3.76988e-20,0,0,-7.17455,-1,-384.965,-1,0.748
0.0393671,0.0372895,0.257382,0.0187001,0.01139,1.14028e-09,0.0542726,2.51325e-20,0,0,-7.29986,-1,-386.595,-1,0.752
0.0394128,0.0372895,0.257599,0.0187001,0.0115015,7.60189e-10,0.054314,1.6755e-20,0,0,-7.42642,-1,-388.22,-1,0.756
0.0394591,0.0372895,0.257816,0.0187001,0.0116135,5.06793e-10,0.0543555,1.117e-20,0,0,-7.55421,-1,-389.841,-1,0.76
0.0395057,0.0372895,0.258034,0.0187001,0.0117259,3.37862e-10,0.0543972,7.44668e-21,0,0,-7.68326,-1,-391.458,-1,0.764
0.0395529,0.0372895,0.258252,0.0187001,0.0118387,2.25241e-10,0.054439,4.96445e-21,0,0,-7.81356,-1,-393.07,-1,0.768
0.0396005,0.0372895,0.258469,0.0187001,0.011952,1.50161e-10,0.054481,3.30963e-21,0,0,-7.94511,-1,-394.679,-1,0.772
0.0396485,0.0372895,0.258687,0.0187001,0.0120657,1.00107e-10,0.0545231,2.20642e-21,0,0,-8.07793,-1,-396.283,-1,0.776
0.039697,0.0372895,0.258906,0.0187001,0.0121799,6.67381e-11,0.0545654,1.47095e-21,0,0,-8.21201,-1,-397.883,-1,0.78
0.0397459,0.0372895,0.259124,0.0187001,0.0122944,4.44921e-11,0.0546078,9.80632e-22,0,0,-8.34736,-1,-399.479,-1,0.784
0.0397953,0.0372895,0.259343,0.0187001,0.0124094,2.96614e-11,0.0546504,6.53755e-22,0,0,-8.48399,-1,-401.071,-1,0.788
0.0398452,0.0372895,0.259561,0.0187001,0.0125248,1.97743e-11,0.0546931,4.35837e-22,0,0,-8.6219,-1,-402.658,-1,0.792
0.0398955,0.0372895,0.25978,0.0187001,0.0126407,1.31828e-11,0.054736,2.90558e-22,0,0,-8.76109,-1,-404.242,-1,0.796
0.0399463,0.0372895,0.259999,0.0187001,0.0127569,8.78856e-12,0.054779,1.93705e-22,0,0,-8.90158,-1,-405.822,-1,0.8
0.0399976,0.0372895,0.260218,0.0187001,0.0128736,5.85904e-12,0.0548222,1.29137e-22,0,0,-9.04335,-1,-407.397,-1,0.804
0.0400493,0.0372895,0.260438,0.0187001,0.0129907,3.90603e-12,0.0548655,8.60912e-23,0,0,-9.18642,-1,-408.969,-1,0.808
0.0401015,0.0372895,0.260657,0.0187001,0.0131083,2.60402e-12,0.054909,5.73941e-23,0,0,-9.3308,-1,-410.537,-1,0.812
0.0401542,0.0372895,0.260877,0.0187001,0.0132262,1.73601e-12,0.0549526,3.82627e-23,0,0,-9.47648,-1,-412.1,-1,0.816
0.0402073,0.0372895,0.261097,0.0187001,0.0133446,1.15734e-12,0.0549963,2.55085e-23,0,0,-9.62348,-1,-413.66,-1,0.82
0.0402609,0.0372895,0.261317,0.0187001,0.0134633,7.71561e-13,0.0550402,1.70057e-23,0,0,-9.77178,-1,-415.216,-1,0.824
0.040315,0.0372895,0.261537,0.0187001,0.0135825,5.14374e-13,0.0550843,1.13371e-23,0,0,-9.92141,-1,-416.768,-1,0.828
0.0403696,0.0372895,0.261758,0.0187001,0.0137021,3.42916e-13,0.0551285,7.55807e-24,0,0,-10.0724,-1,-418.317,-1,0.832
0.0404247,0.0372895,0.261978,0.0187001,0.0138221,2.28611e-13,0.0551728,5.03872e-24,0,0,-10.2246,-1,-419.861,-1,0.836
0.0404802,0.0372895,0.262199,0.0187001,0.0139425,1.52407e-13,0.0552173,3.35914e-24,0,0,-10.3783,-1,-421.401,-1,0.84
0.0405362,0.0372895,0.26242,0.0187001,0.0140633,1.01605e-13,0.0552619,2.23943e-24,0,0,-10.5332,-1,-422.938,-1,0.844
0.0405927,0.0372895,0.262641,0.0187001,0.0141845,6.77365e-14,0.0553066,1.49295e-24,0,0,-10.6895,-1,-424.471,-1,0.848
0.0406497,0.0372895,0.262862,0.0187001,0.0143061,4.51577e-14,0.0553515,9.95302e-25,0,0,-10.8471,-1,-426,-1,0.852
0.0407071,0.0372895,0.263084,0.0187001,0.0144282,3.01051e-14,0.0553966,6.63535e-25,0,0,-11.0061,-1,-427.526,-1,0.856
0.0407651,0.0372895,0.263306,0.0187001,0.0145506,2.00701e-14,0.0554417,4.42356e-25,0,0,-11.1665,-1,-429.047,-1,0.86
0.0408235,0.0372895,0.263527,0.0187001,0.0146734,1.338e-14,0.055487,2.94904e-25,0,0,-11.3282,-1,-430.565,-1,0.864
0.0408825,0.0372895,0.263749,0.0187001,0.0147966,8.92003e-15,0.0555325,1.96603e-25,0,0,-11.4912,-1,-432.08,-1,0.868
0.0409419,0.0372895,0.263972,0.0187001,0.0149202,5.94669e-15,0.0555781,1.31069e-25,0,0,-11.6557,-1,-433.591,-1,0.872
0.0410018,0.0372895,0.264194,0.0187001,0.0150442,3.96446e-15,0.0556238,8.7379e-26,0,0,-11.8214,-1,-435.098,-1,0.876
0.0410623,0.0372895,0.264417,0.0187001,0.0151686,2.64297e-15,0.0556696,5.82527e-26,0,0,-11.9886,-1,-436.601,-1,0.88
0.0411232,0.0372895,0.264639,0.0187001,0.0152934,1.76198e-15,0.0557156,3.88351e-26,0,0,-12.1572,-1,-438.101,-1,0.884
0.0411846,0.0372895,0.264862,0.0187001,0.0154186,1.17465e-15,0.0557617,2.58901e-26,0,0,-12.3271,-1,-439.597,-1,0.888
0.0412465,0.0372895,0.265086,0.0187001,0.0155441,7.83103e-16,0.055808,1.72601e-26,0,0,-12.4984,-1,-441.09,-1,0.892
0.041309,0.0372895,0.265309,0.0187001,0.0156701,5.22069e-16,0.0558544,1.15067e-26,0,0,-12.6711,-1,-442.579,-1,0.896
0.0413719,0.0372895,0.265532,0.0187001,0.0157964,3.48046e-16,0.0559009,7.67114e-27,0,0,-12.8452,-1,-444.065,-1,0.9
0.0414353,0.0372895,0.265756,0.0187001,0.0159231,2.3203e-16,0.0559475,5.11409e-27,0,0,-13.0208,-1,-445.547,-1,0.904
0.0414993,0.0372895,0.26598,0.0187001,0.0160502,1.54687e-16,0.0559943,3.40939e-27,0,0,-13.1977,-1,-447.025,-1,0.908
0.0415637,0.0372895,0.266204,0.0187001,0.0161777,1.03125e-16,0.0560412,2.27293e-27,0,0,-13.376,-1,-448.501,-1,0.912
0.0416287,0.0372895,0.266428,0.0187001,0.0163056,6.87498e-17,0.0560883,1.51529e-27,0,0,-13.5557,-1,-449.972,-1,0.916
0.0416942,0.0372895,0.266653,0.0187001,0.0164338,4.58332e-17,0.0561354,1.01019e-27,0,0,-13.7369,-1,-451.441,-1,0.92
0.0417602,0.0372895,0.266877,0.0187001,0.0165624,3.05555e-17,0.0561827,6.7346e-28,0,0,-13.9194,-1,-452.906,-1,0.924
0.0418267,0.0372895,0.267102,0.0187001,0.0166914,2.03703e-17,0.0562302,4.48974e-28,0,0,-14.1034,-1,-454.367,-1,0.928
0.0418937,0.0372895,0.267327,0.0187001,0.0168208,1.35802e-17,0.0562777,2.99316e-28,0,0,-14.2888,-1,-455.825,-1,0.932
0.0419613,0.0372895,0.267552,0.0187001,0.0169505,9.05347e-18,0.0563254,1.99544e-28,0,0,-14.4756,-1,-457.28,-1,0.936
0.0420293,0.0372895,0.267778,0.0187001,0.0170806,6.03564e-18,0.0563732,1.33029e-28,0,0,-14.6639,-1,-458.731,-1,0.94
0.0420979,0.0372895,0.268003,0.0187001,0.0172111,4.02376e-18,0.0564211,8.86862e-29,0,0,-14.8536,-1,-460.18,-1,0.944
0.042167,0.0372895,0.268229,0.0187001,0.0173419,2.68251e-18,0.0564692,5.91241e-29,0,0,-15.0448,-1,-461.624,-1,0.948
0.0422366,0.0372895,0.268455,0.0187001,0.0174731,1.78834e-18,0.0565174,3.94161e-29,0,0,-15.2374,-1,-463.066,-1,0.952
0.0423068,0.0372895,0.268681,0.0187001,0.0176047,1.19223e-18,0.0565657,2.62774e-29,0,0,-15.4314,-1,-464.504,-1,0.956
0.0423775,0.0372895,0.268908,0.0187001,0.0177366,7.94817e-19,0.0566141,1.75183e-29,0,0,-15.627,-1,-465.939,-1,0.96
0.0424487,0.0372895,0.269134,0.0187001,0.0178689,5.29878e-19,0.0566627,1.16788e-29,0,0,-15.8239,-1,-467.371,-1,0.964
0.0425204,0.0372895,0.269361,0.0187001,0.0180015,3.53252e-19,0.0567113,7.78589e-30,0,0,-16.0223,-1,-468.8,-1,0.968
0.0425927,0.0372895,0.269588,0.0187001,0.0181345,2.35501e-19,0.0567601,5.19059e-30,0,0,-16.2222,-1,-470.225,-1,0.972
0.0426655,0.0372895,0.269815,0.0187001,0.0182679,1.57001e-19,0.056809,3.4604e-30,0,0,-16.4236,-1,-471.648,-1,0.976
0.0427388,0.0372895,0.270042,0.0187001,0.0184016,1.04667e-19,0.0568581,2.30693e-30,0,0,-16.6264,-1,-473.067,-1,0.98
0.0428127,0.0372895,0.27027,0.0187001,0.0185357,6.97782e-20,0.0569072,1.53795e-30,0,0,-16.8307,-1,-474.483,-1,0.984
0.0428871,0.0372895,0.270498,0.0187001,0.0186701,4.65188e-20,0.0569565,1.0253e-30,0,0,-17.0365,-1,-475.895,-1,0.988
0.0429621,0.0372895,0.270726,0.0187001,0.0188049,3.10125e-20,0.0570059,6.83535e-31,0,0,-17.2438,-1,-477.305,-1,0.992
0.0430376,0.0372895,0.270954,0.0187001,0.01894,2.0675e-20,0.0570554,4.5569e-31,0,0,-17.4525,-1,-478.712,-1,0.996
0.0431136,0.0372895,0.271182,0.0187001,0.0190755,1.37833e-20,0.057105,3.03793e-31,0,0,-17.6628,-1,-480.115,-1,1
0.0431902,0.0372895,0.271411,0.0187001,0.0192113,9.1889e-21,0.0571547,2.02529e-31,0,0,-17.8745,-1,-481.516,-1,1.004
0.0432673,0.0372895,0.271639,0.0187001,0.0193475,6.12593e-21,0.0572046,1.35019e-31,0,0,-18.0877,-1,-482.914,-1,1.008
0.043345,0.0372895,0.271868,0.0187001,0.019484,4.08396e-21,0.0572546,9.00128e-32,0,0,-18.3025,-1,-484.308,-1,1.012
0.0434232,0.0372895,0.272097,0.0187001,0.0196208,2.72264e-21,0.0573046,6.00086e-32,0,0,-18.5187,-1,-485.7,-1,1.016
0.0435019,0.0372895,0.272327,0.0187001,0.019758,1.81509e-21,0.0573548,4.00057e-32,0,0,-18.7365,-1,-487.088,-1,1.02
0.0435812,0.0372895,0.272556,0.0187001,0.0198956,1.21006e-21,0.0574051,2.66705e-32,0,0,-18.9557,-1,-488.474,-1,1.024
0.0436611,0.0372895,0.272786,0.0187001,0.0200334,8.06707e-22,0.0574556,1.77803e-32,0,0,-19.1765,-1,-489.856,-1,1.028
0.0437415,0.0372895,0.273016,0.0187001,0.0201717,5.37805e-22,0.0575061,1.18535e-32,0,0,-19.3988,-1,-491.236,-1,1.032
0.0438225,0.0372895,0.273246,0.0187001,0.0203102,3.58537e-22,0.0575568,7.90236e-33,0,0,-19.6226,-1,-492.613,-1,1.036
0.043904,0.0372895,0.273476,0.0187001,0.0204491,2.39024e-22,0.0576075,5.26824e-33,0,0,-19.848,-1,-493.987,-1,1.04
0.0439861,0.0372895,0.273707,0.0187001,0.0205883,1.5935e-22,0.0576584,3.51216e-33,0,0,-20.0748,-1,-495.358,-1,1.044
0.0440687,0.0372895,0.273937,0.0187001,0.0207278,1.06233e-22,0.0577093,2.34144e-33,0,0,-20.3033,-1,-496.726,-1,1.048
0.0441519,0.0372895,0.274168,0.0187001,0.0208677,7.0822e-23,0.0577604,1.56096e-33,0,0,-20.5332,-1,-498.091,-1,1.052
0.0442356,0.0372895,0.2744,0.0187001,0.0210079,4.72147e-23,0.0578116,1.04064e-33,0,0,-20.7647,-1,-499.453,-1,1.056
0.0443199,0.0372895,0.274631,0.0187001,0.0211484,3.14765e-23,0.0578629,6.9376e-34,0,0,-20.9977,-1,-500.813,-1,1.06
0.0444048,0.0372895,0.274862,0.0187001,0.0212893,2.09843e-23,0.0579143,4.62507e-34,0,0,-21.2323,-1,-502.17,-1,1.064
0.0444903,0.0372895,0.275094,0.0187001,0.0214304,1.39895e-23,0.0579659,3.08338e-34,0,0,-21.4684,-1,-503.524,-1,1.068
0.0445763,0.0372895,0.275326,0.0187001,0.0215719,9.32636e-24,0.0580175,2.05559e-34,0,0,-21.7061,-1,-504.875,-1,1.072
0.0446628,0.0372895,0.275558,0.0187001,0.0217137,6.21757e-24,0.0580692,1.37039e-34,0,0,-21.9453,-1,-506.224,-1,1.076
0.04475,0.0372895,0.275791,0.0187001,0.0218559,4.14505e-24,0.058121,9.13594e-35,0,0,-22.1861,-1,-507.569,-1,1.08
0.0448377,0.0372895,0.276023,0.0187001,0.0219983,2.76337e-24,0.058173,6.09062e-35,0,0,-22.4284,-1,-508.912,-1,1.084
0.044926,0.0372895,0.276256,0.0187001,0.0221411,1.84224e-24,0.058225,4.06042e-35,0,0,-22.6723,-1,-510.253,-1,1.088
0.0450148,0.0372895,0.276489,0.0187001,0.0222842,1.22816e-24,0.0582771,2.70694e-35,0,0,-22.9178,-1,-511.59,-1,1.092
0.0451042,0.0372895,0.276722,0.0187001,0.0224276,8.18775e-25,0.0583294,1.80463e-35,0,0,-23.1649,-1,-512.925,-1,1.096
0.0451942,0.0372895,0.276956,0.0187001,0.0225713,5.4585e-25,0.0583817,1.20309e-35,0,0,-23.4135,-1,-514.258,-1,1.1
0.0452848,0.0372895,0.277189,0.0187001,0.0227153,3.639e-25,0.0584342,8.02057e-36,0,0,-23.6637,-1,-515.587,-1,1.104
0.045376,0.0372895,0.277423,0.0187001,0.0228596,2.426e-25,0.0584867,5.34705e-36,0,0,-23.9155,-1,-516.914,-1,1.108
0.0454677,0.0372895,0.277657,0.0187001,0.0230043,1.61733e-25,0.0585394,3.5647e-36,0,0,-24.1689,-1,-518.239,-1,1.112
0.04556,0.0372895,0.277892,0.0187001,0.0231492,1.07822e-25,0.0585921,2.37647e-36,0,0,-24.4238,-1,-519.561,-1,1.116
0.0456529,0.0372895,0.278126,0.0187001,0.0232945,7.18815e-26,0.058645,1.58431e-36,0,0,-24.6804,-1,-520.88,-1,1.12
0.0457463,0.0372895,0.278361,0.0187001,0.02344,4.7921e-26,0.0586979,1.05621e-36,0,0,-24.9385,-1,-522.196,-1,1.124
0.0458404,0.0372895,0.278596,0.0187001,0.0235859,3.19473e-26,0.0587509,7.04138e-37,0,0,-25.1983,-1,-523.511,-1,1.128
0.045935,0.0372895,0.278831,0.0187001,0.023732,2.12982e-26,0.0588041,4.69425e-37,0,0,-25.4596,-1,-524.822,-1,1.132
0.0460302,0.0372895,0.279066,0.0187001,0.0238785,1.41988e-26,0.0588573,3.1295e-37,0,0,-25.7226,-1,-526.131,-1,1.136
0.0461261,0.0372895,0.279302,0.0187001,0.0240253,9.46587e-27,0.0589107,2.08634e-37,0,0,-25.9872,-1,-527.438,-1,1.14
0.0462225,0.0372895,0.279537,0.0187001,0.0241723,6.31058e-27,0.0589641,1.39089e-37,0,0,-26.2533,-1,-528.742,-1,1.144
0.0463194,0.0372895,0.279773,0.0187001,0.0243197,4.20705e-27,0.0590176,9.2726e-38,0,0,-26.5211,-1,-530.043,-1,1.148
0.046417,0.0372895,0.280009,0.0187001,0.0244673,2.8047e-27,0.0590712,6.18173e-38,0,0,-26.7905,-1,-531.342,-1,1.152
0.0465152,0.0372895,0.280246,0.0187001,0.0246152,1.8698e-27,0.0591249,4.12116e-38,0,0,-27.0615,-1,-532.639,-1,1.156
0.0466139,0.0372895,0.280482,0.0187001,0.0247635,1.24653e-27,0.0591787,2.74744e-38,0,0,-27.3341,-1,-533.933,-1,1.16
0.0467133,0.0372895,0.280719,0.0187001,0.024912,8.31023e-28,0.0592326,1.83163e-38,0,0,-27.6084,-1,-535.225,-1,1.164
0.0468132,0.0372895,0.280956,0.0187001,0.0250608,5.54015e-28,0.0592866,1.22108e-38,0,0,-27.8843,-1,-536.514,-1,1.168
0.0469138,0.0372895,0.281194,0.0187001,0.0252099,3.69344e-28,0.0593407,8.14056e-39,0,0,-28.1618,-1,-537.801,-1,1.172
0.0470149,0.0372895,0.281431,0.0187001,0.0253593,2.46229e-28,0.0593948,5.42704e-39,0,0,-28.441,-1,-539.086,-1,1.176
0.0471166,0.0372895,0.281669,0.0187001,0.0255089,1.64153e-28,0.0594491,3.61802e-39,0,0,-28.7218,-1,-540.368,-1,1.18
0.047219,0.0372895,0.281907,0.0187001,0.0256589,1.09435e-28,0.0595035,2.41202e-39,0,0,-29.0042,-1,-541.648,-1,1.184
0.0473219,0.0372895,0.282145,0.0187001,0.0258091,7.29568e-29,0.0595579,1.60801e-39,0,0,-29.2882,-1,-542.925,-1,1.188
0.0474255,0.0372895,0.282383,0.0187001,0.0259596,4.86378e-29,0.0596124,1.07201e-39,0,0,-29.574,-1,-544.201,-1,1.192
0.0475296,0.0372895,0.282622,0.0187001,0.0261104,3.24252e-29,0.059667,7.14672e-40,0,0,-29.8613,-1,-545.474,-1,1.196
0.0476343,0.0372895,0.28286,0.0187001,0.0262615,2.16168e-29,0.0597217,4.76448e-40,0,0,-30.1503,-1,-546.744,-1,1.2
0.0477397,0.0372895,0.283099,0.0187001,0.0264128,1.44112e-29,0.0597765,3.17632e-40,0,0,-30.441,-1,-548.012,-1,1.204
0.0478456,0.0372895,0.283339,0.0187001,0.0265644,9.60748e-30,0.0598314,2.11755e-40,0,0,-30.7333,-1,-549.278,-1,1.208
0.0479522,0.0372895,0.283578,0.0187001,0.0267163,6.40498e-30,0.0598863,1.4117e-40,0,0,-31.0273,-1,-550.542,-1,1.212
0.0480594,0.0372895,0.283818,0.0187001,0.0268685,4.26999e-30,0.0599414,9.41131e-41,0,0,-31.3229,-1,-551.804,-1,1.216
0.0481671,0.0372895,0.284058,0.0187001,0.0270209,2.84666e-30,0.0599965,6.27421e-41,0,0,-31.6202,-1,-553.063,-1,1.22
0.0482755,0.0372895,0.284298,0.0187001,0.0271736,1.89777e-30,0.0600517,4.18281e-41,0,0,-31.9192,-1,-554.32,-1,1.224
0.0483845,0.0372895,0.284538,0.0187001,0.0273266,1.26518e-30,0.060107,2.78854e-41,0,0,-32.2199,-1,-555.575,-1,1.228
0.0484941,0.0372895,0.284779,0.0187001,0.0274798,8.43455e-31,0.0601624,1.85902e-41,0,0,-32.5222,-1,-556.828,-1,1.232
0.0486044,0.0372895,0.285019,0.0187001,0.0276333,5.62303e-31,0.0602179,1.23935e-41,0,0,-32.8262,-1,-558.078,-1,1.236
0.0487152,0.0372895,0.28526,0.0187001,0.0277871,3.74869e-31,0.0602734,8.26233e-42,0,0,-33.1318,-1,-559.327,-1,1.24
0.0488267,0.0372895,0.285502,0.0187001,0.0279411,2.49912e-31,0.060329,5.50822e-42,0,0,-33.4392,-1,-560.573,-1,1.244
0.0489387,0.0372895,0.285743,0.0187001,0.0280954,1.66608e-31,0.0603847,3.67215e-42,0,0,-33.7482,-1,-561.817,-1,1.248
0.0490514,0.0372895,0.285985,0.0187001,0.0282499,1.11072e-31,0.0604405,2.4481e-42,0,0,-34.0589,-1,-563.059,-1,1.252
0.0491647,0.0372895,0.286226,0.0187001,0.0284047,7.40481e-32,0.0604964,1.63207e-42,0,0,-34.3713,-1,-564.299,-1,1.256
0.0492787,0.0372895,0.286469,0.0187001,0.0285598,4.93654e-32,0.0605523,1.08804e-42,0,0,-34.6854,-1,-565.536,-1,1.26
0.0493932,0.0372895,0.286711,0.0187001,0.0287151,3.29103e-32,0.0606083,7.25362e-43,0,0,-35.0012,-1,-566.772,-1,1.264
0.0495084,0.0372895,0.286953,0.0187001,0.0288707,2.19402e-32,0.0606644,4.83575e-43,0,0,-35.3187,-1,-568.005,-1,1.268
0.0496242,0.0372895,0.287196,0.0187001,0.0290265,1.46268e-32,0.0607206,3.22383e-43,0,0,-35.6379,-1,-569.237,-1,1.272
0.0497406,0.0372895,0.287439,0.0187001,0.0291826,9.7512e-33,0.0607768,2.14922e-43,0,0,-35.9587,-1,-570.466,-1,1.276
0.0498577,0.0372895,0.287682,0.0187001,0.0293389,6.5008e-33,0.0608332,1.43281e-43,0,0,-36.2813,-1,-571.694,-1,1.28
0.0499753,0.0372895,0.287926,0.0187001,0.0294955,4.33387e-33,0.0608896,9.5521e-44,0,0,-36.6056,-1,-572.919,-1,1.284
0.0500936,0.0372895,0.28817,0.0187001,0.0296523,2.88924e-33,0.060946,6.36807e-44,0,0,-36.9316,-1,-574.142,-1,1.288
0.0502125,0.0372895,0.288413,0.0187001,0.0298094,1.92616e-33,0.0610026,4.24538e-44,0,0,-37.2593,-1,-575.364,-1,1.292
0.0503321,0.0372895,0.288658,0.0187001,0.0299667,1.28411e-33,0.0610592,2.83025e-44,0,0,-37.5887,-1,-576.583,-1,1.296
0.0504523,0.0372895,0.288902,0.0187001,0.0301242,8.56072e-34,0.0611159,1.88683e-44,0,0,-37.9199,-1,-577.801,-1,1.3
0.0505731,0.0372895,0.289146,0.0187001,0.030282,5.70715e-34,0.0611727,1.25789e-44,0,0,-38.2527,-1,-579.016,-1,1.304
0.0506945,0.0372895,0.289391,0.0187001,0.0304401,3.80476e-34,0.0612295,8.38593e-45,0,0,-38.5873,-1,-580.23,-1,1.308
0.0508166,0.0372895,0.289636,0.0187001,0.0305984,2.53651e-34,0.0612864,5.59062e-45,0,0,-38.9236,-1,-581.441,-1,1.312
0.0509393,0.0372895,0.289882,0.0187001,0.0307569,1.69101e-34,0.0613434,3.72708e-45,0,0,-39.2616,-1,-582.651,-1,1.316
0.0510627,0.0372895,0.290127,0.0187001,0.0309156,1.12734e-34,0.0614004,2.48472e-45,0,0,-39.6014,-1,-583.858,-1,1.32
0.0511866,0.0372895,0.290373,0.0187001,0.0310746,7.51558e-35,0.0614576,1.65648e-45,0,0,-39.9429,-1,-585.064,-1,1.324
0.0513113,0.0372895,0.290619,0.0187001,0.0312339,5.01039e-35,0.0615148,1.10432e-45,0,0,-40.2861,-1,-586.268,-1,1.328
0.0514365,0.0372895,0.290865,0.0187001,0.0313933,3.34026e-35,0.061572,7.36213e-46,0,0,-40.631,-1,-587.47,-1,1.332
0.0515624,0.0372895,0.291111,0.0187001,0.031553,2.22684e-35,0.0616293,4.90809e-46,0,0,-40.9777,-1,-588.67,-1,1.336
0.0516889,0.0372895,0.291358,0.0187001,0.0317129,1.48456e-35,0.0616867,3.27206e-46,0,0,-41.3262,-1,-589.869,-1,1.34
0.0518161,0.0372895,0.291605,0.0187001,0.0318731,9.89707e-36,0.0617442,2.18137e-46,0,0,-41.6763,-1,-591.065,-1,1.344
0.0519439,0.0372895,0.291852,0.0187001,0.0320335,6.59804e-36,0.0618017,1.45425e-46,0,0,-42.0282,-1,-592.26,-1,1.348
0.0520724,0.0372895,0.292099,0.0187001,0.0321941,4.3987e-36,0.0618593,9.69499e-47,0,0,-42.3819,-1,-593.453,-1,1.352
0.0522015,0.0372895,0.292347,0.0187001,0.0323549,2.93246e-36,0.061917,6.46333e-47,0,0,-42.7373,-1,-594.644,-1,1.356
0.0523312,0.0372895,0.292595,0.0187001,0.0325159,1.95498e-36,0.0619747,4.30888e-47,0,0,-43.0945,-1,-595.833,-1,1.36
0.0524616,0.0372895,0.292843,0.0187001,0.0326772,1.30332e-36,0.0620325,2.87259e-47,0,0,-43.4534,-1,-597.02,-1,1.364
0.0525926,0.0372895,0.293091,0.0187001,0.0328387,8.68878e-37,0.0620903,1.91506e-47,0,0,-43.814,-1,-598.206,-1,1.368
0.0527243,0.0372895,0.293339,0.0187001,0.0330004,5.79252e-37,0.0621482,1.27671e-47,0,0,-44.1765,-1,-599.39,-1,1.372
0.0528566,0.0372895,0.293588,0.0187001,0.0331623,3.86168e-37,0.0622062,8.51138e-48,0,0,-44.5406,-1,-600.572,-1,1.376
0.0529896,0.0372895,0.293837,0.0187001,0.0333245,2.57445e-37,0.0622643,5.67425e-48,0,0,-44.9066,-1,-601.752,-1,1.38
0.0531232,0.0372895,0.294086,0.0187001,0.0334869,1.7163e-37,0.0623224,3.78283e-48,0,0,-45.2743,-1,-602.931,-1,1.384
0.0532575,0.0372895,0.294336,0.0187001,0.0336494,1.1442e-37,0.0623805,2.52189e-48,0,0,-45.6437,-1,-604.108,-1,1.388
0.0533924,0.0372895,0.294585,0.0187001,0.0338122,7.62801e-38,0.0624387,1.68126e-48,0,0,-46.015,-1,-605.283,-1,1.392
0.053528,0.0372895,0.294835,0.0187001,0.0339752,5.08534e-38,0.062497,1.12084e-48,0,0,-46.388,-1,-606.456,-1,1.396
0.0536642,0.0372895,0.295085,0.0187001,0.0341385,3.39023e-38,0.0625554,7.47227e-49,0,0,-46.7628,-1,-607.628,-1,1.4
0.0538011,0.0372895,0.295335,0.0187001,0.0343019,2.26015e-38,0.0626138,4.98151e-49,0,0,-47.1393,-1,-608.798,-1,1.404
0.0539386,0.0372895,0.295586,0.0187001,0.0344655,1.50677e-38,0.0626722,3.32101e-49,0,0,-47.5176,-1,-609.967,-1,1.408
0.0540768,0.0372895,0.295837,0.0187001,0.0346294,1.00451e-38,0.0627307,2.214e-49,0,0,-47.8978,-1,-611.134,-1,1.412
0.0542157,0.0372895,0.296088,0.0187001,0.0347934,6.69675e-39,0.0627893,1.476e-49,0,0,-48.2796,-1,-612.299,-1,1.416
0.0543552,0.0372895,0.296339,0.0187001,0.0349576,4.4645e-39,0.0628479,9.84002e-50,0,0,-48.6633,-1,-613.462,-1,1.42
0.0544953,0.0372895,0.296591,0.0187001,0.0351221,2.97633e-39,0.0629066,6.56001e-50,0,0,-49.0488,-1,-614.624,-1,1.424
0.0546362,0.0372895,0.296842,0.0187001,0.0352867,1.98422e-39,0.0629654,4.37334e-50,0,0,-49.436,-1,-615.785,-1,1.428
0.0547776,0.0372895,0.297094,0.0187001,0.0354516,1.32281e-39,0.0630242,2.91556e-50,0,0,-49.825,-1,-616.943,-1,1.432
0.0549198,0.0372895,0.297347,0.0187001,0.0356167,8.81876e-40,0.063083,1.94371e-50,0,0,-50.2158,-1,-618.1,-1,1.436
0.0550626,0.0372895,0.297599,0.0187001,0.0357819,5.87917e-40,0.0631419,1.29581e-50,0,0,-50.6084,-1,-619.256,-1,1.44
0.055206,0.0372895,0.297852,0.0187001,0.0359473,3.91945e-40,0.0632009,8.6387e-51,0,0,-51.0028,-1,-620.41,-1,1.444
0.0553501,0.0372895,0.298105,0.0187001,0.036113,2.61297e-40,0.0632599,5.75913e-51,0,0,-51.399,-1,-621.562,-1,1.448
0.0554949,0.0372895,0.298358,0.0187001,0.0362788,1.74198e-40,0.0633189,3.83942e-51,0,0,-51.797,-1,-622.713,-1,1.452
0.0556404,0.0372895,0.298611,0.0187001,0.0364448,1.16132e-40,0.0633781,2.55962e-51,0,0,-52.1968,-1,-623.862,-1,1.456
0.0557865,0.0372895,0.298865,0.0187001,0.0366111,7.74212e-41,0.0634372,1.70641e-51,0,0,-52.5984,-1,-625.01,-1,1.46
0.0559333,0.0372895,0.299119,0.0187001,0.0367775,5.16141e-41,0.0634964,1.13761e-51,0,0,-53.0018,-1,-626.156,-1,1.464
0.0560807,0.0372895,0.299373,0.0187001,0.0369441,3.44094e-41,0.0635557,7.58404e-52,0,0,-53.407,-1,-627.301,-1,1.468
0.0562288,0.0372895,0.299627,0.0187001,0.0371109,2.29396e-41,0.063615,5.05603e-52,0,0,-53.814,-1,-628.444,-1,1.472
0.0563776,0.0372895,0.299882,0.0187001,0.0372778,1.52931e-41,0.0636744,3.37069e-52,0,0,-54.2228,-1,-629.586,-1,1.476
0.056527,0.0372895,0.300137,0.0187001,0.037445,1.01954e-41,0.0637338,2.24712e-52,0,0,-54.6334,-1,-630.726,-1,1.48
0.0566772,0.0372895,0.300392,0.0187001,0.0376123,6.79692e-42,0.0637933,1.49808e-52,0,0,-55.0459,-1,-631.865,-1,1.484
0.0568279,0.0372895,0.300647,0.0187001,0.0377798,4.53128e-42,0.0638528,9.98722e-53,0,0,-55.4601,-1,-633.002,-1,1.488
0.0569794,0.0372895,0.300902,0.0187001,0.0379475,3.02086e-42,0.0639123,6.65815e-53,0,0,-55.8762,-1,-634.138,-1,1.492
0.0571315,0.0372895,0.301158,0.0187001,0.0381154,2.0139e-42,0.0639719,4.43876e-53,0,0,-56.2941,-1,-635.273,-1,1.496
0.0572843,0.0372895,0.301414,0.0187001,0.0382835,1.3426e-42,0.0640316,2.95918e-53,0,0,-56.7138,-1,-636.406,-1,1.5
0.0574378,0.0372895,0.30167,0.0187001,0.0384517,8.95068e-43,0.0640913,1.97278e-53,0,0,-57.1353,-1,-637.537,-1,1.504
0.0575919,0.0372895,0.301927,0.0187001,0.0386201,5.96712e-43,0.064151,1.31519e-53,0,0,-57.5586,-1,-638.667,-1,1.508
0.0577468,0.0372895,0.302184,0.0187001,0.0387887,3.97808e-43,0.0642108,8.76793e-54,0,0,-57.9838,-1,-639.796,-1,1.512
0.0579022,0.0372895,0.302441,0.0187001,0.0389575,2.65205e-43,0.0642706,5.84529e-54,0,0,-58.4108,-1,-640.923,-1,1.516
0.0580584,0.0372895,0.302698,0.0187001,0.0391264,1.76804e-43,0.0643305,3.89686e-54,0,0,-58.8396,-1,-642.049,-1,1.52
0.0582153,0.0372895,0.302955,0.0187001,0.0392955,1.17869e-43,0.0643904,2.5979e-54,0,0,-59.2702,-1,-643.174,-1,1.524
0.0583728,0.0372895,0.303213,0.0187001,0.0394648,7.85794e-44,0.0644503,1.73194e-54,0,0,-59.7027,-1,-644.297,-1,1.528
0.058531,0.0372895,0.303471,0.0187001,0.0396342,5.23863e-44,0.0645103,1.15462e-54,0,0,-60.137,-1,-645.419,-1,1.532
0.0586899,0.0372895,0.303729,0.0187001,0.0398038,3.49242e-44,0.0645704,7.6975e-55,0,0,-60.5732,-1,-646.54,-1,1.536
0.0588494,0.0372895,0.303987,0.0187001,0.0399736,2.32828e-44,0.0646304,5.13166e-55,0,0,-61.0111,-1,-647.659,-1,1.54
0.0590096,0.0372895,0.304246,0.0187001,0.0401435,1.55219e-44,0.0646906,3.42111e-55,0,0,-61.4509,-1,-648.777,-1,1.544
0.0591706,0.0372895,0.304505,0.0187001,0.0403136,1.03479e-44,0.0647507,2.28074e-55,0,0,-61.8926,-1,-649.893,-1,1.548
0.0593321,0.0372895,0.304764,0.0187001,0.0404839,6.8986e-45,0.0648109,1.52049e-55,0,0,-62.3361,-1,-651.008,-1,1.552
0.0594944,0.0372895,0.305023,0.0187001,0.0406543,4.59907e-45,0.0648711,1.01366e-55,0,0,-62.7814,-1,-652.122,-1,1.556
0.0596574,0.0372895,0.305283,0.0187001,0.0408249,3.06604e-45,0.0649314,6.75775e-56,0,0,-63.2286,-1,-653.235,-1,1.56
0.059821,0.0372895,0.305543,0.0187001,0.0409956,2.04403e-45,0.0649917,4.50516e-56,0,0,-63.6776,-1,-654.346,-1,1.564
0.0599853,0.0372895,0.305803,0.0187001,0.0411665,1.36269e-45,0.0650521,3.00344e-56,0,0,-64.1285,-1,-655.456,-1,1.568
0.0601504,0.0372895,0.306063,0.0187001,0.0413376,9.08458e-46,0.0651125,2.0023e-56,0,0,-64.5812,-1,-656.565,-1,1.572
0.0603161,0.0372895,0.306324,0.0187001,0.0415088,6.05638e-46,0.0651729,1.33486e-56,0,0,-65.0358,-1,-657.673,-1,1.576
0.0604824,0.0372895,0.306585,0.0187001,0.0416801,4.03759e-46,0.0652333,8.89909e-57,0,0,-65.4922,-1,-658.779,-1,1.58
0.0606495,0.0372895,0.306846,0.0187001,0.0418517,2.69173e-46,0.0652938,5.93273e-57,0,0,-65.9504,-1,-659.884,-1,1.584
0.0608172,0.0372895,0.307107,0.0187001,0.0420233,1.79448e-46,0.0653544,3.95515e-57,0,0,-66.4105,-1,-660.988,-1,1.588
0.0609857,0.0372895,0.307369,0.0187001,0.0421951,1.19632e-46,0.0654149,2.63677e-57,0,0,-66.8725,-1,-662.09,-1,1.592
0.0611548,0.0372895,0.30763,0.0187001,0.0423671,7.97549e-47,0.0654755,1.75785e-57,0,0,-67.3363,-1,-663.192,-1,1.596
0.0613246,0.0372895,0.307892,0.0187001,0.0425392,5.31699e-47,0.0655361,1.1719e-57,0,0,-67.802,-1,-664.292,-1,1.6
0.0614951,0.0372895,0.308155,0.0187001,0.0427115,3.54466e-47,0.0655968,7.81264e-58,0,0,-68.2695,-1,-665.391,-1,1.604
0.0616663,0.0372895,0.308417,0.0187001,0.0428839,2.36311e-47,0.0656575,5.20843e-58,0,0,-68.7389,-1,-666.489,-1,1.608
0.0618382,0.0372895,0.30868,0.0187001,0.0430564,1.5754e-47,0.0657182,3.47229e-58,0,0,-69.2102,-1,-667.585,-1,1.612
0.0620108,0.0372895,0.308943,0.0187001,0.0432291,1.05027e-47,0.0657789,2.31486e-58,0,0,-69.6833,-1,-668.681,-1,1.616
0.062184,0.0372895,0.309206,0.0187001,0.0434019,7.0018e-48,0.0658397,1.54324e-58,0,0,-70.1583,-1,-669.775,-1,1.62
0.062358,0.0372895,0.30947,0.0187001,0.0435749,4.66787e-48,0.0659005,1.02883e-58,0,0,-70.6352,-1,-670.868,-1,1.624
0.0625326,0.0372895,0.309733,0.0187001,0.043748,3.11191e-48,0.0659614,6.85884e-59,0,0,-71.1139,-1,-671.96,-1,1.628
0.062708,0.0372895,0.309997,0.0187001,0.0439212,2.07461e-48,0.0660223,4.57256e-59,0,0,-71.5945,-1,-673.051,-1,1.632
0.062884,0.0372895,0.310262,0.0187001,0.0440946,1.38307e-48,0.0660832,3.04837e-59,0,0,-72.0769,-1,-674.14,-1,1.636
0.0630607,0.0372895,0.310526,0.0187001,0.0442681,9.22048e-49,0.0661441,2.03225e-59,0,0,-72.5612,-1,-675.229,-1,1.64
0.0632381,0.0372895,0.310791,0.0187001,0.0444418,6.14698e-49,0.066205,1.35483e-59,0,0,-73.0474,-1,-676.316,-1,1.644
0.0634162,0.0372895,0.311056,0.0187001,0.0446156,4.09799e-49,0.066266,9.03221e-60,0,0,-73.5355,-1,-677.403,-1,1.648
0.0635951,0.0372895,0.311321,0.0187001,0.0447895,2.73199e-49,0.066327,6.02148e-60,0,0,-74.0254,-1,-678.488,-1,1.652
0.0637746,0.0372895,0.311586,0.0187001,0.0449635,1.82133e-49,0.066388,4.01432e-60,0,0,-74.5173,-1,-679.572,-1,1.656
0.0639548,0.0372895,0.311852,0.0187001,0.0451377,1.21422e-49,0.0664491,2.67621e-60,0,0,-75.0109,-1,-680.655,-1,1.66
0.0641357,0.0372895,0.312118,0.0187001,0.045312,8.09479e-50,0.0665102,1.78414e-60,0,0,-75.5065,-1,-681.737,-1,1.664
0.0643173,0.0372895,0.312384,0.0187001,0.0454864,5.39653e-50,0.0665713,1.18943e-60,0,0,-76.004,-1,-682.818,-1,1.668
0.0644996,0.0372895,0.31265,0.0187001,0.0456609,3.59769e-50,0.0666324,7.92952e-61,0,0,-76.5033,-1,-683.898,-1,1.672
0.0646826,0.0372895,0.312917,0.0187001,0.0458356,2.39846e-50,0.0666936,5.28634e-61,0,0,-77.0045,-1,-684.976,-1,1.676
0.0648662,0.0372895,0.313184,0.0187001,0.0460104,1.59897e-50,0.0667548,3.52423e-61,0,0,-77.5076,-1,-686.054,-1,1.68
0.0650506,0.0372895,0.313451,0.0187001,0.0461853,1.06598e-50,0.066816,2.34949e-61,0,0,-78.0125,-1,-687.131,-1,1.684
0.0652357,0.0372895,0.313718,0.0187001,0.0463604,7.10654e-51,0.0668772,1.56632e-61,0,0,-78.5194,-1,-688.206,-1,1.688
0.0654215,0.0372895,0.313986,0.0187001,0.0465355,4.73769e-51,0.0669384,1.04422e-61,0,0,-79.0281,-1,-689.281,-1,1.692
0.065608,0.0372895,0.314254,0.0187001,0.0467108,3.15846e-51,0.0669997,6.96144e-62,0,0,-79.5388,-1,-690.355,-1,1.696
0.0657952,0.0372895,0.314522,0.0187001,0.0468862,2.10564e-51,0.067061,4.64096e-62,0,0,-80.0513,-1,-691.427,-1,1.7
0.0659831,0.0372895,0.31479,0.0187001,0.0470617,1.40376e-51,0.0671223,3.09397e-62,0,0,-80.5657,-1,-692.499,-1,1.704
0.0661717,0.0372895,0.315059,0.0187001,0.0472373,9.35841e-52,0.0671836,2.06265e-62,0,0,-81.0819,-1,-693.57,-1,1.708
0.066361,0.0372895,0.315328,0.0187001,0.0474131,6.23894e-52,0.0672449,1.3751e-62,0,0,-81.6001,-1,-694.639,-1,1.712
0.066551,0.0372895,0.315597,0.0187001,0.0475889,4.15929e-52,0.0673063,9.16733e-63,0,0,-82.1202,-1,-695.708,-1,1.716
0.0667417,0.0372895,0.315866,0.0187001,0.0477649,2.77286e-52,0.0673677,6.11155e-63,0,0,-82.6421,-1,-696.776,-1,1.72
0.0669331,0.0372895,0.316136,0.0187001,0.0479409,1.84857e-52,0.0674291,4.07437e-63,0,0,-83.166,-1,-697.842,-1,1.724
0.0671252,0.0372895,0.316406,0.0187001,0.0481171,1.23238e-52,0.0674905,2.71625e-63,0,0,-83.6917,-1,-698.908,-1,1.728
0.0673181,0.0372895,0.316676,0.0187001,0.0482934,8.21589e-53,0.0675519,1.81083e-63,0,0,-84.2194,-1,-699.973,-1,1.732
0.0675116,0.0372895,0.316946,0.0187001,0.0484698,5.47726e-53,0.0676134,1.20722e-63,0,0,-84.7489,-1,-701.037,-1,1.736
0.0677058,0.0372895,0.317217,0.0187001,0.0486463,3.6515e-53,0.0676748,8.04814e-64,0,0,-85.2804,-1,-702.1,-1,1.74
0.0679008,0.0372895,0.317488,0.0187001,0.0488229,2.43434e-53,0.0677363,5.36542e-64,0,0,-85.8137,-1,-703.162,-1,1.744
0.0680964,0.0372895,0.317759,0.0187001,0.0489996,1.62289e-53,0.0677978,3.57695e-64,0,0,-86.3489,-1,-704.223,-1,1.748
0.0682928,0.0372895,0.31803,0.0187001,0.0491764,1.08193e-53,0.0678593,2.38463e-64,0,0,-86.886,-1,-705.283,-1,1.752
0.0684898,0.0372895,0.318302,0.0187001,0.0493533,7.21285e-54,0.0679208,1.58976e-64,0,0,-87.4251,-1,-706.342,-1,1.756
0.0686876,0.0372895,0.318573,0.0187001,0.0495303,4.80857e-54,0.0679823,1.05984e-64,0,0,-87.966,-1,-707.401,-1,1.76
0.0688861,0.0372895,0.318845,0.0187001,0.0497074,3.20571e-54,0.0680439,7.06558e-65,0,0,-88.5088,-1,-708.458,-1,1.764
0.0690852,0.0372895,0.319118,0.0187001,0.0498846,2.13714e-54,0.0681054,4.71039e-65,0,0,-89.0536,-1,-709.515,-1,1.768
0.0692851,0.0372895,0.31939,0.0187001,0.0500619,1.42476e-54,0.068167,3.14026e-65,0,0,-89.6002,-1,-710.57,-1,1.772
0.0694857,0.0372895,0.319663,0.0187001,0.0502392,9.4984e-55,0.0682286,2.0935e-65,0,0,-90.1487,-1,-711.625,-1,1.776
0.069687,0.0372895,0.319936,0.0187001,0.0504167,6.33227e-55,0.0682902,1.39567e-65,0,0,-90.6992,-1,-712.679,-1,1.78
0.0698891,0.0372895,0.320209,0.0187001,0.0505943,4.22151e-55,0.0683518,9.30447e-66,0,0,-91.2515,-1,-713.732,-1,1.784
0.0700918,0.0372895,0.320483,0.0187001,0.0507719,2.81434e-55,0.0684134,6.20298e-66,0,0,-91.8058,-1,-714.785,-1,1.788
0.0702952,0.0372895,0.320757,0.0187001,0.0509497,1.87623e-55,0.068475,4.13532e-66,0,0,-92.362,-1,-715.836,-1,1.792
0.0704994,0.0372895,0.321031,0.0187001,0.0511275,1.25082e-55,0.0685366,2.75688e-66,0,0,-92.92,-1,-716.887,-1,1.796
0.0707043,0.0372895,0.321305,0.0187001,0.0513055,8.33879e-56,0.0685982,1.83792e-66,0,0,-93.48,-1,-717.936,-1,1.8
0.0709098,0.0372895,0.32158,0.0187001,0.0514835,5.55919e-56,0.0686599,1.22528e-66,0,0,-94.0419,-1,-718.985,-1,1.804
0.0711161,0.0372895,0.321854,0.0187001,0.0516616,3.70613e-56,0.0687215,8.16853e-67,0,0,-94.6057,-1,-720.034,-1,1.808
0.0713231,0.0372895,0.322129,0.0187001,0.0518398,2.47075e-56,0.0687832,5.44569e-67,0,0,-95.1714,-1,-721.081,-1,1.812
0.0715308,0.0372895,0.322405,0.0187001,0.052018,1.64717e-56,0.0688449,3.63046e-67,0,0,-95.7391,-1,-722.127,-1,1.816
0.0717393,0.0372895,0.32268,0.0187001,0.0521964,1.09811e-56,0.0689065,2.4203e-67,0,0,-96.3086,-1,-723.173,-1,1.82
0.0719484,0.0372895,0.322956,0.0187001,0.0523748,7.32075e-57,0.0689682,1.61354e-67,0,0,-96.88,-1,-724.218,-1,1.824
0.0721583,0.0372895,0.323232,0.0187001,0.0525533,4.8805e-57,0.0690299,1.07569e-67,0,0,-97.4534,-1,-725.262,-1,1.828
0.0723688,0.0372895,0.323508,0.0187001,0.0527319,3.25367e-57,0.0690916,7.17127e-68,0,0,-98.0287,-1,-726.305,-1,1.832
0.0725801,0.0372895,0.323785,0.0187001,0.0529105,2.16911e-57,0.0691532,4.78085e-68,0,0,-98.6059,-1,-727.348,-1,1.836
0.0727921,0.0372895,0.324061,0.0187001,0.0530893,1.44607e-57,0.0692149,3.18723e-68,0,0,-99.185,-1,-728.39,-1,1.84
0.0730048,0.0372895,0.324338,0.0187001,0.0532681,9.64049e-58,0.0692766,2.12482e-68,0,0,-99.766,-1,-729.431,-1,1.844
0.0732183,0.0372895,0.324615,0.0187001,0.053447,6.42699e-58,0.0693383,1.41655e-68,0,0,-100.349,-1,-730.471,-1,1.848
0.0734324,0.0372895,0.324893,0.0187001,0.0536259,4.28466e-58,0.0694,9.44365e-69,0,0,-100.934,-1,-731.511,-1,1.852
0.0736473,0.0372892,0.325171,0.0187001,0.053805,-2.87909e-05,0.0694617,6.29577e-69,0,0,-101.521,-1,-732.549,-1,1.856
0.0738629,0.0372895,0.325449,0.0187001,0.0539841,9.59697e-06,0.0695234,4.19718e-69,0,0,-102.11,-1,-733.587,-1,1.86
0.0740792,0.0372895,0.325727,0.0187001,0.0541632,6.39798e-06,0.0695851,2.79812e-69,0,0,-102.7,-1,-734.625,-1,1.864
0.0742962,0.0372895,0.326005,0.0187001,0.0543425,4.26532e-06,0.0696468,1.86541e-69,0,0,-103.293,-1,-735.661,-1,1.868
0.0745139,0.0372892,0.326284,0.0187001,0.0545218,-2.59474e-05,0.0697085,1.24361e-69,0,0,-103.887,-1,-736.697,-1,1.872
0.0747323,0.0372895,0.326563,0.0187001,0.0547011,1.14927e-05,0.0697702,8.29072e-70,0,0,-104.484,-1,-737.732,-1,1.876
0.0749515,0.0372895,0.326842,0.0187001,0.0548806,7.66178e-06,0.0698319,5.52715e-70,0,0,-105.082,-1,-738.767,-1,1.88
0.0751714,0.0372895,0.327122,0.0187001,0.0550601,5.10785e-06,0.0698936,3.68477e-70,0,0,-105.682,-1,-739.801,-1,1.884
0.075392,0.0372892,0.327401,0.0187001,0.0552396,-2.53857e-05,0.0699553,2.45651e-70,0,0,-106.284,-1,-740.834,-1,1.888
0.0756133,0.0372895,0.327681,0.0187001,0.0554193,1.18671e-05,0.070017,1.63767e-70,0,0,-106.888,-1,-741.866,-1,1.892
0.0758353,0.0372895,0.327961,0.0187001,0.0555989,7.91142e-06,0.0700787,1.09178e-70,0,0,-107.494,-1,-742.898,-1,1.896
0.0760581,0.0372895,0.328242,0.0187001,0.0557787,5.27428e-06,0.0701404,7.27855e-71,0,0,-108.102,-1,-743.929,-1,1.9
0.0762816,0.0372895,0.328523,0.0187001,0.0559585,3.51619e-06,0.0702021,4.85237e-71,0,0,-108.712,-1,-744.959,-1,1.904
0.0765058,0.0372895,0.328804,0.0187001,0.0561383,2.34412e-06,0.0702637,3.23491e-71,0,0,-109.323,-1,-745.989,-1,1.908
0.0767307,0.0372892,0.329085,0.0187001,0.0563182,-2.72282e-05,0.0703254,2.15661e-71,0,0,-109.937,-1,-747.018,-1,1.912
0.0769563,0.0372892,0.329366,0.0187001,0.0564982,-1.81521e-05,0.0703871,1.43774e-71,0,0,-110.553,-1,-748.046,-1,1.916
0.0771827,0.0372895,0.329648,0.0187001,0.0566782,1.66895e-05,0.0704487,9.58492e-72,0,0,-111.171,-1,-749.074,-1,1.92
0.0774097,0.0372895,0.32993,0.0187001,0.0568583,1.11263e-05,0.0705104,6.38995e-72,0,0,-111.79,-1,-750.101,-1,1.924
0.0776375,0.0372895,0.330212,0.0187001,0.0570384,7.41756e-06,0.070572,4.25997e-72,0,0,-112.411,-1,-751.127,-1,1.928
0.077866,0.0372895,0.330494,0.0187001,0.0572186,4.94504e-06,0.0706337,2.83998e-72,0,0,-113.034,-1,-752.153,-1,1.932
0.0780953,0.0372895,0.330777,0.0187001,0.0573988,3.29669e-06,0.0706953,1.89332e-72,0,0,-113.66,-1,-753.178,-1,1.936
0.0783252,0.0372895,0.33106,0.0187001,0.057579,2.1978e-06,0.0707569,1.26221e-72,0,0,-114.287,-1,-754.203,-1,1.94
0.0785559,0.0372895,0.331343,0.0187001,0.0577594,1.4652e-06,0.0708185,8.41475e-73,0,0,-114.916,-1,-755.227,-1,1.944
0.0787873,0.0372895,0.331626,0.0187001,0.0579397,9.76798e-07,0.0708801,5.60983e-73,0,0,-115.547,-1,-756.25,-1,1.948
0.0790194,0.0372895,0.33191,0.0187001,0.0581201,6.51199e-07,0.0709417,3.73989e-73,0,0,-116.18,-1,-757.273,-1,1.952
0.0792523,0.0372895,0.332194,0.0187001,0.0583006,4.34133e-07,0.0710033,2.49326e-73,0,0,-116.814,-1,-758.295,-1,1.956
0.0794858,0.0372895,0.332478,0.0187001,0.058481,2.89422e-07,0.0710649,1.66217e-73,0,0,-117.451,-1,-759.317,-1,1.96
0.0797201,0.0372895,0.332762,0.0187001,0.0586616,1.92948e-07,0.0711265,1.10811e-73,0,0,-118.09,-1,-760.337,-1,1.964
0.0799551,0.0372895,0.333047,0.0187001,0.0588421,1.28632e-07,0.071188,7.38743e-74,0,0,-118.731,-1,-761.358,-1,1.968
0.0801909,0.0372895,0.333332,0.0187001,0.0590228,8.57546e-08,0.0712496,4.92495e-74,0,0,-119.373,-1,-762.378,-1,1.972
0.0804273,0.0372895,0.333617,0.0187001,0.0592034,5.71697e-08,0.0713111,3.2833e-74,0,0,-120.018,-1,-763.397,-1,1.976
0.0806645,0.0372892,0.333902,0.0187001,0.0593841,-2.87528e-05,0.0713726,2.18887e-74,0,0,-120.664,-1,-764.415,-1,1.98
0.0809024,0.0372895,0.334188,0.0187001,0.0595648,9.62238e-06,0.0714341,1.45925e-74,0,0,-121.313,-1,-765.434,-1,1.984
0.081141,0.0372895,0.334474,0.0187001,0.0597455,6.41492e-06,0.0714956,9.72831e-75,0,0,-121.963,-1,-766.451,-1,1.988
0.0813803,0.0372895,0.33476,0.0187001,0.0599263,4.27661e-06,0.0715571,6.48554e-75,0,0,-122.615,-1,-767.468,-1,1.992
0.0816204,0.0372895,0.335046,0.0187001,0.0601072,2.85108e-06,0.0716186,4.32369e-75,0,0,-123.269,-1,-768.484,-1,1.996
0.0818612,0.0372895,0.335333,0.0187001,0.060288,1.90072e-06,0.07168,2.88246e-75,0,0,-123.925,-1,-769.5,-1,2
0.0821027,0.0372895,0.33562,0.0187001,0.0604689,1.26715e-06,0.0717414,1.92164e-75,0,0,-124.583,-1,-770.516,-1,2.004
0.082345,0.0372895,0.335907,0.0187001,0.0606498,8.44763e-07,0.0718028,1.28109e-75,0,0,-125.243,-1,-771.53,-1,2.008
0.0825879,0.0372895,0.336194,0.0187001,0.0608307,5.63176e-07,0.0718642,8.54062e-76,0,0,-125.905,-1,-772.545,-1,2.012
0.0828316,0.0372895,0.336482,0.0187001,0.0610117,3.7545e-07,0.0719256,5.69375e-76,0,0,-126.569,-1,-773.559,-1,2.016
0.083076,0.0372895,0.33677,0.0187001,0.0611927,2.503e-07,0.071987,3.79583e-76,0,0,-127.234,-1,-774.572,-1,2.02
0.0833211,0.0372895,0.337058,0.0187001,0.0613737,1.66867e-07,0.0720483,2.53056e-76,0,0,-127.902,-1,-775.584,-1,2.024
0.083567,0.0372895,0.337346,0.0187001,0.0615547,1.11245e-07,0.0721097,1.68704e-76,0,0,-128.572,-1,-776.597,-1,2.028
0.0838136,0.0372895,0.337635,0.0187001,0.0617358,7.4163e-08,0.072171,1.12469e-76,0,0,-129.243,-1,-777.608,-1,2.032
0.0840609,0.0372895,0.337923,0.0187001,0.0619169,4.9442e-08,0.0722323,7.49794e-77,0,0,-129.917,-1,-778.62,-1,2.036
0.0843089,0.0372895,0.338212,0.0187001,0.062098,3.29614e-08,0.0722936,4.99863e-77,0,0,-130.592,-1,-779.63,-1,2.04
0.0845577,0.0372895,0.338502,0.0187001,0.0622791,2.19742e-08,0.0723548,3.33242e-77,0,0,-131.269,-1,-780.641,-1,2.044
0.0848071,0.0372895,0.338791,0.0187001,0.0624602,1.46495e-08,0.072416,2.22161e-77,0,0,-131.948,-1,-781.65,-1,2.048
0.0850573,0.0372895,0.339081,0.0187001,0.0626414,9.76633e-09,0.0724773,1.48108e-77,0,0,-132.63,-1,-782.66,-1,2.052
0.0853083,0.0372892,0.339371,0.0187001,0.0628226,-2.87844e-05,0.0725385,9.87383e-78,0,0,-133.313,-1,-783.668,-1,2.056
0.0855599,0.0372895,0.339661,0.0187001,0.0630037,9.60132e-06,0.0725996,6.58256e-78,0,0,-133.998,-1,-784.677,-1,2.06
0.0858123,0.0372889,0.339952,0.0187001,0.0631849,-5.1181e-05,0.0726608,4.38837e-78,0,0,-134.685,-1,-785.685,-1,2.064
0.0860654,0.0372895,0.340243,0.0187001,0.0633662,2.34612e-05,0.0727219,2.92558e-78,0,0,-135.374,-1,-786.692,-1,2.068
0.0863192,0.0372895,0.340534,0.0187001,0.0635474,1.56408e-05,0.072783,1.95039e-78,0,0,-136.065,-1,-787.699,-1,2.072
0.0865738,0.0372895,0.340825,0.0187001,0.0637286,1.04272e-05,0.0728441,1.30026e-78,0,0,-136.757,-1,-788.705,-1,2.076
0.0868291,0.0372895,0.341116,0.0187001,0.0639099,6.95147e-06,0.0729051,8.66839e-79,0,0,-137.452,-1,-789.712,-1,2.08
0.0870851,0.0372895,0.341408,0.0187001,0.0640911,4.63431e-06,0.0729662,5.77892e-79,0,0,-138.148,-1,-790.717,-1,2.084
0.0873418,0.0372892,0.3417,0.0187001,0.0642724,-2.57014e-05,0.0730272,3.85262e-79,0,0,-138.847,-1,-791.722,-1,2.088
0.0875992,0.0372889,0.341992,0.0187001,0.0644537,-4.59252e-05,0.0730882,2.56841e-79,0,0,-139.548,-1,-792.727,-1,2.092
0.0878574,0.0372895,0.342285,0.0187001,0.0646349,2.69651e-05,0.0731491,1.71227e-79,0,0,-140.251,-1,-793.731,-1,2.096
0.0881163,0.0372895,0.342578,0.0187001,0.0648162,1.79767e-05,0.0732101,1.14152e-79,0,0,-140.955,-1,-794.735,-1,2.1
0.088376,0.0372895,0.342871,0.0187001,0.0649975,1.19845e-05,0.073271,7.61011e-80,0,0,-141.661,-1,-795.739,-1,2.104
0.0886363,0.0372895,0.343164,0.0187001,0.0651788,7.98965e-06,0.0733318,5.0734e-80,0,0,-142.369,-1,-796.742,-1,2.108
0.0888974,0.0372895,0.343457,0.0187001,0.0653601,5.32643e-06,0.0733927,3.38227e-80,0,0,-143.079,-1,-797.744,-1,2.112
0.0891592,0.0372899,0.343751,0.0187001,0.0655414,3.23419e-05,0.0734535,2.25485e-80,0,0,-143.791,-1,-798.747,-1,2.116
0.0894217,0.0372895,0.344045,0.0187001,0.0657227,-7.22967e-06,0.0735143,1.50323e-80,0,0,-144.504,-1,-799.748,-1,2.12
0.089685,0.0372899,0.344339,0.0187001,0.0659039,2.39711e-05,0.0735751,1.00215e-80,0,0,-145.22,-1,-800.75,-1,2.124
0.0899489,0.0372895,0.344633,0.0187001,0.0660852,-1.28102e-05,0.0736358,6.68103e-81,0,0,-145.938,-1,-801.751,-1,2.128
0.0902136,0.0372899,0.344928,0.0187001,0.0662665,2.02508e-05,0.0736965,4.45402e-81,0,0,-146.657,-1,-802.752,-1,2.132
0.0904791,0.0372895,0.345223,0.0187001,0.0664478,-1.52904e-05,0.0737572,2.96934e-81,0,0,-147.379,-1,-803.752,-1,2.136
0.0907452,0.0372895,0.345518,0.0187001,0.066629,-1.01936e-05,0.0738178,1.97956e-81,0,0,-148.103,-1,-804.752,-1,2.14
0.0910121,0.0372895,0.345814,0.0187001,0.0668103,-6.79572e-06,0.0738785,1.31971e-81,0,0,-148.828,-1,-805.751,-1,2.144
0.0912797,0.0372895,0.346109,0.0187001,0.0669916,-4.53048e-06,0.0739391,8.79806e-82,0,0,-149.556,-1,-806.75,-1,2.148
0.091548,0.0372895,0.346405,0.0187001,0.0671728,-3.02032e-06,0.0739996,5.86537e-82,0,0,-150.285,-1,-807.749,-1,2.152
0.0918171,0.0372895,0.346701,0.0187001,0.067354,-2.01355e-06,0.0740601,3.91025e-82,0,0,-151.017,-1,-808.747,-1,2.156
0.0920869,0.0372895,0.346998,0.0187001,0.0675353,-1.34237e-06,0.0741206,2.60683e-82,0,0,-151.75,-1,-809.745,-1,2.16
0.0923574,0.0372895,0.347294,0.0187001,0.0677165,-8.9491e-07,0.0741811,1.73789e-82,0,0,-152.485,-1,-810.743,-1,2.164
0.0926286,0.0372889,0.347591,0.0187001,0.0678977,-5.81785e-05,0.0742415,1.15859e-82,0,0,-153.222,-1,-811.74,-1,2.168
0.0929006,0.0372895,0.347888,0.0187001,0.0680788,1.87962e-05,0.0743019,7.72395e-83,0,0,-153.962,-1,-812.737,-1,2.172
0.0931732,0.0372895,0.348185,0.0187001,0.06826,1.25308e-05,0.0743623,5.1493e-83,0,0,-154.702,-1,-813.734,-1,2.176
0.0934466,0.0372895,0.348483,0.0187001,0.0684412,8.35387e-06,0.0744226,3.43287e-83,0,0,-155.445,-1,-814.73,-1,2.18
0.0937208,0.0372889,0.348781,0.0187001,0.0686223,-5.20126e-05,0.0744829,2.28858e-83,0,0,-156.19,-1,-815.726,-1,2.184
0.0939956,0.0372895,0.349079,0.0187001,0.0688034,2.29068e-05,0.0745431,1.52572e-83,0,0,-156.937,-1,-816.722,-1,2.188
0.0942712,0.0372895,0.349377,0.0187001,0.0689845,1.52712e-05,0.0746034,1.01715e-83,0,0,-157.685,-1,-817.717,-1,2.192
0.0945475,0.0372889,0.349676,0.0187001,0.0691656,-4.74011e-05,0.0746635,6.78097e-84,0,0,-158.436,-1,-818.712,-1,2.196
0.0948245,0.0372895,0.349974,0.0187001,0.0693466,2.59811e-05,0.0747237,4.52065e-84,0,0,-159.189,-1,-819.707,-1,2.2
0.0951023,0.0372895,0.350273,0.0187001,0.0695277,1.73208e-05,0.0747838,3.01376e-84,0,0,-159.943,-1,-820.701,-1,2.204
0.0953807,0.0372895,0.350573,0.0187001,0.0697087,1.15472e-05,0.0748439,2.00918e-84,0,0,-160.699,-1,-821.695,-1,2.208
0.0956599,0.0372895,0.350872,0.0187001,0.0698897,7.69812e-06,0.0749039,1.33945e-84,0,0,-161.457,-1,-822.689,-1,2.212
0.0959399,0.0372895,0.351172,0.0187001,0.0700706,5.13208e-06,0.0749639,8.92967e-85,0,0,-162.217,-1,-823.682,-1,2.216
0.0962205,0.0372895,0.351472,0.0187001,0.0702516,3.42139e-06,0.0750239,5.95311e-85,0,0,-162.979,-1,-824.675,-1,2.22
0.0965019,0.0372895,0.351772,0.0187001,0.0704325,2.28092e-06,0.0750838,3.96874e-85,0,0,-163.743,-1,-825.668,-1,2.224
0.096784,0.0372895,0.352073,0.0187001,0.0706134,1.52062e-06,0.0751437,2.64583e-85,0,0,-164.509,-1,-826.66,-1,2.228
0.0970668,0.0372895,0.352373,0.0187001,0.0707942,1.01374e-06,0.0752035,1.76389e-85,0,0,-165.276,-1,-827.652,-1,2.232
0.0973503,0.0372899,0.352674,0.0187001,0.070975,2.94668e-05,0.0752633,1.17592e-85,0,0,-166.046,-1,-828.644,-1,2.236
0.0976346,0.0372895,0.352975,0.0187001,0.0711558,-9.14642e-06,0.0753231,7.83949e-86,0,0,-166.817,-1,-829.636,-1,2.24
0.0979196,0.0372895,0.353277,0.0187001,0.0713366,-6.09761e-06,0.0753828,5.22633e-86,0,0,-167.591,-1,-830.627,-1,2.244
0.0982053,0.0372895,0.353578,0.0187001,0.0715173,-4.06508e-06,0.0754425,3.48422e-86,0,0,-168.366,-1,-831.618,-1,2.248
0.0984917,0.0372895,0.35388,0.0187001,0.071698,-2.71005e-06,0.0755021,2.32281e-86,0,0,-169.144,-1,-832.609,-1,2.252
0.0987789,0.0372895,0.354182,0.0187001,0.0718786,-1.8067e-06,0.0755617,1.54854e-86,0,0,-169.923,-1,-833.599,-1,2.256
0.0990667,0.0372895,0.354485,0.0187001,0.0720592,-1.20447e-06,0.0756212,1.03236e-86,0,0,-170.704,-1,-834.59,-1,2.26
0.0993553,0.0372895,0.354787,0.0187001,0.0722398,-8.02978e-07,0.0756808,6.88241e-87,0,0,-171.488,-1,-835.579,-1,2.264
0.0996446,0.0372895,0.35509,0.0187001,0.0724204,-5.35319e-07,0.0757402,4.58827e-87,0,0,-172.273,-1,-836.569,-1,2.268
0.0999347,0.0372895,0.355393,0.0187001,0.0726009,-3.56879e-07,0.0757996,3.05885e-87,0,0,-173.06,-1,-837.559,-1,2.272
0.100225,0.0372895,0.355697,0.0187001,0.0727813,-2.37919e-07,0.075859,2.03923e-87,0,0,-173.848,-1,-838.548,-1,2.276
0.100517,0.0372895,0.356,0.0187001,0.0729617,-1.58613e-07,0.0759183,1.35949e-87,0,0,-174.639,-1,-839.537,-1,2.28
0.100809,0.0372889,0.356304,0.0187001,0.0731421,-5.76876e-05,0.0759776,9.06325e-88,0,0,-175.432,-1,-840.525,-1,2.284
0.101102,0.0372895,0.356608,0.0187001,0.0733225,1.91235e-05,0.0760369,6.04217e-88,0,0,-176.227,-1,-841.514,-1,2.288
0.101396,0.0372889,0.356912,0.0187001,0.0735027,-4.48329e-05,0.0760961,4.02811e-88,0,0,-177.023,-1,-842.502,-1,2.292
0.10169,0.0372895,0.357217,0.0187001,0.073683,2.76933e-05,0.0761552,2.68541e-88,0,0,-177.822,-1,-843.49,-1,2.296
0.101985,0.0372895,0.357522,0.0187001,0.0738632,1.84622e-05,0.0762143,1.79027e-88,0,0,-178.622,-1,-844.477,-1,2.3
0.102281,0.0372889,0.357827,0.0187001,0.0740433,-4.52737e-05,0.0762734,1.19351e-88,0,0,-179.424,-1,-845.465,-1,2.304
0.102578,0.0372895,0.358132,0.0187001,0.0742234,2.73994e-05,0.0763324,7.95676e-89,0,0,-180.229,-1,-846.452,-1,2.308
0.102875,0.0372895,0.358437,0.0187001,0.0744035,1.82662e-05,0.0763914,5.30451e-89,0,0,-181.034,-1,-847.439,-1,2.312
0.103173,0.0372895,0.358743,0.0187001,0.0745835,1.21775e-05,0.0764503,3.53634e-89,0,0,-181.842,-1,-848.426,-1,2.316
0.103471,0.0372895,0.359049,0.0187001,0.0747634,8.11833e-06,0.0765091,2.35756e-89,0,0,-182.652,-1,-849.413,-1,2.32
0.103771,0.0372895,0.359355,0.0187001,0.0749433,5.41222e-06,0.076568,1.57171e-89,0,0,-183.463,-1,-850.399,-1,2.324
0.104071,0.0372895,0.359661,0.0187001,0.0751232,3.60815e-06,0.0766267,1.0478e-89,0,0,-184.277,-1,-851.385,-1,2.328
0.104372,0.0372895,0.359968,0.0187001,0.075303,2.40543e-06,0.0766854,6.98536e-90,0,0,-185.092,-1,-852.371,-1,2.332
0.104673,0.0372895,0.360275,0.0187001,0.0754827,1.60362e-06,0.0767441,4.65691e-90,0,0,-185.91,-1,-853.357,-1,2.336
0.104976,0.0372895,0.360582,0.0187001,0.0756624,1.06908e-06,0.0768027,3.10461e-90,0,0,-186.729,-1,-854.342,-1,2.34
0.105279,0.0372895,0.360889,0.0187001,0.075842,7.1272e-07,0.0768613,2.06974e-90,0,0,-187.55,-1,-855.327,-1,2.344
0.105582,0.0372895,0.361197,0.0187001,0.0760216,4.75147e-07,0.0769198,1.37982e-90,0,0,-188.373,-1,-856.313,-1,2.348
0.105887,0.0372895,0.361505,0.0187001,0.0762011,3.16765e-07,0.0769783,9.19883e-91,0,0,-189.198,-1,-857.297,-1,2.352
0.106192,0.0372895,0.361813,0.0187001,0.0763806,2.11176e-07,0.0770367,6.13255e-91,0,0,-190.025,-1,-858.282,-1,2.356
0.106498,0.0372895,0.362121,0.0187001,0.0765599,1.40784e-07,0.077095,4.08837e-91,0,0,-190.854,-1,-859.267,-1,2.36
0.106805,0.0372895,0.362429,0.0187001,0.0767393,9.38562e-08,0.0771533,2.72558e-91,0,0,-191.685,-1,-860.251,-1,2.364
0.107112,0.0372895,0.362738,0.0187001,0.0769185,6.25708e-08,0.0772116,1.81705e-91,0,0,-192.517,-1,-861.235,-1,2.368
0.10742,0.0372895,0.363047,0.0187001,0.0770977,4.17139e-08,0.0772698,1.21137e-91,0,0,-193.352,-1,-862.219,-1,2.372
0.107729,0.0372889,0.363356,0.0187001,0.0772769,-5.7554e-05,0.0773279,8.07579e-92,0,0,-194.188,-1,-863.203,-1,2.376
0.108038,0.0372899,0.363666,0.0187001,0.0774559,4.80034e-05,0.077386,5.38386e-92,0,0,-195.027,-1,-864.187,-1,2.38
0.108348,0.0372895,0.363975,0.0187001,0.077635,3.21135e-06,0.0774441,3.58924e-92,0,0,-195.867,-1,-865.17,-1,2.384
0.108659,0.0372895,0.364285,0.0187001,0.0778139,2.1409e-06,0.077502,2.39283e-92,0,0,-196.709,-1,-866.153,-1,2.388
0.108971,0.0372895,0.364595,0.0187001,0.0779928,1.42727e-06,0.07756,1.59522e-92,0,0,-197.553,-1,-867.136,-1,2.392
0.109283,0.0372895,0.364906,0.0187001,0.0781716,9.51511e-07,0.0776178,1.06348e-92,0,0,-198.399,-1,-868.119,-1,2.396
0.109596,0.0372895,0.365216,0.0187001,0.0783503,6.34341e-07,0.0776756,7.08986e-93,0,0,-199.246,-1,-869.102,-1,2.4
0.10991,0.0372895,0.365527,0.0187001,0.0785289,4.22894e-07,0.0777334,4.72657e-93,0,0,-200.096,-1,-870.085,-1,2.404
0.110224,0.0372895,0.365838,0.0187001,0.0787075,2.81929e-07,0.0777911,3.15105e-93,0,0,-200.947,-1,-871.067,-1,2.408
0.11054,0.0372895,0.366149,0.0187001,0.078886,1.87953e-07,0.0778487,2.1007e-93,0,0,-201.801,-1,-872.05,-1,2.412
0.110855,0.0372895,0.366461,0.0187001,0.0790645,1.25302e-07,0.0779063,1.40047e-93,0,0,-202.656,-1,-873.032,-1,2.416
0.111172,0.0372895,0.366773,0.0187001,0.0792428,8.35346e-08,0.0779639,9.33644e-94,0,0,-203.513,-1,-874.014,-1,2.42
0.111489,0.0372899,0.367085,0.0187001,0.0794211,2.88466e-05,0.0780213,6.22429e-94,0,0,-204.372,-1,-874.996,-1,2.424
0.111807,0.0372899,0.367397,0.0187001,0.0795993,1.92311e-05,0.0780787,4.14953e-94,0,0,-205.233,-1,-875.977,-1,2.428
0.112126,0.0372895,0.367709,0.0187001,0.0797775,-1.59702e-05,0.0781361,2.76635e-94,0,0,-206.095,-1,-876.959,-1,2.432
0.112446,0.0372899,0.368022,0.0187001,0.0799555,1.81441e-05,0.0781934,1.84423e-94,0,0,-206.96,-1,-877.94,-1,2.436
0.112766,0.0372895,0.368335,0.0187001,0.0801335,-1.66948e-05,0.0782506,1.22949e-94,0,0,-207.826,-1,-878.922,-1,2.44
0.113087,0.0372899,0.368648,0.0187001,0.0803114,1.7661e-05,0.0783078,8.1966e-95,0,0,-208.695,-1,-879.903,-1,2.444
0.113408,0.0372895,0.368961,0.0187001,0.0804892,-1.70169e-05,0.0783649,5.4644e-95,0,0,-209.565,-1,-880.884,-1,2.448
0.113731,0.0372895,0.369275,0.0187001,0.0806669,-1.13446e-05,0.0784219,3.64293e-95,0,0,-210.437,-1,-881.865,-1,2.452
0.114054,0.0372889,0.369589,0.0187001,0.0808446,-6.51449e-05,0.0784789,2.42862e-95,0,0,-211.311,-1,-882.846,-1,2.456
0.114377,0.0372895,0.369903,0.0187001,0.0810222,1.41519e-05,0.0785358,1.61908e-95,0,0,-212.188,-1,-883.826,-1,2.46
0.114702,0.0372895,0.370217,0.0187001,0.0811996,9.4346e-06,0.0785927,1.07939e-95,0,0,-213.066,-1,-884.807,-1,2.464
0.115027,0.0372895,0.370532,0.0187001,0.081377,6.28973e-06,0.0786495,7.19592e-96,0,0,-213.945,-1,-885.787,-1,2.468
0.115353,0.0372895,0.370846,0.0187001,0.0815543,4.19316e-06,0.0787062,4.79728e-96,0,0,-214.827,-1,-886.768,-1,2.472
0.115679,0.0372895,0.371161,0.0187001,0.0817316,2.79544e-06,0.0787629,3.19819e-96,0,0,-215.71,-1,-887.748,-1,2.476
0.116007,0.0372895,0.371476,0.0187001,0.0819087,1.86363e-06,0.0788195,2.13212e-96,0,0,-216.595,-1,-888.728,-1,2.48
0.116335,0.0372895,0.371792,0.0187001,0.0820857,1.24242e-06,0.078876,1.42142e-96,0,0,-217.482,-1,-889.708,-1,2.484
0.116663,0.0372895,0.372107,0.0187001,0.0822627,8.28278e-07,0.0789325,9.4761e-97,0,0,-218.371,-1,-890.688,-1,2.488
0.116993,0.0372895,0.372423,0.0187001,0.0824395,5.52185e-07,0.0789889,6.3174e-97,0,0,-219.262,-1,-891.667,-1,2.492
0.117323,0.0372895,0.372739,0.0187001,0.0826163,3.68123e-07,0.0790453,4.2116e-97,0,0,-220.154,-1,-892.647,-1,2.496
0.117654,0.0372899,0.373056,0.0187001,0.082793,2.90363e-05,0.0791016,2.80773e-97,0,0,-221.049,-1,-893.627,-1,2.5
0.117985,0.0372895,0.373372,0.0187001,0.0829695,-9.43336e-06,0.0791578,1.87182e-97,0,0,-221.945,-1,-894.606,-1,2.504
0.118318,0.0372895,0.373689,0.0187001,0.083146,-6.28891e-06,0.0792139,1.24788e-97,0,0,-222.843,-1,-895.585,-1,2.508
0.11865,0.0372895,0.374006,0.0187001,0.0833224,-4.19261e-06,0.07927,8.31921e-98,0,0,-223.744,-1,-896.565,-1,2.512
0.118984,0.0372899,0.374323,0.0187001,0.0834987,2.59959e-05,0.079326,5.54614e-98,0,0,-224.646,-1,-897.544,-1,2.516
0.119318,0.0372895,0.37464,0.0187001,0.0836749,-1.14604e-05,0.079382,3.69743e-98,0,0,-225.549,-1,-898.523,-1,2.52
0.119654,0.0372895,0.374958,0.0187001,0.083851,-7.64024e-06,0.0794379,2.46495e-98,0,0,-226.455,-1,-899.502,-1,2.524
0.119989,0.0372895,0.375276,0.0187001,0.084027,-5.09349e-06,0.0794937,1.6433e-98,0,0,-227.362,-1,-900.481,-1,2.528
0.120326,0.0372895,0.375594,0.0187001,0.0842029,-3.39566e-06,0.0795494,1.09553e-98,0,0,-228.272,-1,-901.46,-1,2.532
0.120663,0.0372895,0.375912,0.0187001,0.0843787,-2.26377e-06,0.0796051,7.30356e-99,0,0,-229.183,-1,-902.439,-1,2.536
0.121001,0.0372895,0.376231,0.0187001,0.0845544,-1.50918e-06,0.0796607,4.86904e-99,0,0,-230.096,-1,-903.417,-1,2.54
0.121339,0.0372895,0.37655,0.0187001,0.0847299,-1.00612e-06,0.0797162,3.24603e-99,0,0,-231.011,-1,-904.396,-1,2.544
0.121679,0.0372895,0.376869,0.0187001,0.0849054,-6.70748e-07,0.0797717,2.16402e-99,0,0,-231.928,-1,-905.374,-1,2.548
0.122019,0.0372895,0.377188,0.0187001,0.0850808,-4.47165e-07,0.0798271,1.44268e-99,0,0,-232.846,-1,-906.353,-1,2.552
0.122359,0.0372895,0.377507,0.0187001,0.0852561,-2.9811e-07,0.0798824,9.61786e-100,0,0,-233.767,-1,-907.331,-1,2.556
0.122701,0.0372895,0.377827,0.0187001,0.0854312,-1.9874e-07,0.0799377,6.41191e-100,0,0,-234.689,-1,-908.31,-1,2.56
0.123043,0.0372895,0.378147,0.0187001,0.0856063,-1.32493e-07,0.0799929,4.2746e-100,0,0,-235.613,-1,-909.288,-1,2.564
0.123385,0.0372889,0.378467,0.0187001,0.0857812,-5.76702e-05,0.080048,2.84974e-100,0,0,-236.539,-1,-910.266,-1,2.568
0.123729,0.0372895,0.378787,0.0187001,0.0859561,1.91351e-05,0.080103,1.89982e-100,0,0,-237.468,-1,-911.244,-1,2.572
0.124073,0.0372895,0.379108,0.0187001,0.0861308,1.27567e-05,0.080158,1.26655e-100,0,0,-238.397,-1,-912.222,-1,2.576
0.124418,0.0372895,0.379428,0.0187001,0.0863054,8.50447e-06,0.0802129,8.44366e-101,0,0,-239.328,-1,-913.2,-1,2.58
0.124764,0.0372895,0.379749,0.0187001,0.0864799,5.66965e-06,0.0802677,5.62911e-101,0,0,-240.262,-1,-914.178,-1,2.584
0.12511,0.0372895,0.38007,0.0187001,0.0866543,3.77977e-06,0.0803224,3.75274e-101,0,0,-241.197,-1,-915.156,-1,2.588
0.125457,0.0372895,0.380392,0.0187001,0.0868286,2.51984e-06,0.0803771,2.50183e-101,0,0,-242.133,-1,-916.134,-1,2.592
0.125804,0.0372895,0.380713,0.0187001,0.0870028,1.6799e-06,0.0804317,1.66788e-101,0,0,-243.072,-1,-917.112,-1,2.596
0.126153,0.0372889,0.381035,0.0187001,0.0871768,-5.64619e-05,0.0804862,1.11192e-101,0,0,-244.013,-1,-918.09,-1,2.6
0.126502,0.0372895,0.381357,0.0187001,0.0873508,1.99406e-05,0.0805407,7.41282e-102,0,0,-244.956,-1,-919.067,-1,2.604
0.126852,0.0372895,0.38168,0.0187001,0.0875246,1.32937e-05,0.0805951,4.94188e-102,0,0,-245.9,-1,-920.045,-1,2.608
0.127202,0.0372895,0.382002,0.0187001,0.0876983,8.86248e-06,0.0806494,3.29459e-102,0,0,-246.846,-1,-921.023,-1,2.612
0.127553,0.0372889,0.382325,0.0187001,0.0878718,-5.16735e-05,0.0807036,2.19639e-102,0,0,-247.794,-1,-922,-1,2.616
0.127905,0.0372895,0.382648,0.0187001,0.0880453,2.31328e-05,0.0807577,1.46426e-102,0,0,-248.744,-1,-922.978,-1,2.62
0.128258,0.0372895,0.382971,0.0187001,0.0882186,1.54219e-05,0.0808118,9.76173e-103,0,0,-249.695,-1,-923.955,-1,2.624
0.128611,0.0372892,0.383294,0.0187001,0.0883919,-1.85097e-05,0.0808658,6.50782e-103,0,0,-250.648,-1,-924.933,-1,2.628
0.128965,0.0372895,0.383618,0.0187001,0.088565,1.64511e-05,0.0809197,4.33855e-103,0,0,-251.604,-1,-925.91,-1,2.632
0.129319,0.0372889,0.383942,0.0187001,0.0887379,-4.66144e-05,0.0809736,2.89237e-103,0,0,-252.56,-1,-926.887,-1,2.636
0.129675,0.0372895,0.384266,0.0187001,0.0889108,2.65056e-05,0.0810273,1.92824e-103,0,0,-253.52,-1,-927.865,-1,2.64
0.130031,0.0372895,0.38459,0.0187001,0.0890835,1.76704e-05,0.081081,1.2855e-103,0,0,-254.48,-1,-928.842,-1,2.644
0.130387,0.0372895,0.384914,0.0187001,0.0892561,1.17803e-05,0.0811346,8.56997e-104,0,0,-255.442,-1,-929.82,-1,2.648
0.130745,0.0372895,0.385239,0.0187001,0.0894286,7.8535e-06,0.0811881,5.71332e-104,0,0,-256.406,-1,-930.797,-1,2.652
0.131103,0.0372895,0.385564,0.0187001,0.0896009,5.23567e-06,0.0812416,3.80888e-104,0,0,-257.372,-1,-931.774,-1,2.656
0.131461,0.0372895,0.385889,0.0187001,0.0897731,3.49045e-06,0.0812949,2.53925e-104,0,0,-258.34,-1,-932.751,-1,2.66
0.131821,0.0372899,0.386214,0.0187001,0.0899452,3.11179e-05,0.0813482,1.69283e-104,0,0,-259.31,-1,-933.729,-1,2.664
0.132181,0.0372899,0.38654,0.0187001,0.0901172,2.07453e-05,0.0814014,1.12856e-104,0,0,-260.281,-1,-934.706,-1,2.668
0.132542,0.0372899,0.386865,0.0187001,0.090289,1.38302e-05,0.0814546,7.52371e-105,0,0,-261.254,-1,-935.683,-1,2.672
0.132903,0.0372892,0.387191,0.0187001,0.0904607,-4.83617e-05,0.0815076,5.0158e-105,0,0,-262.229,-1,-936.66,-1,2.676
0.133265,0.0372895,0.387517,0.0187001,0.0906322,-3.45023e-06,0.0815606,3.34387e-105,0,0,-263.206,-1,-937.637,-1,2.68
0.133628,0.0372895,0.387844,0.0187001,0.0908037,-2.30015e-06,0.0816134,2.22925e-105,0,0,-264.185,-1,-938.614,-1,2.684
0.133992,0.0372895,0.38817,0.0187001,0.0909749,-1.53344e-06,0.0816662,1.48616e-105,0,0,-265.165,-1,-939.592,-1,2.688
0.134356,0.0372895,0.388497,0.0187001,0.0911461,-1.02229e-06,0.0817189,9.90776e-106,0,0,-266.147,-1,-940.569,-1,2.692
0.134721,0.0372899,0.388824,0.0187001,0.0913171,2.81094e-05,0.0817716,6.60518e-106,0,0,-267.131,-1,-941.546,-1,2.696
0.135087,0.0372899,0.389151,0.0187001,0.091488,1.87396e-05,0.0818241,4.40345e-106,0,0,-268.117,-1,-942.523,-1,2.7
0.135453,0.0372895,0.389479,0.0187001,0.0916588,-1.62979e-05,0.0818766,2.93563e-106,0,0,-269.104,-1,-943.5,-1,2.704
0.13582,0.0372892,0.389806,0.0187001,0.0918294,-3.96562e-05,0.081929,1.95709e-106,0,0,-270.094,-1,-944.477,-1,2.708
0.136188,0.0372889,0.390134,0.0187001,0.0919998,-5.52284e-05,0.0819813,1.30473e-106,0,0,-271.085,-1,-945.454,-1,2.712
0.136556,0.0372889,0.390462,0.0187001,0.0921702,-3.68189e-05,0.0820335,8.69817e-107,0,0,-272.079,-1,-946.431,-1,2.716
0.136925,0.0372895,0.39079,0.0187001,0.0923403,3.30359e-05,0.0820856,5.79878e-107,0,0,-273.074,-1,-947.408,-1,2.72
0.137295,0.0372899,0.391119,0.0187001,0.0925104,5.08149e-05,0.0821377,3.86585e-107,0,0,-274.07,-1,-948.385,-1,2.724
0.137665,0.0372895,0.391447,0.0187001,0.0926803,5.08565e-06,0.0821896,2.57724e-107,0,0,-275.068,-1,-949.363,-1,2.728
0.138036,0.0372895,0.391776,0.0187001,0.09285,3.39043e-06,0.0822415,1.71816e-107,0,0,-276.067,-1,-950.34,-1,2.732
0.138408,0.0372895,0.392105,0.0187001,0.0930197,2.26029e-06,0.0822933,1.14544e-107,0,0,-277.069,-1,-951.317,-1,2.736
0.13878,0.0372895,0.392435,0.0187001,0.0931891,1.50686e-06,0.082345,7.63626e-108,0,0,-278.073,-1,-952.294,-1,2.74
0.139153,0.0372895,0.392764,0.0187001,0.0933585,1.00457e-06,0.0823966,5.09084e-108,0,0,-279.078,-1,-953.271,-1,2.744
0.139527,0.0372895,0.393094,0.0187001,0.0935276,6.69715e-07,0.0824481,3.39389e-108,0,0,-280.085,-1,-954.248,-1,2.748
0.139902,0.0372895,0.393424,0.0187001,0.0936967,4.46477e-07,0.0824996,2.26259e-108,0,0,-281.094,-1,-955.225,-1,2.752
0.140277,0.0372895,0.393754,0.0187001,0.0938655,2.97651e-07,0.0825509,1.5084e-108,0,0,-282.105,-1,-956.202,-1,2.756
0.140653,0.0372895,0.394084,0.0187001,0.0940343,1.98434e-07,0.0826022,1.0056e-108,0,0,-283.117,-1,-957.18,-1,2.76
0.141029,0.0372895,0.394415,0.0187001,0.0942029,1.32289e-07,0.0826533,6.70398e-109,0,0,-284.131,-1,-958.157,-1,2.764
0.141406,0.0372895,0.394745,0.0187001,0.0943713,8.8193e-08,0.0827044,4.46932e-109,0,0,-285.147,-1,-959.134,-1,2.768
0.141784,0.0372895,0.395076,0.0187001,0.0945396,5.87953e-08,0.0827554,2.97955e-109,0,0,-286.165,-1,-960.111,-1,2.772
0.142162,0.0372895,0.395407,0.0187001,0.0947077,3.91969e-08,0.0828063,1.98637e-109,0,0,-287.184,-1,-961.088,-1,2.776
0.142542,0.0372895,0.395739,0.0187001,0.0948757,2.61313e-08,0.0828572,1.32424e-109,0,0,-288.205,-1,-962.066,-1,2.78
0.142921,0.0372895,0.39607,0.0187001,0.0950435,1.74208e-08,0.0829079,8.82829e-110,0,0,-289.228,-1,-963.043,-1,2.784
0.143302,0.0372892,0.396402,0.0187001,0.0952112,-2.87793e-05,0.0829585,5.88553e-110,0,0,-290.253,-1,-964.02,-1,2.788
0.143683,0.0372895,0.396734,0.0187001,0.0953787,9.60472e-06,0.0830091,3.92368e-110,0,0,-291.28,-1,-964.998,-1,2.792
0.144065,0.0372895,0.397066,0.0187001,0.095546,6.40314e-06,0.0830595,2.61579e-110,0,0,-292.308,-1,-965.975,-1,2.796
0.144448,0.0372895,0.397398,0.0187001,0.0957132,4.26876e-06,0.0831099,1.74386e-110,0,0,-293.338,-1,-966.952,-1,2.8
0.144831,0.0372892,0.397731,0.0187001,0.0958803,-2.59451e-05,0.0831602,1.16257e-110,0,0,-294.369,-1,-967.93,-1,2.804
0.145215,0.0372892,0.398064,0.0187001,0.0960471,-1.72967e-05,0.0832103,7.75049e-111,0,0,-295.403,-1,-968.907,-1,2.808
0.145599,0.0372892,0.398397,0.0187001,0.0962139,-1.15311e-05,0.0832604,5.16699e-111,0,0,-296.438,-1,-969.885,-1,2.812
0.145984,0.0372895,0.39873,0.0187001,0.0963804,2.11035e-05,0.0833104,3.44466e-111,0,0,-297.475,-1,-970.862,-1,2.816
0.14637,0.0372895,0.399063,0.0187001,0.0965468,1.4069e-05,0.0833603,2.29644e-111,0,0,-298.514,-1,-971.84,-1,2.82
0.146757,0.0372895,0.399397,0.0187001,0.0967131,9.37933e-06,0.0834101,1.53096e-111,0,0,-299.554,-1,-972.817,-1,2.824
0.147144,0.0372895,0.39973,0.0187001,0.0968791,6.25289e-06,0.0834599,1.02064e-111,0,0,-300.596,-1,-973.795,-1,2.828
0.147532,0.0372892,0.400064,0.0187001,0.0970451,-2.46223e-05,0.0835095,6.80427e-112,0,0,-301.64,-1,-974.773,-1,2.832
0.14792,0.0372892,0.400398,0.0187001,0.0972108,-1.64149e-05,0.083559,4.53618e-112,0,0,-302.686,-1,-975.75,-1,2.836
0.148309,0.0372895,0.400733,0.0187001,0.0973764,1.78477e-05,0.0836085,3.02412e-112,0,0,-303.733,-1,-976.728,-1,2.84
0.148699,0.0372892,0.401067,0.0187001,0.0975418,-1.68925e-05,0.0836578,2.01608e-112,0,0,-304.782,-1,-977.706,-1,2.844
0.14909,0.0372895,0.401402,0.0187001,0.097707,1.75293e-05,0.083707,1.34405e-112,0,0,-305.833,-1,-978.683,-1,2.848
0.149481,0.0372892,0.401737,0.0187001,0.0978721,-1.71047e-05,0.0837562,8.96036e-113,0,0,-306.885,-1,-979.661,-1,2.852
0.149873,0.0372895,0.402072,0.0187001,0.098037,1.73878e-05,0.0838052,5.97357e-113,0,0,-307.939,-1,-980.639,-1,2.856
0.150265,0.0372895,0.402407,0.0187001,0.0982018,1.15918e-05,0.0838542,3.98238e-113,0,0,-308.995,-1,-981.617,-1,2.86
0.150658,0.0372895,0.402743,0.0187001,0.0983664,7.72789e-06,0.0839031,2.65492e-113,0,0,-310.053,-1,-982.595,-1,2.864
0.151052,0.0372895,0.403079,0.0187001,0.0985308,5.15193e-06,0.0839518,1.76995e-113,0,0,-311.112,-1,-983.573,-1,2.868
0.151447,0.0372895,0.403415,0.0187001,0.098695,3.43462e-06,0.0840005,1.17996e-113,0,0,-312.173,-1,-984.551,-1,2.872
0.151842,0.0372895,0.403751,0.0187001,0.0988591,2.28975e-06,0.0840491,7.86643e-114,0,0,-313.235,-1,-985.529,-1,2.876
0.152237,0.0372895,0.404087,0.0187001,0.099023,1.5265e-06,0.0840975,5.24429e-114,0,0,-314.3,-1,-986.507,-1,2.88
0.152634,0.0372895,0.404423,0.0187001,0.0991867,1.01767e-06,0.0841459,3.49619e-114,0,0,-315.366,-1,-987.485,-1,2.884
0.153031,0.0372895,0.40476,0.0187001,0.0993502,6.78443e-07,0.0841942,2.33079e-114,0,0,-316.434,-1,-988.464,-1,2.888
0.153429,0.0372895,0.405097,0.0187001,0.0995136,4.52296e-07,0.0842424,1.55386e-114,0,0,-317.503,-1,-989.442,-1,2.892
0.153827,0.0372895,0.405434,0.0187001,0.0996768,3.0153e-07,0.0842905,1.03591e-114,0,0,-318.574,-1,-990.42,-1,2.896
0.154226,0.0372895,0.405771,0.0187001,0.0998398,2.0102e-07,0.0843385,6.90606e-115,0,0,-319.647,-1,-991.399,-1,2.9
0.154626,0.0372895,0.406109,0.0187001,0.100003,1.34014e-07,0.0843863,4.60404e-115,0,0,-320.722,-1,-992.377,-1,2.904
0.155026,0.0372895,0.406446,0.0187001,0.100165,8.93423e-08,0.0844341,3.06936e-115,0,0,-321.798,-1,-993.355,-1,2.908
0.155427,0.0372895,0.406784,0.0187001,0.100328,5.95616e-08,0.0844818,2.04624e-115,0,0,-322.876,-1,-994.334,-1,2.912
0.155829,0.0372895,0.407122,0.0187001,0.10049,3.97077e-08,0.0845294,1.36416e-115,0,0,-323.956,-1,-995.313,-1,2.916
0.156231,0.0372895,0.40746,0.0187001,0.100652,2.64718e-08,0.0845769,9.0944e-116,0,0,-325.037,-1,-996.291,-1,2.92
0.156634,0.0372895,0.407799,0.0187001,0.100814,1.76479e-08,0.0846243,6.06293e-116,0,0,-326.12,-1,-997.27,-1,2.924
0.157038,0.0372895,0.408137,0.0187001,0.100976,1.17652e-08,0.0846715,4.04195e-116,0,0,-327.205,-1,-998.249,-1,2.928
0.157442,0.0372895,0.408476,0.0187001,0.101137,7.8435e-09,0.0847187,2.69464e-116,0,0,-328.292,-1,-999.227,-1,2.932
0.157847,0.0372895,0.408815,0.0187001,0.101299,5.229e-09,0.0847658,1.79642e-116,0,0,-329.38,-1,-1000.21,-1,2.936
0.158252,0.0372895,0.409154,0.0187001,0.10146,3.486e-09,0.0848128,1.19762e-116,0,0,-330.469,-1,-1001.19,-1,2.94
0.158658,0.0372895,0.409494,0.0187001,0.101621,2.324e-09,0.0848596,7.98411e-117,0,0,-331.561,-1,-1002.16,-1,2.944
0.159065,0.0372895,0.409833,0.0187001,0.101782,1.54933e-09,0.0849064,5.32274e-117,0,0,-332.654,-1,-1003.14,-1,2.948
0.159473,0.0372895,0.410173,0.0187001,0.101943,1.03289e-09,0.0849531,3.54849e-117,0,0,-333.749,-1,-1004.12,-1,2.952
0.159881,0.0372895,0.410513,0.0187001,0.102103,6.88592e-10,0.0849997,2.36566e-117,0,0,-334.845,-1,-1005.1,-1,2.956
0.160289,0.0372895,0.410853,0.0187001,0.102263,4.59062e-10,0.0850461,1.57711e-117,0,0,-335.943,-1,-1006.08,-1,2.96
0.160699,0.0372895,0.411193,0.0187001,0.102423,3.06041e-10,0.0850925,1.0514e-117,0,0,-337.043,-1,-1007.06,-1,2.964
0.161109,0.0372895,0.411534,0.0187001,0.102583,2.04027e-10,0.0851387,7.00937e-118,0,0,-338.145,-1,-1008.04,-1,2.968
0.161519,0.0372895,0.411874,0.0187001,0.102743,1.36018e-10,0.0851849,4.67291e-118,0,0,-339.248,-1,-1009.02,-1,2.972
0.161931,0.0372892,0.412215,0.0187001,0.102902,-2.87908e-05,0.0852309,3.11527e-118,0,0,-340.352,-1,-1010,-1,2.976
0.162343,0.0372895,0.412556,0.0187001,0.103062,9.59704e-06,0.0852769,2.07685e-118,0,0,-341.459,-1,-1010.98,-1,2.98
0.162755,0.0372895,0.412897,0.0187001,0.103221,6.39802e-06,0.0853227,1.38457e-118,0,0,-342.567,-1,-1011.96,-1,2.984
0.163168,0.0372895,0.413239,0.0187001,0.10338,4.26535e-06,0.0853684,9.23044e-119,0,0,-343.677,-1,-1012.94,-1,2.988
0.163582,0.0372895,0.41358,0.0187001,0.103539,2.84357e-06,0.0854141,6.15363e-119,0,0,-344.788,-1,-1013.92,-1,2.992
0.163997,0.0372895,0.413922,0.0187001,0.103697,1.89571e-06,0.0854596,4.10242e-119,0,0,-345.901,-1,-1014.9,-1,2.996
0.164412,0.0372895,0.414264,0.0187001,0.103856,1.26381e-06,0.085505,2.73495e-119,0,0,-347.016,-1,-1015.88,-1,3
0.164828,0.0372895,0.414606,0.0187001,0.104014,8.42538e-07,0.0855503,1.8233e-119,0,0,-348.132,-1,-1016.86,-1,3.004
0.165244,0.0372895,0.414948,0.0187001,0.104172,5.61692e-07,0.0855955,1.21553e-119,0,0,-349.25,-1,-1017.84,-1,3.008
0.165661,0.0372892,0.415291,0.0187001,0.104329,-2.84165e-05,0.0856406,8.10354e-120,0,0,-350.369,-1,-1018.82,-1,3.012
0.166079,0.0372895,0.415634,0.0187001,0.104487,9.84662e-06,0.0856856,5.40236e-120,0,0,-351.491,-1,-1019.8,-1,3.016
0.166497,0.0372895,0.415976,0.0187001,0.104644,6.56441e-06,0.0857305,3.60157e-120,0,0,-352.614,-1,-1020.78,-1,3.02
0.166916,0.0372895,0.416319,0.0187001,0.104801,4.37627e-06,0.0857752,2.40105e-120,0,0,-353.738,-1,-1021.76,-1,3.024
0.167335,0.0372895,0.416663,0.0187001,0.104958,2.91752e-06,0.0858199,1.6007e-120,0,0,-354.864,-1,-1022.74,-1,3.028
0.167755,0.0372895,0.417006,0.0187001,0.105115,1.94501e-06,0.0858644,1.06713e-120,0,0,-355.992,-1,-1023.72,-1,3.032
0.168176,0.0372892,0.417349,0.0187001,0.105272,-2.74943e-05,0.0859089,7.11422e-121,0,0,-357.121,-1,-1024.7,-1,3.036
0.168598,0.0372895,0.417693,0.0187001,0.105428,1.04614e-05,0.0859532,4.74281e-121,0,0,-358.252,-1,-1025.68,-1,3.04
0.16902,0.0372895,0.418037,0.0187001,0.105584,6.97428e-06,0.0859975,3.16188e-121,0,0,-359.385,-1,-1026.66,-1,3.044
0.169442,0.0372895,0.418381,0.0187001,0.10574,4.64952e-06,0.0860416,2.10792e-121,0,0,-360.519,-1,-1027.64,-1,3.048
0.169865,0.0372895,0.418725,0.0187001,0.105896,3.09968e-06,0.0860856,1.40528e-121,0,0,-361.654,-1,-1028.62,-1,3.052
0.170289,0.0372895,0.41907,0.0187001,0.106052,2.06645e-06,0.0861295,9.36852e-122,0,0,-362.792,-1,-1029.6,-1,3.056
0.170714,0.0372895,0.419414,0.0187001,0.106207,1.37764e-06,0.0861733,6.24568e-122,0,0,-363.931,-1,-1030.58,-1,3.06
0.171139,0.0372895,0.419759,0.0187001,0.106362,9.18424e-07,0.0862169,4.16379e-122,0,0,-365.071,-1,-1031.56,-1,3.064
0.171565,0.0372892,0.420104,0.0187001,0.106517,-2.81786e-05,0.0862605,2.77586e-122,0,0,-366.214,-1,-1032.55,-1,3.068
0.171991,0.0372895,0.420449,0.0187001,0.106672,1.00052e-05,0.0863039,1.85057e-122,0,0,-367.358,-1,-1033.53,-1,3.072
0.172418,0.0372895,0.420795,0.0187001,0.106826,6.67011e-06,0.0863473,1.23371e-122,0,0,-368.503,-1,-1034.51,-1,3.076
0.172846,0.0372895,0.42114,0.0187001,0.10698,4.44674e-06,0.0863905,8.22476e-123,0,0,-369.65,-1,-1035.49,-1,3.08
0.173274,0.0372892,0.421486,0.0187001,0.107135,-2.58264e-05,0.0864336,5.48318e-123,0,0,-370.798,-1,-1036.47,-1,3.084
0.173703,0.0372895,0.421832,0.0187001,0.107288,1.15733e-05,0.0864766,3.65545e-123,0,0,-371.949,-1,-1037.45,-1,3.088
0.174132,0.0372895,0.422178,0.0187001,0.107442,7.71554e-06,0.0865195,2.43697e-123,0,0,-373.101,-1,-1038.43,-1,3.092
0.174562,0.0372895,0.422524,0.0187001,0.107596,5.14369e-06,0.0865623,1.62464e-123,0,0,-374.254,-1,-1039.42,-1,3.096
0.174993,0.0372895,0.42287,0.0187001,0.107749,3.42913e-06,0.086605,1.0831e-123,0,0,-375.409,-1,-1040.4,-1,3.1
0.175424,0.0372895,0.423217,0.0187001,0.107902,2.28608e-06,0.0866475,7.22064e-124,0,0,-376.565,-1,-1041.38,-1,3.104
0.175856,0.0372895,0.423563,0.0187001,0.108055,1.52406e-06,0.08669,4.81376e-124,0,0,-377.723,-1,-1042.36,-1,3.108
0.176289,0.0372892,0.42391,0.0187001,0.108207,-2.77749e-05,0.0867323,3.20918e-124,0,0,-378.883,-1,-1043.34,-1,3.112
0.176722,0.0372895,0.424257,0.0187001,0.10836,1.02743e-05,0.0867745,2.13945e-124,0,0,-380.045,-1,-1044.33,-1,3.116
0.177156,0.0372892,0.424604,0.0187001,0.108512,-2.19414e-05,0.0868166,1.4263e-124,0,0,-381.207,-1,-1045.31,-1,3.12
0.17759,0.0372895,0.424952,0.0187001,0.108664,1.41633e-05,0.0868586,9.50867e-125,0,0,-382.372,-1,-1046.29,-1,3.124
0.178025,0.0372895,0.425299,0.0187001,0.108815,9.44223e-06,0.0869004,6.33911e-125,0,0,-383.538,-1,-1047.27,-1,3.128
0.178461,0.0372895,0.425647,0.0187001,0.108967,6.29482e-06,0.0869422,4.22607e-125,0,0,-384.705,-1,-1048.25,-1,3.132
0.178897,0.0372895,0.425995,0.0187001,0.109118,4.19655e-06,0.0869838,2.81738e-125,0,0,-385.874,-1,-1049.24,-1,3.136
0.179334,0.0372895,0.426343,0.0187001,0.109269,2.7977e-06,0.0870253,1.87826e-125,0,0,-387.045,-1,-1050.22,-1,3.14
0.179771,0.0372892,0.426691,0.0187001,0.10942,-2.69258e-05,0.0870667,1.25217e-125,0,0,-388.217,-1,-1051.2,-1,3.144
0.180209,0.0372895,0.427039,0.0187001,0.109571,1.08404e-05,0.087108,8.3478e-126,0,0,-389.391,-1,-1052.18,-1,3.148
0.180647,0.0372892,0.427388,0.0187001,0.109721,-2.1564e-05,0.0871492,5.5652e-126,0,0,-390.566,-1,-1053.17,-1,3.152
0.181087,0.0372895,0.427736,0.0187001,0.109871,1.44149e-05,0.0871903,3.71013e-126,0,0,-391.743,-1,-1054.15,-1,3.156
0.181526,0.0372895,0.428085,0.0187001,0.110021,9.60995e-06,0.0872312,2.47342e-126,0,0,-392.922,-1,-1055.13,-1,3.16
0.181967,0.0372892,0.428434,0.0187001,0.110171,-2.23843e-05,0.087272,1.64895e-126,0,0,-394.102,-1,-1056.12,-1,3.164
0.182408,0.0372892,0.428783,0.0187001,0.110321,-1.49229e-05,0.0873127,1.0993e-126,0,0,-395.283,-1,-1057.1,-1,3.168
0.182849,0.0372895,0.429133,0.0187001,0.11047,1.88424e-05,0.0873533,7.32866e-127,0,0,-396.466,-1,-1058.08,-1,3.172
0.183292,0.0372892,0.429482,0.0187001,0.110619,-1.62294e-05,0.0873938,4.88577e-127,0,0,-397.651,-1,-1059.07,-1,3.176
0.183734,0.0372895,0.429832,0.0187001,0.110768,1.79714e-05,0.0874341,3.25718e-127,0,0,-398.837,-1,-1060.05,-1,3.18
0.184178,0.0372895,0.430182,0.0187001,0.110917,1.19809e-05,0.0874743,2.17145e-127,0,0,-400.025,-1,-1061.03,-1,3.184
0.184622,0.0372895,0.430532,0.0187001,0.111065,7.98727e-06,0.0875144,1.44764e-127,0,0,-401.214,-1,-1062.02,-1,3.188
0.185066,0.0372895,0.430882,0.0187001,0.111213,5.32485e-06,0.0875544,9.65091e-128,0,0,-402.404,-1,-1063,-1,3.192
0.185511,0.0372892,0.431232,0.0187001,0.111361,-2.5241e-05,0.0875943,6.43394e-128,0,0,-403.596,-1,-1063.98,-1,3.196
0.185957,0.0372892,0.431583,0.0187001,0.111509,-1.68274e-05,0.087634,4.28929e-128,0,0,-404.791,-1,-1064.97,-1,3.2
0.186403,0.0372892,0.431933,0.0187001,0.111656,-1.12182e-05,0.0876737,2.85953e-128,0,0,-405.986,-1,-1065.95,-1,3.204
0.18685,0.0372895,0.432284,0.0187001,0.111803,2.13121e-05,0.0877132,1.90635e-128,0,0,-407.183,-1,-1066.94,-1,3.208
0.187298,0.0372895,0.432635,0.0187001,0.11195,1.42081e-05,0.0877526,1.2709e-128,0,0,-408.381,-1,-1067.92,-1,3.212
0.187746,0.0372895,0.432986,0.0187001,0.112097,9.47205e-06,0.0877918,8.47268e-129,0,0,-409.581,-1,-1068.9,-1,3.216
0.188195,0.0372895,0.433337,0.0187001,0.112244,6.3147e-06,0.087831,5.64845e-129,0,0,-410.782,-1,-1069.89,-1,3.22
0.188644,0.0372895,0.433689,0.0187001,0.11239,4.2098e-06,0.08787,3.76563e-129,0,0,-411.985,-1,-1070.87,-1,3.224
0.189094,0.0372895,0.43404,0.0187001,0.112536,2.80653e-06,0.0879089,2.51042e-129,0,0,-413.189,-1,-1071.86,-1,3.228
0.189544,0.0372895,0.434392,0.0187001,0.112682,1.87102e-06,0.0879477,1.67362e-129,0,0,-414.395,-1,-1072.84,-1,3.232
0.189995,0.0372895,0.434744,0.0187001,0.112828,1.24735e-06,0.0879864,1.11574e-129,0,0,-415.602,-1,-1073.83,-1,3.236
0.190447,0.0372895,0.435096,0.0187001,0.112973,8.31565e-07,0.0880249,7.43829e-130,0,0,-416.811,-1,-1074.81,-1,3.24
0.190899,0.0372892,0.435448,0.0187001,0.113118,-2.82365e-05,0.0880633,4.95886e-130,0,0,-418.021,-1,-1075.79,-1,3.244
0.191352,0.0372892,0.4358,0.0187001,0.113263,-1.88244e-05,0.0881016,3.30591e-130,0,0,-419.233,-1,-1076.78,-1,3.248
0.191805,0.0372892,0.436153,0.0187001,0.113408,-1.25496e-05,0.0881398,2.20394e-130,0,0,-420.447,-1,-1077.76,-1,3.252
0.192259,0.0372892,0.436505,0.0187001,0.113552,-8.36638e-06,0.0881778,1.46929e-130,0,0,-421.662,-1,-1078.75,-1,3.256
0.192714,0.0372892,0.436858,0.0187001,0.113696,-5.57759e-06,0.0882158,9.79528e-131,0,0,-422.878,-1,-1079.73,-1,3.26
0.193169,0.0372895,0.437211,0.0187001,0.11384,2.50725e-05,0.0882536,6.53019e-131,0,0,-424.096,-1,-1080.72,-1,3.264
0.193624,0.0372892,0.437564,0.0187001,0.113984,-1.20759e-05,0.0882912,4.35346e-131,0,0,-425.315,-1,-1081.7,-1,3.268
0.19408,0.0372895,0.437918,0.0187001,0.114127,2.07403e-05,0.0883288,2.9023e-131,0,0,-426.536,-1,-1082.69,-1,3.272
0.194537,0.0372895,0.438271,0.0187001,0.11427,1.38269e-05,0.0883662,1.93487e-131,0,0,-427.757,-1,-1083.68,-1,3.276
0.194995,0.0372892,0.438624,0.0187001,0.114413,-1.9573e-05,0.0884035,1.28991e-131,0,0,-428.981,-1,-1084.66,-1,3.28
0.195453,0.0372895,0.438978,0.0187001,0.114556,1.57423e-05,0.0884407,8.59942e-132,0,0,-430.206,-1,-1085.65,-1,3.284
0.195911,0.0372895,0.439332,0.0187001,0.114699,1.04948e-05,0.0884778,5.73295e-132,0,0,-431.433,-1,-1086.63,-1,3.288
0.19637,0.0372895,0.439686,0.0187001,0.114841,6.99656e-06,0.0885147,3.82197e-132,0,0,-432.661,-1,-1087.62,-1,3.292
0.19683,0.0372895,0.44004,0.0187001,0.114983,4.66437e-06,0.0885515,2.54798e-132,0,0,-433.89,-1,-1088.6,-1,3.296
0.19729,0.0372892,0.440394,0.0187001,0.115125,-2.56813e-05,0.0885882,1.69865e-132,0,0,-435.121,-1,-1089.59,-1,3.3
0.197751,0.0372892,0.440749,0.0187001,0.115266,-1.71209e-05,0.0886247,1.13243e-132,0,0,-436.354,-1,-1090.58,-1,3.304
0.198212,0.0372892,0.441103,0.0187001,0.115407,-1.14139e-05,0.0886611,7.54956e-133,0,0,-437.588,-1,-1091.56,-1,3.308
0.198674,0.0372895,0.441458,0.0187001,0.115548,2.11816e-05,0.0886974,5.03304e-133,0,0,-438.823,-1,-1092.55,-1,3.312
0.199137,0.0372892,0.441813,0.0187001,0.115689,-1.46698e-05,0.0887336,3.35536e-133,0,0,-440.059,-1,-1093.53,-1,3.316
0.1996,0.0372892,0.442168,0.0187001,0.11583,-9.77989e-06,0.0887697,2.23691e-133,0,0,-441.298,-1,-1094.52,-1,3.32
0.200063,0.0372892,0.442523,0.0187001,0.11597,-6.51993e-06,0.0888056,1.49127e-133,0,0,-442.538,-1,-1095.51,-1,3.324
0.200527,0.0372895,0.442878,0.0187001,0.11611,2.44443e-05,0.0888414,9.94181e-134,0,0,-443.779,-1,-1096.49,-1,3.328
0.200992,0.0372892,0.443234,0.0187001,0.11625,-1.24947e-05,0.088877,6.62787e-134,0,0,-445.021,-1,-1097.48,-1,3.332
0.201457,0.0372892,0.443589,0.0187001,0.116389,-8.32981e-06,0.0889126,4.41858e-134,0,0,-446.265,-1,-1098.47,-1,3.336
0.201923,0.0372892,0.443945,0.0187001,0.116529,-5.55321e-06,0.088948,2.94572e-134,0,0,-447.51,-1,-1099.45,-1,3.34
0.20239,0.0372895,0.444301,0.0187001,0.116668,2.50888e-05,0.0889832,1.96381e-134,0,0,-448.757,-1,-1100.44,-1,3.344
0.202857,0.0372892,0.444657,0.0187001,0.116806,-1.20651e-05,0.0890184,1.30921e-134,0,0,-450.005,-1,-1101.43,-1,3.348
0.203324,0.0372892,0.445013,0.0187001,0.116945,-8.04338e-06,0.0890534,8.72806e-135,0,0,-451.255,-1,-1102.41,-1,3.352
0.203792,0.0372892,0.445369,0.0187001,0.117083,-5.36225e-06,0.0890883,5.81871e-135,0,0,-452.506,-1,-1103.4,-1,3.356
0.204261,0.0372892,0.445726,0.0187001,0.117221,-3.57483e-06,0.0891231,3.87914e-135,0,0,-453.758,-1,-1104.39,-1,3.36
0.20473,0.0372892,0.446082,0.0187001,0.117359,-2.38322e-06,0.0891577,2.58609e-135,0,0,-455.012,-1,-1105.38,-1,3.364
0.2052,0.0372892,0.446439,0.0187001,0.117496,-1.58882e-06,0.0891922,1.72406e-135,0,0,-456.268,-1,-1106.36,-1,3.368
0.20567,0.0372892,0.446796,0.0187001,0.117634,-1.05921e-06,0.0892266,1.14937e-135,0,0,-457.524,-1,-1107.35,-1,3.372
0.206141,0.0372892,0.447153,0.0187001,0.11777,-7.0614e-07,0.0892608,7.6625e-136,0,0,-458.782,-1,-1108.34,-1,3.376
0.206612,0.0372892,0.44751,0.0187001,0.117907,-4.7076e-07,0.0892949,5.10833e-136,0,0,-460.042,-1,-1109.33,-1,3.38
0.207084,0.0372892,0.447867,0.0187001,0.118044,-3.1384e-07,0.0893289,3.40555e-136,0,0,-461.303,-1,-1110.31,-1,3.384
0.207556,0.0372892,0.448225,0.0187001,0.11818,-2.09227e-07,0.0893628,2.27037e-136,0,0,-462.565,-1,-1111.3,-1,3.388
0.208029,0.0372895,0.448582,0.0187001,0.118316,2.86514e-05,0.0893965,1.51358e-136,0,0,-463.828,-1,-1112.29,-1,3.392
0.208503,0.0372895,0.44894,0.0187001,0.118451,1.9101e-05,0.0894301,1.00905e-136,0,0,-465.093,-1,-1113.28,-1,3.396
0.208977,0.0372895,0.449298,0.0187001,0.118587,1.2734e-05,0.0894635,6.72702e-137,0,0,-466.359,-1,-1114.26,-1,3.4
0.209452,0.0372892,0.449656,0.0187001,0.118722,-2.03016e-05,0.0894969,4.48468e-137,0,0,-467.627,-1,-1115.25,-1,3.404
0.209927,0.0372892,0.450014,0.0187001,0.118857,-1.35344e-05,0.08953,2.98979e-137,0,0,-468.896,-1,-1116.24,-1,3.408
