peachynonah/Fire_monitor_KIRO_CDSL/csv_datas/trial12/cdsl_data_t12_9_d.csv
joint1_pos_desired, joint1_pos, joint2_pos_desired, joint2_pos, joint1_vel_desired, joint1_vel_filtered, joint2_vel_desired, joint2_vel_filtered, target_torque_joint1, target_torque_joint2, estimated_disturbance_joint1, saturated_DOB_joint1, estimated_disturbance_joint2, saturated_DOB_joint2, current_time
0.747131,0.746147,0.730362,0.72862,-3.58336e-07,0,-3.50293e-07,0,-5,-89,0,0,17.2021,0.1,0.004
0.747131,0.746147,0.730362,0.728535,-1.4322e-06,-2.87909e-05,-1.40005e-06,-0.00708257,-5,-158,-0.00553929,-0.00553929,17.1054,0.1,0.008
0.747131,0.746147,0.730362,0.728475,-3.21986e-06,-1.91939e-05,-3.1476e-06,-0.00978891,-5,-184,-0.0112213,-0.0112213,16.9405,0.1,0.012
0.747131,0.746147,0.730362,0.72843,-5.71962e-06,-1.2796e-05,-5.59125e-06,-0.01024,-5,-189,-0.0168408,-0.0168408,16.7502,0.1,0.016
0.747131,0.746147,0.730362,0.728406,-8.92975e-06,-8.53064e-06,-8.72932e-06,-0.00884201,-5,-176,-0.0224112,-0.0224112,16.5569,0.1,0.02
0.747131,0.746147,0.730362,0.728404,-1.28485e-05,-5.6871e-06,-1.25601e-05,-0.00603863,-5,-149,-0.02794,-0.02794,16.3787,0.1,0.024
0.747131,0.746147,0.730362,0.728419,-1.74743e-05,-3.7914e-06,-1.70821e-05,-0.00275895,-5,-117,-0.0334306,-0.0334306,16.2293,0.1,0.028
0.747131,0.746147,0.730362,0.728447,-2.28052e-05,5.50543e-05,-2.22934e-05,0.000463972,-5,-86,-0.038861,-0.038861,16.1132,0.1,0.032
0.747131,0.746148,0.730362,0.728483,-2.88397e-05,9.42847e-05,-2.81924e-05,0.00333236,-4,-58,-0.0439336,-0.0439336,16.0296,0.1,0.036
0.747131,0.74615,0.730362,0.728526,-3.5576e-05,0.00017802,-3.47775e-05,0.00582044,-4,-34,-0.0487292,-0.0487292,15.975,0.1,0.04
0.74713,0.746151,0.730361,0.728572,-4.30123e-05,0.000233844,-4.2047e-05,0.00770949,-4,-15,-0.0530183,-0.0530183,15.9454,0.1,0.044
0.74713,0.746152,0.730361,0.728619,-5.11471e-05,0.000213478,-4.99992e-05,0.00899764,-4,-2,-0.0569727,-0.0569727,15.9348,0.1,0.048
0.74713,0.746152,0.730361,0.728665,-5.99786e-05,0.0001999,-5.86324e-05,0.00985641,-4,5,-0.0609876,-0.0609876,15.9374,0.1,0.052
0.74713,0.746153,0.730361,0.728708,-6.9505e-05,0.000190849,-6.7945e-05,0.010141,-4,9,-0.0650215,-0.0650215,15.9486,0.1,0.056
0.747129,0.746154,0.73036,0.728748,-7.97248e-05,0.000184814,-7.79354e-05,0.0101004,-4,9,-0.0690456,-0.0690456,15.963,0.1,0.06
0.747129,0.746154,0.73036,0.728785,-9.06361e-05,0.000152,-8.86018e-05,0.00984304,-4,7,-0.0730506,-0.0730506,15.9773,0.1,0.064
0.747129,0.746154,0.73036,0.728818,-0.000102237,0.000130125,-9.99426e-05,0.00929716,-4,2,-0.0771699,-0.0771699,15.9893,0.1,0.068
0.747128,0.746155,0.730359,0.728848,-0.000114527,0.000115541,-0.000111956,0.00867413,-4,-3,-0.0813395,-0.0813395,15.9963,0.1,0.072
0.747128,0.746155,0.730359,0.728875,-0.000127503,0.000105818,-0.000124641,0.00805723,-4,-8,-0.0855152,-0.0855152,15.9975,0.1,0.076
0.747127,0.746155,0.730358,0.728898,-0.000141163,7.05453e-05,-0.000137995,0.00727169,-4,-15,-0.0896776,-0.0896776,15.9929,0.1,0.08
0.747127,0.746155,0.730358,0.728918,-0.000155507,4.70302e-05,-0.000152017,0.00654646,-4,-22,-0.0939533,-0.0939533,15.9809,0.1,0.084
0.747126,0.746155,0.730357,0.728936,-0.000170532,3.13535e-05,-0.000166705,0.00586143,-4,-28,-0.0982737,-0.0982737,15.9622,0.1,0.088
0.747125,0.746155,0.730356,0.728952,-0.000186237,2.09023e-05,-0.000182057,0.00523201,-4,-34,-0.102592,-0.1,15.9372,0.1,0.092
0.747124,0.746155,0.730356,0.728968,-0.00020262,4.27258e-05,-0.000198072,0.00478359,-4,-38,-0.106851,-0.1,15.9065,0.1,0.096
0.747124,0.746155,0.730355,0.728982,-0.000219679,2.84839e-05,-0.000214748,0.00439828,-4,-41,-0.110885,-0.1,15.8718,0.1,0.1
0.747123,0.746155,0.730354,0.728998,-0.000237413,1.89892e-05,-0.000232084,0.00425657,-4,-42,-0.114878,-0.1,15.8339,0.1,0.104
0.747122,0.746155,0.730353,0.729014,-0.00025582,1.26595e-05,-0.000250078,0.00419089,-4,-43,-0.118801,-0.1,15.7952,0.1,0.108
0.747121,0.746155,0.730352,0.729031,-0.000274898,8.43967e-06,-0.000268728,0.00420468,-4,-42,-0.122631,-0.1,15.7564,0.1,0.112
0.74712,0.746155,0.730351,0.729048,-0.000294645,5.62644e-06,-0.000288032,0.00424267,-4,-41,-0.126355,-0.1,15.7182,0.1,0.116
0.747118,0.746155,0.73035,0.729066,-0.000315061,3.75096e-06,-0.000307989,0.00432557,-3,-40,-0.129959,-0.1,15.6811,0.1,0.12
0.747117,0.746155,0.730348,0.729085,-0.000336143,2.50064e-06,-0.000328598,0.00443842,-3,-39,-0.133436,-0.1,15.6453,0.1,0.124
0.747116,0.746155,0.730347,0.729105,-0.000357889,-2.71238e-05,-0.000349856,0.00460003,-3,-37,-0.13679,-0.1,15.6112,0.1,0.128
0.747114,0.746155,0.730346,0.729125,-0.000380298,-1.80826e-05,-0.000371762,0.00473656,-3,-35,-0.140152,-0.1,15.5792,0.1,0.132
0.747113,0.746155,0.730344,0.729144,-0.000403368,-1.2055e-05,-0.000394315,0.00477,-3,-34,-0.143314,-0.1,15.5492,0.1,0.136
0.747111,0.746155,0.730342,0.729162,-0.000427098,-8.03669e-06,-0.000417512,0.00467713,-3,-35,-0.146291,-0.1,15.5199,0.1,0.14
0.747109,0.746155,0.730341,0.729179,-0.000451486,-5.35779e-06,-0.000441353,0.00450005,-3,-36,-0.14909,-0.1,15.4903,0.1,0.144
0.747107,0.746155,0.730339,0.729195,-0.00047653,-3.57186e-06,-0.000465835,0.00432442,-3,-37,-0.151714,-0.1,15.4594,0.1,0.148
0.747105,0.746155,0.730337,0.72921,-0.000502228,-2.38124e-06,-0.000490956,0.00414974,-2,-39,-0.154166,-0.1,15.4274,0.1,0.152
0.747103,0.746155,0.730335,0.729225,-0.00052858,-1.58749e-06,-0.000516716,0.00406209,-2,-39,-0.156445,-0.1,15.3943,0.1,0.156
0.747101,0.746155,0.730333,0.729241,-0.000555582,-1.05833e-06,-0.000543112,0.00403244,-2,-39,-0.158549,-0.1,15.3609,0.1,0.16
0.747099,0.746155,0.730331,0.729256,-0.000583234,-7.05553e-07,-0.000570143,0.00395509,-2,-39,-0.160477,-0.1,15.3277,0.1,0.164
0.747096,0.746155,0.730328,0.729271,-0.000611534,-4.70369e-07,-0.000597808,0.00381716,-2,-40,-0.162227,-0.1,15.2944,0.1,0.168
0.747094,0.746155,0.730326,0.729284,-0.000640479,-3.13579e-07,-0.000626104,0.00369641,-2,-41,-0.163794,-0.1,15.2603,0.1,0.172
0.747091,0.746155,0.730323,0.729298,-0.00067007,-2.09053e-07,-0.00065503,0.00358712,-1,-42,-0.165177,-0.1,15.2256,0.1,0.176
0.747089,0.746155,0.730321,0.729311,-0.000700303,2.86516e-05,-0.000684585,0.00345668,-1,-42,-0.166361,-0.1,15.1904,0.1,0.18
0.747086,0.746155,0.730318,0.729321,-0.000731177,-9.68989e-06,-0.000714766,0.00319697,-1,-44,-0.167217,-0.1,15.1545,0.1,0.184
0.747083,0.746155,0.730315,0.729331,-0.000762691,-6.45992e-06,-0.000745573,0.00293746,-1,-46,-0.16808,-0.1,15.1165,0.1,0.188
0.74708,0.746155,0.730312,0.729338,-0.000794843,-4.30662e-06,-0.000777003,0.00256292,-1,-50,-0.168728,-0.1,15.0766,0.1,0.192
0.747076,0.746155,0.730309,0.729344,-0.000827631,-2.87108e-06,-0.000809055,0.00216927,0,-53,-0.169162,-0.1,15.0335,0.1,0.196
0.747073,0.746155,0.730305,0.729347,-0.000861054,-1.91405e-06,-0.000841728,0.00173409,0,-57,-0.169385,-0.1,14.9872,0.1,0.2
0.747069,0.746155,0.730302,0.72935,-0.000895109,-1.27603e-06,-0.000875019,0.00135759,0,-60,-0.169394,-0.1,14.9371,0.1,0.204
0.747066,0.746155,0.730298,0.729351,-0.000929796,-8.5069e-07,-0.000908927,0.000991435,0,-63,-0.169189,-0.1,14.8839,0.1,0.208
0.747062,0.746155,0.730295,0.729351,-0.000965112,-5.67126e-07,-0.00094345,0.000689748,0,-66,-0.168767,-0.1,14.8278,0.1,0.212
0.747058,0.746155,0.730291,0.729351,-0.00100106,-3.78084e-07,-0.000978588,0.000459832,0,-68,-0.168125,-0.1,14.7694,0.1,0.216
0.747054,0.746155,0.730287,0.729351,-0.00103763,-2.52056e-07,-0.00101434,0.000306555,0,-69,-0.167261,-0.1,14.7093,0.1,0.22
0.74705,0.746155,0.730283,0.729351,-0.00107482,-1.68037e-07,-0.0010507,0.00020437,0,-69,-0.166172,-0.1,14.6485,0.1,0.224
0.747045,0.746155,0.730278,0.729351,-0.00111264,-1.12025e-07,-0.00108767,0.000165037,0,-69,-0.164855,-0.1,14.5873,0.1,0.228
0.747041,0.746155,0.730274,0.729351,-0.00115108,-7.46833e-08,-0.00112524,0.000110025,1,-69,-0.163305,-0.1,14.5264,0.1,0.232
0.747036,0.746155,0.730269,0.729351,-0.00119014,-4.97889e-08,-0.00116343,7.335e-05,1,-69,-0.161522,-0.1,14.4657,0.1,0.236
0.747031,0.746155,0.730265,0.729351,-0.00122982,-3.31926e-08,-0.00120221,4.89e-05,1,-69,-0.1595,-0.1,14.4053,0.1,0.24
0.747026,0.746155,0.73026,0.729352,-0.00127011,-2.21284e-08,-0.0012416,6.13909e-05,1,-69,-0.157236,-0.1,14.3454,0.1,0.244
0.747021,0.746155,0.730255,0.729352,-0.00131102,-1.47523e-08,-0.00128159,4.09273e-05,1,-68,-0.154729,-0.1,14.2863,0.1,0.248
0.747016,0.746155,0.730249,0.729352,-0.00135254,-9.83484e-09,-0.00132218,2.72848e-05,2,-68,-0.151973,-0.1,14.2278,0.1,0.252
0.74701,0.746155,0.730244,0.729352,-0.00139467,-6.55656e-09,-0.00136337,1.81899e-05,2,-68,-0.148967,-0.1,14.1698,0.1,0.256
0.747005,0.746155,0.730239,0.729352,-0.00143742,-4.37104e-09,-0.00140515,1.21266e-05,2,-67,-0.145706,-0.1,14.1124,0.1,0.26
0.746999,0.746155,0.730233,0.729352,-0.00148077,-2.91403e-09,-0.00144753,8.0844e-06,3,-67,-0.142187,-0.1,14.0557,0.1,0.264
0.746993,0.746155,0.730227,0.729352,-0.00152473,-1.94268e-09,-0.0014905,5.3896e-06,3,-66,-0.138408,-0.1,13.9997,0.1,0.268
0.746987,0.746155,0.730221,0.729352,-0.00156929,-1.29512e-09,-0.00153407,3.59307e-06,3,-66,-0.134365,-0.1,13.9444,0.1,0.272
0.74698,0.746155,0.730215,0.729352,-0.00161446,-2.87918e-05,-0.00157822,2.39538e-06,3,-65,-0.130066,-0.1,13.8898,0.1,0.276
0.746974,0.746155,0.730208,0.729352,-0.00166022,-1.91945e-05,-0.00162296,1.59692e-06,4,-65,-0.125645,-0.1,13.836,0.1,0.28
0.746967,0.746155,0.730202,0.729352,-0.00170659,-1.27964e-05,-0.00166829,1.06461e-06,4,-65,-0.120897,-0.1,13.7829,0.1,0.284
0.74696,0.746155,0.730195,0.729352,-0.00175356,2.026e-05,-0.0017142,7.09741e-07,4,-64,-0.115825,-0.1,13.7305,0.1,0.288
0.746953,0.746155,0.730188,0.729352,-0.00180112,-1.52842e-05,-0.0017607,4.73161e-07,4,-63,-0.110312,-0.1,13.6789,0.1,0.292
0.746946,0.746155,0.730181,0.729352,-0.00184928,-1.01895e-05,-0.00180778,3.15441e-07,5,-63,-0.104703,-0.1,13.6281,0.1,0.296
0.746938,0.746155,0.730174,0.729352,-0.00189803,-6.793e-06,-0.00185543,2.10294e-07,5,-62,-0.098778,-0.098778,13.578,0.1,0.3
0.746931,0.746155,0.730166,0.729352,-0.00194738,-4.52866e-06,-0.00190367,2.89311e-05,5,-62,-0.0925397,-0.0925397,13.5287,0.1,0.304
0.746923,0.746155,0.730158,0.729352,-0.00199731,-3.01911e-06,-0.00195248,-9.50351e-06,6,-61,-0.0859687,-0.0859687,13.4804,0.1,0.308
0.746915,0.746155,0.73015,0.729352,-0.00204784,-2.01274e-06,-0.00200187,-6.33567e-06,6,-61,-0.0790645,-0.0790645,13.4325,0.1,0.312
0.746906,0.746155,0.730142,0.729352,-0.00209895,-1.34183e-06,-0.00205184,-4.22378e-06,6,-60,-0.0718256,-0.0718256,13.3855,0.1,0.316
0.746898,0.746155,0.730134,0.729352,-0.00215064,-8.94551e-07,-0.00210237,-2.81586e-06,7,-60,-0.0642493,-0.0642493,13.3392,0.1,0.32
0.746889,0.746155,0.730126,0.729352,-0.00220293,-5.96367e-07,-0.00215348,-1.87724e-06,7,-59,-0.0563324,-0.0563324,13.2938,0.1,0.324
0.74688,0.746155,0.730117,0.729352,-0.00225579,-3.97578e-07,-0.00220516,-1.25149e-06,8,-59,-0.0480714,-0.0480714,13.2492,0.1,0.328
0.746871,0.746155,0.730108,0.729352,-0.00230923,-2.65052e-07,-0.0022574,-8.34327e-07,8,-58,-0.0394622,-0.0394622,13.2053,0.1,0.332
0.746862,0.746155,0.730099,0.729352,-0.00236325,-1.76701e-07,-0.00231021,-5.56218e-07,8,-57,-0.0305008,-0.0305008,13.1623,0.1,0.336
0.746852,0.746155,0.730089,0.729352,-0.00241785,-1.17801e-07,-0.00236359,-3.70812e-07,9,-57,-0.0211831,-0.0211831,13.1201,0.1,0.34
0.746842,0.746155,0.73008,0.729352,-0.00247303,-7.8534e-08,-0.00241752,2.85437e-05,9,-56,-0.0115046,-0.0115046,13.0787,0.1,0.344
0.746832,0.746155,0.73007,0.729352,-0.00252878,-5.2356e-08,-0.00247202,-9.76178e-06,10,-56,-0.00146107,-0.00146107,13.0384,0.1,0.348
0.746822,0.746155,0.73006,0.729352,-0.0025851,-3.4904e-08,-0.00252708,-6.50785e-06,10,-55,0.00895193,0.00895193,12.9986,0.1,0.352
0.746812,0.746155,0.73005,0.729352,-0.002642,-2.32693e-08,-0.0025827,2.44524e-05,10,-54,0.0197388,0.0197388,12.9596,0.1,0.356
0.746801,0.746155,0.730039,0.729352,-0.00269946,-1.55129e-08,-0.00263887,1.63016e-05,11,-53,0.030904,0.030904,12.9217,0.1,0.36
0.74679,0.746155,0.730029,0.729352,-0.00275749,-1.03419e-08,-0.0026956,1.08677e-05,11,-53,0.042452,0.042452,12.8846,0.1,0.364
0.746779,0.746155,0.730018,0.729352,-0.00281609,-6.89461e-09,-0.00275288,-2.15458e-05,12,-53,0.0543873,0.0543873,12.8482,0.1,0.368
0.746768,0.746155,0.730007,0.729352,-0.00287525,-4.59641e-09,-0.00281072,-1.43639e-05,12,-52,0.0667142,0.0667142,12.8124,0.1,0.372
0.746756,0.746154,0.729995,0.729352,-0.00293498,-2.8794e-05,-0.0028691,-9.5759e-06,12,-51,0.0794259,0.0794259,12.7775,0.1,0.376
0.746744,0.746155,0.729984,0.729352,-0.00299527,9.59493e-06,-0.00292804,-6.38394e-06,13,-50,0.0924017,0.0924017,12.7435,0.1,0.38
0.746732,0.746155,0.729972,0.729352,-0.00305611,6.39662e-06,-0.00298752,-4.25596e-06,13,-50,0.105983,0.1,12.7104,0.1,0.384
0.74672,0.746155,0.72996,0.729352,-0.00311752,4.26441e-06,-0.00304755,-2.8373e-06,14,-49,0.119931,0.1,12.6782,0.1,0.388
0.746707,0.746154,0.729948,0.729352,-0.00317948,-2.5948e-05,-0.00310812,-1.89154e-06,14,-48,0.134207,0.1,12.6468,0.1,0.392
0.746694,0.746154,0.729935,0.729352,-0.003242,-1.72987e-05,-0.00316923,-1.26102e-06,14,-48,0.148684,0.1,12.6163,0.1,0.396
0.746681,0.746154,0.729922,0.729352,-0.00330507,-1.15324e-05,-0.00323089,-8.40683e-07,15,-47,0.163567,0.1,12.5867,0.1,0.4
0.746668,0.746154,0.729909,0.729352,-0.00336869,-7.68829e-06,-0.00329308,-5.60455e-07,15,-46,0.178843,0.1,12.558,0.1,0.404
0.746654,0.746154,0.729896,0.729352,-0.00343286,-6.27074e-05,-0.00335582,-3.73637e-07,15,-45,0.194482,0.1,12.5301,0.1,0.408
0.74664,0.746153,0.729882,0.729352,-0.00349759,-9.93868e-05,-0.00341909,-2.49091e-07,16,-45,0.210183,0.1,12.5031,0.1,0.412
0.746626,0.746152,0.729868,0.729352,-0.00356286,-0.00012384,-0.00348289,-1.66061e-07,16,-44,0.226051,0.1,12.477,0.1,0.416
0.746612,0.746152,0.729854,0.729351,-0.00362867,-0.000111351,-0.00354723,-2.89016e-05,16,-43,0.242169,0.1,12.4518,0.1,0.42
0.746597,0.746152,0.72984,0.729351,-0.00369503,-7.42338e-05,-0.0036121,-1.92678e-05,17,-43,0.258744,0.1,12.4272,0.1,0.424
0.746582,0.746152,0.729826,0.729351,-0.00376193,-4.94892e-05,-0.0036775,-1.28452e-05,18,-42,0.275903,0.1,12.4036,0.1,0.428
0.746567,0.746152,0.729811,0.729351,-0.00382937,-3.29928e-05,-0.00374343,-8.56345e-06,18,-41,0.293582,0.1,12.3809,0.1,0.432
0.746552,0.746152,0.729796,0.729351,-0.00389736,-2.19952e-05,-0.00380988,-5.70896e-06,19,-40,0.311737,0.1,12.3592,0.1,0.436
0.746536,0.746152,0.72978,0.729351,-0.00396588,-1.46635e-05,-0.00387686,-3.80598e-06,19,-39,0.33034,0.1,12.3385,0.1,0.44
0.74652,0.746152,0.729765,0.729351,-0.00403493,-9.77565e-06,-0.00394437,-2.53732e-06,20,-39,0.349375,0.1,12.3186,0.1,0.444
0.746504,0.746152,0.729749,0.729351,-0.00410452,-6.5171e-06,-0.0040124,-1.69154e-06,20,-38,0.368829,0.1,12.2997,0.1,0.448
0.746487,0.746152,0.729732,0.729351,-0.00417465,-4.34473e-06,-0.00408095,-1.1277e-06,21,-37,0.388698,0.1,12.2818,0.1,0.452
0.74647,0.746152,0.729716,0.729351,-0.0042453,-2.89649e-06,-0.00415002,-2.95427e-05,21,-36,0.408977,0.1,12.2647,0.1,0.456
0.746453,0.746152,0.729699,0.729351,-0.00431649,-1.93099e-06,-0.00421961,-1.96951e-05,22,-35,0.429666,0.1,12.2483,0.1,0.46
0.746436,0.746152,0.729682,0.729351,-0.0043882,-3.00783e-05,-0.00428971,-1.31301e-05,22,-35,0.450753,0.1,12.2329,0.1,0.464
0.746418,0.746151,0.729665,0.729351,-0.00446044,-4.88431e-05,-0.00436033,-8.7534e-06,22,-34,0.472091,0.1,12.2185,0.1,0.468
0.7464,0.746151,0.729647,0.729351,-0.00453321,-6.1353e-05,-0.00443146,-5.8356e-06,23,-33,0.493735,0.1,12.2051,0.1,0.472
0.746382,0.746151,0.729629,0.729351,-0.0046065,-6.96929e-05,-0.00450311,-3.26813e-05,23,-32,0.515722,0.1,12.1927,0.1,0.476
0.746363,0.746151,0.729611,0.729351,-0.00468031,-4.64619e-05,-0.00457526,-2.17875e-05,24,-31,0.53809,0.1,12.181,0.1,0.48
0.746344,0.74615,0.729593,0.729351,-0.00475464,-5.97656e-05,-0.00464792,-1.4525e-05,24,-30,0.560994,0.1,12.1703,0.1,0.484
0.746325,0.74615,0.729574,0.72935,-0.00482949,-6.86346e-05,-0.0047211,-3.84743e-05,25,-30,0.584244,0.1,12.1606,0.1,0.488
0.746306,0.74615,0.729555,0.72935,-0.00490486,-4.57564e-05,-0.00479477,-2.56495e-05,25,-29,0.607881,0.1,12.1517,0.1,0.492
0.746286,0.74615,0.729536,0.72935,-0.00498074,-5.92952e-05,-0.00486895,-1.70997e-05,26,-28,0.63206,0.1,12.1438,0.1,0.496
0.746266,0.746149,0.729516,0.72935,-0.00505714,-6.83211e-05,-0.00494364,-1.13998e-05,26,-27,0.656593,0.1,12.137,0.1,0.5
0.746245,0.746148,0.729496,0.72935,-0.00513405,-0.000103129,-0.00501882,-7.59986e-06,27,-26,0.681496,0.1,12.1312,0.1,0.504
0.746225,0.746148,0.729476,0.72935,-0.00521148,-0.000126335,-0.00509451,-5.06657e-06,27,-25,0.70664,0.1,12.1265,0.1,0.508
0.746204,0.746147,0.729455,0.72935,-0.00528941,-0.000170596,-0.00517069,-3.21686e-05,27,-24,0.732082,0.1,12.1227,0.1,0.512
0.746182,0.746146,0.729435,0.72935,-0.00536785,-0.000171312,-0.00524737,-2.14458e-05,28,-23,0.757729,0.1,12.1196,0.1,0.516
0.746161,0.746145,0.729413,0.72935,-0.0054468,-0.00017179,-0.00532455,-4.30881e-05,28,-22,0.783816,0.1,12.1176,0.1,0.52
0.746139,0.746145,0.729392,0.729349,-0.00552625,-0.000172109,-0.00540222,-5.75163e-05,29,-21,0.810345,0.1,12.1164,0.1,0.524
0.746117,0.746144,0.72937,0.729349,-0.00560621,-0.00014353,-0.00548038,-3.83442e-05,30,-20,0.837333,0.1,12.1161,0.1,0.528
0.746094,0.746144,0.729348,0.729349,-0.00568667,-0.000153269,-0.00555903,-5.43537e-05,30,-20,0.864918,0.1,12.1169,0.1,0.532
0.746071,0.746144,0.729326,0.729349,-0.00576763,-0.000102179,-0.00563817,-3.62358e-05,31,-18,0.892925,0.1,12.1186,0.1,0.536
0.746048,0.746143,0.729303,0.729349,-0.00584908,-9.69103e-05,-0.0057178,-2.41572e-05,32,-17,0.921661,0.1,12.1214,0.1,0.54
0.746024,0.746142,0.72928,0.729349,-0.00593104,-0.00015098,-0.00579792,-4.48957e-05,32,-17,0.95086,0.1,12.1254,0.1,0.544
0.746,0.746142,0.729257,0.729349,-0.00601349,-0.000100653,-0.00587852,-2.99305e-05,33,-15,0.980256,0.1,12.1302,0.1,0.548
0.745976,0.746142,0.729233,0.729348,-0.00609643,-0.000124684,-0.0059596,-4.87446e-05,33,-15,1.01037,0.1,12.1361,0.1,0.552
0.745952,0.746141,0.729209,0.729348,-0.00617987,-0.000140704,-0.00604117,-3.24964e-05,34,-13,1.04082,0.1,12.1429,0.1,0.556
0.745927,0.74614,0.729185,0.729348,-0.0062638,-0.000151385,-0.00612321,-5.04552e-05,34,-13,1.07165,0.1,12.1508,0.1,0.56
0.745901,0.746138,0.72916,0.729348,-0.00634822,-0.000244878,-0.00620574,-6.24277e-05,34,-12,1.10285,0.1,12.1596,0.1,0.564
0.745876,0.746138,0.729135,0.729347,-0.00643313,-0.000220834,-0.00628874,-7.04094e-05,35,-11,1.13405,0.1,12.1693,0.1,0.568
0.74585,0.746136,0.72911,0.729347,-0.00651852,-0.000291177,-0.00637222,-0.000104521,35,-10,1.16582,0.1,12.1799,0.1,0.572
0.745824,0.746134,0.729084,0.729346,-0.0066044,-0.000395655,-0.00645617,-9.84719e-05,35,-9,1.19766,0.1,12.1913,0.1,0.576
0.745797,0.746131,0.729058,0.729346,-0.00669077,-0.000494097,-0.00654059,-9.44389e-05,35,-8,1.22939,0.1,12.2037,0.1,0.58
0.74577,0.746128,0.729032,0.729345,-0.00677761,-0.000588516,-0.00662549,-0.000120541,35,-7,1.26104,0.1,12.2172,0.1,0.584
0.745743,0.746124,0.729005,0.729345,-0.00686494,-0.000737835,-0.00671086,-0.000109152,35,-6,1.29263,0.1,12.2315,0.1,0.588
0.745715,0.746118,0.728978,0.729344,-0.00695274,-0.000923754,-0.00679669,-0.00013035,35,-5,1.32384,0.1,12.247,0.1,0.592
0.745687,0.746112,0.728951,0.729344,-0.00704102,-0.00113407,-0.00688299,-0.000115691,34,-4,1.35448,0.1,12.2633,0.1,0.596
0.745659,0.746105,0.728923,0.729343,-0.00712978,-0.00138945,-0.00696976,-0.000105918,33,-2,1.38441,0.1,12.2808,0.1,0.6
0.74563,0.746096,0.728895,0.729343,-0.00721901,-0.00167486,-0.00705699,-9.94029e-05,32,-1,1.41337,0.1,12.2994,0.1,0.604
0.745601,0.746086,0.728867,0.729343,-0.00730872,-0.00195151,-0.00714468,-9.50596e-05,32,0,1.44122,0.1,12.3192,0.1,0.608
0.745572,0.746075,0.728838,0.729343,-0.0073989,-0.00219353,-0.00723283,-6.3373e-05,31,0,1.46801,0.1,12.3401,0.1,0.612
0.745542,0.746063,0.728809,0.729342,-0.00748954,-0.00244124,-0.00732145,-7.10396e-05,30,1,1.49394,0.1,12.3624,0.1,0.616
0.745512,0.74605,0.728779,0.729342,-0.00758066,-0.00272155,-0.00741052,-4.73597e-05,29,3,1.51896,0.1,12.3856,0.1,0.62
0.745481,0.746036,0.728749,0.729342,-0.00767224,-0.00302359,-0.00750004,-6.03641e-05,28,4,1.54289,0.1,12.4102,0.1,0.624
0.74545,0.746022,0.728719,0.729342,-0.00776429,-0.00316736,-0.00759003,-4.02427e-05,28,5,1.56569,0.1,12.4357,0.1,0.628
0.745419,0.746007,0.728689,0.729342,-0.0078568,-0.00332079,-0.00768046,-2.68285e-05,28,6,1.58819,0.1,12.4625,0.1,0.632
0.745388,0.745992,0.728658,0.729342,-0.00794978,-0.00345187,-0.00777135,-1.78857e-05,28,8,1.61035,0.1,12.4906,0.1,0.636
0.745356,0.745977,0.728626,0.729342,-0.00804321,-0.00353926,-0.00786269,-1.19238e-05,28,9,1.63231,0.1,12.5198,0.1,0.64
0.745323,0.745963,0.728595,0.729341,-0.00813711,-0.00353993,-0.00795448,-0.000123113,28,9,1.65434,0.1,12.5501,0.1,0.644
0.745291,0.745949,0.728563,0.729338,-0.00823146,-0.00354038,-0.00804671,-0.000283612,29,9,1.6769,0.1,12.5803,0.1,0.648
0.745257,0.745935,0.72853,0.729335,-0.00832627,-0.00354068,-0.00813939,-0.000476984,30,8,1.69999,0.1,12.61,0.1,0.652
0.745224,0.745922,0.728498,0.72933,-0.00842154,-0.00345451,-0.00823252,-0.000692271,31,7,1.72365,0.1,12.6389,0.1,0.656
0.74519,0.745908,0.728465,0.729327,-0.00851725,-0.00345464,-0.00832609,-0.000720632,31,8,1.7483,0.1,12.6668,0.1,0.66
0.745156,0.745894,0.728431,0.729324,-0.00861342,-0.00345473,-0.0084201,-0.000710749,32,9,1.7735,0.1,12.6956,0.1,0.664
0.745121,0.74588,0.728397,0.729323,-0.00871004,-0.00348358,-0.00851455,-0.000588996,32,12,1.79922,0.1,12.7256,0.1,0.668
0.745086,0.745866,0.728363,0.729323,-0.00880711,-0.00350282,-0.00860944,-0.000421455,33,14,1.82533,0.1,12.758,0.1,0.672
0.745051,0.74585,0.728328,0.729322,-0.00890463,-0.00365959,-0.00870477,-0.000309761,33,17,1.85183,0.1,12.7932,0.1,0.676
0.745015,0.745833,0.728293,0.729322,-0.00900259,-0.00387928,-0.00880053,-0.000206507,32,19,1.87796,0.1,12.8306,0.1,0.68
0.744979,0.745814,0.728258,0.729322,-0.009101,-0.0041121,-0.00889673,-0.000166462,31,21,1.90339,0.1,12.8701,0.1,0.684
0.744942,0.745795,0.728222,0.729322,-0.00919985,-0.0043249,-0.00899337,-0.000139766,31,22,1.92806,0.1,12.9112,0.1,0.688
0.744905,0.745776,0.728186,0.72932,-0.00929914,-0.00452435,-0.00909043,-0.000237132,31,22,1.95208,0.1,12.9535,0.1,0.692
0.744868,0.745758,0.728149,0.729318,-0.00939888,-0.00451336,-0.00918792,-0.000330833,31,23,1.97562,0.1,12.9961,0.1,0.696
0.74483,0.74574,0.728113,0.729316,-0.00949905,-0.00447725,-0.00928584,-0.000393301,32,24,1.9998,0.1,13.0388,0.1,0.7
0.744792,0.745722,0.728075,0.729313,-0.00959965,-0.00448196,-0.00938419,-0.000492528,33,24,2.02473,0.1,13.0821,0.1,0.704
0.744753,0.745703,0.728037,0.72931,-0.0097007,-0.00460026,-0.00948297,-0.00058747,33,24,2.05016,0.1,13.1255,0.1,0.708
0.744714,0.745684,0.727999,0.729307,-0.00980217,-0.00465034,-0.00958217,-0.000650765,33,25,2.07551,0.1,13.1691,0.1,0.712
0.744675,0.745664,0.727961,0.729304,-0.00990408,-0.00474131,-0.00968179,-0.000692962,33,26,2.10114,0.1,13.2132,0.1,0.716
0.744635,0.745644,0.727922,0.729301,-0.0100064,-0.00485954,-0.00978184,-0.000721093,33,27,2.12681,0.1,13.2581,0.1,0.72
0.744595,0.745621,0.727883,0.729296,-0.0101092,-0.00513989,-0.0098823,-0.00082622,32,27,2.15233,0.1,13.3038,0.1,0.724
0.744554,0.745599,0.727843,0.729293,-0.0102124,-0.00524042,-0.00998318,-0.000838722,33,28,2.17691,0.1,13.3497,0.1,0.728
0.744513,0.745576,0.727803,0.729289,-0.010316,-0.0054514,-0.0100845,-0.000904639,32,29,2.20145,0.1,13.3966,0.1,0.732
0.744471,0.745553,0.727762,0.729284,-0.0104201,-0.00556326,-0.0101862,-0.00100617,32,29,2.22543,0.1,13.4439,0.1,0.736
0.74443,0.745531,0.727721,0.72928,-0.0105245,-0.00549388,-0.0102883,-0.00104506,33,30,2.24943,0.1,13.4915,0.1,0.74
0.744387,0.74551,0.72768,0.729274,-0.0106294,-0.00544762,-0.0103909,-0.00118615,34,30,2.2744,0.1,13.5398,0.1,0.744
0.744345,0.745488,0.727638,0.729268,-0.0107348,-0.00544558,-0.0104938,-0.00128021,35,31,2.30021,0.1,13.5878,0.1,0.748
0.744301,0.745465,0.727596,0.729261,-0.0108405,-0.00553058,-0.0105972,-0.00145809,35,30,2.3266,0.1,13.6361,0.1,0.752
0.744258,0.745442,0.727553,0.729253,-0.0109467,-0.00558726,-0.010701,-0.00163425,35,30,2.35311,0.1,13.6838,0.1,0.756
0.744214,0.74542,0.72751,0.729245,-0.0110532,-0.00559625,-0.0108051,-0.0017229,36,30,2.37992,0.1,13.7309,0.1,0.76
0.744169,0.745397,0.727467,0.729237,-0.0111602,-0.00565982,-0.0109097,-0.00183958,36,31,2.40725,0.1,13.7784,0.1,0.764
0.744125,0.745372,0.727423,0.729228,-0.0112676,-0.00584616,-0.0110147,-0.00197495,36,31,2.43478,0.1,13.8258,0.1,0.768
0.744079,0.745349,0.727379,0.729219,-0.0113754,-0.00576885,-0.0111201,-0.00200762,37,32,2.46197,0.1,13.8732,0.1,0.772
0.744034,0.745328,0.727334,0.729211,-0.0114837,-0.00563094,-0.0112259,-0.00205818,39,33,2.49022,0.1,13.9214,0.1,0.776
0.743987,0.745309,0.727289,0.729203,-0.0115923,-0.00536625,-0.0113321,-0.00203431,41,34,2.51993,0.1,13.9703,0.1,0.78
0.743941,0.74529,0.727243,0.729194,-0.0117013,-0.00510342,-0.0114387,-0.00207598,43,35,2.55174,0.1,14.0207,0.1,0.784
0.743894,0.745274,0.727197,0.729186,-0.0118108,-0.00478424,-0.0115457,-0.00207497,45,37,2.58569,0.1,14.0719,0.1,0.788
0.743846,0.745259,0.727151,0.729177,-0.0119206,-0.00439871,-0.0116531,-0.00210309,48,38,2.62209,0.1,14.1243,0.1,0.792
0.743798,0.745245,0.727104,0.729168,-0.0120309,-0.00408411,-0.0117609,-0.00217941,51,38,2.66127,0.1,14.1776,0.1,0.796
0.74375,0.745233,0.727057,0.729157,-0.0121415,-0.00375922,-0.011869,-0.00234546,53,38,2.70286,0.1,14.2313,0.1,0.8
0.743701,0.745222,0.727009,0.729144,-0.0122526,-0.00342745,-0.0119776,-0.0026289,56,37,2.74691,0.1,14.2845,0.1,0.804
0.743652,0.745213,0.726961,0.72913,-0.0123641,-0.00303353,-0.0120865,-0.00296182,59,35,2.7935,0.1,14.336,0.1,0.808
0.743602,0.745206,0.726913,0.729114,-0.0124759,-0.00259817,-0.0121959,-0.00332772,62,33,2.84296,0.1,14.3855,0.1,0.812
0.743552,0.745201,0.726864,0.729097,-0.0125882,-0.0021064,-0.0123056,-0.00357165,66,32,2.89554,0.1,14.4326,0.1,0.816
0.743502,0.745199,0.726814,0.729081,-0.0127008,-0.0016058,-0.0124157,-0.00376307,69,31,2.95154,0.1,14.4785,0.1,0.82
0.743451,0.745199,0.726764,0.729064,-0.0128138,-0.00109933,-0.0125262,-0.00389068,73,32,3.01101,0.1,14.5237,0.1,0.824
0.743399,0.745199,0.726714,0.729048,-0.0129273,-0.000732884,-0.0126371,-0.00391817,76,33,3.07393,0.1,14.569,0.1,0.828
0.743347,0.745199,0.726663,0.729032,-0.0130411,-0.000488589,-0.0127484,-0.00396528,78,34,3.13951,0.1,14.6153,0.1,0.832
0.743295,0.745199,0.726612,0.729015,-0.0131553,-0.000325726,-0.01286,-0.00405428,80,34,3.20707,0.1,14.6623,0.1,0.836
0.743242,0.745198,0.72656,0.728999,-0.0132699,-0.000245942,-0.0129721,-0.00402723,81,36,3.27615,0.1,14.7097,0.1,0.84
0.743189,0.745198,0.726508,0.728983,-0.0133849,-0.000221543,-0.0130845,-0.004038,82,37,3.34629,0.1,14.7587,0.1,0.844
0.743135,0.745197,0.726456,0.728967,-0.0135002,-0.000205277,-0.0131972,-0.00401638,83,39,3.4172,0.1,14.8088,0.1,0.848
0.743081,0.745196,0.726403,0.72895,-0.013616,-0.000223224,-0.0133104,-0.00408834,84,40,3.48882,0.1,14.8604,0.1,0.852
0.743026,0.745195,0.726349,0.728934,-0.0137321,-0.000206398,-0.0134239,-0.00404994,85,41,3.56099,0.1,14.9125,0.1,0.856
0.742971,0.745195,0.726295,0.728915,-0.0138486,-0.00016639,-0.0135378,-0.00428346,86,41,3.6339,0.1,14.9662,0.1,0.86
0.742915,0.745194,0.726241,0.728896,-0.0139655,-0.000168508,-0.0136521,-0.00446793,87,40,3.70767,0.1,15.0188,0.1,0.864
0.742859,0.745194,0.726186,0.728875,-0.0140828,-0.000169921,-0.0137667,-0.00470608,88,39,3.78206,0.1,15.0708,0.1,0.868
0.742802,0.745193,0.726131,0.728855,-0.0142005,-0.000170862,-0.0138817,-0.00486484,89,39,3.85709,0.1,15.1218,0.1,0.872
0.742745,0.745192,0.726075,0.728834,-0.0143185,-0.00017149,-0.0139971,-0.00497068,90,40,3.93276,0.1,15.1725,0.1,0.876
0.742688,0.745191,0.726019,0.728813,-0.0144369,-0.00022949,-0.0141128,-0.00504124,90,40,4.00906,0.1,15.2234,0.1,0.88
0.74263,0.74519,0.725962,0.728792,-0.0145556,-0.000239366,-0.0142289,-0.00508828,91,41,4.08569,0.1,15.2749,0.1,0.884
0.742571,0.745189,0.725905,0.728772,-0.0146748,-0.000188369,-0.0143454,-0.00511965,93,43,4.16294,0.1,15.3272,0.1,0.888
0.742513,0.745189,0.725847,0.728751,-0.0147943,-0.000183161,-0.0144622,-0.00516934,94,44,4.24112,0.1,15.3806,0.1,0.892
0.742453,0.745188,0.725789,0.728729,-0.0149142,-0.00020848,-0.0145794,-0.00523127,94,45,4.31998,0.1,15.4347,0.1,0.896
0.742393,0.745187,0.725731,0.728707,-0.0150344,-0.000225359,-0.014697,-0.00530134,95,45,4.39935,0.1,15.4895,0.1,0.9
0.742333,0.745186,0.725672,0.728685,-0.015155,-0.000236612,-0.0148148,-0.00540564,96,46,4.47929,0.1,15.5448,0.1,0.904
0.742272,0.745185,0.725612,0.728662,-0.015276,-0.000244114,-0.0149331,-0.00553275,97,46,4.55982,0.1,15.6004,0.1,0.908
0.742211,0.745184,0.725552,0.72864,-0.0153973,-0.000220325,-0.0150517,-0.00547354,98,48,4.641,0.1,15.6562,0.1,0.912
0.742149,0.745182,0.725492,0.728617,-0.015519,-0.000290838,-0.0151707,-0.00557802,99,49,4.72293,0.1,15.7138,0.1,0.916
0.742086,0.74518,0.725431,0.728595,-0.015641,-0.000337846,-0.01529,-0.0055613,100,50,4.80514,0.1,15.7717,0.1,0.92
0.742024,0.745179,0.725369,0.728573,-0.0157634,-0.000340395,-0.0154096,-0.00555015,101,52,4.88778,0.1,15.831,0.1,0.924
0.74196,0.745177,0.725307,0.72855,-0.0158862,-0.000428466,-0.0155296,-0.0056003,101,53,4.97103,0.1,15.8918,0.1,0.928
0.741897,0.745174,0.725245,0.728526,-0.0160093,-0.000487181,-0.01565,-0.0057489,102,53,5.05447,0.1,15.9533,0.1,0.932
0.741832,0.745172,0.725182,0.7285,-0.0161328,-0.000468742,-0.0157707,-0.00599192,103,52,5.13829,0.1,16.0147,0.1,0.936
0.741768,0.745171,0.725119,0.728475,-0.0162566,-0.000456449,-0.0158917,-0.00609635,104,53,5.22288,0.1,16.075,0.1,0.94
0.741702,0.74517,0.725055,0.728449,-0.0163808,-0.000361881,-0.0160131,-0.00622355,106,53,5.30826,0.1,16.1355,0.1,0.944
0.741636,0.745169,0.724991,0.728423,-0.0165053,-0.000298836,-0.0161349,-0.00630835,107,54,5.39485,0.1,16.1962,0.1,0.948
0.74157,0.745169,0.724926,0.728395,-0.0166302,-0.000228015,-0.0162569,-0.00650884,108,53,5.48248,0.1,16.2573,0.1,0.952
0.741503,0.745169,0.724861,0.728371,-0.0167554,-0.00015201,-0.0163793,-0.00635459,110,56,5.5712,0.1,16.3178,0.1,0.956
0.741436,0.745168,0.724795,0.728347,-0.016881,-0.000158922,-0.0165021,-0.00628055,111,59,5.66101,0.1,16.3813,0.1,0.96
0.741368,0.745167,0.724729,0.728324,-0.0170069,-0.000192321,-0.0166252,-0.00611603,112,62,5.75146,0.1,16.4468,0.1,0.964
0.7413,0.745167,0.724662,0.728303,-0.0171331,-0.000157005,-0.0167486,-0.00580481,113,67,5.84243,0.1,16.5155,0.1,0.968
0.741231,0.745166,0.724595,0.728283,-0.0172597,-0.000219833,-0.0168723,-0.00553974,114,71,5.93426,0.1,16.5885,0.1,0.972
0.741162,0.745163,0.724527,0.728268,-0.0173866,-0.000319301,-0.0169964,-0.00493117,114,78,6.02641,0.1,16.6658,0.1,0.976
0.741092,0.745161,0.724459,0.728256,-0.0175139,-0.000385613,-0.0171208,-0.00426634,115,86,6.1187,0.1,16.7505,0.1,0.98
0.741022,0.745158,0.72439,0.728247,-0.0176415,-0.000516194,-0.0172456,-0.00362158,115,94,6.21128,0.1,16.8432,0.1,0.984
0.740951,0.745156,0.724321,0.728241,-0.0177695,-0.000574457,-0.0173706,-0.00290383,116,103,6.30384,0.1,16.9437,0.1,0.988
0.74088,0.745152,0.724251,0.728237,-0.0178977,-0.000642089,-0.017496,-0.00228138,117,111,6.39677,0.1,17.0528,0.1,0.992
0.740808,0.745149,0.724181,0.728233,-0.0180263,-0.000687178,-0.0176218,-0.00180883,118,117,6.49002,0.1,17.1693,0.1,0.996
0.740736,0.745146,0.72411,0.72823,-0.0181553,-0.000774819,-0.0177478,-0.00152259,118,122,6.5837,0.1,17.2918,0.1,1
0.740663,0.745142,0.724039,0.728225,-0.0182846,-0.000833246,-0.0178742,-0.00136055,119,125,6.6776,0.1,17.4184,0.1,1.004
0.740589,0.745137,0.723967,0.728221,-0.0184141,-0.00095857,-0.0180009,-0.00128131,119,128,6.77184,0.1,17.548,0.1,1.008
0.740515,0.745133,0.723895,0.728216,-0.0185441,-0.000984538,-0.0181279,-0.00128607,120,130,6.86611,0.1,17.6796,0.1,1.012
0.740441,0.745128,0.723822,0.72821,-0.0186743,-0.00103064,-0.0182552,-0.00134683,121,131,6.96094,0.1,17.8125,0.1,1.016
0.740366,0.745123,0.723749,0.728204,-0.0188049,-0.00114775,-0.0183828,-0.00141612,122,132,7.05618,0.1,17.9462,0.1,1.02
0.74029,0.745118,0.723675,0.728197,-0.0189358,-0.00116824,-0.0185108,-0.00146232,122,134,7.15152,0.1,18.0805,0.1,1.024
0.740214,0.745114,0.723601,0.72819,-0.019067,-0.00112432,-0.0186391,-0.00157949,124,134,7.24747,0.1,18.2157,0.1,1.028
0.740138,0.745109,0.723526,0.728184,-0.0191986,-0.00112383,-0.0187677,-0.00154244,125,137,7.34438,0.1,18.3512,0.1,1.032
0.740061,0.745105,0.723451,0.728179,-0.0193304,-0.00106592,-0.0188966,-0.00148895,126,139,7.44203,0.1,18.4884,0.1,1.036
0.739983,0.745103,0.723375,0.728173,-0.0194626,-0.000912148,-0.0190258,-0.00148208,128,141,7.54076,0.1,18.6275,0.1,1.04
0.739905,0.745101,0.723298,0.728167,-0.0195951,-0.000780844,-0.0191553,-0.0014775,130,143,7.64109,0.1,18.768,0.1,1.044
0.739827,0.7451,0.723221,0.728161,-0.0197279,-0.000606936,-0.0192851,-0.00147444,132,145,7.7429,0.1,18.9099,0.1,1.048
0.739747,0.745098,0.723144,0.728156,-0.019861,-0.000577369,-0.0194152,-0.00144362,134,147,7.84636,0.1,19.0532,0.1,1.052
0.739668,0.745097,0.723066,0.72815,-0.0199944,-0.000471286,-0.0195457,-0.00142307,135,149,7.95075,0.1,19.1982,0.1,1.056
0.739587,0.745095,0.722988,0.728144,-0.0201282,-0.000458145,-0.0196764,-0.00146695,137,151,8.05643,0.1,19.3448,0.1,1.06
0.739507,0.745094,0.722909,0.728138,-0.0202622,-0.000420594,-0.0198075,-0.0014962,138,152,8.16292,0.1,19.4923,0.1,1.064
0.739425,0.745093,0.722829,0.72813,-0.0203966,-0.000366769,-0.0199388,-0.00163087,139,153,8.27036,0.1,19.6409,0.1,1.068
0.739343,0.745092,0.722749,0.728124,-0.0205313,-0.000330885,-0.0200705,-0.00163427,141,155,8.37883,0.1,19.7895,0.1,1.072
0.739261,0.745091,0.722669,0.728116,-0.0206662,-0.000306963,-0.0202024,-0.00172292,142,156,8.48823,0.1,19.9394,0.1,1.076
0.739178,0.74509,0.722588,0.728109,-0.0208015,-0.000262224,-0.0203346,-0.00175322,143,158,8.59851,0.1,20.0899,0.1,1.08
0.739095,0.745088,0.722506,0.728101,-0.0209371,-0.00031877,-0.0204672,-0.001831,144,159,8.70973,0.1,20.2414,0.1,1.084
0.739011,0.745087,0.722424,0.728092,-0.021073,-0.000327677,-0.0206,-0.00194044,145,160,8.82139,0.1,20.3936,0.1,1.088
0.738926,0.745085,0.722341,0.728083,-0.0212092,-0.000333615,-0.0207331,-0.0020134,147,161,8.93374,0.1,20.546,0.1,1.092
0.738841,0.745084,0.722258,0.728076,-0.0213457,-0.000337574,-0.0208666,-0.00194688,148,164,9.0468,0.1,20.6992,0.1,1.096
0.738755,0.745082,0.722174,0.728069,-0.0214824,-0.000397795,-0.0210003,-0.00190253,149,166,9.16055,0.1,20.8544,0.1,1.1
0.738669,0.745081,0.72209,0.728063,-0.0216195,-0.000351569,-0.0211343,-0.0017578,150,170,9.27475,0.1,21.0116,0.1,1.104
0.738582,0.74508,0.722005,0.728058,-0.0217569,-0.000349543,-0.0212685,-0.00160373,151,173,9.38993,0.1,21.1716,0.1,1.108
0.738495,0.745078,0.72192,0.728054,-0.0218945,-0.000319402,-0.0214031,-0.00138585,153,177,9.50588,0.1,21.3345,0.1,1.112
0.738407,0.745077,0.721834,0.728051,-0.0220325,-0.000356889,-0.021538,-0.00118302,154,181,9.62272,0.1,21.5011,0.1,1.116
0.738319,0.745076,0.721748,0.728049,-0.0221707,-0.000324299,-0.0216731,-0.000961426,155,186,9.74013,0.1,21.671,0.1,1.12
0.73823,0.745075,0.721661,0.728046,-0.0223093,-0.000302572,-0.0218085,-0.000842487,156,189,9.85846,0.1,21.8446,0.1,1.124
0.73814,0.745074,0.721573,0.728045,-0.0224481,-0.000288087,-0.0219442,-0.000705613,158,192,9.97766,0.1,22.0208,0.1,1.128
0.73805,0.745072,0.721485,0.728042,-0.0225872,-0.000307222,-0.0220802,-0.000671945,159,195,10.0977,0.1,22.1996,0.1,1.132
0.73796,0.74507,0.721396,0.72804,-0.0227266,-0.00037756,-0.0222165,-0.000678291,160,197,10.2183,0.1,22.3803,0.1,1.136
0.737868,0.745068,0.721307,0.728036,-0.0228663,-0.000395661,-0.022353,-0.000711312,161,199,10.3394,0.1,22.5622,0.1,1.14
0.737777,0.745066,0.721218,0.728033,-0.0230062,-0.00043652,-0.0224899,-0.000762117,162,200,10.461,0.1,22.7452,0.1,1.144
0.737684,0.745064,0.721127,0.728029,-0.0231465,-0.000521341,-0.0226269,-0.000824778,163,202,10.5832,0.1,22.9291,0.1,1.148
0.737592,0.745061,0.721037,0.728025,-0.023287,-0.000577888,-0.0227643,-0.000924134,164,203,10.7057,0.1,23.1138,0.1,1.152
0.737498,0.745057,0.720945,0.72802,-0.0234278,-0.000701959,-0.022902,-0.00101916,164,204,10.8285,0.1,23.2989,0.1,1.156
0.737404,0.745052,0.720853,0.728014,-0.0235689,-0.000899836,-0.0230399,-0.0011401,164,205,10.9514,0.1,23.4845,0.1,1.16
0.73731,0.745046,0.720761,0.728008,-0.0237102,-0.00108934,-0.023178,-0.00124951,165,206,11.074,0.1,23.6703,0.1,1.164
0.737214,0.74504,0.720668,0.728003,-0.0238518,-0.00121567,-0.0233165,-0.00132245,165,208,11.1962,0.1,23.8565,0.1,1.168
0.737119,0.745033,0.720574,0.727996,-0.0239937,-0.00141506,-0.0234552,-0.00145745,165,209,11.3185,0.1,24.0433,0.1,1.172
0.737022,0.745026,0.72048,0.727987,-0.0241359,-0.00154798,-0.0235942,-0.00166262,166,209,11.4404,0.1,24.2301,0.1,1.176
0.736926,0.745017,0.720386,0.727978,-0.0242784,-0.00172297,-0.0237334,-0.00191456,166,209,11.5624,0.1,24.4164,0.1,1.18
0.736828,0.745009,0.72029,0.727967,-0.0244211,-0.00186842,-0.0238729,-0.00216889,167,208,11.6841,0.1,24.6015,0.1,1.184
0.73673,0.745001,0.720195,0.727955,-0.024564,-0.0019078,-0.0240127,-0.00242482,168,208,11.8058,0.1,24.7855,0.1,1.188
0.736632,0.744993,0.720098,0.727942,-0.0247073,-0.00193406,-0.0241527,-0.0027106,169,208,11.9281,0.1,24.9684,0.1,1.192
0.736533,0.744987,0.720001,0.727927,-0.0248508,-0.00177882,-0.024293,-0.00304508,171,206,12.0511,0.1,25.1499,0.1,1.196
0.736433,0.744983,0.719904,0.727913,-0.0249946,-0.00150258,-0.0244336,-0.00323927,174,207,12.1757,0.1,25.3295,0.1,1.2
0.736333,0.744981,0.719806,0.727898,-0.0251386,-0.00114567,-0.0245744,-0.00342631,177,207,12.3028,0.1,25.5086,0.1,1.204
0.736232,0.744981,0.719707,0.727882,-0.0252829,-0.000792574,-0.0247155,-0.0035798,180,208,12.4327,0.1,25.6874,0.1,1.208
0.73613,0.744981,0.719608,0.727866,-0.0254275,-0.000528383,-0.0248568,-0.00371092,183,209,12.5654,0.1,25.866,0.1,1.212
0.736028,0.744981,0.719509,0.727851,-0.0255723,-0.000352255,-0.0249983,-0.00374075,185,211,12.7003,0.1,26.0449,0.1,1.216
0.735926,0.744981,0.719408,0.727835,-0.0257174,-0.000234837,-0.0251402,-0.003847,187,212,12.837,0.1,26.2249,0.1,1.22
0.735823,0.744981,0.719307,0.727819,-0.0258627,-0.000185349,-0.0252822,-0.00386026,189,214,12.9751,0.1,26.4054,0.1,1.224
0.735719,0.744981,0.719206,0.727803,-0.0260083,-0.000123566,-0.0254246,-0.00392668,191,215,13.1143,0.1,26.5871,0.1,1.228
0.735615,0.74498,0.719104,0.727788,-0.0261541,-0.000139959,-0.0255671,-0.00382701,192,218,13.2545,0.1,26.7698,0.1,1.232
0.73551,0.744979,0.719001,0.727775,-0.0263002,-0.000179679,-0.0257099,-0.00367418,193,222,13.3955,0.1,26.9549,0.1,1.236
0.735404,0.744978,0.718898,0.727762,-0.0264466,-0.000206159,-0.025853,-0.00354351,194,226,13.5371,0.1,27.143,0.1,1.24
0.735298,0.744977,0.718795,0.727747,-0.0265932,-0.000252603,-0.0259963,-0.00357156,195,228,13.6792,0.1,27.3338,0.1,1.244
0.735191,0.744975,0.71869,0.727731,-0.02674,-0.000341147,-0.0261399,-0.00373421,196,228,13.8219,0.1,27.5258,0.1,1.248
0.735084,0.744973,0.718586,0.727711,-0.0268871,-0.000342595,-0.0262836,-0.00413056,198,227,13.965,0.1,27.7174,0.1,1.252
0.734976,0.744971,0.71848,0.72769,-0.0270345,-0.000372351,-0.0264277,-0.00450995,199,225,14.1088,0.1,27.9066,0.1,1.256
0.734868,0.74497,0.718374,0.727668,-0.027182,-0.000363398,-0.0265719,-0.00487804,200,224,14.2532,0.1,28.0935,0.1,1.26
0.734759,0.744969,0.718268,0.727646,-0.0273299,-0.000328638,-0.0267165,-0.00506586,202,224,14.3985,0.1,28.2783,0.1,1.264
0.734649,0.744969,0.71816,0.727623,-0.0274779,-0.000247883,-0.0268612,-0.00530623,204,224,14.5448,0.1,28.4626,0.1,1.268
0.734539,0.744968,0.718053,0.727599,-0.0276262,-0.000194046,-0.0270062,-0.00555285,205,224,14.6924,0.1,28.6461,0.1,1.272
0.734428,0.744968,0.717944,0.727574,-0.0277748,-0.000158155,-0.0271514,-0.00577485,207,224,14.8411,0.1,28.8285,0.1,1.276
0.734317,0.744968,0.717835,0.727549,-0.0279236,-0.000134228,-0.0272968,-0.00595164,209,224,14.9908,0.1,29.0103,0.1,1.28
0.734205,0.744967,0.717726,0.727523,-0.0280726,-0.000147067,-0.0274425,-0.00606949,210,226,15.1414,0.1,29.1918,0.1,1.284
0.734092,0.744967,0.717616,0.727497,-0.0282218,-0.000126836,-0.0275884,-0.00623444,212,226,15.2928,0.1,29.3736,0.1,1.288
0.733979,0.744965,0.717505,0.72747,-0.0283713,-0.000199721,-0.0277346,-0.00640199,213,227,15.445,0.1,29.5553,0.1,1.292
0.733865,0.744964,0.717394,0.727445,-0.0285211,-0.000248311,-0.0278809,-0.00634094,214,230,15.5977,0.1,29.7369,0.1,1.296
0.733751,0.744962,0.717282,0.727425,-0.028671,-0.000280704,-0.0280275,-0.00589716,215,236,15.7509,0.1,29.9208,0.1,1.3
0.733636,0.744961,0.71717,0.72741,-0.0288212,-0.000331091,-0.0281743,-0.00519824,216,245,15.9048,0.1,30.1108,0.1,1.304
0.73352,0.744958,0.717057,0.7274,-0.0289716,-0.000422264,-0.0283214,-0.00432922,217,256,16.0591,0.1,30.3094,0.1,1.308
0.733404,0.744956,0.716943,0.727394,-0.0291223,-0.000454255,-0.0284686,-0.00337559,218,268,16.2138,0.1,30.5183,0.1,1.312
0.733287,0.744954,0.716829,0.727391,-0.0292731,-0.000504373,-0.0286161,-0.00250951,220,278,16.369,0.1,30.7381,0.1,1.316
0.73317,0.744952,0.716714,0.727389,-0.0294242,-0.000508994,-0.0287638,-0.00181696,221,287,16.5249,0.1,30.968,0.1,1.32
0.733052,0.74495,0.716599,0.727388,-0.0295756,-0.000512075,-0.0289118,-0.00126889,222,295,16.6815,0.1,31.2063,0.1,1.324
0.732933,0.744947,0.716483,0.727387,-0.0297271,-0.00054292,-0.0290599,-0.000961091,224,301,16.8389,0.1,31.4514,0.1,1.328
0.732814,0.744945,0.716366,0.727385,-0.0298789,-0.000534692,-0.0292083,-0.000813473,225,305,16.9969,0.1,31.701,0.1,1.332
0.732694,0.744942,0.716249,0.727382,-0.0300309,-0.000586789,-0.0293568,-0.000772643,226,308,17.1558,0.1,31.9535,0.1,1.336
0.732574,0.744939,0.716132,0.727378,-0.0301831,-0.000650311,-0.0295056,-0.000831795,227,309,17.3152,0.1,32.2079,0.1,1.34
0.732453,0.744935,0.716013,0.727372,-0.0303355,-0.000750241,-0.0296546,-0.00104398,228,310,17.4751,0.1,32.4631,0.1,1.344
0.732331,0.744931,0.715894,0.727367,-0.0304881,-0.000874443,-0.0298038,-0.00118543,229,311,17.6352,0.1,32.7177,0.1,1.348
0.732209,0.744926,0.715775,0.727359,-0.030641,-0.00101483,-0.0299533,-0.00145248,230,311,17.7953,0.1,32.9723,0.1,1.352
0.732086,0.744919,0.715655,0.72735,-0.0307941,-0.00122358,-0.0301029,-0.0016593,230,312,17.9555,0.1,33.2258,0.1,1.356
0.731963,0.744912,0.715534,0.727342,-0.0309473,-0.00144912,-0.0302527,-0.00182597,230,313,18.1154,0.1,33.4787,0.1,1.36
0.731839,0.744903,0.715413,0.727334,-0.0311008,-0.00171464,-0.0304028,-0.00187951,231,315,18.2747,0.1,33.7315,0.1,1.364
0.731714,0.744893,0.715291,0.727326,-0.0312545,-0.00197803,-0.030553,-0.00188641,231,317,18.4334,0.1,33.9854,0.1,1.368
0.731588,0.744881,0.715168,0.72732,-0.0314085,-0.00226879,-0.0307035,-0.00177584,230,321,18.5914,0.1,34.2407,0.1,1.372
0.731463,0.744869,0.715045,0.727314,-0.0315626,-0.00252021,-0.0308542,-0.00164455,231,324,18.7485,0.1,34.4987,0.1,1.376
0.731336,0.744857,0.714921,0.72731,-0.0317169,-0.00271661,-0.031005,-0.00149944,231,328,18.9051,0.1,34.7595,0.1,1.38
0.731209,0.744844,0.714797,0.727305,-0.0318714,-0.00284755,-0.0311561,-0.00134512,232,333,19.0615,0.1,35.0232,0.1,1.384
0.731081,0.744833,0.714672,0.727302,-0.0320262,-0.00284847,-0.0313074,-0.00121344,233,336,19.2179,0.1,35.2901,0.1,1.388
0.730953,0.744821,0.714547,0.727297,-0.0321811,-0.00284908,-0.0314588,-0.00115445,235,340,19.3753,0.1,35.5597,0.1,1.392
0.730824,0.744811,0.714421,0.727294,-0.0323362,-0.00276311,-0.0316105,-0.00102875,237,343,19.5334,0.1,35.8314,0.1,1.396
0.730694,0.7448,0.714294,0.72729,-0.0324916,-0.00279218,-0.0317623,-0.00108891,238,345,19.6929,0.1,36.1058,0.1,1.4
0.730564,0.744787,0.714166,0.727285,-0.0326471,-0.00292671,-0.0319144,-0.00110022,239,348,19.853,0.1,36.3812,0.1,1.404
0.730433,0.744773,0.714039,0.727279,-0.0328029,-0.00310278,-0.0320666,-0.00122293,239,349,20.0131,0.1,36.6579,0.1,1.408
0.730301,0.744759,0.71391,0.727273,-0.0329588,-0.00324895,-0.0322191,-0.00130473,240,351,20.1731,0.1,36.9349,0.1,1.412
0.730169,0.744743,0.713781,0.727267,-0.0331149,-0.00349035,-0.0323717,-0.00138806,240,353,20.3331,0.1,37.2127,0.1,1.416
0.730036,0.744727,0.713651,0.727261,-0.0332713,-0.00368007,-0.0325245,-0.00144361,240,355,20.4926,0.1,37.4911,0.1,1.42
0.729903,0.744709,0.713521,0.727254,-0.0334278,-0.00395051,-0.0326775,-0.00153822,241,357,20.6518,0.1,37.7705,0.1,1.424
0.729769,0.744688,0.71339,0.727247,-0.0335845,-0.00438992,-0.0328307,-0.00163009,240,359,20.8102,0.1,38.0504,0.1,1.428
0.729634,0.744664,0.713258,0.72724,-0.0337414,-0.0048844,-0.0329841,-0.00166255,238,361,20.967,0.1,38.331,0.1,1.432
0.729499,0.744636,0.713126,0.727233,-0.0338985,-0.00561712,-0.0331376,-0.00168418,236,364,21.1217,0.1,38.6129,0.1,1.436
0.729363,0.744602,0.712993,0.727226,-0.0340558,-0.00653747,-0.0332914,-0.0017274,232,366,21.273,0.1,38.896,0.1,1.44
0.729226,0.744564,0.712859,0.727219,-0.0342132,-0.00752531,-0.0334453,-0.00172742,228,369,21.4199,0.1,39.1802,0.1,1.444
0.729089,0.744519,0.712725,0.727212,-0.0343709,-0.00878849,-0.0335994,-0.00172743,223,371,21.5619,0.1,39.466,0.1,1.448
0.728952,0.744467,0.712591,0.727206,-0.0345287,-0.0102352,-0.0337537,-0.00164107,216,375,21.6974,0.1,39.7533,0.1,1.452
0.728813,0.744409,0.712455,0.727201,-0.0346867,-0.0116028,-0.0339082,-0.00149712,210,379,21.8257,0.1,40.0431,0.1,1.456
0.728674,0.744346,0.712319,0.727196,-0.0348449,-0.0130327,-0.0340628,-0.00140115,204,383,21.947,0.1,40.3359,0.1,1.46
0.728534,0.744273,0.712183,0.727192,-0.0350033,-0.0147346,-0.0342177,-0.0012508,196,387,22.0609,0.1,40.6312,0.1,1.464
0.728394,0.744192,0.712046,0.727189,-0.0351619,-0.0165889,-0.0343727,-0.00109299,187,391,22.1659,0.1,40.9295,0.1,1.468
0.728253,0.744098,0.711908,0.727186,-0.0353206,-0.0188904,-0.0345278,-0.00101657,175,395,22.2611,0.1,41.2309,0.1,1.472
0.728111,0.744004,0.711769,0.727181,-0.0354795,-0.0204247,-0.0346832,-0.00105199,168,397,22.3443,0.1,41.5345,0.1,1.476
0.727969,0.7439,0.71163,0.727178,-0.0356386,-0.0223113,-0.0348387,-0.00101803,159,400,22.4196,0.1,41.8394,0.1,1.48
0.727826,0.743785,0.711491,0.727172,-0.0357979,-0.024404,-0.0349944,-0.00111055,149,402,22.4849,0.1,42.1461,0.1,1.484
0.727683,0.743666,0.71135,0.727167,-0.0359573,-0.026231,-0.0351503,-0.00120102,140,404,22.5393,0.1,42.4534,0.1,1.488
0.727539,0.74354,0.711209,0.727159,-0.0361169,-0.0279672,-0.0353063,-0.00143408,131,404,22.5843,0.1,42.7612,0.1,1.492
0.727394,0.743405,0.711068,0.727151,-0.0362767,-0.0299309,-0.0354625,-0.00164704,121,405,22.6201,0.1,43.0683,0.1,1.496
0.727248,0.743262,0.710926,0.72714,-0.0364366,-0.0318158,-0.0356188,-0.00199054,112,405,22.6457,0.1,43.3748,0.1,1.5
0.727102,0.743124,0.710783,0.727129,-0.0365968,-0.0327557,-0.0357754,-0.00227713,108,405,22.6619,0.1,43.6793,0.1,1.504
0.726956,0.742975,0.710639,0.727117,-0.0367571,-0.0341884,-0.0359321,-0.00252577,101,405,22.6735,0.1,43.9826,0.1,1.508
0.726808,0.742823,0.710495,0.727105,-0.0369175,-0.0354603,-0.0360889,-0.00263395,95,407,22.6779,0.1,44.285,0.1,1.512
0.72666,0.742667,0.710351,0.727095,-0.0370781,-0.0367113,-0.0362459,-0.00261969,89,410,22.6761,0.1,44.588,0.1,1.516
0.726512,0.742509,0.710205,0.727087,-0.0372389,-0.0375741,-0.0364031,-0.00237986,85,415,22.6682,0.1,44.8927,0.1,1.52
0.726362,0.742347,0.71006,0.727079,-0.0373998,-0.0385811,-0.0365604,-0.00230635,80,418,22.6562,0.1,45.2014,0.1,1.524
0.726212,0.742185,0.709913,0.72707,-0.037561,-0.0392525,-0.0367179,-0.00228613,78,421,22.6396,0.1,45.5123,0.1,1.528
0.726062,0.742018,0.709766,0.727059,-0.0377222,-0.0400167,-0.0368756,-0.00238781,74,423,22.6201,0.1,45.8249,0.1,1.532
0.725911,0.741851,0.709618,0.727049,-0.0378836,-0.0406702,-0.0370334,-0.00242681,71,426,22.5973,0.1,46.138,0.1,1.536
0.725759,0.741682,0.70947,0.727038,-0.0380452,-0.0411635,-0.0371913,-0.00259677,70,427,22.5717,0.1,46.4523,0.1,1.54
0.725606,0.741512,0.70932,0.727026,-0.038207,-0.0416362,-0.0373494,-0.00268128,68,429,22.5443,0.1,46.7665,0.1,1.544
0.725453,0.741339,0.709171,0.727012,-0.0383689,-0.0421529,-0.0375077,-0.00293916,66,429,22.5152,0.1,47.0813,0.1,1.548
0.725299,0.741167,0.70902,0.726998,-0.0385309,-0.0424686,-0.0376661,-0.00313987,65,430,22.4842,0.1,47.3951,0.1,1.552
0.725145,0.740988,0.708869,0.726983,-0.0386931,-0.0431973,-0.0378247,-0.00336004,62,431,22.4521,0.1,47.7084,0.1,1.556
0.72499,0.740817,0.708718,0.726969,-0.0388555,-0.0430209,-0.0379834,-0.00344925,63,433,22.4173,0.1,48.0212,0.1,1.56
0.724834,0.740642,0.708566,0.726955,-0.039018,-0.0432776,-0.0381422,-0.00342234,63,436,22.3842,0.1,48.3347,0.1,1.564
0.724678,0.740464,0.708413,0.72694,-0.0391806,-0.0436503,-0.0383012,-0.00351957,61,438,22.3506,0.1,48.65,0.1,1.568
0.724521,0.740283,0.708259,0.726922,-0.0393434,-0.0442442,-0.0384604,-0.00384351,59,438,22.3158,0.1,48.9658,0.1,1.572
0.724363,0.740109,0.708105,0.726901,-0.0395064,-0.0440068,-0.0386197,-0.00434738,61,436,22.2788,0.1,49.2798,0.1,1.576
0.724205,0.739928,0.70795,0.726874,-0.0396695,-0.0443955,-0.0387791,-0.00514394,60,431,22.244,0.1,49.5902,0.1,1.58
0.724046,0.739748,0.707795,0.726842,-0.0398327,-0.0446259,-0.0389387,-0.00607806,59,424,22.2079,0.1,49.8941,0.1,1.584
0.723886,0.739561,0.707639,0.726801,-0.0399961,-0.0452689,-0.0390984,-0.00744937,57,414,22.1714,0.1,50.1901,0.1,1.588
0.723726,0.73938,0.707482,0.726754,-0.0401596,-0.0452945,-0.0392583,-0.00893939,57,402,22.1324,0.1,50.4738,0.1,1.592
0.723565,0.739202,0.707325,0.726698,-0.0403233,-0.0450524,-0.0394182,-0.0105661,59,389,22.0943,0.1,50.7441,0.1,1.596
0.723403,0.739017,0.707167,0.726631,-0.0404871,-0.0454093,-0.0395784,-0.0126871,58,371,22.0584,0.1,50.9996,0.1,1.6
0.723241,0.738833,0.707008,0.726554,-0.040651,-0.0456184,-0.0397386,-0.0148785,58,352,22.0214,0.1,51.2353,0.1,1.604
0.723078,0.738648,0.706849,0.726466,-0.0408151,-0.0458442,-0.039899,-0.0172607,57,332,21.9843,0.1,51.4507,0.1,1.608
0.722914,0.738461,0.706689,0.726364,-0.0409793,-0.0461387,-0.0400596,-0.0200004,56,308,21.9468,0.1,51.6437,0.1,1.612
0.72275,0.738276,0.706528,0.726252,-0.0411437,-0.0461911,-0.0402202,-0.0226619,57,284,21.9087,0.1,51.8109,0.1,1.616
0.722585,0.738088,0.706367,0.726131,-0.0413082,-0.0464275,-0.040381,-0.0251272,57,262,21.8712,0.1,51.9532,0.1,1.62
0.72242,0.7379,0.706205,0.725999,-0.0414728,-0.0466139,-0.040542,-0.0277784,56,239,21.8334,0.1,52.0725,0.1,1.624
0.722253,0.737711,0.706043,0.72586,-0.0416376,-0.0468246,-0.040703,-0.0300929,56,218,21.7955,0.1,52.1671,0.1,1.628
0.722086,0.737523,0.70588,0.725715,-0.0418024,-0.0469075,-0.0408642,-0.0321541,56,200,21.7575,0.1,52.2403,0.1,1.632
0.721919,0.737333,0.705716,0.725563,-0.0419675,-0.0471066,-0.0410255,-0.0341041,56,183,21.72,0.1,52.2947,0.1,1.636
0.721751,0.737142,0.705551,0.725406,-0.0421326,-0.0473546,-0.041187,-0.0358647,55,168,21.6823,0.1,52.3314,0.1,1.64
0.721582,0.736952,0.705386,0.725245,-0.0422979,-0.047376,-0.0413485,-0.0372688,56,156,21.6442,0.1,52.3524,0.1,1.644
0.721412,0.736761,0.705221,0.725085,-0.0424633,-0.0474478,-0.0415102,-0.0382049,57,149,21.6071,0.1,52.3613,0.1,1.648
0.721242,0.736569,0.705054,0.724922,-0.0426288,-0.0476396,-0.041672,-0.0390592,56,142,21.5705,0.1,52.3626,0.1,1.652
0.721071,0.736377,0.704887,0.724759,-0.0427944,-0.0477963,-0.0418339,-0.0395712,56,139,21.5338,0.1,52.3572,0.1,1.656
0.7209,0.736183,0.70472,0.724595,-0.0429602,-0.0480159,-0.041996,-0.0400853,56,135,21.4973,0.1,52.3485,0.1,1.66
0.720728,0.735989,0.704551,0.724427,-0.0431261,-0.0481623,-0.0421581,-0.0407159,56,131,21.4605,0.1,52.3364,0.1,1.664
0.720555,0.735797,0.704382,0.724259,-0.0432921,-0.048116,-0.0423204,-0.0411363,57,128,21.4239,0.1,52.3197,0.1,1.668
0.720381,0.735601,0.704213,0.724087,-0.0434582,-0.0484593,-0.0424828,-0.0417333,56,124,21.3885,0.1,52.3005,0.1,1.672
0.720207,0.735408,0.704042,0.723912,-0.0436245,-0.0483428,-0.0426453,-0.042448,57,119,21.3522,0.1,52.2771,0.1,1.676
0.720032,0.735212,0.703871,0.723732,-0.0437908,-0.0486106,-0.042808,-0.0432699,57,112,21.3175,0.1,52.2481,0.1,1.68
0.719857,0.735016,0.7037,0.72355,-0.0439573,-0.0487027,-0.0429707,-0.0440194,57,107,21.2824,0.1,52.2128,0.1,1.684
0.719681,0.734818,0.703528,0.723363,-0.0441239,-0.0489945,-0.0431336,-0.0449222,56,99,21.2476,0.1,52.1716,0.1,1.688
0.719504,0.734623,0.703355,0.723176,-0.0442906,-0.0488723,-0.0432965,-0.0455528,58,95,21.2124,0.1,52.1233,0.1,1.692
0.719326,0.734427,0.703181,0.722983,-0.0444574,-0.0489348,-0.0434596,-0.0464339,58,88,21.1787,0.1,52.0703,0.1,1.696
0.719148,0.734228,0.703007,0.72279,-0.0446244,-0.0492355,-0.0436228,-0.04705,57,83,21.1457,0.1,52.0104,0.1,1.7
0.718969,0.734031,0.702832,0.722596,-0.0447914,-0.0492057,-0.0437861,-0.0475184,58,80,21.1121,0.1,51.9462,0.1,1.704
0.71879,0.733832,0.702657,0.722399,-0.0449586,-0.0493874,-0.0439495,-0.0480898,58,76,21.0795,0.1,51.879,0.1,1.708
0.71861,0.733634,0.702481,0.722204,-0.0451258,-0.0493933,-0.044113,-0.0483267,59,75,21.0471,0.1,51.8081,0.1,1.712
0.718429,0.733433,0.702304,0.722007,-0.0452932,-0.0497428,-0.0442766,-0.0486574,58,73,21.0154,0.1,51.7365,0.1,1.716
0.718247,0.733227,0.702127,0.721806,-0.0454606,-0.0502637,-0.0444403,-0.0491946,56,69,20.9827,0.1,51.6633,0.1,1.72
0.718065,0.733033,0.701948,0.721613,-0.0456282,-0.0497472,-0.0446041,-0.0488905,60,74,20.9485,0.1,51.5869,0.1,1.724
0.717882,0.73283,0.70177,0.721417,-0.0457959,-0.0500651,-0.044768,-0.0489181,59,75,20.9179,0.1,51.5152,0.1,1.728
0.717699,0.732628,0.70159,0.721221,-0.0459637,-0.0501906,-0.044932,-0.0489365,59,76,20.8865,0.1,51.445,0.1,1.732
0.717515,0.732424,0.70141,0.721023,-0.0461316,-0.0504471,-0.0450962,-0.0491216,58,76,20.8554,0.1,51.3763,0.1,1.736
0.71733,0.732218,0.70123,0.720824,-0.0462995,-0.0507908,-0.0452604,-0.0493313,57,75,20.8239,0.1,51.3075,0.1,1.74
0.717144,0.732014,0.701048,0.720629,-0.0464676,-0.0508472,-0.0454247,-0.0490968,58,79,20.7914,0.1,51.2386,0.1,1.744
0.716958,0.731807,0.700866,0.720435,-0.0466358,-0.0512014,-0.0455891,-0.0489405,57,82,20.7596,0.1,51.1739,0.1,1.748
0.716771,0.731606,0.700683,0.720246,-0.0468041,-0.0508906,-0.0457536,-0.0483468,59,89,20.727,0.1,51.1126,0.1,1.752
0.716584,0.731393,0.7005,0.720055,-0.0469724,-0.0516623,-0.0459182,-0.0481526,56,92,20.6968,0.1,51.0589,0.1,1.756
0.716395,0.731193,0.700316,0.719876,-0.0471409,-0.0511115,-0.0460828,-0.0470154,60,105,20.6637,0.1,51.0094,0.1,1.76
0.716206,0.730985,0.700131,0.719695,-0.0473094,-0.0513777,-0.0462476,-0.0464877,59,111,20.6345,0.1,50.9728,0.1,1.764
0.716017,0.730779,0.699946,0.719512,-0.0474781,-0.0514687,-0.0464125,-0.0461934,59,116,20.6048,0.1,50.943,0.1,1.768
0.715827,0.730569,0.69976,0.719333,-0.0476468,-0.0517886,-0.0465774,-0.0457093,58,122,20.5755,0.1,50.9181,0.1,1.772
0.715636,0.73036,0.699574,0.719151,-0.0478157,-0.0519442,-0.0467425,-0.0456169,58,125,20.5455,0.1,50.8996,0.1,1.776
0.715444,0.730151,0.699386,0.718971,-0.0479846,-0.052048,-0.0469076,-0.0454689,59,128,20.5156,0.1,50.8838,0.1,1.78
0.715252,0.729938,0.699198,0.718786,-0.0481536,-0.0524627,-0.0470728,-0.045687,57,127,20.4859,0.1,50.8711,0.1,1.784
0.715059,0.729729,0.69901,0.718605,-0.0483227,-0.0523936,-0.0472381,-0.0455732,58,130,20.4552,0.1,50.8581,0.1,1.788
0.714865,0.729512,0.69882,0.718419,-0.0484918,-0.052981,-0.0474035,-0.0458429,56,129,20.4255,0.1,50.8478,0.1,1.792
0.714671,0.729303,0.69863,0.718239,-0.0486611,-0.0527392,-0.0475689,-0.0455908,58,133,20.3939,0.1,50.8368,0.1,1.796
0.714476,0.72908,0.69844,0.718048,-0.0488304,-0.0537584,-0.0477345,-0.046344,53,127,20.3641,0.1,50.8296,0.1,1.8
0.71428,0.728876,0.698249,0.717872,-0.0489999,-0.0528544,-0.0479001,-0.0455506,59,137,20.3303,0.1,50.8174,0.1,1.804
0.714084,0.728662,0.698057,0.717687,-0.0491694,-0.0530578,-0.0480658,-0.0457702,59,136,20.3022,0.1,50.8144,0.1,1.808
0.713887,0.728447,0.697864,0.7175,-0.049339,-0.0533086,-0.0482316,-0.0460606,59,135,20.274,0.1,50.8109,0.1,1.812
0.713689,0.728231,0.697671,0.71731,-0.0495086,-0.0535046,-0.0483974,-0.0465421,58,132,20.2454,0.1,50.8062,0.1,1.816
0.713491,0.728016,0.697477,0.71712,-0.0496784,-0.0536065,-0.0485634,-0.046863,59,131,20.2167,0.1,50.7984,0.1,1.82
0.713292,0.727797,0.697282,0.716928,-0.0498482,-0.0539911,-0.0487294,-0.0472498,57,129,20.1884,0.1,50.7893,0.1,1.824
0.713092,0.727579,0.697087,0.716731,-0.0500181,-0.0541036,-0.0488955,-0.0479107,58,124,20.1589,0.1,50.7778,0.1,1.828
0.712892,0.727361,0.696891,0.716536,-0.0501881,-0.0542361,-0.0490616,-0.0482073,58,123,20.1298,0.1,50.7617,0.1,1.832
0.712691,0.727141,0.696695,0.716337,-0.0503581,-0.0544972,-0.0492278,-0.048693,57,119,20.1009,0.1,50.7443,0.1,1.836
0.712489,0.726923,0.696497,0.716139,-0.0505282,-0.0544986,-0.0493941,-0.048988,58,118,20.0717,0.1,50.7239,0.1,1.84
0.712286,0.726704,0.696299,0.715938,-0.0506984,-0.0546434,-0.0495605,-0.0493862,58,116,20.0434,0.1,50.7022,0.1,1.844
0.712083,0.726485,0.696101,0.715739,-0.0508687,-0.0546824,-0.0497269,-0.0495077,59,116,20.0154,0.1,50.6785,0.1,1.848
0.711879,0.726263,0.695902,0.71554,-0.051039,-0.0549099,-0.0498934,-0.0496463,58,117,19.9881,0.1,50.6554,0.1,1.852
0.711675,0.726041,0.695702,0.715338,-0.0512094,-0.0550904,-0.05006,-0.0499402,58,115,19.9605,0.1,50.6325,0.1,1.856
0.71147,0.725821,0.695501,0.715138,-0.0513798,-0.0550955,-0.0502266,-0.0499058,59,117,19.933,0.1,50.6086,0.1,1.86
0.711264,0.725598,0.6953,0.714936,-0.0515504,-0.0553293,-0.0503933,-0.050142,59,117,19.9064,0.1,50.5868,0.1,1.864
0.711057,0.725369,0.695098,0.714732,-0.051721,-0.055917,-0.0505601,-0.0504435,56,115,19.8793,0.1,50.5643,0.1,1.868
0.71085,0.725154,0.694895,0.714536,-0.0518916,-0.0552435,-0.0507269,-0.0499246,61,122,19.8504,0.1,50.5409,0.1,1.872
0.710642,0.724929,0.694692,0.714342,-0.0520623,-0.0555143,-0.0508938,-0.0494924,60,128,19.826,0.1,50.5245,0.1,1.876
0.710434,0.724706,0.694488,0.71415,-0.0522331,-0.0556085,-0.0510607,-0.0489739,61,134,19.8012,0.1,50.5142,0.1,1.88
0.710224,0.724484,0.694284,0.713963,-0.0524039,-0.0555561,-0.0512278,-0.0482539,62,143,19.777,0.1,50.511,0.1,1.884
0.710014,0.724259,0.694078,0.713782,-0.0525748,-0.0558667,-0.0513948,-0.0471982,61,155,19.7539,0.1,50.5169,0.1,1.888
0.709804,0.724035,0.693872,0.713606,-0.0527458,-0.055901,-0.0515619,-0.0461488,62,167,19.7302,0.1,50.5352,0.1,1.892
0.709592,0.723809,0.693666,0.713435,-0.0529168,-0.056039,-0.0517291,-0.0449886,62,180,19.7073,0.1,50.5658,0.1,1.896
0.70938,0.723582,0.693459,0.713265,-0.0530879,-0.0563038,-0.0518963,-0.0441575,61,190,19.6845,0.1,50.6095,0.1,1.9
0.709168,0.723356,0.693251,0.713095,-0.053259,-0.0563363,-0.0520636,-0.0436035,62,197,19.6613,0.1,50.6632,0.1,1.904
0.708954,0.72313,0.693042,0.712926,-0.0534302,-0.0564156,-0.0522309,-0.0431765,62,203,19.639,0.1,50.7241,0.1,1.908
0.70874,0.722902,0.692833,0.712753,-0.0536014,-0.0566412,-0.0523983,-0.0431798,62,205,19.6171,0.1,50.7908,0.1,1.912
0.708525,0.722676,0.692623,0.712576,-0.0537727,-0.0565613,-0.0525658,-0.0435851,63,203,19.5951,0.1,50.8589,0.1,1.916
0.70831,0.722448,0.692412,0.712394,-0.053944,-0.0567383,-0.0527333,-0.044172,63,199,19.5745,0.1,50.9246,0.1,1.92
0.708094,0.72222,0.692201,0.712211,-0.0541154,-0.0567988,-0.0529008,-0.044736,64,196,19.5539,0.1,50.9862,0.1,1.924
0.707877,0.721992,0.691989,0.712028,-0.0542868,-0.0568391,-0.0530684,-0.0450832,64,194,19.534,0.1,51.0441,0.1,1.928
0.70766,0.721764,0.691777,0.711844,-0.0544583,-0.0569523,-0.053236,-0.0453434,65,194,19.5149,0.1,51.1002,0.1,1.932
0.707441,0.721535,0.691563,0.711663,-0.0546298,-0.0570566,-0.0534037,-0.0453154,65,196,19.4962,0.1,51.1556,0.1,1.936
0.707223,0.721298,0.691349,0.711482,-0.0548014,-0.0577595,-0.0535714,-0.0453255,62,198,19.4776,0.1,51.213,0.1,1.94
0.707003,0.721073,0.691135,0.711314,-0.054973,-0.057278,-0.0537392,-0.0442094,66,211,19.4566,0.1,51.2727,0.1,1.944
0.706783,0.720843,0.690919,0.711144,-0.0551447,-0.0573313,-0.053907,-0.0436093,66,218,19.4391,0.1,51.345,0.1,1.948
0.706562,0.720607,0.690703,0.710974,-0.0553164,-0.0579139,-0.0540748,-0.0432668,64,224,19.4222,0.1,51.4249,0.1,1.952
0.70634,0.720376,0.690487,0.71081,-0.0554881,-0.0578704,-0.0542427,-0.0425202,65,233,19.4031,0.1,51.5101,0.1,1.956
0.706118,0.720145,0.690269,0.710647,-0.0556599,-0.0578126,-0.0544106,-0.0419649,66,240,19.3853,0.1,51.6045,0.1,1.96
0.705895,0.719911,0.690051,0.710483,-0.0558317,-0.0580044,-0.0545786,-0.0416235,66,246,19.3689,0.1,51.706,0.1,1.964
0.705671,0.719675,0.689833,0.710314,-0.0560036,-0.0583338,-0.0547466,-0.0417702,65,246,19.3522,0.1,51.8124,0.1,1.968
0.705447,0.719441,0.689614,0.710148,-0.0561755,-0.0583807,-0.0549146,-0.0417528,66,249,19.3348,0.1,51.9191,0.1,1.972
0.705222,0.719204,0.689394,0.709977,-0.0563474,-0.0587286,-0.0550827,-0.0420291,65,248,19.318,0.1,52.0276,0.1,1.976
0.704996,0.718967,0.689173,0.709806,-0.0565193,-0.0588742,-0.0552508,-0.0422709,65,248,19.3003,0.1,52.1351,0.1,1.98
0.70477,0.718731,0.688952,0.709632,-0.0566913,-0.0588849,-0.0554189,-0.0426912,66,246,19.2828,0.1,52.2417,0.1,1.984
0.704543,0.718486,0.68873,0.709456,-0.0568634,-0.0596693,-0.0555871,-0.043173,62,243,19.266,0.1,52.3459,0.1,1.988
0.704315,0.718252,0.688507,0.709286,-0.0570354,-0.0592998,-0.0557553,-0.0428895,65,248,19.2461,0.1,52.4473,0.1,1.992
0.704086,0.718017,0.688283,0.709118,-0.0572075,-0.059111,-0.0559235,-0.042643,67,253,19.2294,0.1,52.5533,0.1,1.996
0.703857,0.717778,0.688059,0.708947,-0.0573797,-0.0593019,-0.0560918,-0.0426802,67,254,19.2146,0.1,52.6633,0.1,2
0.703627,0.71754,0.687835,0.708778,-0.0575518,-0.0594003,-0.0562601,-0.0425034,68,258,19.1998,0.1,52.7748,0.1,2.004
0.703397,0.717299,0.687609,0.708607,-0.057724,-0.0596963,-0.0564284,-0.0426159,67,259,19.1854,0.1,52.8896,0.1,2.008
0.703166,0.717054,0.687383,0.708432,-0.0578962,-0.0601815,-0.0565967,-0.04295,65,258,19.1702,0.1,53.0049,0.1,2.012
0.702934,0.716823,0.687157,0.708267,-0.0580684,-0.0594397,-0.0567651,-0.0424242,70,265,19.1538,0.1,53.119,0.1,2.016
0.702701,0.716585,0.686929,0.708098,-0.0582407,-0.0594346,-0.0569335,-0.0423616,71,268,19.1424,0.1,53.2398,0.1,2.02
0.702468,0.716346,0.686701,0.707926,-0.058413,-0.0595176,-0.0571019,-0.0425213,72,269,19.1321,0.1,53.3629,0.1,2.024
0.702234,0.716107,0.686472,0.707756,-0.0585853,-0.0596017,-0.0572704,-0.0425127,72,271,19.1223,0.1,53.4862,0.1,2.028
0.701999,0.715868,0.686243,0.707582,-0.0587576,-0.0596578,-0.0574388,-0.04291,73,269,19.1131,0.1,53.611,0.1,2.032
0.701764,0.715623,0.686013,0.707401,-0.0589299,-0.0602134,-0.0576073,-0.0436355,71,264,19.1043,0.1,53.7335,0.1,2.036
0.701528,0.71539,0.685782,0.70723,-0.0591023,-0.0595186,-0.0577758,-0.0433707,76,269,19.0939,0.1,53.8508,0.1,2.04
0.701291,0.715151,0.685551,0.707051,-0.0592747,-0.0595736,-0.0579443,-0.0437987,76,267,19.0883,0.1,53.9722,0.1,2.044
0.701053,0.714913,0.685319,0.70687,-0.0594471,-0.0596102,-0.0581128,-0.0443144,77,264,19.0834,0.1,54.091,0.1,2.048
0.700815,0.714675,0.685086,0.70669,-0.0596195,-0.0595483,-0.0582814,-0.0445718,78,264,19.0794,0.1,54.2065,0.1,2.052
0.700576,0.71443,0.684852,0.706502,-0.0597919,-0.0601404,-0.0584499,-0.0453768,76,258,19.0765,0.1,54.3208,0.1,2.056
0.700337,0.7142,0.684618,0.706326,-0.0599644,-0.0592396,-0.0586185,-0.044877,82,265,19.0719,0.1,54.4295,0.1,2.06
0.700097,0.713965,0.684383,0.706143,-0.0601369,-0.0590709,-0.0587871,-0.045206,84,264,19.0733,0.1,54.5444,0.1,2.064
0.699856,0.713731,0.684148,0.70596,-0.0603093,-0.0589008,-0.0589557,-0.0453677,86,265,19.0767,0.1,54.6579,0.1,2.068
0.699614,0.713498,0.683912,0.705776,-0.0604818,-0.0586435,-0.0591243,-0.0455331,89,265,19.0822,0.1,54.7715,0.1,2.072
0.699372,0.713269,0.683675,0.705593,-0.0606543,-0.0581553,-0.0592929,-0.0456434,92,266,19.0904,0.1,54.8851,0.1,2.076
0.699129,0.713042,0.683437,0.705404,-0.0608268,-0.0577434,-0.0594616,-0.0461488,96,264,19.1025,0.1,54.9992,0.1,2.08
0.698885,0.712818,0.683199,0.705217,-0.0609993,-0.0571809,-0.0596302,-0.0463705,100,264,19.1181,0.1,55.1101,0.1,2.084
0.698641,0.712597,0.68296,0.705026,-0.0611718,-0.0564892,-0.0597989,-0.0468351,105,261,19.1382,0.1,55.2203,0.1,2.088
0.698396,0.712377,0.682721,0.704831,-0.0613444,-0.0560281,-0.0599675,-0.047519,109,257,19.1633,0.1,55.3275,0.1,2.092
0.69815,0.712173,0.682481,0.70464,-0.0615169,-0.0543675,-0.0601362,-0.0475432,120,258,19.1928,0.1,55.4299,0.1,2.096
0.697904,0.711971,0.68224,0.704448,-0.0616894,-0.0530589,-0.0603048,-0.047732,128,259,19.2329,0.1,55.5336,0.1,2.1
0.697657,0.711773,0.681998,0.704249,-0.061862,-0.051841,-0.0604735,-0.0484049,136,254,19.2818,0.1,55.637,0.1,2.104
0.697409,0.711593,0.681756,0.704059,-0.0620345,-0.0495607,-0.0606422,-0.0480761,151,260,19.3395,0.1,55.7359,0.1,2.108
0.69716,0.71142,0.681513,0.703863,-0.0622071,-0.047436,-0.0608108,-0.0483464,164,259,19.4117,0.1,55.8394,0.1,2.112
0.696911,0.711258,0.681269,0.703665,-0.0623796,-0.0451269,-0.0609795,-0.0487569,179,257,19.4976,0.1,55.9419,0.1,2.116
0.696661,0.711105,0.681025,0.703462,-0.0625521,-0.0428678,-0.0611482,-0.0494625,193,252,19.5982,0.1,56.0419,0.1,2.12
0.696411,0.71097,0.68078,0.703257,-0.0627247,-0.039807,-0.0613169,-0.0500192,212,249,19.7136,0.1,56.1366,0.1,2.124
0.69616,0.710849,0.680535,0.703061,-0.0628972,-0.0366148,-0.0614855,-0.0497282,232,254,19.8484,0.1,56.2279,0.1,2.128
0.695908,0.710733,0.680288,0.702856,-0.0630698,-0.0340836,-0.0616542,-0.0502251,248,251,20.0028,0.1,56.3234,0.1,2.132
0.695655,0.710621,0.680041,0.702648,-0.0632423,-0.0321083,-0.0618228,-0.050758,261,248,20.173,0.1,56.4157,0.1,2.136
0.695402,0.710507,0.679794,0.702441,-0.0634148,-0.0308777,-0.0619915,-0.0510844,270,247,20.3557,0.1,56.5045,0.1,2.14
0.695148,0.710393,0.679545,0.702233,-0.0635873,-0.0301149,-0.0621601,-0.051446,276,245,20.5466,0.1,56.5917,0.1,2.144
0.694893,0.710273,0.679296,0.702027,-0.0637598,-0.0300671,-0.0623288,-0.0514567,278,247,20.7427,0.1,56.6773,0.1,2.148
0.694638,0.710144,0.679047,0.701816,-0.0639323,-0.0307549,-0.0624974,-0.0518957,276,245,20.9397,0.1,56.7643,0.1,2.152
0.694382,0.710013,0.678796,0.701609,-0.0641048,-0.0314438,-0.062666,-0.0517853,274,248,21.1338,0.1,56.8489,0.1,2.156
0.694125,0.709871,0.678545,0.701401,-0.0642773,-0.0327956,-0.0628346,-0.0518845,268,249,21.3244,0.1,56.9362,0.1,2.16
0.693867,0.70972,0.678294,0.701189,-0.0644498,-0.0344454,-0.0630032,-0.0522385,260,248,21.5079,0.1,57.0241,0.1,2.164
0.693609,0.709563,0.678041,0.700979,-0.0646222,-0.0360635,-0.0631718,-0.0523305,253,249,21.6827,0.1,57.1104,0.1,2.168
0.69335,0.709393,0.677788,0.700764,-0.0647947,-0.0381787,-0.0633404,-0.0528238,242,246,21.8486,0.1,57.1973,0.1,2.172
0.693091,0.709217,0.677535,0.70055,-0.0649671,-0.040107,-0.0635089,-0.0530662,233,246,22.003,0.1,57.2811,0.1,2.176
0.692831,0.709033,0.67728,0.700333,-0.0651395,-0.0421124,-0.0636775,-0.053487,223,244,22.1469,0.1,57.3641,0.1,2.18
0.69257,0.708841,0.677025,0.700117,-0.0653119,-0.0440251,-0.063846,-0.0536523,214,244,22.28,0.1,57.4447,0.1,2.184
0.692308,0.70864,0.67677,0.699902,-0.0654843,-0.0461352,-0.0640145,-0.0536762,203,246,22.4026,0.1,57.5255,0.1,2.188
0.692046,0.708433,0.676513,0.699685,-0.0656567,-0.0480313,-0.064183,-0.0538072,194,247,22.5137,0.1,57.6077,0.1,2.192
0.691783,0.708217,0.676256,0.699472,-0.065829,-0.0499576,-0.0643515,-0.0536931,184,250,22.6146,0.1,57.6905,0.1,2.196
0.691519,0.707993,0.675998,0.69926,-0.0660013,-0.0519616,-0.0645199,-0.0534154,174,254,22.705,0.1,57.7763,0.1,2.2
0.691255,0.707764,0.67574,0.699045,-0.0661736,-0.0537295,-0.0646884,-0.053547,165,255,22.7845,0.1,57.8663,0.1,2.204
0.69099,0.707522,0.675481,0.698824,-0.0663459,-0.0560309,-0.0648568,-0.0540666,153,252,22.8543,0.1,57.9565,0.1,2.208
0.690724,0.707281,0.675221,0.698614,-0.0665181,-0.0573924,-0.0650252,-0.0536069,146,259,22.9119,0.1,58.0438,0.1,2.212
0.690458,0.707035,0.674961,0.698399,-0.0666904,-0.0587895,-0.0651935,-0.0536459,140,260,22.9623,0.1,58.1371,0.1,2.216
0.690191,0.70679,0.6747,0.69819,-0.0668626,-0.0596346,-0.0653619,-0.0531824,136,267,23.0057,0.1,58.232,0.1,2.22
0.689923,0.706529,0.674438,0.697971,-0.0670348,-0.0614935,-0.0655302,-0.0537084,126,264,23.0446,0.1,58.3328,0.1,2.224
0.689654,0.706265,0.674175,0.697751,-0.0672069,-0.0630207,-0.0656985,-0.0540878,119,262,23.0736,0.1,58.43,0.1,2.228
0.689385,0.705995,0.673912,0.697526,-0.067379,-0.0644995,-0.0658668,-0.0548014,111,257,23.0945,0.1,58.5251,0.1,2.232
0.689115,0.705719,0.673648,0.697303,-0.0675511,-0.0660036,-0.066035,-0.0551908,104,256,23.1076,0.1,58.6148,0.1,2.236
0.688845,0.705437,0.673384,0.697077,-0.0677232,-0.0674958,-0.0662032,-0.0556231,96,253,23.1128,0.1,58.7024,0.1,2.24
0.688573,0.70515,0.673119,0.696847,-0.0678952,-0.0688937,-0.0663714,-0.0561993,89,250,23.1101,0.1,58.7873,0.1,2.244
0.688302,0.704861,0.672853,0.69662,-0.0680672,-0.0699983,-0.0665395,-0.0564106,84,250,23.1003,0.1,58.8683,0.1,2.248
0.688029,0.704569,0.672586,0.696392,-0.0682392,-0.0710515,-0.0667076,-0.0566091,79,250,23.0849,0.1,58.9489,0.1,2.252
0.687756,0.704275,0.672319,0.69616,-0.0684111,-0.0718687,-0.0668757,-0.0570869,75,247,23.0644,0.1,59.0291,0.1,2.256
0.687482,0.703977,0.672051,0.695928,-0.0685831,-0.0726727,-0.0670437,-0.0573766,71,246,23.0401,0.1,59.1064,0.1,2.26
0.687207,0.703677,0.671783,0.695694,-0.0687549,-0.0734966,-0.0672117,-0.0577713,67,244,23.0119,0.1,59.1824,0.1,2.264
0.686932,0.703378,0.671514,0.695454,-0.0689268,-0.0739019,-0.0673797,-0.0584663,66,240,22.9801,0.1,59.256,0.1,2.268
0.686656,0.703075,0.671244,0.695212,-0.0690985,-0.0745463,-0.0675477,-0.05916,63,235,22.9468,0.1,59.3244,0.1,2.272
0.686379,0.702779,0.670973,0.694976,-0.0692703,-0.0743138,-0.0677156,-0.0591042,65,237,22.9112,0.1,59.3879,0.1,2.276
0.686101,0.70248,0.670702,0.694733,-0.069442,-0.0744467,-0.0678834,-0.0596716,65,234,22.8778,0.1,59.4534,0.1,2.28
0.685823,0.702179,0.67043,0.694493,-0.0696137,-0.0747368,-0.0680512,-0.059762,65,235,22.8447,0.1,59.5152,0.1,2.284
0.685544,0.701879,0.670158,0.694255,-0.0697853,-0.0748439,-0.068219,-0.0597071,65,237,22.811,0.1,59.5779,0.1,2.288
0.685265,0.701578,0.669885,0.694015,-0.0699569,-0.0750016,-0.0683868,-0.0597856,65,238,22.7777,0.1,59.6428,0.1,2.292
0.684985,0.701276,0.669611,0.693779,-0.0701285,-0.0751355,-0.0685545,-0.0595501,65,243,22.7445,0.1,59.7088,0.1,2.296
0.684704,0.700976,0.669336,0.693545,-0.0703,-0.0751385,-0.0687221,-0.0591915,66,248,22.7117,0.1,59.7789,0.1,2.3
0.684422,0.700674,0.669061,0.693307,-0.0704714,-0.075198,-0.0688897,-0.0592979,66,249,22.6799,0.1,59.8541,0.1,2.304
0.68414,0.700374,0.668785,0.693072,-0.0706428,-0.0751513,-0.0690573,-0.059081,67,253,22.6488,0.1,59.9301,0.1,2.308
0.683857,0.700071,0.668508,0.692835,-0.0708142,-0.0753217,-0.0692248,-0.0591667,67,254,22.619,0.1,60.0099,0.1,2.312
0.683574,0.699768,0.668231,0.692594,-0.0709855,-0.0755217,-0.0693923,-0.0595405,67,253,22.5893,0.1,60.0903,0.1,2.316
0.683289,0.699453,0.667953,0.692342,-0.0711568,-0.0766051,-0.0695597,-0.0606535,62,244,22.5589,0.1,60.1684,0.1,2.32
0.683004,0.699159,0.667675,0.692107,-0.071328,-0.0755136,-0.0697271,-0.0599847,69,252,22.5242,0.1,60.2379,0.1,2.324
0.682719,0.698855,0.667395,0.691858,-0.0714992,-0.0756784,-0.0698944,-0.0607481,69,247,22.4965,0.1,60.3151,0.1,2.328
0.682432,0.698551,0.667116,0.69161,-0.0716703,-0.0758171,-0.0700617,-0.0612282,69,244,22.4689,0.1,60.3865,0.1,2.332
0.682145,0.698237,0.666835,0.691352,-0.0718414,-0.0767157,-0.0702289,-0.0623256,65,235,22.4412,0.1,60.4546,0.1,2.336
0.681858,0.69794,0.666554,0.691107,-0.0720124,-0.0758752,-0.0703961,-0.0619344,71,241,22.4099,0.1,60.514,0.1,2.34
0.681569,0.697636,0.666272,0.690853,-0.0721834,-0.0759483,-0.0705632,-0.0624221,71,238,22.3844,0.1,60.5787,0.1,2.344
0.68128,0.69733,0.665989,0.690598,-0.0723543,-0.0761121,-0.0707303,-0.0628912,71,235,22.3595,0.1,60.6403,0.1,2.348
0.68099,0.697017,0.665706,0.690334,-0.0725251,-0.0768548,-0.0708973,-0.063895,68,228,22.3344,0.1,60.6986,0.1,2.352
0.6807,0.696722,0.665422,0.690086,-0.0726959,-0.0757664,-0.0710643,-0.0632973,75,235,22.3067,0.1,60.7493,0.1,2.356
0.680409,0.696422,0.665137,0.689828,-0.0728666,-0.0755302,-0.0712312,-0.0636762,77,233,22.2863,0.1,60.8072,0.1,2.36
0.680117,0.696125,0.664852,0.689573,-0.0730373,-0.0751137,-0.071398,-0.0637273,81,235,22.2685,0.1,60.8633,0.1,2.364
0.679825,0.695828,0.664566,0.689317,-0.0732079,-0.0747784,-0.0715648,-0.0638477,84,236,22.2543,0.1,60.9205,0.1,2.368
0.679531,0.695533,0.66428,0.689056,-0.0733785,-0.0744397,-0.0717315,-0.0643023,87,233,22.2432,0.1,60.978,0.1,2.372
0.679238,0.695241,0.663992,0.688797,-0.073549,-0.0739836,-0.0718982,-0.0644326,90,234,22.2353,0.1,61.0329,0.1,2.376
0.678943,0.694951,0.663705,0.688537,-0.0737194,-0.073478,-0.0720648,-0.0646346,94,234,22.2312,0.1,61.0881,0.1,2.38
0.678648,0.694666,0.663416,0.688275,-0.0738898,-0.0727666,-0.0722314,-0.0648845,99,233,22.2314,0.1,61.143,0.1,2.384
0.678352,0.694379,0.663127,0.688008,-0.0740601,-0.0723788,-0.0723978,-0.0655117,103,229,22.2368,0.1,61.197,0.1,2.388
0.678055,0.694103,0.662837,0.687746,-0.0742303,-0.071314,-0.0725643,-0.065498,110,231,22.2461,0.1,61.2466,0.1,2.392
0.677758,0.693826,0.662546,0.687481,-0.0744005,-0.0706042,-0.0727306,-0.0658056,115,230,22.2627,0.1,61.298,0.1,2.396
0.67746,0.693554,0.662255,0.687214,-0.0745706,-0.0697567,-0.0728969,-0.0661258,121,228,22.2847,0.1,61.348,0.1,2.4
0.677162,0.693278,0.661963,0.686936,-0.0747406,-0.0694796,-0.0730631,-0.0672317,124,219,22.3127,0.1,61.3961,0.1,2.404
0.676862,0.693021,0.66167,0.686671,-0.0749106,-0.067769,-0.0732293,-0.0669038,136,224,22.3442,0.1,61.4355,0.1,2.408
0.676562,0.69276,0.661377,0.686398,-0.0750805,-0.0669165,-0.0733954,-0.0673186,142,222,22.3868,0.1,61.4796,0.1,2.412
0.676262,0.692503,0.661083,0.686122,-0.0752503,-0.0660314,-0.0735614,-0.0679118,148,218,22.4357,0.1,61.5211,0.1,2.416
0.67596,0.692244,0.660789,0.68584,-0.0754201,-0.0655566,-0.0737273,-0.0687391,152,212,22.4909,0.1,61.5583,0.1,2.42
0.675658,0.692001,0.660493,0.685567,-0.0755898,-0.0639732,-0.0738932,-0.0685709,163,215,22.5506,0.1,61.5894,0.1,2.424
0.675356,0.691761,0.660197,0.685293,-0.0757594,-0.0626585,-0.074059,-0.0685451,172,218,22.6209,0.1,61.6239,0.1,2.428
0.675052,0.691525,0.659901,0.685017,-0.075929,-0.0614653,-0.0742248,-0.0687295,180,218,22.7003,0.1,61.6602,0.1,2.432
0.674748,0.691294,0.659604,0.684738,-0.0760984,-0.0602092,-0.0743904,-0.0690827,189,216,22.788,0.1,61.6963,0.1,2.436
0.674443,0.691068,0.659306,0.684462,-0.0762678,-0.0589687,-0.074556,-0.0690015,198,218,22.8846,0.1,61.7308,0.1,2.44
0.674138,0.690848,0.659007,0.684185,-0.0764371,-0.0576523,-0.0747215,-0.0690913,207,219,22.9899,0.1,61.7677,0.1,2.444
0.673832,0.690633,0.658708,0.683911,-0.0766064,-0.0563428,-0.074887,-0.0689209,217,223,23.1043,0.1,61.8056,0.1,2.448
0.673525,0.690424,0.658408,0.683639,-0.0767755,-0.0550092,-0.0750523,-0.0686345,226,227,23.2278,0.1,61.8469,0.1,2.452
0.673218,0.690217,0.658108,0.683364,-0.0769446,-0.0538898,-0.0752176,-0.0686451,234,229,23.3604,0.1,61.8927,0.1,2.456
0.67291,0.690017,0.657806,0.683093,-0.0771136,-0.0526252,-0.0753828,-0.0683643,243,234,23.5011,0.1,61.9402,0.1,2.46
0.672601,0.689821,0.657505,0.682821,-0.0772825,-0.0513792,-0.0755479,-0.0682059,252,237,23.6506,0.1,61.9921,0.1,2.464
0.672291,0.689628,0.657202,0.68255,-0.0774513,-0.0503469,-0.075713,-0.0680714,260,240,23.8088,0.1,62.0473,0.1,2.468
0.671981,0.689434,0.656899,0.682269,-0.0776201,-0.0496875,-0.0758779,-0.068788,266,235,23.9741,0.1,62.1052,0.1,2.472
0.67167,0.689255,0.656595,0.681999,-0.0777888,-0.0480963,-0.0760428,-0.0683444,277,241,24.145,0.1,62.1581,0.1,2.476
0.671359,0.689075,0.656291,0.681722,-0.0779573,-0.0470355,-0.0762076,-0.068682,285,240,24.3266,0.1,62.2168,0.1,2.48
0.671047,0.688896,0.655985,0.681442,-0.0781258,-0.0462995,-0.0763723,-0.0690799,291,238,24.5156,0.1,62.2737,0.1,2.484
0.670734,0.688719,0.65568,0.681154,-0.0782943,-0.0456073,-0.076537,-0.0700649,297,230,24.7101,0.1,62.3281,0.1,2.488
0.67042,0.688549,0.655373,0.680874,-0.0784626,-0.0445988,-0.0767015,-0.0700882,305,232,24.9102,0.1,62.3747,0.1,2.492
0.670106,0.688382,0.655066,0.680586,-0.0786308,-0.0436385,-0.076866,-0.0707371,313,227,25.1175,0.1,62.4225,0.1,2.496
0.669791,0.68821,0.654758,0.680291,-0.078799,-0.0434302,-0.0770304,-0.0717167,316,219,25.3315,0.1,62.4654,0.1,2.5
0.669476,0.688052,0.65445,0.680009,-0.078967,-0.0421109,-0.0771947,-0.0713333,326,225,25.5483,0.1,62.5008,0.1,2.504
0.66916,0.687892,0.654141,0.679718,-0.079135,-0.0413466,-0.0773589,-0.0717687,332,223,25.7742,0.1,62.5413,0.1,2.508
0.668843,0.687738,0.653831,0.679426,-0.0793029,-0.0404627,-0.077523,-0.0721741,340,220,26.0059,0.1,62.5792,0.1,2.512
0.668525,0.687583,0.65352,0.679131,-0.0794707,-0.0398735,-0.077687,-0.0727035,345,217,26.2439,0.1,62.6146,0.1,2.516
0.668207,0.68743,0.653209,0.678834,-0.0796384,-0.0393079,-0.0778509,-0.0732004,351,214,26.4868,0.1,62.6465,0.1,2.52
0.667888,0.687284,0.652898,0.678541,-0.079806,-0.0384126,-0.0780147,-0.073215,358,215,26.7343,0.1,62.6753,0.1,2.524
0.667568,0.687135,0.652585,0.67825,-0.0799735,-0.0379597,-0.0781785,-0.0731095,363,218,26.9883,0.1,62.7057,0.1,2.528
0.667248,0.686991,0.652272,0.677958,-0.0801409,-0.0373699,-0.0783421,-0.0730392,369,221,27.2462,0.1,62.7389,0.1,2.532
0.666927,0.686844,0.651958,0.677665,-0.0803082,-0.0371494,-0.0785057,-0.0731363,372,222,27.5087,0.1,62.7743,0.1,2.536
0.666606,0.686697,0.651644,0.677374,-0.0804754,-0.0370024,-0.0786692,-0.0729707,375,225,27.7736,0.1,62.8107,0.1,2.54
0.666284,0.686549,0.651329,0.677078,-0.0806425,-0.0370196,-0.0788325,-0.0733785,377,223,28.0405,0.1,62.85,0.1,2.544
0.665961,0.686405,0.651013,0.67679,-0.0808095,-0.0366855,-0.0789958,-0.0729019,382,229,28.3085,0.1,62.8874,0.1,2.548
0.665637,0.686261,0.650697,0.676496,-0.0809764,-0.036434,-0.079159,-0.0730735,385,229,28.5796,0.1,62.931,0.1,2.552
0.665313,0.686116,0.65038,0.676201,-0.0811433,-0.0363816,-0.079322,-0.0733031,388,229,28.8532,0.1,62.9744,0.1,2.556
0.664988,0.685974,0.650063,0.675905,-0.08131,-0.0361162,-0.079485,-0.0735138,392,228,29.1284,0.1,63.0172,0.1,2.56
0.664662,0.685832,0.649744,0.675605,-0.0814766,-0.0359106,-0.0796479,-0.0740573,395,225,29.4063,0.1,63.0595,0.1,2.564
0.664336,0.685689,0.649425,0.675302,-0.0816431,-0.035831,-0.0798107,-0.0745924,398,222,29.6865,0.1,63.0979,0.1,2.568
0.664009,0.685542,0.649106,0.674989,-0.0818095,-0.0360947,-0.0799733,-0.0758128,398,211,29.9681,0.1,63.1323,0.1,2.572
0.663682,0.685399,0.648786,0.674692,-0.0819758,-0.0360114,-0.0801359,-0.0752733,401,218,30.2494,0.1,63.1571,0.1,2.576
0.663353,0.685251,0.648465,0.674388,-0.082142,-0.0363301,-0.0802984,-0.0755182,402,218,30.5321,0.1,63.1886,0.1,2.58
0.663024,0.685101,0.648143,0.674082,-0.0823081,-0.0367441,-0.0804607,-0.0758542,401,216,30.8139,0.1,63.2193,0.1,2.584
0.662695,0.684946,0.647821,0.673775,-0.0824741,-0.0373656,-0.080623,-0.0761358,400,215,31.0941,0.1,63.2482,0.1,2.588
0.662365,0.68479,0.647498,0.673467,-0.0826399,-0.0379239,-0.0807851,-0.0764387,399,214,31.3715,0.1,63.2761,0.1,2.592
0.662034,0.684629,0.647175,0.673161,-0.0828057,-0.0386992,-0.0809472,-0.0764679,396,215,31.6465,0.1,63.3027,0.1,2.596
0.661702,0.684469,0.646851,0.672852,-0.0829713,-0.0391584,-0.0811091,-0.0767177,396,215,31.918,0.1,63.3305,0.1,2.6
0.66137,0.684306,0.646526,0.672543,-0.0831369,-0.0397237,-0.0812709,-0.0768842,395,215,32.1876,0.1,63.3576,0.1,2.604
0.661037,0.684145,0.6462,0.672234,-0.0833023,-0.0398991,-0.0814326,-0.077024,396,215,32.4549,0.1,63.3847,0.1,2.608
0.660704,0.683983,0.645874,0.671923,-0.0834676,-0.0401023,-0.0815942,-0.0772612,397,214,32.7223,0.1,63.412,0.1,2.612
0.660369,0.683822,0.645548,0.671611,-0.0836328,-0.0401514,-0.0817557,-0.0775057,399,214,32.9896,0.1,63.4386,0.1,2.616
0.660035,0.683657,0.64522,0.671288,-0.0837979,-0.0404721,-0.0819171,-0.07859,399,205,33.2576,0.1,63.4639,0.1,2.62
0.659699,0.6835,0.644892,0.670976,-0.0839629,-0.0400813,-0.0820784,-0.0783915,404,209,33.525,0.1,63.4808,0.1,2.624
0.659363,0.683348,0.644564,0.670671,-0.0841278,-0.0394177,-0.0822396,-0.0776546,410,217,33.7962,0.1,63.5015,0.1,2.628
0.659026,0.68319,0.644234,0.670361,-0.0842925,-0.0393783,-0.0824006,-0.0776528,412,219,34.0723,0.1,63.531,0.1,2.632
0.658688,0.683035,0.643905,0.67005,-0.0844571,-0.0392081,-0.0825615,-0.0777091,416,220,34.3498,0.1,63.562,0.1,2.636
0.65835,0.682875,0.643574,0.669734,-0.0846217,-0.0394977,-0.0827224,-0.0780922,416,218,34.6292,0.1,63.594,0.1,2.64
0.658012,0.682721,0.643243,0.669429,-0.084786,-0.039115,-0.0828831,-0.0774551,421,226,34.9084,0.1,63.6244,0.1,2.644
0.657672,0.682556,0.642911,0.669111,-0.0849503,-0.0398675,-0.0830436,-0.0782107,418,221,35.1904,0.1,63.662,0.1,2.648
0.657332,0.682399,0.642578,0.668808,-0.0851145,-0.0396206,-0.0832041,-0.0773613,422,231,35.4694,0.1,63.6946,0.1,2.652
0.656991,0.682237,0.642245,0.668495,-0.0852785,-0.0399167,-0.0833645,-0.0776876,423,229,35.7507,0.1,63.7367,0.1,2.656
0.65665,0.682068,0.641911,0.668166,-0.0854424,-0.0407187,-0.0835247,-0.0791431,420,217,36.031,0.1,63.7766,0.1,2.66
0.656308,0.681907,0.641577,0.667858,-0.0856062,-0.0405336,-0.0836848,-0.0784436,423,225,36.308,0.1,63.8046,0.1,2.664
0.655965,0.681741,0.641242,0.667538,-0.0857698,-0.0408708,-0.0838448,-0.0790137,424,221,36.5869,0.1,63.8407,0.1,2.668
0.655621,0.681575,0.640906,0.667212,-0.0859334,-0.0410669,-0.0840046,-0.0797681,425,216,36.8649,0.1,63.8726,0.1,2.672
0.655277,0.68141,0.64057,0.66689,-0.0860968,-0.0411112,-0.0841644,-0.0800118,427,215,37.1429,0.1,63.8989,0.1,2.676
0.654933,0.681246,0.640233,0.666564,-0.0862601,-0.0411119,-0.084324,-0.0805774,429,211,37.4218,0.1,63.9242,0.1,2.68
0.654587,0.681078,0.639895,0.666225,-0.0864232,-0.0414291,-0.0844835,-0.0819046,429,200,37.7016,0.1,63.945,0.1,2.684
0.654241,0.68092,0.639557,0.665901,-0.0865862,-0.0407481,-0.0846429,-0.0816665,436,204,37.9811,0.1,63.9551,0.1,2.688
0.653895,0.680765,0.639218,0.665575,-0.0867491,-0.0401213,-0.0848021,-0.0815942,442,206,38.2659,0.1,63.969,0.1,2.692
0.653547,0.680611,0.638879,0.665245,-0.0869119,-0.0395883,-0.0849612,-0.0818627,448,205,38.5558,0.1,63.9852,0.1,2.696
0.653199,0.680454,0.638539,0.664914,-0.0870746,-0.0394345,-0.0851202,-0.0821856,451,204,38.85,0.1,64.0003,0.1,2.7
0.652851,0.6803,0.638198,0.664583,-0.0872371,-0.0391592,-0.0852791,-0.0823433,455,204,39.1464,0.1,64.0139,0.1,2.704
0.652501,0.680145,0.637856,0.664254,-0.0873994,-0.0389757,-0.0854378,-0.0823333,458,206,39.4457,0.1,64.0276,0.1,2.708
0.652151,0.67999,0.637514,0.663924,-0.0875617,-0.0389397,-0.0855964,-0.082413,461,206,39.7471,0.1,64.0431,0.1,2.712
0.651801,0.679834,0.637172,0.663592,-0.0877238,-0.0389733,-0.0857549,-0.0825813,463,206,40.0499,0.1,64.0593,0.1,2.716
0.65145,0.679673,0.636828,0.663261,-0.0878858,-0.0393988,-0.0859132,-0.0826071,463,208,40.3534,0.1,64.0755,0.1,2.72
0.651098,0.679512,0.636484,0.662927,-0.0880476,-0.0396248,-0.0860714,-0.0829122,464,206,40.6554,0.1,64.093,0.1,2.724
0.650745,0.679351,0.63614,0.662597,-0.0882093,-0.0398907,-0.0862295,-0.0827702,465,209,40.9571,0.1,64.1093,0.1,2.728
0.650392,0.679187,0.635794,0.662265,-0.0883709,-0.0402407,-0.0863874,-0.082877,465,210,41.2583,0.1,64.1285,0.1,2.732
0.650038,0.679018,0.635449,0.661931,-0.0885323,-0.0409059,-0.0865453,-0.0830921,463,210,41.5582,0.1,64.1482,0.1,2.736
0.649684,0.678846,0.635102,0.661589,-0.0886936,-0.0415509,-0.0867029,-0.0839266,462,203,41.855,0.1,64.1671,0.1,2.74
0.649329,0.678681,0.634755,0.661266,-0.0888548,-0.0415202,-0.0868605,-0.0828418,464,215,42.1492,0.1,64.1802,0.1,2.744
0.648973,0.678508,0.634407,0.660934,-0.0890158,-0.0420468,-0.0870179,-0.0828959,463,216,42.4445,0.1,64.2052,0.1,2.748
0.648617,0.678334,0.634059,0.660603,-0.0891767,-0.0425418,-0.0871751,-0.0828457,463,219,42.7376,0.1,64.2314,0.1,2.752
0.64826,0.678155,0.63371,0.660271,-0.0893374,-0.0432461,-0.0873323,-0.0828985,461,220,43.0286,0.1,64.2596,0.1,2.756
0.647902,0.677979,0.63336,0.659947,-0.089498,-0.0435429,-0.0874893,-0.0822716,461,227,43.3164,0.1,64.2893,0.1,2.76
0.647544,0.677799,0.63301,0.65962,-0.0896584,-0.0440287,-0.0876461,-0.0820551,461,231,43.6034,0.1,64.3266,0.1,2.764
0.647185,0.67761,0.632659,0.659285,-0.0898188,-0.0451011,-0.0878028,-0.0826306,456,227,43.8881,0.1,64.3673,0.1,2.768
0.646825,0.677427,0.632307,0.658962,-0.0899789,-0.0453554,-0.0879594,-0.0820066,457,235,44.1676,0.1,64.4044,0.1,2.772
0.646465,0.677236,0.631955,0.65863,-0.0901389,-0.0461007,-0.0881158,-0.0823679,455,233,44.4463,0.1,64.4489,0.1,2.776
0.646104,0.677046,0.631603,0.658296,-0.0902988,-0.0465688,-0.0882721,-0.0826952,454,232,44.7216,0.1,64.4914,0.1,2.78
0.645742,0.676851,0.631249,0.657958,-0.0904585,-0.0473128,-0.0884282,-0.0832877,452,228,44.9948,0.1,64.5321,0.1,2.784
0.64538,0.676649,0.630895,0.65761,-0.0906181,-0.0483557,-0.0885842,-0.0845464,448,217,45.2643,0.1,64.568,0.1,2.788
0.645018,0.676456,0.63054,0.657278,-0.0907775,-0.0483313,-0.0887401,-0.0840611,450,224,45.5289,0.1,64.5939,0.1,2.792
0.644654,0.676258,0.630185,0.656938,-0.0909368,-0.0486893,-0.0888958,-0.084371,450,222,45.7945,0.1,64.6258,0.1,2.796
0.64429,0.676057,0.629829,0.656593,-0.0910959,-0.0492158,-0.0890513,-0.0849807,449,218,46.0589,0.1,64.6561,0.1,2.8
0.643925,0.675855,0.629473,0.656249,-0.0912549,-0.0496532,-0.0892068,-0.0853008,449,216,46.3212,0.1,64.682,0.1,2.804
0.64356,0.675652,0.629116,0.655899,-0.0914138,-0.0500024,-0.089362,-0.0860612,449,211,46.5818,0.1,64.706,0.1,2.808
0.643194,0.675448,0.628758,0.655552,-0.0915724,-0.0503792,-0.0895171,-0.0862514,449,210,46.8413,0.1,64.7243,0.1,2.812
0.642827,0.675243,0.628399,0.655203,-0.091731,-0.0506879,-0.0896721,-0.0865798,449,209,47.0996,0.1,64.7423,0.1,2.816
0.64246,0.675028,0.62804,0.654844,-0.0918893,-0.0516999,-0.0898269,-0.0876912,445,200,47.3567,0.1,64.7581,0.1,2.82
0.642092,0.674819,0.627681,0.654501,-0.0920476,-0.0518275,-0.0899816,-0.0870214,446,208,47.609,0.1,64.7654,0.1,2.824
0.641724,0.674605,0.627321,0.654153,-0.0922056,-0.0524309,-0.0901361,-0.0870355,445,209,47.8614,0.1,64.7806,0.1,2.828
0.641355,0.674383,0.62696,0.653801,-0.0923635,-0.0534665,-0.0902905,-0.0873328,440,208,48.1108,0.1,64.7971,0.1,2.832
0.640985,0.674157,0.626598,0.653447,-0.0925213,-0.054416,-0.0904447,-0.0877038,437,206,48.3547,0.1,64.8122,0.1,2.836
0.640614,0.673923,0.626236,0.65309,-0.0926789,-0.0558264,-0.0905987,-0.088239,430,202,48.5934,0.1,64.825,0.1,2.84
0.640243,0.673687,0.625874,0.652736,-0.0928363,-0.0568818,-0.0907526,-0.0883655,426,202,48.8245,0.1,64.8343,0.1,2.844
0.639872,0.673444,0.62551,0.652377,-0.0929936,-0.0581612,-0.0909064,-0.0887953,420,200,49.0497,0.1,64.8438,0.1,2.848
0.6395,0.673197,0.625146,0.652019,-0.0931507,-0.0593309,-0.09106,-0.0890531,415,199,49.268,0.1,64.8506,0.1,2.852
0.639127,0.672944,0.624782,0.651657,-0.0933077,-0.0606577,-0.0912134,-0.0895416,408,196,49.4797,0.1,64.8564,0.1,2.856
0.638753,0.672686,0.624417,0.651288,-0.0934645,-0.061974,-0.0913667,-0.0904431,402,188,49.6841,0.1,64.8586,0.1,2.86
0.638379,0.672437,0.624051,0.650938,-0.0936211,-0.0620167,-0.0915198,-0.089403,404,200,49.8819,0.1,64.8543,0.1,2.864
0.638004,0.672171,0.623684,0.65057,-0.0937776,-0.0635135,-0.0916728,-0.0903219,396,193,50.0797,0.1,64.861,0.1,2.868
0.637629,0.671908,0.623317,0.65021,-0.0939339,-0.0643098,-0.0918256,-0.0902148,393,195,50.2694,0.1,64.8607,0.1,2.872
0.637253,0.671651,0.62295,0.649862,-0.09409,-0.0642649,-0.0919782,-0.0891068,396,207,50.4556,0.1,64.8635,0.1,2.876
0.636876,0.671382,0.622582,0.649504,-0.094246,-0.0652138,-0.0921307,-0.0892895,392,207,50.6427,0.1,64.8783,0.1,2.88
0.636499,0.671109,0.622213,0.649146,-0.0944018,-0.0662495,-0.092283,-0.089325,387,208,50.8247,0.1,64.8929,0.1,2.884
0.636121,0.670834,0.621843,0.648787,-0.0945575,-0.0670839,-0.0924352,-0.0894925,384,208,51.0013,0.1,64.9087,0.1,2.888
0.635742,0.670558,0.621473,0.64843,-0.094713,-0.0677265,-0.0925872,-0.0894027,381,211,51.1738,0.1,64.9245,0.1,2.892
0.635363,0.670281,0.621103,0.648071,-0.0948683,-0.0682414,-0.092739,-0.0895156,380,211,51.3433,0.1,64.9426,0.1,2.896
0.634983,0.670003,0.620731,0.647712,-0.0950234,-0.0686709,-0.0928907,-0.089562,379,212,51.5106,0.1,64.9612,0.1,2.9
0.634603,0.669724,0.620359,0.64735,-0.0951784,-0.0690437,-0.0930422,-0.0898521,379,211,51.6764,0.1,64.9807,0.1,2.904
0.634222,0.669447,0.619987,0.646992,-0.0953332,-0.0690907,-0.0931935,-0.0897576,380,214,51.841,0.1,64.9991,0.1,2.908
0.63384,0.669168,0.619614,0.646628,-0.0954879,-0.0693235,-0.0933447,-0.0902128,381,211,52.0064,0.1,65.0197,0.1,2.912
0.633458,0.668888,0.61924,0.646266,-0.0956423,-0.0695651,-0.0934957,-0.090286,381,212,52.1715,0.1,65.0374,0.1,2.916
0.633075,0.668605,0.618866,0.645904,-0.0957966,-0.0699565,-0.0936465,-0.0903923,380,212,52.336,0.1,65.056,0.1,2.92
0.632692,0.668316,0.618491,0.645542,-0.0959508,-0.0707069,-0.0937972,-0.0903769,377,214,52.4989,0.1,65.0752,0.1,2.924
0.632307,0.668024,0.618116,0.645178,-0.0961047,-0.0714663,-0.0939477,-0.0906257,374,213,52.6581,0.1,65.0959,0.1,2.928
0.631923,0.667734,0.61774,0.644821,-0.0962585,-0.071771,-0.094098,-0.0901581,374,219,52.8138,0.1,65.116,0.1,2.932
0.631537,0.667441,0.617363,0.644458,-0.0964121,-0.0722908,-0.0942482,-0.0903359,373,219,52.9685,0.1,65.1421,0.1,2.936
0.631151,0.667148,0.616986,0.644096,-0.0965655,-0.0726374,-0.0943982,-0.0903968,372,220,53.121,0.1,65.1679,0.1,2.94
0.630765,0.666853,0.616608,0.643731,-0.0967188,-0.0729836,-0.094548,-0.0906678,372,219,53.2725,0.1,65.1945,0.1,2.944
0.630378,0.666558,0.616229,0.643366,-0.0968718,-0.0732144,-0.0946976,-0.0908484,372,219,53.4228,0.1,65.22,0.1,2.948
0.62999,0.666252,0.61585,0.642987,-0.0970247,-0.0743471,-0.0948471,-0.092178,367,207,53.5723,0.1,65.2446,0.1,2.952
0.629601,0.665955,0.61547,0.642618,-0.0971775,-0.0743249,-0.0949964,-0.0922007,369,209,53.7162,0.1,65.2582,0.1,2.956
0.629212,0.665667,0.61509,0.642257,-0.09733,-0.0735616,-0.0951455,-0.0915537,375,216,53.8618,0.1,65.2733,0.1,2.96
0.628823,0.66537,0.614709,0.641889,-0.0974824,-0.0737437,-0.0952944,-0.0916981,376,216,54.0131,0.1,65.2961,0.1,2.964
0.628433,0.665075,0.614328,0.64152,-0.0976345,-0.0737499,-0.0954432,-0.091852,377,217,54.1643,0.1,65.3189,0.1,2.968
0.628042,0.66478,0.613946,0.641148,-0.0977866,-0.0737828,-0.0955918,-0.0922425,379,214,54.3166,0.1,65.3416,0.1,2.972
0.62765,0.664487,0.613563,0.640775,-0.0979384,-0.0736033,-0.0957402,-0.092618,382,212,54.47,0.1,65.3619,0.1,2.976
0.627258,0.664198,0.61318,0.640403,-0.09809,-0.0731381,-0.0958884,-0.0927244,387,213,54.6259,0.1,65.3801,0.1,2.98
0.626866,0.663907,0.612796,0.640029,-0.0982415,-0.0729719,-0.0960365,-0.092968,389,212,54.7858,0.1,65.3987,0.1,2.984
0.626472,0.663618,0.612411,0.639656,-0.0983927,-0.0727747,-0.0961844,-0.0930729,392,212,54.9479,0.1,65.4164,0.1,2.988
0.626078,0.663326,0.612026,0.639282,-0.0985438,-0.0728736,-0.096332,-0.0932004,394,213,55.1123,0.1,65.4346,0.1,2.992
0.625684,0.663032,0.611641,0.638907,-0.0986947,-0.0730259,-0.0964796,-0.0934005,394,212,55.2772,0.1,65.453,0.1,2.996
0.625289,0.662739,0.611255,0.638532,-0.0988454,-0.0731274,-0.0966269,-0.0934764,396,213,55.4423,0.1,65.471,0.1,3
0.624893,0.662445,0.610868,0.638158,-0.098996,-0.0732527,-0.096774,-0.0935557,397,214,55.6078,0.1,65.4897,0.1,3.004
0.624497,0.662148,0.61048,0.637783,-0.0991463,-0.0735665,-0.096921,-0.0935511,396,215,55.7736,0.1,65.5092,0.1,3.008
0.6241,0.661848,0.610092,0.637408,-0.0992965,-0.0740637,-0.0970678,-0.0936919,395,215,55.9383,0.1,65.5301,0.1,3.012
0.623703,0.661545,0.609704,0.637034,-0.0994464,-0.0745966,-0.0972144,-0.093613,394,218,56.1009,0.1,65.5513,0.1,3.016
0.623304,0.661239,0.609315,0.636659,-0.0995962,-0.0752398,-0.0973608,-0.0936469,391,219,56.261,0.1,65.5747,0.1,3.02
0.622906,0.66093,0.608925,0.636287,-0.0997458,-0.0759566,-0.097507,-0.0934391,388,222,56.418,0.1,65.5994,0.1,3.024
0.622506,0.660614,0.608535,0.635911,-0.0998952,-0.0769238,-0.0976531,-0.0935884,384,222,56.5713,0.1,65.6275,0.1,3.028
0.622107,0.660297,0.608144,0.635536,-0.100044,-0.0776838,-0.0977989,-0.0936304,381,224,56.7195,0.1,65.6557,0.1,3.032
0.621706,0.659978,0.607752,0.635157,-0.100193,-0.078392,-0.0979446,-0.0940039,378,222,56.8637,0.1,65.6847,0.1,3.036
0.621305,0.659642,0.60736,0.634763,-0.100342,-0.0802461,-0.0980901,-0.0955197,368,208,57.0038,0.1,65.7109,0.1,3.04
0.620903,0.659333,0.606968,0.634399,-0.100491,-0.0792941,-0.0982354,-0.0940255,376,224,57.1344,0.1,65.7249,0.1,3.044
0.620501,0.659011,0.606574,0.63402,-0.100639,-0.0796671,-0.0983805,-0.0942673,375,224,57.2716,0.1,65.7545,0.1,3.048
0.620098,0.658691,0.60618,0.633639,-0.100788,-0.0798294,-0.0985254,-0.0945725,376,222,57.4076,0.1,65.7831,0.1,3.052
0.619695,0.658359,0.605786,0.633244,-0.100936,-0.0808301,-0.0986701,-0.0960139,371,210,57.5432,0.1,65.8096,0.1,3.056
0.619291,0.658047,0.605391,0.63287,-0.101083,-0.0798849,-0.0988146,-0.0951323,379,220,57.6744,0.1,65.8242,0.1,3.06
0.618886,0.657726,0.604996,0.632487,-0.101231,-0.0800322,-0.098959,-0.0953794,379,219,57.8124,0.1,65.8486,0.1,3.064
0.618481,0.657404,0.604599,0.632104,-0.101378,-0.0802167,-0.0991031,-0.0954578,380,219,57.9505,0.1,65.8721,0.1,3.068
0.618075,0.657072,0.604203,0.631713,-0.101526,-0.0811171,-0.099247,-0.0962587,376,213,58.0881,0.1,65.896,0.1,3.072
0.617669,0.656757,0.603805,0.631344,-0.101673,-0.0803066,-0.0993908,-0.0948924,383,228,58.2219,0.1,65.9143,0.1,3.076
0.617262,0.656433,0.603408,0.630965,-0.10182,-0.0805148,-0.0995344,-0.0949028,383,229,58.3616,0.1,65.9472,0.1,3.08
0.616854,0.65611,0.603009,0.630588,-0.101966,-0.0806536,-0.0996777,-0.0946794,384,233,58.5011,0.1,65.9815,0.1,3.084
0.616446,0.655787,0.60261,0.630212,-0.102113,-0.0806598,-0.0998209,-0.0944442,385,237,58.6408,0.1,66.0195,0.1,3.088
0.616037,0.655461,0.602211,0.629832,-0.102259,-0.0809231,-0.0999639,-0.094604,385,237,58.7815,0.1,66.0611,0.1,3.092
0.615628,0.655137,0.60181,0.62945,-0.102405,-0.0809834,-0.100107,-0.0949409,387,235,58.9216,0.1,66.1025,0.1,3.096
0.615218,0.654809,0.60141,0.629066,-0.102551,-0.0812827,-0.100249,-0.0952518,386,234,59.0624,0.1,66.1419,0.1,3.1
0.614808,0.654481,0.601008,0.62868,-0.102697,-0.0815686,-0.100392,-0.0956319,386,232,59.2023,0.1,66.1797,0.1,3.104
0.614396,0.654151,0.600607,0.628292,-0.102842,-0.0818744,-0.100534,-0.0960868,386,229,59.3413,0.1,66.2151,0.1,3.108
0.613985,0.653822,0.600204,0.627904,-0.102987,-0.0819631,-0.100676,-0.0964477,387,227,59.4796,0.1,66.2474,0.1,3.112
0.613573,0.653492,0.599801,0.627512,-0.103132,-0.0821662,-0.100818,-0.0969474,388,223,59.6184,0.1,66.2774,0.1,3.116
0.61316,0.653163,0.599398,0.627122,-0.103277,-0.0821576,-0.100959,-0.0971077,389,223,59.757,0.1,66.3041,0.1,3.12
0.612746,0.652833,0.598994,0.62673,-0.103422,-0.0822671,-0.1011,-0.0974162,390,222,59.8968,0.1,66.3305,0.1,3.124
0.612332,0.652502,0.598589,0.626339,-0.103566,-0.0824552,-0.101242,-0.0975355,391,222,60.0369,0.1,66.3554,0.1,3.128
0.611918,0.652171,0.598184,0.625948,-0.10371,-0.0825806,-0.101383,-0.0976438,392,222,60.1769,0.1,66.3806,0.1,3.132
0.611503,0.651825,0.597778,0.625539,-0.103854,-0.0838447,-0.101523,-0.0991267,385,210,60.3165,0.1,66.4054,0.1,3.136
0.611087,0.651504,0.597371,0.625161,-0.103998,-0.0827008,-0.101664,-0.0975817,394,226,60.4503,0.1,66.4183,0.1,3.14
0.610671,0.651166,0.596964,0.624766,-0.104142,-0.0832914,-0.101804,-0.0979625,392,224,60.5917,0.1,66.4472,0.1,3.144
0.610254,0.650829,0.596557,0.624372,-0.104285,-0.0835988,-0.101944,-0.0981876,392,223,60.7305,0.1,66.4737,0.1,3.148
0.609836,0.650485,0.596149,0.623972,-0.104428,-0.0844083,-0.102084,-0.0987983,388,219,60.8681,0.1,66.4993,0.1,3.152
0.609418,0.650143,0.59574,0.623579,-0.104571,-0.0847176,-0.102224,-0.0986296,388,222,61.0016,0.1,66.5206,0.1,3.156
0.609,0.6498,0.595331,0.623186,-0.104714,-0.0850966,-0.102364,-0.0984596,387,225,61.1342,0.1,66.545,0.1,3.16
0.608581,0.649453,0.594921,0.622789,-0.104856,-0.0856371,-0.102503,-0.0987493,385,223,61.2652,0.1,66.5722,0.1,3.164
0.608161,0.649106,0.594511,0.622393,-0.104999,-0.0860551,-0.102642,-0.098856,384,224,61.3938,0.1,66.5981,0.1,3.168
0.607741,0.648756,0.5941,0.621995,-0.105141,-0.0865353,-0.102781,-0.0990712,382,223,61.5206,0.1,66.6243,0.1,3.172
0.60732,0.648408,0.593689,0.6216,-0.105283,-0.0866826,-0.10292,-0.0989267,383,226,61.6456,0.1,66.6499,0.1,3.176
0.606898,0.648061,0.593277,0.621204,-0.105424,-0.0866657,-0.103058,-0.0989167,385,228,61.7707,0.1,66.6783,0.1,3.18
0.606476,0.647715,0.592864,0.620811,-0.105566,-0.0865969,-0.103196,-0.0987086,387,231,61.897,0.1,66.7083,0.1,3.184
0.606054,0.647371,0.592451,0.620416,-0.105707,-0.0864646,-0.103334,-0.0987137,389,233,62.025,0.1,66.7417,0.1,3.188
0.605631,0.647024,0.592038,0.620023,-0.105848,-0.0864916,-0.103472,-0.098602,391,235,62.1549,0.1,66.7765,0.1,3.192
0.605207,0.646678,0.591624,0.619625,-0.105989,-0.0865095,-0.10361,-0.098873,392,234,62.2857,0.1,66.8136,0.1,3.196
0.604783,0.646331,0.591209,0.619229,-0.106129,-0.0866367,-0.103747,-0.0989098,393,235,62.4175,0.1,66.8496,0.1,3.2
0.604358,0.645979,0.590794,0.618828,-0.10627,-0.087067,-0.103885,-0.0993373,392,232,62.5493,0.1,66.8863,0.1,3.204
0.603933,0.645625,0.590378,0.618425,-0.10641,-0.0874978,-0.104022,-0.0998527,391,229,62.6793,0.1,66.9202,0.1,3.208
0.603507,0.645272,0.589961,0.618018,-0.10655,-0.0877562,-0.104158,-0.100455,391,225,62.8075,0.1,66.9502,0.1,3.212
0.60308,0.644916,0.589545,0.617609,-0.10669,-0.0881588,-0.104295,-0.101116,390,220,62.9351,0.1,66.9755,0.1,3.216
0.602653,0.644549,0.589127,0.617186,-0.106829,-0.0893773,-0.104431,-0.102593,383,207,63.0605,0.1,66.9952,0.1,3.22
0.602226,0.64419,0.588709,0.616774,-0.106968,-0.0894986,-0.104567,-0.102772,384,206,63.1795,0.1,67.0022,0.1,3.224
0.601798,0.643842,0.588291,0.616377,-0.107107,-0.0887158,-0.104703,-0.101595,391,219,63.2993,0.1,67.0094,0.1,3.228
0.601369,0.643479,0.587871,0.615969,-0.107246,-0.0894031,-0.104839,-0.101732,388,219,63.4247,0.1,67.0292,0.1,3.232
0.60094,0.643113,0.587452,0.615565,-0.107385,-0.0900629,-0.104974,-0.101507,385,223,63.5465,0.1,67.0493,0.1,3.236
0.60051,0.642737,0.587032,0.615159,-0.107523,-0.0913664,-0.10511,-0.101501,378,224,63.6646,0.1,67.0728,0.1,3.24
0.600079,0.642369,0.586611,0.614764,-0.107661,-0.0915733,-0.105245,-0.100518,378,235,63.7755,0.1,67.0983,0.1,3.244
0.599649,0.641994,0.58619,0.614369,-0.107799,-0.092287,-0.10538,-0.0999773,375,242,63.8859,0.1,67.1348,0.1,3.248
0.599217,0.641605,0.585768,0.613959,-0.107937,-0.0940008,-0.105514,-0.100826,365,235,63.9918,0.1,67.1774,0.1,3.252
0.598785,0.641233,0.585346,0.61357,-0.108074,-0.0936463,-0.105649,-0.0995786,369,249,64.0885,0.1,67.2138,0.1,3.256
0.598352,0.640852,0.584923,0.613172,-0.108211,-0.0941297,-0.105783,-0.0995817,367,250,64.1881,0.1,67.2635,0.1,3.26
0.597919,0.640468,0.584499,0.612767,-0.108348,-0.0947686,-0.105917,-0.100131,365,246,64.2854,0.1,67.3142,0.1,3.264
0.597486,0.640081,0.584075,0.612359,-0.108485,-0.0954825,-0.10605,-0.100785,361,241,64.3793,0.1,67.3607,0.1,3.268
0.597051,0.639693,0.583651,0.611946,-0.108622,-0.0959872,-0.106184,-0.101566,360,235,64.4696,0.1,67.402,0.1,3.272
0.596617,0.639304,0.583226,0.61153,-0.108758,-0.09641,-0.106317,-0.102375,358,229,64.5576,0.1,67.4367,0.1,3.276
0.596181,0.638913,0.5828,0.611109,-0.108894,-0.0968071,-0.10645,-0.103375,357,220,64.6437,0.1,67.4646,0.1,3.28
0.595746,0.63852,0.582374,0.610687,-0.10903,-0.0973021,-0.106583,-0.104042,355,215,64.7282,0.1,67.484,0.1,3.284
0.595309,0.638113,0.581948,0.610251,-0.109166,-0.0987838,-0.106715,-0.105753,347,200,64.8098,0.1,67.4976,0.1,3.288
0.594872,0.637717,0.581521,0.609831,-0.109301,-0.0988791,-0.106848,-0.105483,348,204,64.8833,0.1,67.4964,0.1,3.292
0.594435,0.63733,0.581093,0.609424,-0.109436,-0.0981652,-0.10698,-0.104238,354,217,64.9577,0.1,67.4998,0.1,3.296
0.593997,0.636935,0.580665,0.609007,-0.109571,-0.0983515,-0.107112,-0.104242,354,219,65.0374,0.1,67.5163,0.1,3.3
0.593558,0.636544,0.580236,0.608592,-0.109706,-0.0981302,-0.107243,-0.104073,357,222,65.1172,0.1,67.5343,0.1,3.304
0.593119,0.636151,0.579807,0.60817,-0.10984,-0.0981554,-0.107375,-0.104507,358,219,65.1995,0.1,67.5549,0.1,3.308
0.592679,0.635768,0.579377,0.607759,-0.109974,-0.0973661,-0.107506,-0.10399,364,225,65.2831,0.1,67.573,0.1,3.312
0.592239,0.635393,0.578947,0.607355,-0.110108,-0.0962065,-0.107637,-0.102926,374,237,65.3735,0.1,67.598,0.1,3.316
0.591799,0.635013,0.578516,0.606945,-0.110242,-0.0958077,-0.107768,-0.102792,378,240,65.4724,0.1,67.6344,0.1,3.32
0.591357,0.634634,0.578085,0.606538,-0.110376,-0.0954266,-0.107898,-0.102444,382,244,65.5751,0.1,67.6736,0.1,3.324
0.590916,0.634253,0.577653,0.606125,-0.110509,-0.0954029,-0.108028,-0.102759,383,243,65.6813,0.1,67.7173,0.1,3.328
0.590473,0.633875,0.57722,0.60571,-0.110642,-0.0950416,-0.108158,-0.103084,387,241,65.7889,0.1,67.7592,0.1,3.332
0.59003,0.633497,0.576787,0.605292,-0.110775,-0.0949159,-0.108288,-0.103502,389,238,65.9,0.1,67.799,0.1,3.336
0.589587,0.63312,0.576354,0.604873,-0.110907,-0.0946882,-0.108418,-0.103953,393,235,66.013,0.1,67.836,0.1,3.34
0.589143,0.632739,0.57592,0.604449,-0.111039,-0.0948819,-0.108547,-0.1046,393,231,66.1284,0.1,67.8696,0.1,3.344
0.588699,0.63236,0.575486,0.604026,-0.111171,-0.0948382,-0.108676,-0.105002,395,228,66.2437,0.1,67.8983,0.1,3.348
0.588254,0.631974,0.575051,0.6036,-0.111303,-0.0953849,-0.108805,-0.105558,392,224,66.36,0.1,67.9241,0.1,3.352
0.587808,0.631587,0.574615,0.603176,-0.111435,-0.0958358,-0.108934,-0.10567,391,224,66.4737,0.1,67.946,0.1,3.356
0.587362,0.631195,0.574179,0.60275,-0.111566,-0.0965106,-0.109062,-0.105917,388,223,66.5853,0.1,67.968,0.1,3.36
0.586916,0.630798,0.573743,0.602325,-0.111697,-0.0974212,-0.10919,-0.106024,383,224,66.6931,0.1,67.9889,0.1,3.364
0.586469,0.630402,0.573306,0.601902,-0.111828,-0.0979707,-0.109318,-0.105952,381,226,66.7958,0.1,68.0101,0.1,3.368
0.586021,0.629989,0.572868,0.601462,-0.111959,-0.0997189,-0.109446,-0.107285,371,214,66.8951,0.1,68.0326,0.1,3.372
