peachynonah/Fire_monitor_KIRO_CDSL/csv_datas/trial12/cdsl_data_t12_14_u.csv
joint1_pos_desired, joint1_pos, joint2_pos_desired, joint2_pos, joint1_vel_desired, joint1_vel_filtered, joint2_vel_desired, joint2_vel_filtered, target_torque_joint1, target_torque_joint2, estimated_disturbance_joint1, saturated_DOB_joint1, estimated_disturbance_joint2, saturated_DOB_joint2, current_time
5.02099e-10,0.00102024,0.05012,-0.000239771,3.76499e-07,0,0.0300002,0,11,-839,-0,-0,-98.3494,-98.3494,0.004
4.01438e-09,0.00101885,0.05024,-0.000239771,1.50479e-06,-0.000115164,0.0300008,0,10,-844,-0.049524,-0.049524,-94.6333,-94.6333,0.008
1.35404e-08,0.00101885,0.05036,-0.00023597,3.38307e-06,-7.67758e-05,0.0300018,0.0003167,10,-846,-0.0944709,-0.0944709,-90.9123,-90.9123,0.012
3.20765e-08,0.0010192,0.05048,-0.000180346,6.00952e-06,-2.23929e-05,0.0300032,0.00484647,11,-807,-0.141026,-0.141026,-87.2118,-87.2118,0.016
6.26118e-08,0.0010192,0.0506,-5.32056e-05,9.38236e-06,-1.49286e-05,0.030005,0.013826,11,-725,-0.189667,-0.189667,-83.7139,-83.7139,0.02
1.08128e-07,0.00101885,0.0507201,0.000143724,1.34998e-05,-3.87433e-05,0.0300072,0.0256282,10,-614,-0.238383,-0.238383,-80.606,-80.606,0.024
1.716e-07,0.00101782,0.0508401,0.000396624,1.836e-05,-0.000112202,0.0300098,0.0381604,10,-495,-0.285731,-0.285731,-78.0048,-78.0048,0.028
2.55996e-07,0.00101678,0.0509601,0.000699619,2.39611e-05,-0.000161174,0.0300128,0.0506899,9,-375,-0.329746,-0.329746,-75.9418,-75.9418,0.032
3.64275e-07,0.00101574,0.0510802,0.00104407,3.03014e-05,-0.000193822,0.0300162,0.0624978,9,-260,-0.371418,-0.371418,-74.4172,-74.4172,0.036
4.9939e-07,0.00101505,0.0512003,0.00140649,3.73792e-05,-0.000186797,0.03002,0.0718669,9,-169,-0.411486,-0.411486,-73.3971,-73.3971,0.04
6.64289e-07,0.00101471,0.0513204,0.00176961,4.51925e-05,-0.000153322,0.0300242,0.0781705,9,-106,-0.451589,-0.451589,-72.7769,-72.7769,0.044
8.61909e-07,0.00101505,0.0514405,0.00211821,5.37396e-05,-7.34237e-05,0.0300287,0.0811637,10,-76,-0.492905,-0.492905,-72.4258,-72.4258,0.048
1.09518e-06,0.00101505,0.0515606,0.00244228,6.30187e-05,-4.89491e-05,0.0300337,0.081115,10,-74,-0.537109,-0.537109,-72.2035,-72.2035,0.052
1.36703e-06,0.00101436,0.0516807,0.00272627,7.3028e-05,-9.02146e-05,0.0300391,0.0777428,10,-105,-0.58175,-0.58175,-71.9787,-71.9787,0.056
1.68038e-06,0.00101471,0.0518009,0.00297088,8.37657e-05,-3.13521e-05,0.0300448,0.0722125,10,-157,-0.624452,-0.624452,-71.6119,-71.6119,0.06
2.03813e-06,0.00101505,0.0519211,0.00315883,9.52301e-05,7.88949e-06,0.0300509,0.0638039,11,-238,-0.669154,-0.669154,-71.0075,-71.0075,0.064
2.44318e-06,0.00101505,0.0520413,0.00330393,0.000107419,5.25966e-06,0.0300574,0.0546282,10,-326,-0.714913,-0.714913,-70.0469,-70.0469,0.068
2.89844e-06,0.00101505,0.0521615,0.00341069,0.000120332,3.50644e-06,0.0300643,0.0453152,10,-417,-0.760019,-0.760019,-68.6974,-68.6974,0.072
3.4068e-06,0.00101471,0.0522818,0.00348704,0.000133965,-2.64533e-05,0.0300716,0.0365729,10,-503,-0.804386,-0.804386,-66.9534,-66.9534,0.076
3.97112e-06,0.00101505,0.0524021,0.00354301,0.000148318,1.11554e-05,0.0300793,0.0290461,10,-579,-0.847051,-0.847051,-64.8395,-64.8395,0.08
4.5943e-06,0.00101505,0.0525225,0.00358689,0.000163389,7.43693e-06,0.0300873,0.0230205,10,-640,-0.890571,-0.890571,-62.4074,-62.4074,0.084
5.27919e-06,0.00101505,0.0526428,0.00362317,0.000179176,4.95795e-06,0.0300958,0.01837,10,-688,-0.933259,-0.933259,-59.7196,-59.7196,0.088
6.02866e-06,0.00101505,0.0527632,0.00365979,0.000195676,3.3053e-06,0.0301046,0.0152985,10,-721,-0.975131,-0.975131,-56.8347,-56.8347,0.092
6.84555e-06,0.00101505,0.0528837,0.00369848,0.00021289,2.20353e-06,0.0301138,0.0134236,10,-743,-1.01619,-1.01619,-53.8187,-53.8187,0.096
7.73272e-06,0.00101471,0.0530041,0.00374098,0.000230814,-2.73219e-05,0.0301234,0.0124904,9,-756,-1.05634,-1.05634,-50.7216,-50.7216,0.1
8.693e-06,0.00101471,0.0531246,0.00379004,0.000249446,-1.82146e-05,0.0301333,0.0124152,9,-761,-1.09451,-1.09451,-47.5833,-47.5833,0.104
9.72923e-06,0.00101505,0.0532452,0.00384393,0.000268786,1.66479e-05,0.0301437,0.0127682,9,-762,-1.1323,-1.1323,-44.4393,-44.4393,0.108
1.08442e-05,0.00101505,0.0533658,0.00390232,0.000288831,1.10986e-05,0.0301544,0.0133778,9,-760,-1.1706,-1.1706,-41.3073,-41.3073,0.112
1.20408e-05,0.00101505,0.0534864,0.00396278,0.00030958,7.39905e-06,0.0301654,0.0139569,9,-758,-1.20775,-1.20775,-38.1976,-38.1976,0.116
1.33218e-05,0.00101505,0.0536071,0.00402359,0.00033103,4.9327e-06,0.0301769,0.0143718,9,-758,-1.2438,-1.2438,-35.1086,-35.1086,0.12
1.469e-05,0.00101505,0.0537279,0.0040844,0.00035318,3.28847e-06,0.0301887,0.0146484,8,-759,-1.27876,-1.27876,-32.0334,-32.0334,0.124
1.61482e-05,0.00101505,0.0538486,0.00414589,0.000376029,2.19231e-06,0.0302009,0.0148904,8,-761,-1.31264,-1.31264,-28.9664,-28.9664,0.128
1.76992e-05,0.00101505,0.0539695,0.00421154,0.000399574,1.46154e-06,0.0302135,0.0153972,8,-760,-1.34542,-1.34542,-25.9071,-25.9071,0.132
1.93457e-05,0.00101505,0.0540903,0.00428133,0.000423814,9.7436e-07,0.0302265,0.0160806,8,-757,-1.37708,-1.37708,-22.8667,-22.8667,0.136
2.10906e-05,0.00101505,0.0542113,0.00435768,0.000448746,6.49573e-07,0.0302398,0.0170832,8,-751,-1.40761,-1.40761,-19.8531,-19.8531,0.14
2.29366e-05,0.00101505,0.0543323,0.00443818,0.00047437,4.33049e-07,0.0302534,0.0180971,7,-745,-1.43696,-1.43696,-16.8795,-16.8795,0.144
2.48865e-05,0.00101505,0.0544533,0.00451971,0.000500683,2.88699e-07,0.0302675,0.0188594,7,-741,-1.46512,-1.46512,-13.9455,-13.9455,0.148
2.6943e-05,0.00101505,0.0545744,0.00460194,0.000527684,1.92466e-07,0.0302819,0.0194252,7,-739,-1.49205,-1.49205,-11.0408,-11.0408,0.152
2.91089e-05,0.00101505,0.0546956,0.00468382,0.000555371,1.28311e-07,0.0302967,0.0197736,7,-739,-1.51772,-1.51772,-8.157,-8.157,0.156
3.13869e-05,0.00101505,0.0548168,0.00476363,0.000583742,8.55405e-08,0.0303118,0.0198331,6,-742,-1.54209,-1.54209,-5.28453,-5.28453,0.16
3.37797e-05,0.00101505,0.0549381,0.00483895,0.000612796,5.7027e-08,0.0303273,0.0194985,6,-749,-1.56513,-1.56513,-2.41075,-2.41075,0.164
3.62901e-05,0.00101505,0.0550594,0.00491081,0.00064253,3.8018e-08,0.0303432,0.0189875,6,-757,-1.58681,-1.58681,0.480655,0.480655,0.168
3.89208e-05,0.00101505,0.0551808,0.00498095,0.000672943,2.53453e-08,0.0303594,0.0185029,5,-765,-1.60709,-1.60709,3.39674,3.39674,0.172
4.16746e-05,0.00101505,0.0553023,0.00505212,0.000704033,1.68969e-08,0.030376,0.0182662,5,-771,-1.62594,-1.62594,6.33583,6.33583,0.176
4.4554e-05,0.00101505,0.0554238,0.00512225,0.000735798,1.12646e-08,0.030393,0.018022,5,-777,-1.64332,-1.64332,9.28813,9.28813,0.18
4.75619e-05,0.0010154,0.0555454,0.00519204,0.000768238,2.87984e-05,0.0304103,0.0178304,5,-783,-1.65928,-1.65928,12.2538,12.2538,0.184
5.07008e-05,0.0010154,0.0556671,0.00526287,0.000801349,1.9199e-05,0.030428,0.0177891,4,-787,-1.67484,-1.67484,15.2305,15.2305,0.188
5.39735e-05,0.0010154,0.0557888,0.00533576,0.00083513,1.27993e-05,0.030446,0.0179343,4,-789,-1.68843,-1.68843,18.2115,18.2115,0.192
5.73827e-05,0.0010154,0.0559107,0.00541039,0.00086958,8.53287e-06,0.0304644,0.018175,3,-791,-1.70014,-1.70014,21.1893,21.1893,0.196
6.09311e-05,0.0010154,0.0560326,0.00548294,0.000904697,5.68858e-06,0.0304831,0.0181628,3,-794,-1.71003,-1.71003,24.1606,24.1606,0.2
6.46212e-05,0.0010154,0.0561545,0.00555584,0.000940478,3.79239e-06,0.0305022,0.0181834,3,-798,-1.71813,-1.71813,27.1356,27.1356,0.204
6.84558e-05,0.0010154,0.0562766,0.00562667,0.000976923,2.52826e-06,0.0305216,0.0180244,2,-803,-1.72443,-1.72443,30.1134,30.1134,0.208
7.24375e-05,0.0010154,0.0563987,0.00569542,0.00101403,1.68551e-06,0.0305414,0.0177457,2,-810,-1.72893,-1.72893,33.1017,33.1017,0.212
7.65689e-05,0.0010154,0.0565209,0.0057583,0.0010518,1.12367e-06,0.0305616,0.0170704,1,-820,-1.73161,-1.73161,36.1064,36.1064,0.216
8.08527e-05,0.0010154,0.0566432,0.00581565,0.00109022,7.49113e-07,0.030582,0.0161596,1,-833,-1.73244,-1.73244,39.1442,39.1442,0.22
8.52915e-05,0.0010154,0.0567656,0.00586851,0.0011293,4.99409e-07,0.0306029,0.015178,1,-846,-1.73141,-1.73141,42.2249,42.2249,0.224
8.9888e-05,0.0010154,0.056888,0.00592068,0.00116904,3.32939e-07,0.0306241,0.0144661,0,-857,-1.72847,-1.72847,45.3507,45.3507,0.228
9.46447e-05,0.00101574,0.0570106,0.00597216,0.00120942,2.90129e-05,0.0306456,0.0139339,0,-866,-1.72369,-1.72369,48.5105,48.5105,0.232
9.95642e-05,0.00101574,0.0571332,0.00602398,0.00125046,1.93419e-05,0.0306675,0.0136079,0,-873,-1.71807,-1.71807,51.6966,51.6966,0.236
0.000104649,0.00101574,0.0572559,0.00607822,0.00129215,1.28946e-05,0.0306897,0.0135921,0,-878,-1.71004,-1.71004,54.9,54.9,0.24
0.000109902,0.00101574,0.0573787,0.00613316,0.00133449,8.59641e-06,0.0307123,0.0136392,-1,-882,-1.69972,-1.69972,58.1081,58.1081,0.244
0.000115326,0.00101574,0.0575016,0.00618982,0.00137747,5.73094e-06,0.0307352,0.0138145,-1,-884,-1.68714,-1.68714,61.3181,61.3181,0.248
0.000120923,0.00101574,0.0576246,0.00624475,0.00142109,3.82063e-06,0.0307584,0.0137874,-2,-888,-1.67234,-1.67234,64.5254,64.5254,0.252
0.000126696,0.00101574,0.0577477,0.00629692,0.00146536,2.54708e-06,0.030782,0.013539,-2,-895,-1.65532,-1.65532,67.7389,67.7389,0.256
0.000132647,0.00101574,0.0578708,0.00634771,0.00151027,1.69806e-06,0.030806,0.0132583,-3,-902,-1.63606,-1.63606,70.9674,70.9674,0.26
0.000138779,0.00101574,0.0579941,0.00639642,0.00155582,1.13204e-06,0.0308303,0.0128984,-3,-910,-1.61455,-1.61455,74.2126,74.2126,0.264
0.000145094,0.00101609,0.0581175,0.00644617,0.00160201,2.95456e-05,0.0308549,0.0127448,-4,-916,-1.59086,-1.59086,77.4771,77.4771,0.268
0.000151596,0.00101609,0.0582409,0.00649558,0.00164883,1.96971e-05,0.0308798,0.0126136,-4,-921,-1.566,-1.566,80.7527,80.7527,0.272
0.000158286,0.00101609,0.0583645,0.00654671,0.00169629,1.31314e-05,0.0309051,0.0126702,-5,-925,-1.5384,-1.5384,84.0379,84.0379,0.276
0.000165167,0.00101609,0.0584882,0.00659992,0.00174437,8.75426e-06,0.0309307,0.0128806,-5,-927,-1.50817,-1.50817,87.3249,87.3249,0.28
0.000172241,0.00101609,0.058612,0.00665761,0.00179309,5.83617e-06,0.0309567,0.0133951,-6,-926,-1.47536,-1.47536,90.6065,90.6065,0.284
0.000179512,0.00101609,0.0587358,0.00672015,0.00184244,3.89078e-06,0.030983,0.0141412,-7,-924,-1.43999,-1.43999,93.8699,93.8699,0.288
0.000186982,0.00101609,0.0588598,0.00678614,0.00189241,2.59385e-06,0.0310096,0.0149266,-7,-920,-1.40207,-1.40207,97.1056,97.1056,0.292
0.000194652,0.00101609,0.0589839,0.0068542,0.00194301,1.72924e-06,0.0310365,0.0156229,-8,-918,-1.3616,-1.3616,100.312,100.312,0.296
0.000202527,0.00101609,0.0591081,0.00692191,0.00199424,1.15282e-06,0.0310638,0.0160583,-8,-917,-1.31854,-1.31854,103.494,103.494,0.3
0.000210607,0.00101609,0.0592324,0.00698825,0.00204608,7.68549e-07,0.0310914,0.0162334,-9,-920,-1.27289,-1.27289,106.662,106.662,0.304
0.000218896,0.00101609,0.0593569,0.00705596,0.00209855,5.12366e-07,0.0311194,0.0164653,-10,-922,-1.2246,-1.2246,109.826,109.826,0.308
0.000227396,0.00101609,0.0594814,0.00712368,0.00215163,3.41577e-07,0.0311476,0.0166199,-10,-924,-1.17365,-1.17365,112.985,112.985,0.312
0.00023611,0.00101609,0.059606,0.00719209,0.00220534,2.27718e-07,0.0311762,0.0167805,-11,-927,-1.12,-1.12,116.141,116.141,0.316
0.00024504,0.00101643,0.0597308,0.00726188,0.00225965,2.89427e-05,0.0312051,0.0170028,-12,-929,-1.06371,-1.06371,119.293,119.293,0.32
0.000254188,0.00101643,0.0598557,0.00733408,0.00231458,1.92952e-05,0.0312344,0.0173525,-12,-929,-1.00579,-1.00579,122.44,122.44,0.324
0.000263557,0.00101678,0.0599807,0.00741044,0.00237012,4.16544e-05,0.031264,0.0179311,-13,-928,-0.944747,-0.944747,125.576,125.576,0.328
0.00027315,0.00101747,0.0601058,0.00748817,0.00242628,8.53514e-05,0.0312939,0.018432,-13,-927,-0.88191,-0.88191,128.69,128.69,0.332
0.000282968,0.00101851,0.060231,0.00756591,0.00248304,0.000143274,0.0313241,0.018766,-13,-927,-0.818147,-0.818147,131.788,131.788,0.336
0.000293015,0.00101885,0.0603564,0.00764572,0.00254041,0.000124307,0.0313546,0.0191614,-14,-928,-0.753767,-0.753767,134.874,134.874,0.34
0.000303292,0.00101885,0.0604819,0.00772622,0.00259838,8.28712e-05,0.0313855,0.0194825,-15,-928,-0.685576,-0.685576,137.948,137.948,0.344
0.000313803,0.00101885,0.0606075,0.00780706,0.00265695,5.52474e-05,0.0314166,0.0197254,-16,-930,-0.61267,-0.61267,141.011,141.011,0.348
0.000324549,0.00101885,0.0607332,0.00789171,0.00271613,3.68316e-05,0.0314481,0.0202041,-17,-929,-0.535587,-0.535587,144.068,144.068,0.352
0.000335533,0.0010192,0.060859,0.00797393,0.00277591,5.33453e-05,0.0314799,0.0203216,-18,-932,-0.454763,-0.454763,147.108,147.108,0.356
0.000346757,0.0010192,0.060985,0.00805478,0.00283629,3.55636e-05,0.0315121,0.0202848,-19,-936,-0.371462,-0.371462,150.147,150.147,0.36
0.000358224,0.00101989,0.0611111,0.00813424,0.00289726,8.12909e-05,0.0315445,0.0201451,-19,-941,-0.28446,-0.28446,153.192,153.192,0.364
0.000369936,0.00102024,0.0612374,0.00821371,0.00295883,8.29849e-05,0.0315773,0.020052,-20,-946,-0.196142,-0.196142,156.246,156.246,0.368
0.000381895,0.00102093,0.0613638,0.00829282,0.00302099,0.000112905,0.0316103,0.0199611,-20,-951,-0.104791,-0.104791,159.307,159.307,0.372
0.000394104,0.00102127,0.0614903,0.00837229,0.00308374,0.000104061,0.0316437,0.0199293,-21,-955,-0.0113896,-0.0113896,162.376,162.376,0.376
0.000406566,0.00102162,0.0616169,0.00845209,0.00314708,9.81649e-05,0.0316774,0.0199369,-22,-959,0.0856485,0.0856485,165.45,165.45,0.38
0.000419282,0.00102162,0.0617437,0.00853328,0.00321101,6.54433e-05,0.0317114,0.0200571,-23,-962,0.186325,0.186325,168.527,168.527,0.384
0.000432255,0.00102162,0.0618706,0.00861344,0.00327553,4.36288e-05,0.0317457,0.0200509,-25,-965,0.291728,0.291728,171.603,171.603,0.388
0.000445487,0.00102196,0.0619977,0.00868979,0.00334064,5.78768e-05,0.0317803,0.0197301,-25,-973,0.401351,0.401351,174.684,174.684,0.392
0.000458981,0.00102196,0.0621248,0.00876269,0.00340632,3.85845e-05,0.0318153,0.0192283,-26,-981,0.513883,0.513883,177.783,177.783,0.396
0.000472738,0.00102265,0.0622522,0.00883524,0.00347259,8.33049e-05,0.0318505,0.0188649,-27,-989,0.630518,0.630518,180.907,180.907,0.4
0.000486762,0.00102334,0.0623797,0.00890676,0.00353944,0.000113118,0.031886,0.0185363,-27,-996,0.748761,0.748761,184.05,184.05,0.404
0.000501055,0.00102438,0.0625073,0.00897862,0.00360686,0.000161785,0.0319219,0.0183461,-28,-1002,0.869185,0.869185,187.211,187.211,0.408
0.000515618,0.00102507,0.062635,0.00905187,0.00367487,0.000165439,0.031958,0.0183344,-29,-1006,0.991198,0.991198,190.384,190.384,0.412
0.000530454,0.00102576,0.0627629,0.00912442,0.00374344,0.000167874,0.0319945,0.018269,-30,-1011,1.11665,1.11665,193.562,193.562,0.416
0.000545566,0.0010268,0.062891,0.00919732,0.00381259,0.000198289,0.0320312,0.0182542,-30,-1015,1.24554,1.24554,196.747,196.747,0.42
0.000560956,0.00102818,0.0630192,0.00927091,0.00388232,0.000247356,0.0320683,0.018302,-31,-1019,1.37672,1.37672,199.936,199.936,0.424
0.000576625,0.00102956,0.0631475,0.00934657,0.00395261,0.000280068,0.0321057,0.0185065,-32,-1021,1.50952,1.50952,203.127,203.127,0.428
0.000592577,0.00103095,0.063276,0.0094212,0.00402347,0.000301876,0.0321433,0.0185565,-32,-1025,1.64466,1.64466,206.314,206.314,0.432
0.000608814,0.00103267,0.0634047,0.00949651,0.0040949,0.000345205,0.0321813,0.0186474,-33,-1028,1.78254,1.78254,209.503,209.503,0.436
0.000625337,0.00103475,0.0635335,0.00957632,0.00416689,0.000402882,0.0322195,0.0190823,-33,-1028,1.9223,1.9223,212.691,212.691,0.44
0.00064215,0.00103647,0.0636624,0.00965786,0.00423945,0.000412543,0.0322581,0.0195162,-34,-1028,2.06353,2.06353,215.865,215.865,0.444
0.000659254,0.00103889,0.0637915,0.00974147,0.00431256,0.000476565,0.0322969,0.0199782,-35,-1028,2.20802,2.20802,219.024,219.024,0.448
0.000676651,0.00104131,0.0639208,0.00982542,0.00438624,0.000519246,0.0323361,0.020315,-35,-1028,2.35368,2.35368,222.168,222.168,0.452
0.000694344,0.00104442,0.0640502,0.00991387,0.00446048,0.000605283,0.0323755,0.0209138,-35,-1027,2.50127,2.50127,225.301,225.301,0.456
0.000712336,0.00104753,0.0641798,0.0100065,0.00453527,0.00066264,0.0324152,0.0216585,-36,-1023,2.64916,2.64916,228.411,228.411,0.46
0.000730627,0.00105098,0.0643096,0.0101008,0.00461062,0.000729669,0.0324553,0.0222989,-36,-1021,2.79849,2.79849,231.494,231.494,0.464
0.000749221,0.00105409,0.0644395,0.0102003,0.00468652,0.000745565,0.0324956,0.0231577,-37,-1017,2.94906,2.94906,234.552,234.552,0.468
0.00076812,0.00105789,0.0645695,0.0103043,0.00476298,0.000813743,0.0325362,0.0241046,-38,-1011,3.1028,3.1028,237.577,237.577,0.472
0.000787326,0.00106239,0.0646997,0.0104114,0.00483998,0.000916777,0.0325771,0.0249949,-38,-1006,3.25753,3.25753,240.564,240.564,0.476
0.000806841,0.00106791,0.0648301,0.0105185,0.00491753,0.00107184,0.0326182,0.0255884,-37,-1004,3.41171,3.41171,243.518,243.518,0.48
0.000826667,0.00107413,0.0649607,0.010627,0.00499563,0.0012328,0.0326597,0.0260993,-37,-1003,3.56323,3.56323,246.449,246.449,0.484
0.000846807,0.00108139,0.0650914,0.0107403,0.00507428,0.00142647,0.0327015,0.026843,-36,-999,3.71178,3.71178,249.361,249.361,0.488
0.000867262,0.00109002,0.0652223,0.0108519,0.00515347,0.00167076,0.0327435,0.0271948,-35,-999,3.85588,3.85588,252.246,252.246,0.492
0.000888035,0.0010997,0.0653534,0.0109638,0.0052332,0.00191998,0.0327858,0.0274581,-33,-1000,3.99348,3.99348,255.118,255.118,0.496
0.000909128,0.00111144,0.0654846,0.0110768,0.00531347,0.00225888,0.0328284,0.02772,-31,-1001,4.1241,4.1241,257.982,257.982,0.5
0.000930543,0.00112354,0.065616,0.0111873,0.00539428,0.0025136,0.0328713,0.0276931,-30,-1005,4.24437,4.24437,260.838,260.838,0.504
0.000952283,0.00113632,0.0657476,0.0112989,0.00547563,0.002741,0.0329145,0.0277616,-28,-1008,4.35774,4.35774,263.698,263.698,0.508
0.000974349,0.00114945,0.0658793,0.0114112,0.00555751,0.00292139,0.032958,0.0278648,-28,-1010,4.46545,4.46545,266.558,266.558,0.512
0.000996744,0.00116292,0.0660112,0.0115232,0.00563993,0.00307044,0.0330017,0.0279048,-27,-1014,4.56947,4.56947,269.416,269.416,0.516
0.00101947,0.00117709,0.0661433,0.0116316,0.00572288,0.00322739,0.0330457,0.0276435,-27,-1020,4.67106,4.67106,272.277,272.277,0.52
0.00104253,0.00119264,0.0662756,0.0117398,0.00580636,0.00344718,0.03309,0.0274406,-25,-1025,4.7697,4.7697,275.151,275.151,0.524
0.00106592,0.00120887,0.066408,0.0118465,0.00589036,0.0036513,0.0331346,0.0271901,-24,-1031,4.86294,4.86294,278.037,278.037,0.528
0.00108965,0.0012258,0.0665407,0.0119505,0.0059749,0.00384495,0.0331794,0.0267928,-24,-1039,4.95141,4.95141,280.938,280.938,0.532
0.00111372,0.00124273,0.0666735,0.0120518,0.00605996,0.00397406,0.0332245,0.0262976,-23,-1047,5.03575,5.03575,283.858,283.858,0.536
0.00113813,0.00125897,0.0668065,0.012153,0.00614555,0.00400254,0.0332699,0.0259675,-24,-1054,5.11886,5.11886,286.803,286.803,0.54
0.00116289,0.00127244,0.0669396,0.0122518,0.00623166,0.00379121,0.0333156,0.0255459,-27,-1062,5.20555,5.20555,289.766,289.766,0.544
0.00118799,0.00128454,0.067073,0.0123503,0.00631829,0.00353516,0.0333615,0.025236,-31,-1068,5.30566,5.30566,292.75,292.75,0.548
0.00121343,0.00129663,0.0672065,0.0124522,0.00640544,0.00336445,0.0334078,0.0253173,-33,-1071,5.4208,5.4208,295.749,295.749,0.552
0.00123923,0.00130941,0.0673403,0.0125562,0.00649311,0.00330823,0.0334543,0.0255443,-35,-1073,5.54728,5.54728,298.748,298.748,0.556
0.00126538,0.00132323,0.0674742,0.0126605,0.00658129,0.00335713,0.033501,0.0257244,-36,-1075,5.68023,5.68023,301.741,301.741,0.56
0.00129188,0.00133878,0.0676083,0.0127662,0.00666999,0.00353368,0.033548,0.0259596,-35,-1077,5.81508,5.81508,304.729,304.729,0.564
0.00131874,0.00135467,0.0677426,0.0128689,0.0067592,0.00368017,0.0335953,0.0258573,-35,-1081,5.9468,5.9468,307.712,307.712,0.568
0.00134596,0.0013716,0.067877,0.0129701,0.00684892,0.0038642,0.0336429,0.0256739,-34,-1087,6.07649,6.07649,310.703,310.703,0.572
0.00137353,0.00138957,0.0680117,0.0130713,0.00693915,0.00407326,0.0336907,0.0255517,-33,-1092,6.20257,6.20257,313.705,313.705,0.576
0.00140147,0.00140857,0.0681466,0.0131746,0.00702989,0.00429901,0.0337388,0.025643,-32,-1095,6.32399,6.32399,316.716,316.716,0.58
0.00142977,0.00142861,0.0682816,0.0132758,0.00712114,0.00453588,0.0337872,0.025531,-31,-1100,6.44004,6.44004,319.726,319.726,0.584
0.00145844,0.00144968,0.0684169,0.0133774,0.00721289,0.00478017,0.0338358,0.0254852,-30,-1104,6.55023,6.55023,322.745,322.745,0.588
0.00148747,0.00147076,0.0685523,0.0134811,0.00730515,0.00494302,0.0338847,0.0256274,-29,-1107,6.65453,6.65453,325.77,325.77,0.592
0.00151688,0.00149079,0.0686879,0.0135892,0.0073979,0.00496522,0.0339338,0.0260965,-30,-1106,6.75662,6.75662,328.79,328.79,0.596
0.00154666,0.00151049,0.0688238,0.0136998,0.00749116,0.00495123,0.0339833,0.0266108,-31,-1105,6.8623,6.8623,331.794,331.794,0.6
0.00157681,0.00153053,0.0689598,0.0138107,0.00758492,0.00497069,0.0340329,0.0269824,-32,-1105,6.97297,6.97297,334.78,334.78,0.604
0.00160734,0.00155126,0.069096,0.0139226,0.00767917,0.00504125,0.0340829,0.0273165,-33,-1105,7.08715,7.08715,337.754,337.754,0.608
0.00163824,0.00157302,0.0692325,0.0140352,0.00777392,0.00517466,0.034133,0.0275969,-33,-1106,7.20263,7.20263,340.717,340.717,0.612
0.00166953,0.00159617,0.0693691,0.0141513,0.00786916,0.00537877,0.0341835,0.0280717,-32,-1106,7.31669,7.31669,343.671,343.671,0.616
0.0017012,0.00161932,0.0695059,0.0142698,0.00796489,0.00551484,0.0342342,0.0285897,-32,-1104,7.4267,7.4267,346.607,346.607,0.62
0.00173325,0.0016435,0.069643,0.0143873,0.00806112,0.00569192,0.0342852,0.0288487,-31,-1105,7.53528,7.53528,349.526,349.526,0.624
0.00176569,0.00166769,0.0697802,0.0145054,0.00815783,0.00580998,0.0343364,0.029079,-31,-1107,7.64096,7.64096,352.436,352.436,0.628
0.00179851,0.00169222,0.0699177,0.0146281,0.00825503,0.00591748,0.0343878,0.0296068,-31,-1105,7.74617,7.74617,355.339,355.339,0.632
0.00183173,0.00171605,0.0700553,0.0147487,0.00835272,0.00593156,0.0344396,0.0297859,-32,-1107,7.85163,7.85163,358.224,358.224,0.636
0.00186534,0.00174024,0.0701932,0.014871,0.00845089,0.00596974,0.0344915,0.0300492,-33,-1108,7.96105,7.96105,361.104,361.104,0.64
0.00189934,0.00176477,0.0703312,0.0149936,0.00854955,0.00602398,0.0345438,0.0302536,-34,-1110,8.07346,8.07346,363.976,363.976,0.644
0.00193373,0.00179033,0.0704695,0.0151163,0.00864868,0.00614652,0.0345963,0.0303898,-34,-1112,8.18801,8.18801,366.842,366.842,0.648
0.00196853,0.00181797,0.070608,0.0152403,0.0087483,0.00640095,0.034649,0.0305958,-32,-1113,8.3016,8.3016,369.705,369.705,0.652
0.00200372,0.00184561,0.0707467,0.0153657,0.00884839,0.00657057,0.034702,0.0308483,-32,-1115,8.40917,8.40917,372.563,372.563,0.656
0.00203931,0.00187394,0.0708856,0.0154925,0.00894896,0.00674124,0.0347552,0.0311318,-31,-1115,8.51414,8.51414,375.412,375.412,0.66
0.00207531,0.00190124,0.0710248,0.0156221,0.00905,0.00676864,0.0348087,0.0315511,-32,-1115,8.6169,8.6169,378.252,378.252,0.664
0.00211172,0.00192957,0.0711641,0.0157551,0.00915152,0.00687328,0.0348624,0.0321186,-32,-1113,8.723,8.723,381.076,381.076,0.668
0.00214853,0.0019579,0.0713037,0.0158895,0.00925351,0.00694305,0.0349163,0.0326121,-33,-1111,8.82947,8.82947,383.879,383.879,0.672
0.00218574,0.00198623,0.0714434,0.0160329,0.00935597,0.00698955,0.0349706,0.0336896,-34,-1104,8.9378,8.9378,386.662,386.662,0.676
0.00222337,0.00201525,0.0715834,0.0161807,0.0094589,0.00707814,0.035025,0.0347823,-34,-1097,9.04884,9.04884,389.401,389.401,0.68
0.00226142,0.00204565,0.0717236,0.0163379,0.00956229,0.00725236,0.0350797,0.036288,-33,-1086,9.16065,9.16065,392.095,392.095,0.684
0.00229987,0.00207606,0.0718641,0.0165051,0.00966615,0.00736851,0.0351346,0.0381268,-34,-1071,9.26998,9.26998,394.725,394.725,0.688
0.00233875,0.00210439,0.0720047,0.016672,0.00977048,0.00727319,0.0351898,0.0393239,-36,-1062,9.37983,9.37983,397.28,397.28,0.692
0.00237804,0.00213306,0.0721456,0.0168448,0.00987527,0.00723844,0.0352452,0.0406114,-37,-1052,9.49855,9.49855,399.785,399.785,0.696
0.00241775,0.00216208,0.0722867,0.0170234,0.00998051,0.00724407,0.0353009,0.0419592,-38,-1042,9.62363,9.62363,402.236,402.236,0.7
0.00245788,0.00219214,0.072428,0.0172082,0.0100862,0.00733419,0.0353568,0.0433759,-39,-1031,9.75324,9.75324,404.631,404.631,0.704
0.00249844,0.00222324,0.0725695,0.0173899,0.0101924,0.00748064,0.0354129,0.0440613,-39,-1027,9.88384,9.88384,406.967,406.967,0.708
0.00253942,0.00225398,0.0727113,0.0175686,0.010299,0.00754949,0.0354693,0.0442591,-39,-1027,10.0134,10.0134,409.277,409.277,0.712
0.00258083,0.00228439,0.0728533,0.017743,0.0104061,0.00756659,0.0355259,0.0440455,-40,-1032,10.1453,10.1453,411.58,411.58,0.716
0.00262267,0.00231548,0.0729955,0.0179203,0.0105136,0.00763558,0.0355827,0.0441334,-41,-1034,10.2813,10.2813,413.891,413.891,0.72
0.00266494,0.00234554,0.0731379,0.0180975,0.0106216,0.0075952,0.0356398,0.044192,-43,-1035,10.4199,10.4199,416.2,416.2,0.724
0.00270764,0.00237491,0.0732806,0.0182768,0.01073,0.00751069,0.0356971,0.0444038,-45,-1036,10.5656,10.5656,418.507,418.507,0.728
0.00275078,0.00240393,0.0734235,0.0184579,0.0108389,0.00742557,0.0357547,0.044689,-47,-1036,10.7202,10.7202,420.805,420.805,0.732
0.00279436,0.00243191,0.0735667,0.0186392,0.0109482,0.00728244,0.0358124,0.0449079,-50,-1036,10.8839,10.8839,423.092,423.092,0.736
0.00283837,0.00245817,0.07371,0.018823,0.011058,0.00704307,0.0358705,0.0452554,-54,-1035,11.0595,11.0595,425.37,425.37,0.74
0.00288282,0.00248201,0.0738536,0.0190082,0.0111682,0.00668196,0.0359287,0.0456022,-59,-1034,11.2513,11.2513,427.633,427.633,0.744
0.00292771,0.00250308,0.0739975,0.0191972,0.0112789,0.00621088,0.0359871,0.0461501,-65,-1031,11.4646,11.4646,429.882,429.882,0.748
0.00297305,0.00252278,0.0741415,0.0193876,0.01139,0.00578167,0.0360458,0.0466305,-70,-1029,11.7038,11.7038,432.108,432.108,0.752
0.00301883,0.00254074,0.0742858,0.0195793,0.0115015,0.00535158,0.0361048,0.047066,-76,-1027,11.9673,11.9673,434.314,434.314,0.756
0.00306506,0.00255663,0.0744304,0.019768,0.0116135,0.0048921,0.0361639,0.0470972,-82,-1029,12.2555,12.2555,436.503,436.503,0.76
0.00311174,0.00257149,0.0745751,0.0199573,0.0117259,0.00449941,0.0362233,0.0471755,-88,-1030,12.5694,12.5694,438.691,438.691,0.764
0.00315887,0.00258566,0.0747201,0.0201345,0.0118387,0.00418003,0.0362829,0.0462201,-93,-1042,12.9062,12.9062,440.878,440.878,0.768
0.00320645,0.00260017,0.0748654,0.0203066,0.011952,0.00399591,0.0363427,0.0451513,-96,-1055,13.2628,13.2628,443.108,443.108,0.772
0.00325449,0.00261571,0.0750109,0.0204683,0.0120657,0.00395953,0.0364027,0.043575,-99,-1072,13.6332,13.6332,445.386,445.386,0.776
0.00330298,0.0026323,0.0751566,0.0206272,0.0121799,0.00402165,0.036463,0.0422938,-100,-1087,14.0113,14.0113,447.732,447.732,0.78
0.00335193,0.00264888,0.0753026,0.0207816,0.0122944,0.00406307,0.0365235,0.0410654,-101,-1102,14.3933,14.3933,450.134,450.134,0.784
0.00340134,0.00266443,0.0754488,0.020935,0.0124094,0.0040043,0.0365842,0.0401601,-104,-1114,14.7802,14.7802,452.589,452.589,0.788
0.0034512,0.0026779,0.0755953,0.0210895,0.0125248,0.00379238,0.0366451,0.039643,-108,-1122,15.1768,15.1768,455.083,455.083,0.792
0.00350153,0.00268861,0.075742,0.0212477,0.0126407,0.00342077,0.0367063,0.0396149,-113,-1125,15.5896,15.5896,457.601,457.601,0.796
0.00355233,0.00269759,0.0758889,0.0214125,0.0127569,0.00302908,0.0367676,0.0401432,-119,-1123,16.0252,16.0252,460.119,460.119,0.8
0.00360359,0.00270485,0.0760361,0.021579,0.0128736,0.002624,0.0368292,0.0406394,-125,-1121,16.4847,16.4847,462.618,462.618,0.804
0.00365532,0.00271038,0.0761835,0.0217552,0.0129907,0.00220999,0.036891,0.0417763,-131,-1113,16.9686,16.9686,465.095,465.095,0.808
0.00370752,0.00271591,0.0763312,0.0219332,0.0131083,0.00193398,0.036953,0.0426782,-136,-1107,17.4771,17.4771,467.525,467.525,0.812
0.00376019,0.00272143,0.0764792,0.022119,0.0132262,0.00174997,0.0370152,0.0439416,-140,-1097,18.0045,18.0045,469.918,469.918,0.816
0.00381333,0.00272731,0.0766274,0.0223066,0.0133446,0.00165609,0.0370777,0.0449279,-143,-1090,18.5467,18.5467,472.258,472.258,0.82
0.00386694,0.00273353,0.0767758,0.0224984,0.0134633,0.0016223,0.0371403,0.0459309,-146,-1083,19.1002,19.1002,474.558,474.558,0.824
0.00392103,0.00274078,0.0769245,0.0226891,0.0135825,0.00168614,0.0372032,0.0465132,-147,-1080,19.6622,19.6622,476.816,476.816,0.828
0.0039756,0.00274838,0.0770734,0.0228822,0.0137021,0.0017575,0.0372663,0.0471029,-149,-1077,20.2289,20.2289,479.051,479.051,0.832
0.00403065,0.00275598,0.0772226,0.0230726,0.0138221,0.00180506,0.0373295,0.0472657,-151,-1077,20.7999,20.7999,481.262,481.262,0.836
0.00408618,0.00276427,0.0773721,0.0232612,0.0139425,0.00189436,0.037393,0.0472303,-152,-1080,21.3763,21.3763,483.468,483.468,0.84
0.00414219,0.00277153,0.0775218,0.0234519,0.0140633,0.00186751,0.0374567,0.0473795,-155,-1081,21.9566,21.9566,485.675,485.675,0.844
0.00419869,0.00277809,0.0776717,0.023644,0.0141845,0.00179204,0.0375206,0.0475941,-158,-1081,22.5458,22.5458,487.877,487.877,0.848
0.00425567,0.00278431,0.0778219,0.0238392,0.0143061,0.00171293,0.0375848,0.0479963,-161,-1080,23.1459,23.1459,490.069,490.069,0.852
0.00431314,0.0027895,0.0779724,0.0240344,0.0144282,0.00157382,0.0376491,0.0482644,-164,-1080,23.7572,23.7572,492.246,492.246,0.856
0.00437109,0.00279537,0.0781231,0.0242355,0.0145506,0.00153866,0.0377136,0.0489326,-167,-1075,24.3819,24.3819,494.41,494.41,0.86
0.00442954,0.00280055,0.0782741,0.0244383,0.0146734,0.00145763,0.0377784,0.049522,-170,-1072,25.016,25.016,496.547,496.547,0.864
0.00448848,0.00280573,0.0784253,0.024647,0.0147966,0.00140362,0.0378433,0.0504044,-173,-1066,25.6613,25.6613,498.658,498.658,0.868
0.00454792,0.00281126,0.0785768,0.0248598,0.0149202,0.0013964,0.0379084,0.0513381,-176,-1059,26.3167,26.3167,500.731,500.731,0.872
0.00460784,0.00281713,0.0787286,0.0250778,0.0150442,0.00142038,0.0379738,0.0523925,-178,-1050,26.9803,26.9803,502.764,502.764,0.876
0.00466827,0.00282301,0.0788806,0.0253013,0.0151686,0.00143637,0.0380393,0.0535561,-180,-1041,27.6508,27.6508,504.752,504.752,0.88
0.00472919,0.00283061,0.0790329,0.0255294,0.0152934,0.00159098,0.0381051,0.054706,-181,-1032,28.3281,28.3281,506.69,506.69,0.884
0.00479062,0.00283855,0.0791855,0.0257605,0.0154186,0.00172284,0.038171,0.0557318,-183,-1024,29.0068,29.0068,508.578,508.578,0.888
0.00485254,0.00284685,0.0793383,0.0259961,0.0155441,0.00183954,0.0382371,0.05679,-184,-1015,29.6879,29.6879,510.422,510.422,0.892
0.00491497,0.00285445,0.0794914,0.0262335,0.0156701,0.00185976,0.0383035,0.0576393,-186,-1008,30.3723,30.3723,512.22,512.22,0.896
0.0049779,0.0028617,0.0796447,0.0264764,0.0157964,0.00184445,0.03837,0.0586662,-189,-1000,31.064,31.064,513.98,513.98,0.9
0.00504134,0.00286689,0.0797983,0.0267203,0.0159231,0.0016615,0.0384367,0.0594372,-193,-994,31.765,31.765,515.696,515.696,0.904
0.00510529,0.00287138,0.0799522,0.026969,0.0160502,0.00148195,0.0385037,0.0603543,-198,-986,32.4821,32.4821,517.378,517.378,0.908
0.00516975,0.00287483,0.0801064,0.0272192,0.0161777,0.00127587,0.0385708,0.0610808,-202,-981,33.2152,33.2152,519.019,519.019,0.912
0.00523471,0.00287621,0.0802608,0.0274721,0.0163056,0.000965747,0.0386381,0.0617955,-208,-975,33.9659,33.9659,520.628,520.628,0.916
0.00530019,0.0028776,0.0804155,0.0277243,0.0164338,0.000758995,0.0387056,0.0622144,-213,-972,34.7381,34.7381,522.205,522.205,0.92
0.00536618,0.00287794,0.0805704,0.0279755,0.0165624,0.000534787,0.0387733,0.0624073,-217,-971,35.5278,35.5278,523.764,523.764,0.924
0.00543269,0.00287898,0.0807257,0.0282263,0.0166914,0.000442898,0.0388412,0.062507,-221,-972,36.3354,36.3354,525.312,525.312,0.928
0.00549971,0.00288105,0.0808812,0.0284792,0.0168208,0.000468011,0.0389093,0.0627463,-224,-971,37.1552,37.1552,526.855,526.855,0.932
0.00556726,0.00288312,0.0810369,0.028729,0.0169505,0.000484753,0.0389776,0.0626467,-226,-973,37.9828,37.9828,528.386,528.386,0.936
0.00563532,0.00288589,0.081193,0.0289767,0.0170806,0.000553496,0.039046,0.0624076,-228,-976,38.8181,38.8181,529.92,529.92,0.94
0.0057039,0.00288934,0.0813493,0.0292223,0.0172111,0.000656906,0.0391147,0.0620754,-230,-981,39.6592,39.6592,531.464,531.464,0.944
0.00577301,0.00289314,0.0815059,0.0294631,0.0173419,0.000754638,0.0391835,0.0614509,-232,-988,40.5046,40.5046,533.02,533.02,0.948
0.00584264,0.00289798,0.0816628,0.0297001,0.0174731,0.000906165,0.0392525,0.0607178,-234,-996,41.3544,41.3544,534.603,534.603,0.952
0.00591279,0.00290351,0.0818199,0.0299392,0.0176047,0.00106476,0.0393217,0.0604019,-235,-1001,42.2066,42.2066,536.214,536.214,0.956
0.00598348,0.00290973,0.0819773,0.0301748,0.0177366,0.00122808,0.0393911,0.0599033,-236,-1007,43.0606,43.0606,537.838,537.838,0.96
0.00605469,0.00291733,0.082135,0.0304112,0.0178689,0.00145212,0.0394607,0.0596285,-237,-1011,43.9163,43.9163,539.482,539.482,0.964
0.00612643,0.00292596,0.082293,0.030654,0.0180015,0.00168785,0.0395305,0.0599924,-237,-1009,44.7712,44.7712,541.135,541.135,0.968
0.0061987,0.00293667,0.0824513,0.0308966,0.0181345,0.00201775,0.0396004,0.0602061,-237,-1008,45.6244,45.6244,542.772,542.772,0.972
0.0062715,0.00294911,0.0826098,0.0311401,0.0182679,0.00238164,0.0396705,0.060435,-236,-1007,46.4721,46.4721,544.398,544.398,0.976
0.00634484,0.00296604,0.0827686,0.0313868,0.0184016,0.00299852,0.0397408,0.0608467,-233,-1005,47.3121,47.3121,546.013,546.013,0.98
0.00641872,0.00298608,0.0829278,0.0316345,0.0185357,0.00366889,0.0398113,0.0612076,-229,-1003,48.134,48.134,547.61,547.61,0.984
0.00649313,0.00300992,0.0830871,0.0318802,0.0186701,0.0044325,0.039882,0.0612754,-225,-1003,48.9353,48.9353,549.191,549.191,0.988
0.00656808,0.00303825,0.0832468,0.0321317,0.0188049,0.00531585,0.0399528,0.0618101,-219,-999,49.7119,49.7119,550.766,550.766,0.992
0.00664357,0.00307072,0.0834068,0.0323853,0.01894,0.00625025,0.0400238,0.0623392,-212,-995,50.4585,50.4585,552.317,552.317,0.996
0.0067196,0.00310804,0.083567,0.0326448,0.0190755,0.00727625,0.040095,0.0631815,-205,-988,51.1728,51.1728,553.843,553.843,1
0.00679617,0.00315053,0.0837275,0.0329053,0.0192113,0.00839212,0.0401664,0.0638293,-196,-983,51.8507,51.8507,555.332,555.332,1.004
0.00687329,0.00319959,0.0838883,0.0331727,0.0193475,0.00968306,0.0402379,0.0648371,-186,-975,52.4877,52.4877,556.791,556.791,1.008
0.00695095,0.00325694,0.0840494,0.033446,0.019484,0.0112347,0.0403096,0.0659983,-173,-964,53.076,53.076,558.205,558.205,1.012
0.00702916,0.00332051,0.0842108,0.0337158,0.0196208,0.0127873,0.0403815,0.0664846,-160,-961,53.6048,53.6048,559.569,559.569,1.016
0.00710792,0.00339169,0.0843725,0.0339846,0.019758,0.0144558,0.0404536,0.0667224,-146,-959,54.0734,54.0734,560.911,560.911,1.02
0.00718723,0.00346977,0.0845344,0.034251,0.0198956,0.016144,0.0405258,0.0666794,-131,-960,54.4768,54.4768,562.241,562.241,1.024
0.00726709,0.00355165,0.0846967,0.0345115,0.0200334,0.0175861,0.0405982,0.0661613,-119,-966,54.8148,54.8148,563.573,563.573,1.028
0.0073475,0.00363975,0.0848592,0.034765,0.0201717,0.0190657,0.0406708,0.0652401,-106,-976,55.0968,55.0968,564.926,564.926,1.032
0.00742846,0.00373407,0.0850221,0.035011,0.0203102,0.0205704,0.0407435,0.0639925,-93,-989,55.321,55.321,566.318,566.318,1.036
0.00750998,0.00383184,0.0851852,0.0352484,0.0204491,0.0218614,0.0408164,0.062441,-82,-1006,55.4869,55.4869,567.763,567.763,1.04
0.00759205,0.00393169,0.0853486,0.0354823,0.0205883,0.0228949,0.0408895,0.0611188,-73,-1020,55.6034,55.6034,569.272,569.272,1.044
0.00767468,0.00403568,0.0855123,0.035711,0.0207278,0.0239293,0.0409628,0.0598055,-65,-1034,55.6809,55.6809,570.838,570.838,1.048
0.00775788,0.00414071,0.0856763,0.0359311,0.0208677,0.0247053,0.0410362,0.0582101,-58,-1051,55.7199,55.7199,572.46,572.46,1.052
0.00784163,0.00424712,0.0858406,0.0361453,0.0210079,0.0253378,0.0411098,0.0566571,-53,-1068,55.731,55.731,574.149,574.149,1.056
0.00792594,0.00435388,0.0860052,0.036355,0.0211484,0.0257883,0.0411835,0.0552475,-50,-1083,55.7206,55.7206,575.905,575.905,1.06
0.00801081,0.00446271,0.08617,0.0365606,0.0212893,0.0262613,0.0412574,0.0539623,-46,-1098,55.6958,55.6958,577.722,577.722,1.064
0.00809625,0.00457016,0.0863352,0.0367644,0.0214304,0.0264615,0.0413315,0.0529615,-46,-1109,55.6564,55.6564,579.593,579.593,1.068
0.00818226,0.00467864,0.0865007,0.0369717,0.0215719,0.0266814,0.0414057,0.0525822,-45,-1115,55.6134,55.6134,581.506,581.506,1.072
0.00826883,0.00478885,0.0866665,0.0371821,0.0217137,0.0269719,0.0414801,0.0525885,-43,-1117,55.5657,55.5657,583.435,583.435,1.076
0.00835597,0.00489699,0.0868325,0.0373949,0.0218559,0.0269928,0.0415547,0.0527942,-44,-1117,55.5113,55.5113,585.364,585.364,1.08
0.00844368,0.00500478,0.0869989,0.0376191,0.0219983,0.026978,0.0416294,0.0538814,-45,-1109,55.4612,55.4612,587.283,587.283,1.084
0.00853196,0.00511189,0.0871656,0.0378465,0.0221411,0.0269105,0.0417043,0.0548654,-47,-1101,55.417,55.417,589.156,589.156,1.088
0.00862081,0.00522072,0.0873325,0.0380811,0.0222842,0.0270095,0.0417793,0.056126,-47,-1091,55.3804,55.3804,590.987,590.987,1.092
0.00871023,0.00532782,0.0874998,0.0383274,0.0224276,0.0269315,0.0418545,0.0579452,-49,-1075,55.3452,55.3452,592.763,592.763,1.096
0.00880023,0.00543561,0.0876674,0.0385772,0.0225713,0.0269371,0.0419298,0.059446,-50,-1062,55.3184,55.3184,594.462,594.462,1.1
0.0088908,0.00554479,0.0878352,0.0388332,0.0227153,0.027056,0.0420053,0.0609647,-50,-1049,55.2962,55.2962,596.096,596.096,1.104
0.00898195,0.00565223,0.0880034,0.0390947,0.0228596,0.0269913,0.042081,0.0624379,-52,-1036,55.2748,55.2748,597.665,597.665,1.108
0.00907368,0.00575899,0.0881719,0.0393559,0.0230043,0.0268906,0.0421568,0.0633912,-54,-1028,55.2616,55.2616,599.172,599.172,1.112
0.00916598,0.00586644,0.0883407,0.0396195,0.0231492,0.026881,0.0422327,0.0642283,-55,-1022,55.2579,55.2579,600.637,600.637,1.116
0.00925887,0.00597458,0.0885098,0.0398866,0.0232945,0.0269323,0.0423089,0.0650742,-56,-1015,55.2599,55.2599,602.066,602.066,1.12
0.00935234,0.00608237,0.0886791,0.0401564,0.02344,0.0269376,0.0423851,0.0658685,-57,-1008,55.2652,55.2652,603.457,603.457,1.124
0.00944639,0.00619327,0.0888488,0.0404308,0.0235859,0.0272003,0.0424615,0.0667724,-56,-1000,55.2751,55.2751,604.812,604.812,1.128
0.00954103,0.0063059,0.0890188,0.0407082,0.023732,0.0275194,0.0425381,0.067634,-54,-993,55.279,55.279,606.128,606.128,1.132
0.00963625,0.00641784,0.0891891,0.0409908,0.0238785,0.0276745,0.0426148,0.0686403,-54,-984,55.2752,55.2752,607.405,607.405,1.136
0.00973206,0.00653358,0.0893598,0.0412813,0.0240253,0.0280946,0.0426917,0.0699734,-51,-972,55.2693,55.2693,608.635,608.635,1.14
0.00982845,0.0066507,0.0895307,0.0415754,0.0241723,0.0284899,0.0427687,0.07115,-48,-961,55.2509,55.2509,609.807,609.807,1.144
0.00992544,0.0067661,0.0897019,0.0418687,0.0243197,0.0286094,0.0428459,0.0718768,-48,-955,55.2217,55.2217,610.928,610.928,1.148
0.010023,0.00688529,0.0898734,0.0421662,0.0244673,0.0290058,0.0429232,0.0727069,-46,-947,55.1919,55.1919,612.015,612.015,1.152
0.0101212,0.00700656,0.0900453,0.0424657,0.0246152,0.0294428,0.0430006,0.073433,-43,-941,55.1504,55.1504,613.064,613.064,1.156
0.0102199,0.00712714,0.0902175,0.0427683,0.0247635,0.0296766,0.0430782,0.0741762,-41,-934,55.096,55.096,614.08,614.08,1.16
0.0103193,0.00724702,0.0903899,0.0430675,0.024912,0.0297748,0.043156,0.0743837,-42,-932,55.0373,55.0373,615.063,615.063,1.164
0.0104192,0.00736863,0.0905627,0.0433695,0.0250608,0.0299843,0.0432339,0.0747524,-41,-929,54.9794,54.9794,616.033,616.033,1.168
0.0105198,0.00749025,0.0907358,0.0436721,0.0252099,0.0301239,0.0433119,0.0750558,-41,-926,54.918,54.918,616.985,616.985,1.172
0.0106209,0.0076129,0.0909092,0.0439745,0.0253593,0.0303034,0.0433901,0.0752293,-40,-925,54.8559,54.8559,617.922,617.922,1.176
0.0107226,0.00773555,0.0910829,0.0442764,0.0255089,0.030423,0.0434684,0.0753161,-40,-924,54.7917,54.7917,618.848,618.848,1.18
0.010825,0.00785716,0.0912569,0.044578,0.0256589,0.0304164,0.0435468,0.0753452,-41,-924,54.7281,54.7281,619.768,619.768,1.184
0.0109279,0.00798084,0.0914313,0.0448765,0.0258091,0.0305848,0.0436254,0.0751055,-41,-927,54.6697,54.6697,620.685,620.685,1.188
0.0110315,0.00810453,0.0916059,0.0451709,0.0259596,0.030697,0.0437041,0.0746002,-41,-932,54.6097,54.6097,621.61,621.61,1.192
0.0111356,0.00822649,0.0917809,0.0454621,0.0261104,0.0306279,0.043783,0.0740042,-43,-938,54.5509,54.5509,622.555,622.555,1.196
0.0112403,0.00835156,0.0919562,0.0457461,0.0262615,0.0308409,0.043862,0.0730023,-42,-948,54.4998,54.4998,623.523,623.523,1.2
0.0113457,0.00847628,0.0921318,0.046026,0.0264128,0.0309541,0.0439412,0.0719888,-42,-959,54.4454,54.4454,624.533,624.533,1.204
0.0114516,0.00860066,0.0923077,0.0463044,0.0265644,0.0310008,0.0440204,0.071198,-43,-967,54.3918,54.3918,625.583,625.583,1.208
0.0115582,0.00872572,0.092484,0.046575,0.0267163,0.0310895,0.0440998,0.0700087,-43,-979,54.3417,54.3417,626.666,626.666,1.212
0.0116654,0.00885045,0.0926605,0.0468486,0.0268685,0.0311199,0.0441794,0.0694749,-44,-985,54.2935,54.2935,627.796,627.796,1.216
0.0117731,0.0089762,0.0928374,0.0471177,0.0270209,0.0312265,0.0442591,0.0687447,-44,-993,54.2495,54.2495,628.948,628.948,1.22
0.0118815,0.00910369,0.0930146,0.0473858,0.0271736,0.0314415,0.0443389,0.0681716,-43,-1000,54.2062,54.2062,630.13,630.13,1.224
0.0119905,0.00922945,0.0931921,0.0476557,0.0273266,0.0314409,0.0444188,0.0679334,-45,-1003,54.16,54.16,631.334,631.334,1.228
0.0121001,0.00935694,0.09337,0.0479224,0.0274798,0.0315845,0.0444989,0.0675155,-44,-1008,54.1191,54.1191,632.548,632.548,1.232
0.0122104,0.00948442,0.0935481,0.0481891,0.0276333,0.0316802,0.0445791,0.067237,-45,-1011,54.0779,54.0779,633.778,633.778,1.236
0.0123212,0.00961122,0.0937266,0.0484569,0.0277871,0.0316864,0.0446594,0.0671376,-46,-1013,54.0386,54.0386,635.018,635.018,1.24
0.0124327,0.00973905,0.0939054,0.0487239,0.0279411,0.0317769,0.0447399,0.0670138,-46,-1016,54.0045,54.0045,636.262,636.262,1.244
0.0125447,0.00986757,0.0940845,0.0489889,0.0280954,0.0318948,0.0448205,0.0667585,-46,-1019,53.9723,53.9723,637.51,637.51,1.248
0.0126574,0.00999644,0.094264,0.0492546,0.0282499,0.0320022,0.0449012,0.0666459,-47,-1021,53.9409,53.9409,638.768,638.768,1.252
0.0127707,0.010125,0.0944437,0.0495144,0.0284047,0.032045,0.0449821,0.0660814,-48,-1028,53.9109,53.9109,640.032,640.032,1.256
0.0128847,0.0102542,0.0946238,0.0497773,0.0285598,0.0321312,0.045063,0.0659641,-48,-1030,53.8848,53.8848,641.318,641.318,1.26
0.0129992,0.0103837,0.0948042,0.0500368,0.0287151,0.0322174,0.0451441,0.0655981,-49,-1035,53.8609,53.8609,642.609,642.609,1.264
0.0131144,0.0105164,0.094985,0.0502935,0.0288707,0.032534,0.0452253,0.0651237,-47,-1041,53.8385,53.8385,643.915,643.915,1.268
0.0132302,0.0106463,0.095166,0.0505457,0.0290265,0.0325147,0.0453067,0.0644332,-48,-1049,53.8094,53.8094,645.242,645.242,1.272
0.0133466,0.0107776,0.0953474,0.0507934,0.0291826,0.032617,0.0453882,0.0635985,-49,-1058,53.7867,53.7867,646.598,646.598,1.276
0.0134637,0.0109103,0.0955291,0.0510394,0.0293389,0.0328004,0.0454697,0.0628982,-48,-1066,53.7653,53.7653,647.99,647.99,1.28
0.0135813,0.0110419,0.0957112,0.0512819,0.0294955,0.0328363,0.0455515,0.0621433,-49,-1075,53.7425,53.7425,649.412,649.412,1.284
0.0136996,0.011177,0.0958935,0.0515255,0.0296523,0.0331481,0.0456333,0.0617265,-47,-1081,53.7233,53.7233,650.866,650.866,1.288
0.0138185,0.01131,0.0960762,0.0517639,0.0298094,0.0331832,0.0457152,0.0610167,-48,-1089,53.6975,53.6975,652.339,652.339,1.292
0.0139381,0.0114434,0.0962593,0.052004,0.0299667,0.0332355,0.0457973,0.0606875,-49,-1094,53.6762,53.6762,653.841,653.841,1.296
0.0140583,0.0115781,0.0964426,0.0522434,0.0301242,0.0333854,0.0458795,0.0604105,-49,-1098,53.6584,53.6584,655.358,655.358,1.3
0.0141791,0.0117139,0.0966263,0.0524898,0.030282,0.0335718,0.0459618,0.0608016,-49,-1096,53.6401,53.6401,656.886,656.886,1.304
0.0143005,0.011849,0.0968103,0.0527313,0.0304401,0.0336384,0.0460442,0.0606592,-49,-1099,53.6203,53.6203,658.399,658.399,1.308
0.0144226,0.0119854,0.0969947,0.0529783,0.0305984,0.033798,0.0461268,0.061025,-49,-1097,53.6033,53.6033,659.917,659.917,1.312
0.0145453,0.0121212,0.0971793,0.0532312,0.0307569,0.0338469,0.0462094,0.0617583,-50,-1092,53.586,53.586,661.419,661.419,1.316
0.0146687,0.0122591,0.0973643,0.0534837,0.0309156,0.0340522,0.0462922,0.0622184,-49,-1089,53.5722,53.5722,662.891,662.891,1.32
0.0147926,0.0123962,0.0975497,0.0537377,0.0310746,0.0341314,0.0463751,0.0626402,-50,-1086,53.5562,53.5562,664.344,664.344,1.324
0.0149173,0.0125337,0.0977353,0.0539961,0.0312339,0.0342131,0.0464581,0.0632958,-51,-1082,53.5429,53.5429,665.778,665.778,1.328
0.0150425,0.0126754,0.0979213,0.0542573,0.0313933,0.034613,0.0465412,0.0639631,-48,-1077,53.5313,53.5313,667.185,667.185,1.332
0.0151684,0.0128143,0.0981077,0.0545192,0.031553,0.0346493,0.0466244,0.0644656,-49,-1073,53.5097,53.5097,668.564,668.564,1.336
0.0152949,0.0129542,0.0982943,0.0547828,0.0317129,0.0347598,0.0467077,0.0649445,-50,-1070,53.4925,53.4925,669.921,669.921,1.34
0.0154221,0.0130938,0.0984813,0.0550485,0.0318731,0.0348048,0.0467911,0.0654366,-50,-1066,53.477,53.477,671.258,671.258,1.344
0.0155499,0.0132351,0.0986687,0.0553176,0.0320335,0.0349787,0.0468747,0.0660525,-50,-1062,53.4655,53.4655,672.573,672.573,1.348
0.0156784,0.0133795,0.0988563,0.0555857,0.0321941,0.0353537,0.0469584,0.0663768,-48,-1060,53.452,53.452,673.863,673.863,1.352
0.0158075,0.0135204,0.0990443,0.0558514,0.0323549,0.0353158,0.0470421,0.0663914,-50,-1061,53.4299,53.4299,675.139,675.139,1.356
0.0159372,0.0136649,0.0992327,0.0561174,0.0325159,0.0355785,0.047126,0.0664299,-49,-1062,53.4148,53.4148,676.415,676.415,1.36
0.0160676,0.0138096,0.0994213,0.0563821,0.0326772,0.0357824,0.04721,0.0663405,-48,-1064,53.3948,53.3948,677.689,677.689,1.364
0.0161986,0.0139547,0.0996103,0.0566446,0.0328387,0.0359471,0.0472941,0.0661081,-48,-1067,53.3725,53.3725,678.967,678.967,1.368
0.0163303,0.0141012,0.0997997,0.0569076,0.0330004,0.0361721,0.0473782,0.065982,-47,-1070,53.3491,53.3491,680.255,680.255,1.372
0.0164626,0.0142456,0.0999894,0.0571743,0.0331623,0.0361493,0.0474625,0.0662146,-49,-1069,53.323,53.323,681.547,681.547,1.376
0.0165956,0.0143928,0.100179,0.0574448,0.0333245,0.0363645,0.0475469,0.0666863,-48,-1065,53.3035,53.3035,682.828,682.828,1.38
0.0167292,0.0145396,0.10037,0.0577164,0.0334869,0.0364791,0.0476314,0.0670872,-48,-1063,53.2814,53.2814,684.089,684.089,1.384
0.0168635,0.0146889,0.10056,0.0579872,0.0336494,0.0367571,0.047716,0.0672969,-47,-1062,53.2602,53.2602,685.333,685.333,1.388
0.0169984,0.0148371,0.100751,0.0582577,0.0338122,0.036856,0.0478007,0.0674079,-47,-1062,53.2338,53.2338,686.569,686.569,1.392
0.017134,0.014985,0.100943,0.0585234,0.0339752,0.0368932,0.0478856,0.0670788,-48,-1066,53.2098,53.2098,687.801,687.801,1.396
0.0172702,0.015136,0.101135,0.0587829,0.0341385,0.0371771,0.0479705,0.0663412,-47,-1075,53.1897,53.1897,689.048,689.048,1.4
0.0174071,0.0152845,0.101327,0.0590372,0.0343019,0.0371648,0.0480555,0.0654176,-49,-1085,53.1647,53.1647,690.327,690.327,1.404
0.0175446,0.0154365,0.101519,0.0592859,0.0344655,0.0374446,0.0481406,0.0643412,-47,-1097,53.1457,53.1457,691.646,691.646,1.408
0.0176828,0.0155868,0.101712,0.059535,0.0346294,0.0374871,0.0482258,0.0636524,-48,-1105,53.1217,53.1217,693.011,693.011,1.412
0.0178217,0.015742,0.101905,0.059789,0.0347934,0.0379185,0.0483111,0.0635963,-46,-1107,53.1012,53.1012,694.404,694.404,1.416
0.0179612,0.0158905,0.102098,0.0600381,0.0349576,0.0376591,0.0483965,0.0631558,-49,-1113,53.0706,53.0706,695.801,695.801,1.42
0.0181013,0.0160436,0.102292,0.0602965,0.0351221,0.0378605,0.0484819,0.0636395,-49,-1110,53.0562,53.0562,697.215,697.215,1.424
0.0182422,0.016198,0.102486,0.0605584,0.0352867,0.0381098,0.0485675,0.0642498,-48,-1106,53.0395,53.0395,698.609,698.609,1.428
0.0183836,0.0163504,0.102681,0.0608203,0.0354516,0.0381034,0.0486532,0.0646567,-49,-1103,53.0193,53.0193,699.978,699.978,1.432
0.0185258,0.0165058,0.102875,0.0610849,0.0356167,0.0383582,0.048739,0.0651583,-48,-1100,53.005,53.005,701.329,701.329,1.436
0.0186686,0.0166592,0.10307,0.0613495,0.0357819,0.0383553,0.0488248,0.0654927,-50,-1098,52.9871,52.9871,702.66,702.66,1.44
0.018812,0.0168151,0.103266,0.0616118,0.0359473,0.0385549,0.0489108,0.0655141,-49,-1099,52.9752,52.9752,703.978,703.978,1.444
0.0189561,0.0169709,0.103462,0.061875,0.036113,0.038688,0.0489968,0.0656148,-50,-1100,52.9614,52.9614,705.296,705.296,1.448
0.0191009,0.017127,0.103658,0.062139,0.0362788,0.0388055,0.049083,0.0657395,-50,-1100,52.9485,52.9485,706.609,706.609,1.452
0.0192464,0.0172839,0.103854,0.0624081,0.0364448,0.0389414,0.0491692,0.0662544,-50,-1096,52.9371,52.9371,707.917,707.917,1.456
0.0193925,0.0174414,0.104051,0.062678,0.0366111,0.0390896,0.0492555,0.0666553,-50,-1094,52.9264,52.9264,709.203,709.203,1.46
0.0195393,0.0176024,0.104248,0.0629523,0.0367775,0.0394763,0.0493419,0.0672969,-48,-1089,52.9151,52.9151,710.471,710.471,1.464
0.0196867,0.01776,0.104446,0.063229,0.0369441,0.0394462,0.0494284,0.0679261,-50,-1084,52.895,52.895,711.712,711.712,1.468
0.0198348,0.0179213,0.104644,0.0635082,0.0371109,0.0397428,0.049515,0.0685471,-48,-1079,52.8819,52.8819,712.926,712.926,1.472
0.0199836,0.0180809,0.104842,0.0637891,0.0372778,0.0397966,0.0496017,0.0691051,-49,-1075,52.8633,52.8633,714.114,714.114,1.476
0.020133,0.0182423,0.105041,0.0640713,0.037445,0.0399764,0.0496884,0.0695923,-49,-1071,52.8486,52.8486,715.278,715.278,1.48
0.0202832,0.0184057,0.10524,0.0643543,0.0376123,0.0402691,0.0497753,0.0699746,-48,-1069,52.8324,52.8324,716.422,716.422,1.484
0.0204339,0.0185684,0.105439,0.0646428,0.0377798,0.0404066,0.0498622,0.0706902,-48,-1063,52.8107,52.8107,717.548,717.548,1.488
0.0205854,0.0187322,0.105638,0.0649326,0.0379475,0.0405846,0.0499492,0.0712824,-47,-1058,52.7896,52.7896,718.643,718.643,1.492
0.0207375,0.0188949,0.105838,0.0652253,0.0381154,0.0406169,0.0500363,0.0719075,-49,-1053,52.768,52.768,719.712,719.712,1.496
0.0208903,0.0190611,0.106039,0.0655231,0.0382835,0.0409264,0.0501234,0.0727561,-47,-1046,52.7507,52.7507,720.753,720.753,1.5
0.0210438,0.0192252,0.106239,0.0658237,0.0384517,0.0409599,0.0502107,0.0735522,-48,-1039,52.7276,52.7276,721.758,721.758,1.504
0.0211979,0.0193914,0.10644,0.0661294,0.0386201,0.0411551,0.050298,0.0745147,-48,-1030,52.7092,52.7092,722.727,722.727,1.508
0.0213528,0.0195558,0.106642,0.0664369,0.0387887,0.0411412,0.0503854,0.0753004,-49,-1023,52.6897,52.6897,723.654,723.654,1.512
0.0215082,0.0197258,0.106844,0.0667499,0.0389575,0.0415926,0.0504729,0.0762849,-47,-1014,52.6762,52.6762,724.546,724.546,1.516
0.0216644,0.0198899,0.107046,0.067055,0.0391264,0.0414041,0.0505605,0.076279,-50,-1015,52.6518,52.6518,725.398,725.398,1.52
0.0218213,0.0200571,0.107248,0.0673604,0.0392955,0.0415375,0.0506481,0.0763038,-50,-1015,52.6413,52.6413,726.248,726.248,1.524
0.0219788,0.0202247,0.107451,0.067663,0.0394648,0.0416553,0.0507359,0.0760901,-50,-1018,52.6318,52.6318,727.097,727.097,1.528
0.022137,0.020395,0.107654,0.0679622,0.0396342,0.0419641,0.0508237,0.0756596,-49,-1023,52.6235,52.6235,727.955,727.955,1.532
0.0222959,0.0205643,0.107857,0.0682607,0.0398038,0.0420836,0.0509115,0.0753151,-49,-1027,52.6092,52.6092,728.829,728.829,1.536
0.0224554,0.0207336,0.108061,0.0685565,0.0399736,0.0421633,0.0509995,0.0748551,-50,-1032,52.5967,52.5967,729.718,729.718,1.54
0.0226156,0.0209046,0.108265,0.0688584,0.0401435,0.0423604,0.0510875,0.0750667,-50,-1030,52.5871,52.5871,730.623,730.623,1.544
0.0227766,0.0210798,0.10847,0.0691646,0.0403136,0.0428373,0.0511756,0.0755532,-47,-1026,52.5751,52.5751,731.518,731.518,1.548
0.0229381,0.0212491,0.108675,0.0694617,0.0404839,0.0426657,0.0512638,0.075129,-50,-1031,52.5513,52.5513,732.393,732.393,1.552
0.0231004,0.0214215,0.10888,0.0697619,0.0406543,0.0428105,0.051352,0.0751053,-50,-1032,52.5406,52.5406,733.285,733.285,1.556
0.0232634,0.0215935,0.109086,0.0700621,0.0408249,0.0428782,0.0514403,0.0750895,-51,-1033,52.5308,52.5308,734.177,734.177,1.56
0.023427,0.0217711,0.109292,0.0703693,0.0409956,0.043384,0.0515287,0.0756548,-47,-1028,52.5237,52.5237,735.066,735.066,1.564
0.0235913,0.0219421,0.109498,0.070665,0.0411665,0.0431742,0.0516172,0.0750816,-51,-1034,52.5037,52.5037,735.934,735.934,1.568
0.0237564,0.022117,0.109704,0.0709694,0.0413376,0.043351,0.0517057,0.0754192,-51,-1032,52.4985,52.4985,736.824,736.824,1.572
0.0239221,0.0222921,0.109911,0.0712745,0.0415088,0.0434977,0.0517943,0.0757018,-51,-1030,52.4926,52.4926,737.698,737.698,1.576
0.0240884,0.0224676,0.110119,0.0715795,0.0416801,0.0436242,0.051883,0.0758903,-51,-1028,52.4874,52.4874,738.559,738.559,1.58
0.0242555,0.0226445,0.110327,0.071885,0.0418517,0.0438238,0.0519717,0.0760447,-51,-1028,52.4834,52.4834,739.411,739.411,1.584
0.0244232,0.0228204,0.110535,0.0721883,0.0420233,0.0438704,0.0520605,0.0759749,-52,-1029,52.4783,52.4783,740.257,740.257,1.588
0.0245917,0.0229973,0.110743,0.0724923,0.0421951,0.0439879,0.0521494,0.0759859,-52,-1029,52.4778,52.4778,741.104,741.104,1.592
0.0247608,0.0231759,0.110952,0.0727953,0.0423671,0.0442102,0.0522383,0.0759069,-52,-1031,52.4789,52.4789,741.951,741.951,1.596
0.0249306,0.0233545,0.111161,0.0730976,0.0425392,0.0443584,0.0523273,0.0757967,-52,-1033,52.4776,52.4776,742.8,742.8,1.6
0.0251011,0.0235342,0.11137,0.0733989,0.0427115,0.0445435,0.0524164,0.0756368,-52,-1035,52.4768,52.4768,743.653,743.653,1.604
0.0252723,0.0237131,0.11158,0.0736995,0.0428839,0.0446094,0.0525055,0.0754726,-53,-1037,52.4754,52.4754,744.512,744.512,1.608
0.0254442,0.0238938,0.11179,0.0740035,0.0430564,0.0447972,0.0525947,0.0756511,-52,-1036,52.4778,52.4778,745.377,745.377,1.612
0.0256168,0.0240752,0.112001,0.074311,0.0432291,0.0449801,0.0526839,0.076058,-52,-1033,52.4791,52.4791,746.232,746.232,1.616
0.02579,0.0242569,0.112212,0.0746209,0.0434019,0.0451307,0.0527732,0.0765308,-52,-1029,52.4797,52.4797,747.07,747.07,1.62
0.025964,0.0244383,0.112423,0.0749298,0.0435749,0.0452024,0.0528626,0.0767596,-53,-1027,52.481,52.481,747.886,747.886,1.624
0.0261386,0.0246218,0.112635,0.0752397,0.043748,0.0454229,0.052952,0.0769985,-53,-1026,52.4858,52.4858,748.693,748.693,1.628
0.026314,0.0248045,0.112847,0.0755492,0.0439212,0.0455123,0.0530415,0.077129,-53,-1025,52.4886,52.4886,749.488,749.488,1.632
0.02649,0.0249887,0.113059,0.0758574,0.0440946,0.0456871,0.053131,0.0771009,-53,-1026,52.4943,52.4943,750.278,750.278,1.636
0.0266667,0.0251714,0.113272,0.0761677,0.0442681,0.0456885,0.0532207,0.0772548,-55,-1025,52.5,52.5,751.067,751.067,1.64
0.0268441,0.0253566,0.113485,0.0764814,0.0444418,0.0458909,0.0533103,0.0776454,-55,-1022,52.5123,52.5123,751.848,751.848,1.644
0.0270222,0.0255401,0.113698,0.0767971,0.0446156,0.0458819,0.0534,0.0780785,-56,-1018,52.5235,52.5235,752.612,752.612,1.648
0.0272011,0.0257253,0.113912,0.0771164,0.0447895,0.0460199,0.0534898,0.0786551,-57,-1013,52.5418,52.5418,753.355,753.355,1.652
0.0273806,0.0259136,0.114126,0.077446,0.0449635,0.046371,0.0535796,0.0799033,-55,-1001,52.5607,52.5607,754.071,754.071,1.656
0.0275608,0.026097,0.114341,0.0777604,0.0451377,0.046202,0.0536695,0.0794686,-58,-1006,52.5732,52.5732,754.737,754.737,1.66
0.0277417,0.0262822,0.114556,0.0780838,0.045312,0.0462332,0.0537595,0.0799274,-59,-1002,52.5996,52.5996,755.417,755.417,1.664
0.0279233,0.0264705,0.114771,0.0784047,0.0454864,0.0465132,0.0538494,0.0800317,-58,-1001,52.631,52.631,756.078,756.078,1.668
0.0281056,0.0266577,0.114986,0.0787264,0.0456609,0.0466135,0.0539395,0.0801588,-59,-1000,52.6582,52.6582,756.733,756.733,1.672
0.0282886,0.0268474,0.115202,0.0790449,0.0458356,0.0468819,0.0540296,0.0799844,-58,-1002,52.6878,52.6878,757.383,757.383,1.676
0.0284722,0.0270357,0.115419,0.0793676,0.0460104,0.0469456,0.0541197,0.0802137,-59,-1001,52.7137,52.7137,758.037,758.037,1.68
0.0286566,0.0272261,0.115635,0.0796913,0.0461853,0.0471609,0.0542099,0.0804529,-59,-999,52.7436,52.7436,758.68,758.68,1.684
0.0288417,0.0274216,0.115852,0.0800237,0.0463604,0.0477363,0.0543002,0.0813321,-55,-990,52.7705,52.7705,759.31,759.31,1.688
0.0290275,0.0276082,0.11607,0.0803422,0.0465355,0.0473713,0.0543905,0.0807667,-60,-996,52.7827,52.7827,759.905,759.905,1.692
0.029214,0.0278003,0.116287,0.0806673,0.0467108,0.0475886,0.0544808,0.0809367,-60,-995,52.816,52.816,760.521,760.521,1.696
0.0294012,0.0279917,0.116506,0.0809942,0.0468862,0.0476759,0.0545712,0.081194,-60,-993,52.8476,52.8476,761.128,761.128,1.7
0.0295891,0.0281862,0.116724,0.0813213,0.0470617,0.0479932,0.0546617,0.0813943,-59,-991,52.8821,52.8821,761.723,761.723,1.704
0.0297777,0.0283793,0.116943,0.0816489,0.0472373,0.0480896,0.0547521,0.0815567,-60,-990,52.911,52.911,762.308,762.308,1.708
0.029967,0.0285738,0.117162,0.081974,0.0474131,0.048269,0.0548427,0.0814634,-60,-991,52.9427,52.9427,762.886,762.886,1.712
0.030157,0.0287684,0.117382,0.0823005,0.0475889,0.0483886,0.0549333,0.0815164,-60,-991,52.9742,52.9742,763.465,763.465,1.716
0.0303477,0.0289646,0.117602,0.0826235,0.0477649,0.0486123,0.0550239,0.0812637,-60,-993,53.0075,53.0075,764.042,764.042,1.72
0.0305391,0.0291588,0.117822,0.0829452,0.0479409,0.0485887,0.0551145,0.0809802,-62,-996,53.0393,53.0393,764.629,764.629,1.724
0.0307312,0.0293564,0.118042,0.0832675,0.0481171,0.0488609,0.0552053,0.0808487,-61,-998,53.0785,53.0785,765.226,765.226,1.728
0.0309241,0.0295502,0.118263,0.083584,0.0482934,0.0487256,0.055296,0.0802716,-64,-1004,53.1146,53.1146,765.829,765.829,1.732
0.0311176,0.0297475,0.118485,0.0839008,0.0484698,0.0489234,0.0553868,0.0799157,-63,-1008,53.1629,53.1629,766.456,766.456,1.736
0.0313118,0.0299444,0.118707,0.0842169,0.0486463,0.0490264,0.0554776,0.0796208,-64,-1011,53.2104,53.2104,767.096,767.096,1.74
0.0315068,0.0301382,0.118929,0.0845303,0.0488229,0.048836,0.0555685,0.0791939,-68,-1016,53.2618,53.2618,767.748,767.748,1.744
0.0317024,0.0303345,0.119151,0.0848398,0.0489996,0.0489106,0.0556594,0.0785926,-69,-1022,53.328,53.328,768.419,768.419,1.748
0.0318988,0.030529,0.119374,0.0851532,0.0491764,0.0488163,0.0557504,0.0785084,-72,-1024,53.399,53.399,769.113,769.113,1.752
0.0320958,0.0307266,0.119597,0.0854662,0.0493533,0.0490126,0.0558414,0.0784235,-71,-1025,53.4808,53.4808,769.81,769.81,1.756
0.0322936,0.0309215,0.119821,0.0857782,0.0495303,0.0489132,0.0559324,0.0782806,-74,-1027,53.5625,53.5625,770.51,770.51,1.76
0.0324921,0.0311184,0.120045,0.0860881,0.0497074,0.0490196,0.0560235,0.0780125,-75,-1030,53.6556,53.6556,771.217,771.217,1.764
0.0326912,0.031315,0.120269,0.086399,0.0498846,0.0490618,0.0561146,0.0779202,-76,-1032,53.7519,53.7519,771.934,771.934,1.768
0.0328911,0.0315102,0.120493,0.0867058,0.0500619,0.0489747,0.0562057,0.0775131,-79,-1036,53.8545,53.8545,772.655,772.655,1.772
0.0330917,0.0317074,0.120718,0.0870109,0.0502392,0.0490894,0.0562969,0.0770978,-80,-1041,53.9679,53.9679,773.394,773.394,1.776
0.033293,0.031903,0.120944,0.087317,0.0504167,0.049022,0.0563881,0.0769073,-82,-1043,54.0847,54.0847,774.15,774.15,1.78
0.0334951,0.0320989,0.12117,0.0876217,0.0505943,0.0490058,0.0564794,0.0766651,-84,-1047,54.2119,54.2119,774.914,774.914,1.784
0.0336978,0.032292,0.121396,0.0879309,0.0507719,0.0487646,0.0565707,0.076878,-89,-1045,54.3484,54.3484,775.686,775.686,1.788
0.0339012,0.0324883,0.121622,0.0882415,0.0509497,0.048863,0.056662,0.077135,-90,-1044,54.5022,54.5022,776.45,776.45,1.792
0.0341054,0.0326817,0.121849,0.0885508,0.0511275,0.0486983,0.0567533,0.0771912,-93,-1044,54.6604,54.6604,777.203,777.203,1.796
0.0343103,0.0328759,0.122076,0.0888593,0.0513055,0.048646,0.0568447,0.0771711,-96,-1045,54.8333,54.8333,777.954,777.954,1.8
0.0345158,0.0330683,0.122304,0.0891633,0.0514835,0.0484672,0.0569361,0.0767834,-99,-1049,55.0169,55.0169,778.706,778.706,1.804
0.0347221,0.0332604,0.122532,0.0894673,0.0516616,0.0483192,0.0570275,0.076525,-103,-1052,55.2162,55.2162,779.475,779.475,1.808
0.0349291,0.0334508,0.12276,0.0897696,0.0518398,0.0480766,0.057119,0.0762087,-107,-1056,55.4303,55.4303,780.256,780.256,1.812
0.0351368,0.0336391,0.122989,0.0900751,0.052018,0.0477421,0.0572105,0.076257,-113,-1057,55.6633,55.6633,781.048,781.048,1.816
0.0353453,0.033825,0.123218,0.0903794,0.0521964,0.0473176,0.057302,0.0762028,-119,-1058,55.9193,55.9193,781.84,781.84,1.82
0.0355544,0.0340081,0.123447,0.0906893,0.0523748,0.0468043,0.0573936,0.0766273,-126,-1055,56.2022,56.2022,782.632,782.632,1.824
0.0357643,0.0341877,0.123677,0.0909999,0.0525533,0.0461741,0.0574852,0.0769679,-135,-1052,56.5161,56.5161,783.407,783.407,1.828
0.0359748,0.0343636,0.123907,0.0913126,0.0527319,0.0454373,0.0575768,0.0773677,-144,-1049,56.8661,56.8661,784.167,784.167,1.832
0.0361861,0.034537,0.124137,0.0916291,0.0529105,0.0447446,0.0576684,0.077951,-153,-1044,57.2564,57.2564,784.909,784.909,1.836
0.0363981,0.0347032,0.124368,0.0919435,0.0530893,0.0436782,0.0577601,0.0781671,-166,-1043,57.6867,57.6867,785.628,785.628,1.84
0.0366108,0.0348621,0.124599,0.0922582,0.0532681,0.0423626,0.0578518,0.0783399,-182,-1042,58.1727,58.1727,786.337,786.337,1.844
0.0368243,0.0350148,0.124831,0.092574,0.053447,0.0409673,0.0579435,0.0785415,-198,-1041,58.725,58.725,787.039,787.039,1.848
0.0370384,0.035163,0.125063,0.0928925,0.0536259,0.0396629,0.0580352,0.0789062,-213,-1038,59.3467,59.3467,787.731,787.731,1.852
0.0372533,0.035312,0.125295,0.093208,0.053805,0.0388508,0.058127,0.0788903,-224,-1038,60.033,60.033,788.409,788.409,1.856
0.0374689,0.0354622,0.125528,0.0935289,0.0539841,0.0384246,0.0582187,0.0793403,-232,-1035,60.7634,60.7634,789.086,789.086,1.86
0.0376852,0.0356167,0.125761,0.0938468,0.0541632,0.0384859,0.0583105,0.0793812,-234,-1035,61.5211,61.5211,789.745,789.745,1.864
0.0379022,0.0357787,0.125995,0.0941684,0.0543425,0.0391602,0.0584023,0.0797251,-231,-1032,62.2849,62.2849,790.401,790.401,1.868
0.0381199,0.035948,0.126228,0.0944856,0.0545218,0.0402144,0.0584942,0.0795802,-224,-1034,63.0292,63.0292,791.043,791.043,1.872
0.0383383,0.036127,0.126462,0.0948028,0.0547011,0.0417233,0.058586,0.0794835,-212,-1036,63.7374,63.7374,791.692,791.692,1.876
0.0385575,0.0363177,0.126697,0.0951223,0.0548806,0.0437081,0.0586779,0.0796206,-196,-1035,64.3896,64.3896,792.343,792.343,1.88
0.0387774,0.036517,0.126932,0.0954447,0.0550601,0.0457511,0.0587698,0.0799423,-179,-1033,64.9664,64.9664,792.988,792.988,1.884
0.038998,0.0367271,0.127167,0.0957681,0.0552396,0.0480056,0.0588617,0.0802432,-159,-1030,65.4646,65.4646,793.619,793.619,1.888
0.0392193,0.0369434,0.127403,0.0960928,0.0554193,0.0500269,0.0589537,0.0805589,-142,-1028,65.8759,65.8759,794.237,794.237,1.892
0.0394413,0.0371679,0.127639,0.0964231,0.0555989,0.0520653,0.0590456,0.0812301,-125,-1022,66.2093,66.2093,794.84,794.84,1.896
0.0396641,0.0373977,0.127875,0.0967534,0.0557787,0.0538562,0.0591376,0.0816775,-109,-1018,66.4645,66.4645,795.415,795.415,1.9
0.0398876,0.0376319,0.128112,0.0970885,0.0559585,0.0554244,0.0592296,0.0823789,-96,-1011,66.6517,66.6517,795.969,795.969,1.904
0.0401118,0.0378679,0.128349,0.0974219,0.0561383,0.0566138,0.0593215,0.0827025,-86,-1009,66.7807,66.7807,796.494,796.494,1.908
0.0403367,0.0381077,0.128586,0.0977574,0.0563182,0.0577234,0.0594136,0.083091,-77,-1005,66.8665,66.8665,797.004,797.004,1.912
0.0405623,0.0383464,0.128824,0.0980894,0.0564982,0.0583768,0.0595056,0.0830621,-73,-1006,66.9135,66.9135,797.498,797.498,1.916
0.0407887,0.0385872,0.129063,0.0984221,0.0566782,0.0589851,0.0595976,0.0831004,-69,-1006,66.94,66.94,797.992,797.992,1.92
0.0410157,0.0388287,0.129301,0.0987541,0.0568583,0.0594483,0.0596896,0.0830683,-66,-1007,66.948,66.948,798.485,798.485,1.924
0.0412435,0.0390681,0.12954,0.0990851,0.0570384,0.0595843,0.0597817,0.0829606,-66,-1008,66.9443,66.9443,798.978,798.978,1.928
0.041472,0.0393086,0.129779,0.0994164,0.0572186,0.0597614,0.0598738,0.0829176,-66,-1009,66.9418,66.9418,799.475,799.475,1.932
0.0417013,0.0395491,0.130019,0.0997426,0.0573988,0.0598794,0.0599659,0.082457,-66,-1014,66.939,66.939,799.975,799.975,1.936
0.0419312,0.0397881,0.130259,0.100067,0.057579,0.0598429,0.0600579,0.0819772,-68,-1019,66.9388,66.9388,800.493,800.493,1.94
0.0421619,0.0400279,0.130499,0.100387,0.0577594,0.0598762,0.06015,0.0813119,-70,-1026,66.9471,66.9471,801.033,801.033,1.944
0.0423933,0.0402711,0.13074,0.100707,0.0579397,0.0601863,0.0602421,0.0808683,-68,-1030,66.9604,66.9604,801.6,801.6,1.948
0.0426254,0.0405106,0.130981,0.101024,0.0581201,0.0600763,0.0603343,0.0803711,-71,-1036,66.9688,66.9688,802.187,802.187,1.952
0.0428583,0.0407521,0.131223,0.101344,0.0583006,0.0601757,0.0604264,0.0802699,-72,-1037,66.9886,66.9886,802.793,802.793,1.956
0.0430918,0.0409974,0.131465,0.101668,0.058481,0.0605587,0.0605185,0.0804904,-70,-1036,67.0105,67.0105,803.403,803.403,1.96
0.0433261,0.0412406,0.131707,0.101992,0.0586616,0.0606413,0.0606106,0.0806949,-71,-1035,67.0242,67.0242,804.004,804.004,1.964
0.0435611,0.0414848,0.13195,0.102319,0.0588421,0.0607827,0.0607028,0.081004,-71,-1032,67.0415,67.0415,804.595,804.595,1.968
0.0437969,0.0417319,0.132193,0.102646,0.0590228,0.0611073,0.0607949,0.0812389,-69,-1030,67.0594,67.0594,805.174,805.174,1.972
0.0440333,0.0419803,0.132436,0.102975,0.0592034,0.0614389,0.0608871,0.0816258,-68,-1027,67.0707,67.0707,805.742,805.742,1.976
0.0442705,0.0422238,0.13268,0.103299,0.0593841,0.0612569,0.0609792,0.0814231,-71,-1030,67.0765,67.0765,806.295,806.295,1.98
0.0445084,0.0424709,0.132924,0.103628,0.0595648,0.0614234,0.0610714,0.0816334,-71,-1028,67.0963,67.0963,806.855,806.855,1.984
0.044747,0.0427148,0.133168,0.103956,0.0597455,0.0612753,0.0611635,0.0818025,-74,-1027,67.1172,67.1172,807.407,807.407,1.988
0.0449863,0.0429584,0.133413,0.104289,0.0599263,0.0611478,0.0612557,0.0822894,-77,-1023,67.1517,67.1517,807.95,807.95,1.992
0.0452264,0.043203,0.133658,0.104624,0.0601072,0.0611492,0.0613478,0.082758,-79,-1019,67.1987,67.1987,808.472,808.472,1.996
0.0454672,0.0434452,0.133904,0.104957,0.060288,0.0609486,0.06144,0.0829553,-83,-1017,67.2536,67.2536,808.975,808.975,2
0.0457087,0.0436863,0.13415,0.10529,0.0604689,0.0607284,0.0615322,0.0830292,-87,-1017,67.3247,67.3247,809.469,809.469,2.004
0.045951,0.0439268,0.134396,0.105619,0.0606498,0.0605241,0.0616243,0.0827617,-90,-1020,67.4127,67.4127,809.961,809.961,2.008
0.0461939,0.044169,0.134643,0.105947,0.0608307,0.0605318,0.0617165,0.0825259,-92,-1023,67.5164,67.5164,810.464,810.464,2.012
0.0464376,0.0444084,0.13489,0.106273,0.0610117,0.0603067,0.0618086,0.0821383,-96,-1027,67.6282,67.6282,810.978,810.978,2.016
0.046682,0.0446492,0.135137,0.106598,0.0611927,0.0602717,0.0619008,0.0818799,-98,-1030,67.7568,67.7568,811.508,811.508,2.02
0.0469271,0.0448907,0.135385,0.106922,0.0613737,0.060306,0.0619929,0.0815349,-100,-1034,67.8946,67.8946,812.049,812.049,2.024
0.047173,0.0451284,0.135633,0.107241,0.0615547,0.0600122,0.0620851,0.081017,-105,-1040,68.0396,68.0396,812.605,812.605,2.028
0.0474196,0.0453633,0.135882,0.107556,0.0617358,0.0595859,0.0621772,0.0802111,-111,-1048,68.2055,68.2055,813.185,813.185,2.032
0.0476669,0.0456,0.136131,0.107872,0.0619169,0.0594457,0.0622694,0.079789,-114,-1053,68.3968,68.3968,813.798,813.798,2.036
0.0479149,0.045837,0.13638,0.108184,0.062098,0.0593811,0.0623615,0.0792484,-117,-1059,68.602,68.602,814.431,814.431,2.04
0.0481637,0.0460733,0.13663,0.108498,0.0622791,0.0592804,0.0624536,0.0790032,-120,-1062,68.8182,68.8182,815.086,815.086,2.044
0.0484131,0.0463107,0.13688,0.108808,0.0624602,0.0592996,0.0625457,0.0784943,-122,-1068,69.0466,69.0466,815.753,815.753,2.048
0.0486633,0.0465484,0.13713,0.109122,0.0626414,0.0593412,0.0626379,0.0785005,-124,-1069,69.2823,69.2823,816.442,816.442,2.052
0.0489143,0.0467902,0.137381,0.109441,0.0628226,0.0597145,0.06273,0.0788501,-122,-1066,69.5236,69.5236,817.13,817.13,2.056
0.0491659,0.0470258,0.137632,0.109751,0.0630037,0.0594451,0.0628221,0.0784498,-127,-1071,69.759,69.759,817.806,817.806,2.06
0.0494183,0.0472687,0.137883,0.110072,0.0631849,0.0598701,0.0629142,0.0790466,-125,-1066,70.0122,70.0122,818.497,818.497,2.064
0.0496714,0.0475137,0.138135,0.110395,0.0633662,0.0603261,0.0630062,0.079646,-122,-1061,70.2554,70.2554,819.163,819.163,2.068
0.0499252,0.0477624,0.138387,0.110722,0.0635474,0.0609469,0.0630983,0.0803336,-119,-1055,70.4869,70.4869,819.804,819.804,2.072
0.0501798,0.0480126,0.13864,0.111051,0.0637286,0.0614759,0.0631904,0.0809071,-116,-1050,70.7004,70.7004,820.416,820.416,2.076
0.0504351,0.0482634,0.138893,0.11138,0.0639099,0.0618861,0.0632824,0.0814046,-114,-1046,70.8997,70.8997,821.005,821.005,2.08
0.0506911,0.0485146,0.139146,0.111706,0.0640911,0.0621884,0.0633744,0.0814196,-113,-1047,71.0898,71.0898,821.574,821.574,2.084
0.0509478,0.0487661,0.1394,0.112033,0.0642724,0.0624187,0.0634665,0.0815159,-112,-1046,71.2752,71.2752,822.143,822.143,2.088
0.0512052,0.0490145,0.139654,0.112356,0.0644537,0.0623132,0.0635585,0.0812923,-115,-1049,71.4598,71.4598,822.709,822.709,2.092
0.0514634,0.0492615,0.139908,0.11268,0.0646349,0.0621276,0.0636505,0.0811431,-119,-1051,71.6571,71.6571,823.285,823.285,2.096
0.0517223,0.0495099,0.140163,0.113003,0.0648162,0.0621191,0.0637425,0.0810437,-121,-1053,71.87,71.87,823.867,823.867,2.1
0.051982,0.0497552,0.140418,0.113328,0.0649975,0.0618543,0.0638344,0.0811214,-126,-1053,72.0922,72.0922,824.454,824.454,2.104
0.0522423,0.0499998,0.140674,0.113654,0.0651788,0.0616202,0.0639264,0.0812596,-130,-1052,72.3337,72.3337,825.038,825.038,2.108
0.0525034,0.0502448,0.14093,0.113979,0.0653601,0.0614929,0.0640183,0.0812077,-134,-1053,72.5933,72.5933,825.617,825.617,2.112
0.0527652,0.0504908,0.141186,0.114306,0.0655414,0.0614944,0.0641102,0.0814611,-136,-1052,72.8662,72.8662,826.198,826.198,2.116
0.0530277,0.050734,0.141443,0.114634,0.0657227,0.0612651,0.0642021,0.0815724,-140,-1051,73.1482,73.1482,826.769,826.769,2.12
0.053291,0.0509803,0.1417,0.114965,0.0659039,0.0613713,0.064294,0.0819633,-142,-1048,73.4475,73.4475,827.335,827.335,2.124
0.0535549,0.0512256,0.141957,0.115299,0.0660852,0.0613558,0.0643859,0.082483,-144,-1044,73.7511,73.7511,827.884,827.884,2.128
0.0538196,0.0514702,0.142215,0.115637,0.0662665,0.0612878,0.0644777,0.083175,-147,-1038,74.064,74.064,828.411,828.411,2.132
0.0540851,0.0517135,0.142473,0.115973,0.0664478,0.0611274,0.0645696,0.0834348,-151,-1036,74.3887,74.3887,828.91,828.91,2.136
0.0543512,0.0519584,0.142731,0.116312,0.066629,0.0611643,0.0646614,0.0838959,-153,-1032,74.7282,74.7282,829.398,829.398,2.14
0.0546181,0.0522013,0.14299,0.116649,0.0668103,0.0610162,0.0647532,0.0839729,-156,-1032,75.0754,75.0754,829.867,829.867,2.144
0.0548857,0.0524449,0.143249,0.116988,0.0669916,0.0609751,0.0648449,0.0843122,-159,-1029,75.4373,75.4373,830.332,830.332,2.148
0.055154,0.0526874,0.143509,0.117328,0.0671728,0.0608613,0.0649367,0.0845096,-163,-1027,75.81,75.81,830.783,830.783,2.152
0.0554231,0.0529296,0.143769,0.117673,0.067354,0.0607566,0.0650284,0.0850443,-166,-1023,76.1962,76.1962,831.225,831.225,2.156
0.0556929,0.0531694,0.144029,0.118018,0.0675353,0.0604853,0.0651201,0.0854583,-171,-1019,76.5964,76.5964,831.644,831.644,2.16
0.0559634,0.0534098,0.14429,0.118366,0.0677165,0.060362,0.0652118,0.0860223,-175,-1014,77.0166,77.0166,832.045,832.045,2.164
0.0562346,0.0536444,0.144551,0.118709,0.0678977,0.0597904,0.0653034,0.08588,-183,-1016,77.4523,77.4523,832.424,832.424,2.168
0.0565066,0.0538776,0.144812,0.119053,0.0680788,0.0592941,0.0653951,0.0859867,-190,-1015,77.9214,77.9214,832.808,832.808,2.172
0.0567792,0.0541094,0.145074,0.119392,0.06826,0.0588481,0.0654867,0.0855396,-197,-1020,78.4206,78.4206,833.189,833.189,2.176
0.0570526,0.0543388,0.145336,0.119724,0.0684412,0.0583493,0.0655782,0.0846944,-204,-1028,78.9485,78.9485,833.591,833.591,2.18
0.0573268,0.0545665,0.145599,0.120055,0.0686223,0.0578727,0.0656698,0.0840159,-212,-1035,79.507,79.507,834.028,834.028,2.184
0.0576016,0.0547935,0.145861,0.120383,0.0688034,0.0574975,0.0657613,0.0833908,-218,-1042,80.0951,80.0951,834.494,834.494,2.188
0.0578772,0.0550167,0.146125,0.12071,0.0689845,0.0569306,0.0658528,0.0828588,-226,-1048,80.7096,80.7096,834.988,834.988,2.192
0.0581535,0.0552413,0.146388,0.121038,0.0691656,0.0566678,0.0659443,0.082533,-232,-1051,81.3572,81.3572,835.504,835.504,2.196
0.0584305,0.0554648,0.146652,0.121369,0.0693466,0.0564063,0.0660357,0.0825749,-237,-1052,82.026,82.026,836.034,836.034,2.2
0.0587083,0.0556863,0.146917,0.121696,0.0695277,0.0560592,0.0661271,0.0823725,-244,-1054,82.7162,82.7162,836.563,836.563,2.204
0.0589867,0.0559101,0.147181,0.12203,0.0697087,0.0560293,0.0662185,0.0826983,-247,-1052,83.4304,83.4304,837.1,837.1,2.208
0.0592659,0.0561323,0.147446,0.122361,0.0698897,0.0558654,0.0663099,0.0826851,-252,-1053,84.1564,84.1564,837.625,837.625,2.212
0.0595459,0.0563517,0.147712,0.122697,0.0700706,0.0555259,0.0664012,0.0831945,-258,-1048,84.9002,84.9002,838.149,838.149,2.216
0.0598265,0.0565731,0.147977,0.123034,0.0702516,0.0554722,0.0664925,0.0835342,-262,-1046,85.668,85.668,838.653,838.653,2.22
0.0601079,0.0567915,0.148244,0.123373,0.0704325,0.0551773,0.0665838,0.0839334,-267,-1043,86.4492,86.4492,839.143,839.143,2.224
0.06039,0.0570091,0.14851,0.123716,0.0706134,0.0549232,0.066675,0.0844874,-273,-1038,87.2532,87.2532,839.616,839.616,2.228
0.0606728,0.0572271,0.148777,0.124055,0.0707942,0.0547825,0.0667662,0.0846264,-278,-1037,88.0783,88.0783,840.066,840.066,2.232
0.0609563,0.0574393,0.149044,0.124391,0.070975,0.0541993,0.0668574,0.0844312,-287,-1039,88.9213,88.9213,840.513,840.513,2.236
0.0612406,0.0576531,0.149312,0.124729,0.0711558,0.0539545,0.0669485,0.084445,-292,-1040,89.7989,89.7989,840.967,840.967,2.24
0.0615256,0.0578653,0.14958,0.125065,0.0713366,0.0536473,0.0670396,0.0843102,-299,-1042,90.6978,90.6978,841.422,841.422,2.244
0.0618113,0.0580764,0.149848,0.1254,0.0715173,0.0533561,0.0671306,0.0841052,-305,-1044,91.6208,91.6208,841.883,841.883,2.248
0.0620977,0.0582919,0.150117,0.125743,0.071698,0.0535363,0.0672217,0.0846595,-306,-1039,92.5657,92.5657,842.351,842.351,2.252
0.0623849,0.0584989,0.150386,0.126074,0.0718786,0.0529366,0.0673126,0.0839926,-316,-1046,93.5163,93.5163,842.799,842.799,2.256
0.0626727,0.0587121,0.150655,0.126411,0.0720592,0.0530551,0.0674036,0.084095,-318,-1046,94.5014,94.5014,843.275,843.275,2.26
0.0629613,0.0589249,0.150925,0.126749,0.0722398,0.0531053,0.0674945,0.0842497,-321,-1045,95.4929,95.4929,843.747,843.747,2.264
0.0632506,0.0591381,0.151195,0.127091,0.0724204,0.0531675,0.0675854,0.0846119,-324,-1042,96.4933,96.4933,844.212,844.212,2.268
0.0635407,0.0593523,0.151466,0.127431,0.0726009,0.0532954,0.0676762,0.084767,-326,-1041,97.5022,97.5022,844.662,844.662,2.272
0.0638315,0.0595651,0.151737,0.127772,0.0727813,0.0532655,0.067767,0.0848992,-330,-1041,98.5173,98.5173,845.107,845.107,2.276
0.0641229,0.0597803,0.152008,0.128114,0.0729617,0.0534471,0.0678578,0.0851025,-332,-1039,99.5442,99.5442,845.546,845.546,2.28
0.0644151,0.0599963,0.15228,0.128455,0.0731421,0.0536257,0.0679485,0.0851516,-334,-1039,100.575,100.575,845.978,845.978,2.284
0.0647081,0.0602136,0.152552,0.128798,0.0733225,0.05386,0.0680392,0.0853859,-335,-1038,101.609,101.609,846.407,846.407,2.288
0.0650017,0.0604336,0.152824,0.129144,0.0735027,0.0542465,0.0681298,0.0857149,-335,-1035,102.644,102.644,846.827,846.827,2.292
0.0652961,0.0606555,0.153097,0.129493,0.073683,0.0546481,0.0682204,0.0862509,-335,-1030,103.673,103.673,847.232,847.232,2.296
0.0655912,0.0608831,0.15337,0.129844,0.0738632,0.0554053,0.068311,0.086781,-331,-1025,104.696,104.696,847.615,847.615,2.3
0.065887,0.0611118,0.153643,0.13019,0.0740433,0.0559964,0.0684015,0.0866737,-329,-1027,105.698,105.698,847.977,847.977,2.304
0.0661835,0.061344,0.153917,0.130535,0.0742234,0.0566785,0.068492,0.0865158,-326,-1029,106.685,106.685,848.344,848.344,2.308
0.0664808,0.06158,0.154191,0.130879,0.0744035,0.0574498,0.0685824,0.0863242,-322,-1031,107.654,107.654,848.719,848.719,2.312
0.0667788,0.0618184,0.154466,0.131226,0.0745835,0.0581656,0.0686728,0.0864843,-318,-1030,108.602,108.602,849.101,849.101,2.316
0.0670775,0.0620561,0.15474,0.131573,0.0747634,0.0585852,0.0687631,0.0865623,-317,-1030,109.53,109.53,849.476,849.476,2.32
0.0673769,0.0622945,0.155016,0.13192,0.0749433,0.0589226,0.0688534,0.0866431,-318,-1029,110.452,110.452,849.849,849.849,2.324
0.067677,0.0625318,0.155291,0.132268,0.0751232,0.0590611,0.0689436,0.0867833,-320,-1029,111.37,111.37,850.219,850.219,2.328
0.0679779,0.0627678,0.155567,0.132619,0.075303,0.0590383,0.0690338,0.0870783,-323,-1026,112.293,112.293,850.582,850.582,2.332
0.0682794,0.0630034,0.155844,0.132966,0.0754827,0.0589942,0.069124,0.0869583,-327,-1028,113.228,113.228,850.935,850.935,2.336
0.0685817,0.0632387,0.15612,0.133314,0.0756624,0.0589361,0.0692141,0.0869647,-331,-1028,114.176,114.176,851.292,851.292,2.34
0.0688847,0.0634691,0.156397,0.133659,0.075842,0.0584943,0.0693041,0.0867674,-338,-1030,115.137,115.137,851.651,851.651,2.344
0.0691885,0.0637023,0.156675,0.134009,0.0760216,0.0584301,0.0693942,0.0870389,-342,-1028,116.128,116.128,852.016,852.016,2.348
0.0694929,0.0639338,0.156952,0.134358,0.0762011,0.0582433,0.0694841,0.087076,-348,-1028,117.132,117.132,852.372,852.372,2.352
0.0697981,0.0641643,0.157231,0.134707,0.0763806,0.0580324,0.069574,0.0871583,-353,-1028,118.155,118.155,852.726,852.726,2.356
0.0701039,0.0643947,0.157509,0.135055,0.0765599,0.0578918,0.0696639,0.087098,-358,-1029,119.197,119.197,853.077,853.077,2.36
0.0704105,0.0646251,0.157788,0.135401,0.0767393,0.0577981,0.0697537,0.086885,-363,-1031,120.257,120.257,853.432,853.126,2.364
0.0707179,0.0648508,0.158067,0.135742,0.0769185,0.0573325,0.0698435,0.0863688,-371,-1036,121.332,121.332,853.795,853.126,2.368
0.0710259,0.0650764,0.158347,0.136081,0.0770977,0.0570222,0.0699332,0.0857943,-377,-1042,122.438,122.438,854.181,853.126,2.372
0.0713346,0.0652975,0.158626,0.136418,0.0772769,0.056441,0.0700228,0.0852386,-386,-1048,123.57,123.57,854.589,853.126,2.376
0.0716441,0.0655165,0.158907,0.13675,0.0774559,0.0558808,0.0701124,0.0845514,-396,-1055,124.737,124.737,855.021,853.126,2.38
0.0719543,0.0657366,0.159187,0.137079,0.077635,0.0555937,0.070202,0.0838053,-402,-1062,125.939,125.939,855.481,853.126,2.384
0.0722652,0.0659549,0.159468,0.137411,0.0778139,0.0552583,0.0702915,0.0835383,-409,-1065,127.164,127.164,855.972,853.126,2.388
0.0725768,0.066174,0.15975,0.137742,0.0779928,0.0550923,0.0703809,0.0832451,-415,-1068,128.416,128.416,856.472,853.126,2.392
0.0728891,0.0663941,0.160031,0.138072,0.0781716,0.055068,0.0704703,0.0829633,-419,-1071,129.685,129.685,856.985,853.126,2.396
0.0732022,0.0666155,0.160313,0.138406,0.0783503,0.055167,0.0705596,0.0831785,-422,-1069,130.967,130.967,857.507,853.126,2.4
0.0735159,0.0668397,0.160596,0.138742,0.0785289,0.0554633,0.0706489,0.0834371,-423,-1067,132.256,132.256,858.018,853.126,2.404
0.0738304,0.0670688,0.160879,0.139085,0.0787075,0.0560639,0.0707381,0.0842429,-421,-1059,133.543,133.543,858.516,853.126,2.408
0.0741456,0.0672979,0.161162,0.13943,0.078886,0.0564643,0.0708273,0.0848665,-421,-1054,134.818,134.818,858.98,853.126,2.412
0.0744615,0.067528,0.161445,0.139778,0.0790645,0.0568176,0.0709164,0.0855701,-422,-1047,136.087,136.087,859.415,853.126,2.416
0.0747781,0.0677591,0.161729,0.140128,0.0792428,0.0571396,0.0710054,0.0862695,-423,-1040,137.353,137.353,859.819,853.126,2.42
0.0750954,0.0679916,0.162013,0.140481,0.0794211,0.0574693,0.0710944,0.0868798,-423,-1035,138.616,138.616,860.193,853.126,2.424
0.0754135,0.0682259,0.162298,0.140834,0.0795993,0.0578331,0.0711833,0.0873442,-424,-1030,139.878,139.878,860.54,853.126,2.428
0.0757322,0.0684625,0.162583,0.141188,0.0797775,0.0582772,0.0712722,0.0877689,-423,-1026,141.135,141.135,860.866,853.126,2.432
0.0760517,0.0687009,0.162868,0.141539,0.0799555,0.0587172,0.071361,0.0877066,-423,-1027,142.385,142.385,861.174,853.126,2.436
0.0763719,0.0689438,0.163154,0.141887,0.0801335,0.0593848,0.0714498,0.0875211,-420,-1029,143.626,143.626,861.485,853.126,2.44
0.0766928,0.0691898,0.16344,0.142236,0.0803114,0.060089,0.0715385,0.0874262,-417,-1030,144.851,144.851,861.803,853.126,2.444
0.0770144,0.0694375,0.163726,0.142584,0.0804892,0.0607024,0.0716271,0.0872478,-415,-1032,146.058,146.058,862.125,853.126,2.448
0.0773367,0.0696907,0.164013,0.142934,0.0806669,0.061572,0.0717157,0.0873592,-411,-1031,147.249,147.249,862.452,853.126,2.452
0.0776597,0.0699471,0.1643,0.143286,0.0808446,0.0624109,0.0718042,0.0875774,-406,-1029,148.414,148.414,862.774,853.126,2.456
0.0779834,0.0702034,0.164587,0.143639,0.0810222,0.0629701,0.0718926,0.0877805,-404,-1027,149.555,149.555,863.086,853.126,2.46
0.0783079,0.0704633,0.164875,0.14399,0.0811996,0.0636309,0.071981,0.0877719,-402,-1028,150.683,150.683,863.388,853.126,2.464
0.078633,0.0707279,0.165163,0.144339,0.081377,0.0644744,0.0720693,0.0876222,-397,-1029,151.794,151.794,863.692,853.126,2.468
0.0789589,0.0709922,0.165451,0.144684,0.0815543,0.065008,0.0721575,0.0871482,-395,-1034,152.88,152.88,864.001,853.126,2.472
0.0792855,0.071262,0.16574,0.145031,0.0817316,0.0658244,0.0722457,0.0870049,-391,-1035,153.953,153.953,864.33,853.126,2.476
0.0796127,0.071537,0.166029,0.14538,0.0819087,0.0668005,0.0723338,0.0870821,-385,-1035,155.001,155.001,864.663,853.126,2.48
0.0799407,0.0718193,0.166319,0.14573,0.0820857,0.0680559,0.0724219,0.0872199,-376,-1034,156.018,156.018,864.993,853.126,2.484
0.0802694,0.0721081,0.166609,0.146084,0.0822627,0.0694398,0.0725099,0.0876573,-366,-1030,156.991,156.991,865.315,853.126,2.488
0.0805988,0.0724025,0.166899,0.146437,0.0824395,0.0708231,0.0725978,0.0878625,-356,-1028,157.916,157.916,865.618,853.126,2.492
0.0809289,0.0727034,0.16719,0.146791,0.0826163,0.0722923,0.0726857,0.0880857,-345,-1026,158.791,158.791,865.912,853.126,2.496
0.0812598,0.0730099,0.16748,0.147141,0.082793,0.0737324,0.0727734,0.0878314,-334,-1029,159.613,159.613,866.197,853.126,2.5
0.0815913,0.0733239,0.167772,0.147494,0.0829695,0.0753259,0.0728612,0.0880362,-322,-1027,160.384,160.384,866.492,853.126,2.504
0.0819235,0.0736483,0.168063,0.147855,0.083146,0.0772519,0.0729488,0.0887485,-306,-1020,161.094,161.094,866.775,853.126,2.508
0.0822565,0.0739579,0.168355,0.1482,0.0833224,0.077298,0.0730364,0.087899,-308,-1028,161.737,161.737,867.032,853.126,2.512
0.0825901,0.0742806,0.168648,0.148555,0.0834987,0.0784227,0.0731239,0.0882252,-300,-1025,162.384,162.384,867.322,853.126,2.516
0.0829244,0.0746019,0.16894,0.148911,0.0836749,0.0790574,0.0732113,0.0884427,-296,-1023,162.993,162.993,867.598,853.126,2.52
0.0832595,0.0749235,0.169233,0.149268,0.083851,0.0795093,0.0732987,0.0887316,-294,-1021,163.583,163.583,867.863,853.126,2.524
0.0835953,0.0752428,0.169527,0.149624,0.084027,0.079609,0.073386,0.088809,-296,-1020,164.164,164.164,868.117,853.126,2.528
0.0839317,0.0755641,0.16982,0.149982,0.0842029,0.0798482,0.0734732,0.0890622,-296,-1018,164.748,164.748,868.366,853.126,2.532
0.0842689,0.0758774,0.170114,0.150336,0.0843787,0.0793455,0.0735604,0.0888567,-303,-1020,165.333,165.333,868.605,853.126,2.536
0.0846067,0.0761912,0.170409,0.150695,0.0845544,0.0790392,0.0736474,0.0891228,-309,-1018,165.946,165.946,868.852,853.126,2.54
0.0849453,0.0764979,0.170704,0.151049,0.0847299,0.0782591,0.0737344,0.0889547,-319,-1019,166.582,166.582,869.088,853.126,2.544
0.0852846,0.0768027,0.170999,0.151402,0.0849054,0.0775663,0.0738214,0.0886987,-328,-1022,167.259,167.259,869.331,853.126,2.548
0.0856246,0.0771081,0.171294,0.151755,0.0850808,0.0771621,0.0739082,0.0885856,-334,-1023,167.973,167.973,869.584,853.126,2.552
0.0859652,0.077408,0.17159,0.152102,0.0852561,0.0764319,0.073995,0.0879919,-344,-1029,168.714,168.714,869.843,853.126,2.556
0.0863066,0.0777099,0.171886,0.152452,0.0854312,0.0761179,0.0740817,0.0878265,-350,-1031,169.493,169.493,870.127,853.126,2.56
0.0866487,0.0780129,0.172183,0.152798,0.0856063,0.0759949,0.0741683,0.0873131,-354,-1036,170.294,170.294,870.418,853.126,2.564
0.0869915,0.0783163,0.17248,0.15314,0.0857812,0.0759417,0.0742549,0.0867406,-357,-1042,171.11,171.11,870.731,853.126,2.568
0.0873349,0.078622,0.172777,0.15348,0.0859561,0.0761078,0.0743414,0.0861861,-359,-1048,171.935,171.935,871.068,853.126,2.572
0.0876791,0.0789312,0.173074,0.153821,0.0861308,0.0765064,0.0744278,0.085874,-358,-1051,172.763,172.763,871.428,853.126,2.576
0.088024,0.0792449,0.173372,0.154161,0.0863054,0.0771464,0.0745141,0.0855796,-354,-1054,173.581,173.581,871.801,853.126,2.58
0.0883695,0.0795611,0.17367,0.154505,0.0864799,0.0777746,0.0746003,0.0857001,-351,-1053,174.382,174.382,872.186,853.126,2.584
0.0887158,0.079881,0.173969,0.154847,0.0866543,0.0785102,0.0746865,0.0856364,-347,-1054,175.165,175.165,872.566,853.126,2.588
0.0890628,0.0802058,0.174268,0.155195,0.0868286,0.0794036,0.0747726,0.0860546,-341,-1051,175.925,175.925,872.947,853.126,2.592
0.0894104,0.0805267,0.174567,0.155536,0.0870028,0.0796825,0.0748586,0.085844,-341,-1053,176.658,176.658,873.312,853.126,2.596
0.0897588,0.0808518,0.174867,0.155883,0.0871768,0.0802139,0.0749445,0.0861066,-339,-1051,177.387,177.387,873.684,853.126,2.6
0.0901079,0.0811776,0.175167,0.156229,0.0873508,0.0806258,0.0750304,0.0862817,-338,-1050,178.102,178.102,874.045,853.126,2.604
0.0904576,0.0815024,0.175467,0.156579,0.0875246,0.080814,0.0751161,0.0866288,-338,-1046,178.809,178.809,874.398,853.126,2.608
0.0908081,0.0818282,0.175768,0.156932,0.0876983,0.0810258,0.0752018,0.0872056,-339,-1041,179.517,179.517,874.735,853.126,2.612
0.0911592,0.0821599,0.176069,0.157296,0.0878718,0.0816565,0.0752874,0.0884539,-336,-1029,180.223,180.223,875.046,853.126,2.616
0.091511,0.0824874,0.17637,0.157655,0.0880453,0.0817315,0.075373,0.0889118,-337,-1025,180.912,180.912,875.305,853.126,2.62
0.0918636,0.0828146,0.176672,0.15801,0.0882186,0.0817527,0.0754584,0.0888716,-340,-1026,181.607,181.607,875.546,853.126,2.624
0.0922168,0.0831483,0.176974,0.158362,0.0883919,0.0823138,0.0755437,0.0885569,-337,-1029,182.307,182.307,875.789,853.126,2.628
0.0925707,0.0834841,0.177276,0.158708,0.088565,0.0828606,0.075629,0.0878289,-334,-1036,182.992,182.992,876.047,853.126,2.632
0.0929253,0.083823,0.177579,0.159049,0.0887379,0.0834843,0.0757142,0.086998,-331,-1045,183.662,183.662,876.337,853.126,2.636
0.0932806,0.0841654,0.177882,0.159385,0.0889108,0.084188,0.0757993,0.0860122,-327,-1055,184.314,184.314,876.662,853.126,2.64
0.0936366,0.0845116,0.178185,0.159718,0.0890835,0.0849739,0.0758843,0.0850672,-322,-1064,184.944,184.944,877.03,853.126,2.644
0.0939933,0.0848588,0.178489,0.160045,0.0892561,0.0855841,0.0759693,0.0839764,-318,-1075,185.549,185.549,877.439,853.126,2.648
0.0943506,0.0852067,0.178793,0.160368,0.0894286,0.0860485,0.0760541,0.0829326,-316,-1086,186.137,186.137,877.895,853.126,2.652
0.0947087,0.0855567,0.179097,0.160686,0.0896009,0.0865309,0.0761389,0.0817473,-314,-1098,186.713,186.713,878.396,853.126,2.656
0.0950674,0.0859071,0.179402,0.161006,0.0897731,0.0868813,0.0762235,0.0811586,-313,-1104,187.276,187.276,878.946,853.126,2.66
0.0954269,0.0862577,0.179707,0.161328,0.0899452,0.0871436,0.0763081,0.0809389,-313,-1107,187.833,187.833,879.521,853.126,2.664
0.095787,0.0866067,0.180012,0.161654,0.0901172,0.0871746,0.0763926,0.0811667,-315,-1105,188.388,188.388,880.104,853.126,2.668
0.0961478,0.0869549,0.180318,0.161983,0.090289,0.0871376,0.076477,0.0814913,-317,-1103,188.948,188.948,880.677,853.126,2.672
0.0965093,0.0873008,0.180624,0.162316,0.0904607,0.0869115,0.0765613,0.0820532,-322,-1098,189.519,189.519,881.235,853.126,2.676
0.0968715,0.0876452,0.180931,0.162648,0.0906322,0.0866455,0.0766456,0.0824278,-327,-1095,190.107,190.107,881.77,853.126,2.68
0.0972344,0.087989,0.181237,0.162984,0.0908037,0.0864107,0.0767297,0.0829654,-331,-1090,190.714,190.714,882.289,853.126,2.684
0.0975979,0.0883293,0.181544,0.163317,0.0909749,0.0859662,0.0768137,0.0830647,-338,-1090,191.339,191.339,882.786,853.126,2.688
0.0979622,0.088671,0.181852,0.163654,0.0911461,0.085785,0.0768977,0.0834188,-342,-1087,191.99,191.99,883.278,853.126,2.692
0.0983271,0.0890127,0.18216,0.16399,0.0913171,0.0856642,0.0769816,0.0835973,-346,-1085,192.657,192.657,883.756,853.126,2.696
0.0986927,0.0893578,0.182468,0.164331,0.091488,0.0858716,0.0770653,0.0841482,-346,-1081,193.336,193.336,884.225,853.126,2.7
0.099059,0.0897012,0.182776,0.164668,0.0916588,0.0858659,0.077149,0.0842275,-349,-1080,194.015,194.015,884.672,853.126,2.704
0.099426,0.0900481,0.183085,0.165006,0.0918294,0.08615,0.0772326,0.0843092,-349,-1080,194.701,194.701,885.115,853.126,2.708
0.0997936,0.0903953,0.183394,0.165342,0.0919998,0.0863682,0.0773161,0.0841909,-349,-1082,195.384,195.384,885.556,853.126,2.712
0.100162,0.090746,0.183703,0.165678,0.0921702,0.0868016,0.0773995,0.0841409,-347,-1083,196.065,196.065,886.003,853.126,2.716
0.100531,0.091096,0.184013,0.166017,0.0923403,0.0870329,0.0774828,0.084309,-348,-1081,196.737,196.737,886.451,853.126,2.72
0.100901,0.0914467,0.184323,0.166354,0.0925104,0.0872448,0.077566,0.0843059,-348,-1082,197.406,197.406,886.892,853.126,2.724
0.101271,0.0917977,0.184634,0.166694,0.0926803,0.0874147,0.0776491,0.0845054,-349,-1081,198.075,198.075,887.333,853.126,2.728
0.101642,0.092148,0.184944,0.167031,0.09285,0.0874705,0.0777322,0.0844657,-351,-1081,198.746,198.746,887.767,853.126,2.732
0.102014,0.0924973,0.185256,0.167369,0.0930197,0.0874213,0.0778151,0.084468,-354,-1082,199.422,199.422,888.203,853.126,2.736
0.102386,0.0928473,0.185567,0.167708,0.0931891,0.0874461,0.0778979,0.0845847,-356,-1081,200.108,200.108,888.638,853.126,2.74
0.102759,0.0931924,0.185879,0.168046,0.0933585,0.0870595,0.0779807,0.0845473,-362,-1082,200.802,200.802,889.07,853.126,2.744
0.103133,0.0935421,0.186191,0.168385,0.0935276,0.0871761,0.0780633,0.08458,-364,-1082,201.519,201.519,889.502,853.126,2.748
0.103508,0.0938869,0.186503,0.168717,0.0936967,0.0868507,0.0781458,0.0841123,-370,-1087,202.241,202.241,889.936,853.126,2.752
0.103883,0.094233,0.186816,0.169049,0.0938655,0.086749,0.0782283,0.0837142,-373,-1092,202.984,202.984,890.389,853.126,2.756
0.104259,0.0945799,0.187129,0.169381,0.0940343,0.0867388,0.0783106,0.0834775,-376,-1095,203.739,203.739,890.86,853.126,2.76
0.104635,0.0949282,0.187442,0.16971,0.0942029,0.0868471,0.0783929,0.0830894,-377,-1099,204.502,204.502,891.341,853.126,2.764
0.105012,0.0952764,0.187756,0.170042,0.0943713,0.0869193,0.078475,0.0830035,-379,-1100,205.27,205.27,891.839,853.126,2.768
0.10539,0.0956271,0.18807,0.170375,0.0945396,0.087169,0.0785571,0.0830901,-380,-1100,206.042,206.042,892.34,853.126,2.772
0.105768,0.0959781,0.188385,0.170713,0.0947077,0.0873642,0.078639,0.0835797,-381,-1096,206.812,206.812,892.837,853.126,2.776
0.106148,0.0963302,0.188699,0.171053,0.0948757,0.0875808,0.0787209,0.0840213,-381,-1092,207.583,207.583,893.314,853.126,2.78
0.106527,0.0966822,0.189014,0.171396,0.0950435,0.0877251,0.0788026,0.0846324,-382,-1087,208.352,208.352,893.771,853.126,2.784
0.106908,0.0970346,0.18933,0.171739,0.0952112,0.0878502,0.0788843,0.0850398,-384,-1083,209.124,209.124,894.203,853.126,2.788
0.107289,0.0973874,0.189646,0.172084,0.0953787,0.0879623,0.0789658,0.0853977,-385,-1080,209.899,209.899,894.618,853.126,2.792
0.107671,0.0977412,0.189962,0.17243,0.095546,0.0881234,0.0790472,0.0857803,-387,-1077,210.677,210.677,895.018,853.126,2.796
0.108054,0.0980949,0.190278,0.172781,0.0957132,0.0882309,0.0791286,0.0864673,-388,-1071,211.458,211.458,895.402,853.126,2.8
0.108437,0.0984491,0.190595,0.173137,0.0958803,0.0883313,0.0792098,0.0872995,-390,-1063,212.241,212.241,895.756,853.126,2.804
0.108821,0.0988011,0.190912,0.173497,0.0960471,0.0882255,0.0792909,0.088171,-394,-1055,213.03,213.03,896.074,853.126,2.808
0.109205,0.0991549,0.191229,0.173858,0.0962139,0.0882989,0.079372,0.0888384,-395,-1049,213.831,213.831,896.356,853.126,2.812
0.10959,0.0995087,0.191547,0.174221,0.0963804,0.0883478,0.0794529,0.0895137,-398,-1043,214.637,214.637,896.61,853.126,2.816
0.109976,0.0998621,0.191865,0.174582,0.0965468,0.0883517,0.0795337,0.0897335,-400,-1041,215.449,215.449,896.837,853.126,2.82
0.110363,0.100217,0.192183,0.174947,0.0967131,0.0884982,0.0796144,0.0902831,-402,-1036,216.269,216.269,897.054,853.126,2.824
0.11075,0.100572,0.192501,0.17531,0.0968791,0.0885383,0.079695,0.0904192,-404,-1035,217.092,217.092,897.249,853.126,2.828
0.111138,0.100928,0.19282,0.175678,0.0970451,0.088709,0.0797755,0.0909418,-405,-1030,217.921,217.921,897.437,853.126,2.832
0.111526,0.101284,0.19314,0.176044,0.0972108,0.088794,0.0798559,0.0911463,-407,-1029,218.751,218.751,897.604,853.126,2.836
0.111915,0.101636,0.193459,0.176408,0.0973764,0.0885051,0.0799362,0.0910522,-413,-1030,219.587,219.587,897.765,853.126,2.84
0.112305,0.101986,0.193779,0.176768,0.0975418,0.0881686,0.0800164,0.0907016,-418,-1033,220.444,220.444,897.93,853.126,2.844
0.112696,0.102334,0.194099,0.177128,0.097707,0.0878003,0.0800964,0.0904967,-425,-1036,221.324,221.324,898.11,853.126,2.848
0.113087,0.10268,0.19442,0.177482,0.0978721,0.0873533,0.0801764,0.0898418,-432,-1042,222.227,222.227,898.302,853.126,2.852
0.113479,0.103026,0.194741,0.177835,0.098037,0.087084,0.0802563,0.0893189,-437,-1048,223.158,223.158,898.521,853.126,2.856
0.113871,0.103372,0.195062,0.178184,0.0982018,0.0868757,0.080336,0.0886247,-442,-1055,224.109,224.109,898.764,853.126,2.86
0.114264,0.103717,0.195383,0.178533,0.0983664,0.0867081,0.0804156,0.0881044,-447,-1060,225.077,225.077,899.037,853.126,2.864
0.114658,0.104063,0.195705,0.178877,0.0985308,0.0865963,0.0804952,0.0874408,-451,-1067,226.06,226.06,899.333,853.126,2.868
0.115053,0.104409,0.196027,0.17922,0.098695,0.0866082,0.0805746,0.0868545,-454,-1073,227.057,227.057,899.658,853.126,2.872
0.115448,0.104759,0.19635,0.179563,0.0988591,0.0869328,0.0806539,0.0864924,-454,-1077,228.062,228.062,900.008,853.126,2.876
0.115843,0.10511,0.196673,0.179905,0.099023,0.0871492,0.0807331,0.0861646,-455,-1081,229.062,229.062,900.374,853.126,2.88
0.11624,0.105463,0.196996,0.180247,0.0991867,0.0875526,0.0808121,0.0859749,-454,-1084,230.062,230.062,900.755,853.126,2.884
0.116637,0.105822,0.197319,0.180594,0.0993502,0.0882822,0.0808911,0.0862227,-450,-1082,231.052,231.052,901.143,853.126,2.888
0.117035,0.106182,0.197643,0.180942,0.0995136,0.0887973,0.08097,0.086503,-448,-1079,232.022,232.022,901.521,853.126,2.892
0.117433,0.106542,0.197967,0.181299,0.0996768,0.0892272,0.0810487,0.0873521,-447,-1072,232.979,232.979,901.886,853.126,2.896
0.117832,0.106903,0.198291,0.181661,0.0998398,0.0895713,0.0811273,0.0884364,-447,-1062,233.927,233.927,902.215,853.126,2.9
0.118232,0.107262,0.198616,0.182029,0.100003,0.089628,0.0812058,0.0896487,-449,-1050,234.869,234.869,902.497,853.126,2.904
0.118632,0.10762,0.198941,0.182401,0.100165,0.0895794,0.0812842,0.0907737,-452,-1040,235.819,235.819,902.728,853.126,2.908
0.119033,0.107975,0.199266,0.18278,0.100328,0.0893454,0.0813625,0.0920418,-457,-1028,236.779,236.779,902.912,853.126,2.912
0.119435,0.108329,0.199592,0.18316,0.10049,0.0890743,0.0814407,0.0930888,-463,-1018,237.758,237.758,903.042,853.126,2.916
0.119837,0.108681,0.199918,0.183547,0.100652,0.088692,0.0815188,0.0942475,-469,-1007,238.757,238.757,903.127,853.126,2.92
0.12024,0.109032,0.200244,0.183937,0.100814,0.0883796,0.0815967,0.0953366,-475,-996,239.781,239.781,903.164,853.126,2.924
0.120644,0.109384,0.200571,0.184336,0.100976,0.0882577,0.0816745,0.0968688,-480,-982,240.827,240.827,903.153,853.126,2.928
0.121048,0.109737,0.200897,0.184741,0.101137,0.0882628,0.0817522,0.0982934,-483,-968,241.886,241.886,903.077,853.126,2.932
0.121453,0.11009,0.201225,0.185144,0.101299,0.0882086,0.0818298,0.0991279,-486,-960,242.954,242.954,902.943,853.126,2.936
0.121858,0.110447,0.201552,0.185551,0.10146,0.0885468,0.0819073,0.0999722,-486,-951,244.032,244.032,902.773,853.126,2.94
0.122264,0.110804,0.20188,0.185955,0.101621,0.0888298,0.0819846,0.100334,-487,-948,245.104,245.104,902.569,853.126,2.944
0.122671,0.111165,0.202208,0.18636,0.101782,0.0892488,0.0820619,0.100632,-486,-945,246.174,246.174,902.351,853.126,2.948
0.123079,0.111522,0.202536,0.186759,0.101943,0.0893266,0.082139,0.100342,-488,-948,247.236,247.236,902.122,853.126,2.952
0.123487,0.111883,0.202865,0.187162,0.102103,0.0896376,0.082216,0.100493,-488,-946,248.303,248.303,901.905,853.126,2.956
0.123895,0.112239,0.203194,0.187561,0.102263,0.089413,0.0822929,0.100249,-493,-948,249.367,249.367,901.684,853.126,2.96
0.124305,0.112597,0.203523,0.187962,0.102423,0.0894073,0.0823696,0.100201,-496,-949,250.449,250.449,901.473,853.126,2.964
0.124715,0.112954,0.203853,0.18836,0.102583,0.0893459,0.0824463,0.0999681,-500,-951,251.54,251.54,901.265,853.126,2.968
0.125125,0.113315,0.204183,0.188759,0.102743,0.0896504,0.0825228,0.0999277,-500,-951,252.641,252.641,901.067,853.126,2.972
0.125537,0.113675,0.204513,0.189159,0.102902,0.0897671,0.0825992,0.0999584,-502,-951,253.74,253.74,900.872,853.126,2.976
0.125949,0.114037,0.204844,0.189558,0.103062,0.0900176,0.0826755,0.0998924,-503,-952,254.842,254.842,900.677,853.126,2.98
0.126361,0.114402,0.205175,0.189959,0.103221,0.090415,0.0827516,0.100021,-503,-950,255.942,255.942,900.484,853.126,2.984
0.126774,0.114772,0.205506,0.190362,0.10338,0.0911117,0.0828276,0.100222,-499,-948,257.033,257.033,900.287,853.126,2.988
0.127188,0.115138,0.205837,0.190758,0.103539,0.0912595,0.0829036,0.0998092,-501,-952,258.105,258.105,900.083,853.126,2.992
0.127603,0.115507,0.206169,0.19115,0.103697,0.0915884,0.0829793,0.0991884,-501,-958,259.18,259.18,899.899,853.126,2.996
0.128018,0.115877,0.206501,0.191537,0.103856,0.091894,0.083055,0.0984002,-501,-966,260.249,260.249,899.742,853.126,3
0.128434,0.116247,0.206833,0.191917,0.104014,0.092069,0.0831305,0.097299,-502,-977,261.315,261.315,899.621,853.126,3.004
0.12885,0.116615,0.207166,0.192288,0.104172,0.0920992,0.083206,0.0957298,-505,-992,262.383,262.383,899.55,853.126,3.008
0.129267,0.116983,0.207499,0.192649,0.104329,0.0920618,0.0832812,0.093964,-508,-1010,263.458,263.458,899.547,853.126,3.012
0.129685,0.117353,0.207832,0.193004,0.104487,0.0921808,0.0833564,0.0922109,-510,-1027,264.542,264.542,899.62,853.126,3.016
0.130103,0.117723,0.208166,0.193353,0.104644,0.0922602,0.0834314,0.0905816,-512,-1043,265.631,265.631,899.77,853.126,3.02
0.130522,0.118093,0.2085,0.193698,0.104801,0.0923419,0.0835064,0.0890923,-515,-1058,266.725,266.725,899.99,853.126,3.024
0.130941,0.118465,0.208834,0.194043,0.104958,0.0925691,0.0835811,0.0881858,-516,-1067,267.824,267.824,900.273,853.126,3.028
0.131361,0.118839,0.209168,0.194391,0.105115,0.0928645,0.0836558,0.0877254,-516,-1072,268.921,268.921,900.594,853.126,3.032
0.131782,0.119213,0.209503,0.194743,0.105272,0.093119,0.0837303,0.0878215,-517,-1072,270.016,270.016,900.935,853.126,3.036
0.132204,0.11959,0.209838,0.1951,0.105428,0.0934902,0.0838047,0.0883463,-516,-1067,271.108,271.108,901.271,853.126,3.04
0.132626,0.11997,0.210174,0.195465,0.105584,0.0939968,0.083879,0.0893295,-514,-1058,272.193,272.193,901.585,853.126,3.044
0.133048,0.120349,0.210509,0.195835,0.10574,0.0942482,0.0839532,0.0903881,-515,-1048,273.266,273.266,901.856,853.126,3.048
0.133471,0.120731,0.210845,0.196213,0.105896,0.0946749,0.0840272,0.0916984,-514,-1036,274.336,274.336,902.083,853.126,3.052
0.133895,0.121113,0.211181,0.196592,0.106052,0.0949306,0.0841011,0.0927159,-514,-1026,275.398,275.398,902.255,853.126,3.056
0.13432,0.121495,0.211518,0.196976,0.106207,0.0951298,0.0841748,0.0938261,-515,-1016,276.457,276.457,902.384,853.126,3.06
0.134745,0.121879,0.211855,0.197364,0.106362,0.0954354,0.0842485,0.094883,-516,-1006,277.516,277.516,902.466,853.126,3.064
0.135171,0.122264,0.212192,0.197758,0.106517,0.0956679,0.084322,0.0961345,-516,-994,278.571,278.571,902.503,853.126,3.068
0.135597,0.12265,0.212529,0.198156,0.106672,0.0959956,0.0843954,0.0972568,-516,-983,279.624,279.624,902.488,853.126,3.072
0.136024,0.123032,0.212867,0.198553,0.106826,0.0957823,0.0844686,0.0979187,-521,-977,280.673,280.673,902.427,853.126,3.076
0.136452,0.123413,0.213205,0.198955,0.10698,0.09564,0.0845417,0.098763,-525,-969,281.74,281.74,902.337,853.126,3.08
0.13688,0.123795,0.213544,0.199357,0.107135,0.095574,0.0846147,0.099297,-529,-964,282.82,282.82,902.214,853.126,3.084
0.137309,0.124175,0.213882,0.19976,0.107288,0.0953572,0.0846875,0.0998258,-534,-959,283.911,283.911,902.068,853.126,3.088
0.137738,0.124557,0.214221,0.200164,0.107442,0.095443,0.0847603,0.100236,-536,-955,285.02,285.02,901.901,853.126,3.092
0.138168,0.12494,0.21456,0.20057,0.107596,0.095529,0.0848328,0.100653,-538,-951,286.132,286.132,901.717,853.126,3.096
0.138599,0.125326,0.2149,0.200973,0.107749,0.0958743,0.0849053,0.100615,-538,-951,287.249,287.249,901.517,853.126,3.1
0.13903,0.125715,0.215239,0.201373,0.107902,0.096306,0.0849776,0.100445,-537,-953,288.36,288.36,901.32,853.126,3.104
0.139462,0.126106,0.21558,0.201768,0.108055,0.0968241,0.0850498,0.0999003,-535,-958,289.461,289.461,901.133,853.126,3.108
0.139895,0.126502,0.21592,0.202159,0.108207,0.0974862,0.0851218,0.0991339,-532,-965,290.548,290.548,900.97,853.126,3.112
0.140328,0.1269,0.21626,0.202544,0.10836,0.098158,0.0851938,0.0981912,-528,-975,291.616,291.616,900.842,853.126,3.116
0.140762,0.127301,0.216601,0.202923,0.108512,0.0988649,0.0852655,0.0970732,-525,-986,292.664,292.664,900.756,853.126,3.12
0.141196,0.127701,0.216943,0.203297,0.108664,0.0992498,0.0853372,0.0958673,-524,-998,293.691,293.691,900.718,853.126,3.124
