peachynonah/Fire_monitor_KIRO_CDSL/csv_datas/trial12/cdsl_data_t12_7_d.csv
joint1_pos_desired, joint1_pos, joint2_pos_desired, joint2_pos, joint1_vel_desired, joint1_vel_filtered, joint2_vel_desired, joint2_vel_filtered, target_torque_joint1, target_torque_joint2, estimated_disturbance_joint1, saturated_DOB_joint1, estimated_disturbance_joint2, saturated_DOB_joint2, current_time
0.654,0.653482,0.692,0.690813,-3.76499e-07,0,-3.31894e-07,0,-2,-83,0,0,17.7701,0.1,0.004
0.654,0.653482,0.692,0.690727,-1.50479e-06,0,-1.32652e-06,-0.00716894,-2,-152,-0.00221349,-0.00221349,17.6797,0.1,0.008
0.654,0.653482,0.692,0.690664,-3.38307e-06,0,-2.98227e-06,-0.0100192,-2,-180,-0.00442019,-0.00442019,17.5204,0.1,0.012
0.654,0.653482,0.692,0.690617,-6.00952e-06,0,-5.29757e-06,-0.0106239,-2,-186,-0.00661551,-0.00661551,17.3344,0.1,0.016
0.654,0.653482,0.692,0.690589,-9.38236e-06,0,-8.27082e-06,-0.00935705,-2,-174,-0.00879484,-0.00879484,17.144,0.1,0.02
0.654,0.653482,0.692,0.690582,-1.34998e-05,0,-1.19004e-05,-0.00681385,-2,-150,-0.0109536,-0.0109536,16.9674,0.1,0.024
0.654,0.653482,0.692,0.690592,-1.836e-05,0,-1.61848e-05,-0.00373642,-2,-120,-0.0130872,-0.0130872,16.8171,0.1,0.028
0.654,0.653482,0.692,0.690616,-2.39611e-05,0,-2.11224e-05,-0.000504374,-2,-89,-0.015191,-0.015191,16.6981,0.1,0.032
0.654,0.653482,0.692,0.690649,-3.03014e-05,0,-2.67116e-05,0.00239889,-2,-61,-0.0172605,-0.0172605,16.6116,0.1,0.036
0.654,0.653482,0.692,0.690688,-3.73792e-05,-2.87909e-05,-3.29508e-05,0.00488142,-2,-37,-0.0193034,-0.0193034,16.5542,0.1,0.04
0.653999,0.653482,0.691999,0.690731,-4.51925e-05,9.59697e-06,-3.98385e-05,0.00685315,-1,-17,-0.0214483,-0.0214483,16.5218,0.1,0.044
0.653999,0.653482,0.691999,0.690775,-5.37396e-05,-2.23929e-05,-4.7373e-05,0.00816763,-2,-4,-0.0233435,-0.0233435,16.509,0.1,0.048
0.653999,0.653482,0.691999,0.690817,-6.30187e-05,1.38623e-05,-5.55528e-05,0.00898637,-1,3,-0.0253505,-0.0253505,16.5094,0.1,0.052
0.653999,0.653482,0.691999,0.690856,-7.3028e-05,9.24153e-06,-6.43762e-05,0.00927308,-1,6,-0.027099,-0.027099,16.518,0.1,0.056
0.653998,0.653482,0.691999,0.690894,-8.37657e-05,6.16102e-06,-7.38419e-05,0.00929147,-1,6,-0.028813,-0.028813,16.5296,0.1,0.06
0.653998,0.653482,0.691998,0.690928,-9.52301e-05,4.10735e-06,-8.3948e-05,0.00904462,-1,4,-0.0304789,-0.0304789,16.5415,0.1,0.064
0.653998,0.653482,0.691998,0.690958,-0.000107419,2.73823e-06,-9.46932e-05,0.00853455,-1,0,-0.0320862,-0.0320862,16.5512,0.1,0.068
0.653997,0.653482,0.691997,0.690985,-0.000120332,1.82549e-06,-0.000106076,0.0079066,-1,-5,-0.0336264,-0.0336264,16.5561,0.1,0.072
0.653997,0.653482,0.691997,0.691009,-0.000133965,1.21699e-06,-0.000118094,0.00731523,-1,-10,-0.0350923,-0.0350923,16.555,0.1,0.076
0.653996,0.653482,0.691996,0.691031,-0.000148318,-2.79796e-05,-0.000130747,0.00671944,-1,-16,-0.0364896,-0.0364896,16.5484,0.1,0.08
0.653995,0.653482,0.691996,0.69105,-0.000163389,-1.86531e-05,-0.000144032,0.00603433,-1,-22,-0.0379583,-0.0379583,16.5362,0.1,0.084
0.653995,0.653482,0.691995,0.691066,-0.000179176,-1.24354e-05,-0.000157948,0.00540485,-1,-28,-0.0392792,-0.0392792,16.5175,0.1,0.088
0.653994,0.653482,0.691995,0.691081,-0.000195676,-8.29025e-06,-0.000172494,0.00484125,-1,-33,-0.0404658,-0.0404658,16.493,0.1,0.092
0.653993,0.653482,0.691994,0.691096,-0.00021289,2.32641e-05,-0.000187668,0.00440792,0,-37,-0.0415136,-0.0415136,16.4634,0.1,0.096
0.653992,0.653482,0.691993,0.69111,-0.000230814,-1.32815e-05,-0.000203469,0.00411904,-1,-39,-0.042293,-0.042293,16.4299,0.1,0.1
0.653991,0.653482,0.691992,0.691124,-0.000249446,-8.85435e-06,-0.000219894,0.00395525,0,-41,-0.0431638,-0.0431638,16.3941,0.1,0.104
0.65399,0.653482,0.691991,0.691139,-0.000268786,-5.9029e-06,-0.000236943,0.00390363,0,-41,-0.0438927,-0.0438927,16.3571,0.1,0.108
0.653989,0.653482,0.69199,0.691155,-0.000288831,-3.93527e-06,-0.000254613,0.00389801,0,-41,-0.0444838,-0.0444838,16.3201,0.1,0.112
0.653988,0.653482,0.691989,0.691171,-0.00030958,-2.62351e-06,-0.000272903,0.00395185,0,-40,-0.0449383,-0.0449383,16.2835,0.1,0.116
0.653987,0.653482,0.691988,0.691188,-0.00033103,-1.74901e-06,-0.000291812,0.00407411,0,-38,-0.0452553,-0.0452553,16.248,0.1,0.12
0.653985,0.653482,0.691987,0.691206,-0.00035318,-1.16601e-06,-0.000311339,0.00415562,0,-37,-0.0454331,-0.0454331,16.2141,0.1,0.124
0.653984,0.653482,0.691986,0.691224,-0.000376029,-7.77337e-07,-0.00033148,0.00432512,0,-35,-0.0454686,-0.0454686,16.1815,0.1,0.128
0.653982,0.653482,0.691984,0.691243,-0.000399574,-5.18225e-07,-0.000352236,0.00446692,0,-34,-0.0453585,-0.0453585,16.1511,0.1,0.132
0.653981,0.653482,0.691983,0.691262,-0.000423814,-3.45483e-07,-0.000373604,0.00456145,0,-32,-0.0450989,-0.0450989,16.1226,0.1,0.136
0.653979,0.653482,0.691981,0.691282,-0.000448746,-2.30322e-07,-0.000395583,0.00468205,0,-31,-0.0446859,-0.0446859,16.0955,0.1,0.14
0.653977,0.653482,0.69198,0.691308,-0.00047437,-1.53548e-07,-0.000418171,0.00528068,0,-25,-0.0441151,-0.0441151,16.0703,0.1,0.144
0.653975,0.653482,0.691978,0.691318,-0.000500683,-1.02365e-07,-0.000441367,0.00435539,0,-33,-0.0433824,-0.0433824,16.0508,0.1,0.148
0.653973,0.653482,0.691976,0.691335,-0.000527684,-6.82436e-08,-0.000465169,0.00428556,0,-34,-0.0424831,-0.0424831,16.023,0.1,0.152
0.653971,0.653482,0.691974,0.69135,-0.000555371,-4.54957e-08,-0.000489576,0.00418142,1,-34,-0.041413,-0.041413,15.995,0.1,0.156
0.653969,0.653482,0.691972,0.691366,-0.000583742,-3.03305e-08,-0.000514585,0.004112,1,-35,-0.0401674,-0.0401674,15.9664,0.1,0.16
0.653966,0.653482,0.69197,0.691382,-0.000612796,-2.02203e-08,-0.000540197,0.00406571,1,-35,-0.0387419,-0.0387419,15.9377,0.1,0.164
0.653964,0.653482,0.691968,0.691398,-0.00064253,-1.34802e-08,-0.000566408,0.00400607,1,-35,-0.0371319,-0.0371319,15.909,0.1,0.168
0.653961,0.653482,0.691966,0.691413,-0.000672943,-8.98681e-09,-0.000593218,0.00393751,1,-35,-0.0353329,-0.0353329,15.8802,0.1,0.172
0.653958,0.653482,0.691963,0.691428,-0.000704033,-5.99121e-09,-0.000620625,0.00386302,1,-35,-0.0333403,-0.0333403,15.8513,0.1,0.176
0.653955,0.653482,0.691961,0.691441,-0.000735798,-2.87949e-05,-0.000648627,0.00369819,2,-37,-0.0311618,-0.0311618,15.8221,0.1,0.18
0.653952,0.653482,0.691958,0.691452,-0.000768238,-1.91966e-05,-0.000677224,0.00338677,2,-39,-0.028938,-0.028938,15.7918,0.1,0.184
0.653949,0.653482,0.691955,0.69146,-0.000801349,-1.27977e-05,-0.000706412,0.00292004,2,-43,-0.0264509,-0.0264509,15.7587,0.1,0.188
0.653946,0.653482,0.691952,0.691466,-0.00083513,-8.53183e-06,-0.000736191,0.00237856,2,-48,-0.0237146,-0.0237146,15.7216,0.1,0.192
0.653943,0.653482,0.691949,0.691468,-0.00086958,-5.68789e-06,-0.00076656,0.00175845,3,-54,-0.0207368,-0.0207368,15.6795,0.1,0.196
0.653939,0.653482,0.691946,0.691468,-0.000904697,-3.79192e-06,-0.000797516,0.00120109,3,-59,-0.0175213,-0.0175213,15.6319,0.1,0.2
0.653935,0.653482,0.691943,0.691468,-0.000940478,-2.52795e-06,-0.000829059,0.000800727,3,-62,-0.0140691,-0.0140691,15.5794,0.1,0.204
0.653932,0.653482,0.69194,0.691468,-0.000976923,-1.6853e-06,-0.000861186,0.000533818,3,-65,-0.0103793,-0.0103793,15.5236,0.1,0.208
0.653928,0.653482,0.691936,0.691468,-0.00101403,-1.12353e-06,-0.000893896,0.00038467,3,-66,-0.00644975,-0.00644975,15.4658,0.1,0.212
0.653923,0.653482,0.691933,0.691468,-0.0010518,-7.49022e-07,-0.000927188,0.000256446,4,-67,-0.00227748,-0.00227748,15.4071,0.1,0.216
0.653919,0.653482,0.691929,0.691469,-0.00109022,-4.99348e-07,-0.00096106,0.000199755,4,-67,0.00214099,0.00214099,15.3479,0.1,0.22
0.653915,0.653482,0.691925,0.691469,-0.0011293,-3.32899e-07,-0.00099551,0.000190752,4,-67,0.00680951,0.00680951,15.2887,0.1,0.224
0.65391,0.653482,0.691921,0.69147,-0.00116904,-2.21932e-07,-0.00103054,0.000155959,5,-67,0.0117322,0.0117322,15.23,0.1,0.228
0.653905,0.653482,0.691917,0.69147,-0.00120942,-1.47955e-07,-0.00106614,0.000132764,5,-66,0.0169133,0.0169133,15.1717,0.1,0.232
0.6539,0.653482,0.691912,0.69147,-0.00125046,-9.86366e-08,-0.00110232,0.0001173,5,-66,0.0223572,0.0223572,15.1138,0.1,0.236
0.653895,0.653482,0.691908,0.691471,-0.00129215,-6.57578e-08,-0.00113907,0.000106991,5,-66,0.0280683,0.0280683,15.0563,0.1,0.24
0.65389,0.653481,0.691903,0.691471,-0.00133449,-5.76257e-05,-0.00117639,0.000100118,5,-66,0.0340266,0.0340266,14.9995,0.1,0.244
0.653885,0.653481,0.691898,0.691472,-0.00137747,-9.6262e-06,-0.00121428,0.000124327,6,-65,0.0399586,0.0399586,14.9432,0.1,0.248
0.653879,0.653481,0.691893,0.691472,-0.00142109,-6.41747e-06,-0.00125274,0.000140467,6,-64,0.0464411,0.0464411,14.8879,0.1,0.252
0.653873,0.653481,0.691888,0.691473,-0.00146536,-4.27831e-06,-0.00129176,0.000151226,7,-64,0.0532276,0.0532276,14.8333,0.1,0.256
0.653867,0.653481,0.691883,0.691473,-0.00151027,-3.16431e-05,-0.00133135,0.000129608,7,-64,0.0603042,0.0603042,14.7795,0.1,0.26
0.653861,0.653481,0.691878,0.691474,-0.00155582,-2.10954e-05,-0.0013715,0.000143988,7,-63,0.0675263,0.0675263,14.7262,0.1,0.264
0.653855,0.653481,0.691872,0.691474,-0.00160201,-4.28545e-05,-0.00141222,6.72007e-05,7,-63,0.0750969,0.0750969,14.6737,0.1,0.268
0.653848,0.653481,0.691866,0.691474,-0.00164883,-2.85697e-05,-0.00145349,4.48005e-05,8,-63,0.0828548,0.0828548,14.6211,0.1,0.272
0.653842,0.653481,0.69186,0.691473,-0.00169629,-1.90465e-05,-0.00149532,1.07607e-06,8,-63,0.0910046,0.0910046,14.569,0.1,0.276
0.653835,0.653481,0.691854,0.691474,-0.00174437,-1.26976e-05,-0.00153772,5.82992e-05,8,-62,0.099523,0.099523,14.5172,0.1,0.28
0.653828,0.653481,0.691848,0.691474,-0.00179309,-8.46509e-06,-0.00158066,3.88662e-05,9,-62,0.108396,0.1,14.4666,0.1,0.284
0.65382,0.653481,0.691842,0.691474,-0.00184244,-5.6434e-06,-0.00162416,2.59108e-05,9,-61,0.117579,0.1,14.4165,0.1,0.288
0.653813,0.653481,0.691835,0.691474,-0.00189241,-3.76226e-06,-0.00166822,1.72738e-05,9,-61,0.127064,0.1,14.367,0.1,0.292
0.653805,0.653481,0.691828,0.691474,-0.00194301,-2.50818e-06,-0.00171282,1.15159e-05,10,-61,0.13685,0.1,14.3181,0.1,0.296
0.653797,0.65348,0.691821,0.691474,-0.00199424,-3.0463e-05,-0.00175798,7.67726e-06,10,-60,0.146923,0.1,14.2698,0.1,0.3
0.653789,0.65348,0.691814,0.691474,-0.00204608,-4.90996e-05,-0.00180368,5.11818e-06,10,-60,0.157127,0.1,14.2223,0.1,0.304
0.653781,0.65348,0.691807,0.691475,-0.00209855,-3.94215e-06,-0.00184993,6.0994e-05,11,-59,0.167546,0.1,14.1754,0.1,0.308
0.653773,0.65348,0.6918,0.691474,-0.00215163,-2.6281e-06,-0.00189673,-1.69192e-05,11,-59,0.178521,0.1,14.1298,0.1,0.312
0.653764,0.65348,0.691792,0.691474,-0.00220534,-3.0543e-05,-0.00194407,-1.12795e-05,11,-58,0.189798,0.1,14.0841,0.1,0.316
0.653755,0.65348,0.691784,0.691474,-0.00225965,-2.0362e-05,-0.00199195,-7.51965e-06,12,-58,0.201231,0.1,14.0393,0.1,0.32
0.653746,0.65348,0.691776,0.691474,-0.00231458,-1.35747e-05,-0.00204037,-5.0131e-06,12,-57,0.213037,0.1,13.9952,0.1,0.324
0.653736,0.65348,0.691768,0.691474,-0.00237012,-9.04978e-06,-0.00208933,-3.34207e-06,13,-57,0.225198,0.1,13.9518,0.1,0.328
0.653727,0.65348,0.691759,0.691475,-0.00242628,-6.03318e-06,-0.00213883,2.65629e-05,13,-56,0.237705,0.1,13.9093,0.1,0.332
0.653717,0.65348,0.691751,0.691474,-0.00248304,-4.02212e-06,-0.00218887,-1.10823e-05,13,-56,0.250552,0.1,13.8677,0.1,0.336
0.653707,0.653479,0.691742,0.691475,-0.00254041,-3.14723e-05,-0.00223944,5.01936e-05,13,-55,0.263723,0.1,13.8265,0.1,0.34
0.653697,0.653479,0.691733,0.691475,-0.00259838,-2.09816e-05,-0.00229054,3.34624e-05,14,-54,0.277073,0.1,13.7867,0.1,0.344
0.653686,0.653479,0.691723,0.691474,-0.00265695,-1.39877e-05,-0.00234218,-3.52736e-05,14,-54,0.290816,0.1,13.7474,0.1,0.348
0.653675,0.653479,0.691714,0.691474,-0.00271613,-9.32514e-06,-0.00239435,-2.35157e-05,15,-54,0.304935,0.1,13.7083,0.1,0.352
0.653664,0.653479,0.691704,0.691475,-0.00277591,-6.21676e-06,-0.00244704,4.19047e-05,15,-52,0.319419,0.1,13.67,0.1,0.356
0.653653,0.653479,0.691694,0.691475,-0.00283629,-4.14451e-06,-0.00250027,-8.54454e-07,16,-52,0.334263,0.1,13.6331,0.1,0.36
0.653642,0.653479,0.691684,0.691474,-0.00289726,-3.15539e-05,-0.00255402,-2.93606e-05,16,-52,0.34945,0.1,13.5966,0.1,0.364
0.65363,0.653479,0.691674,0.691475,-0.00295883,-4.98269e-05,-0.00260829,9.21722e-06,16,-51,0.364823,0.1,13.5606,0.1,0.368
0.653618,0.653478,0.691663,0.691474,-0.00302099,-6.20088e-05,-0.00266309,-2.26461e-05,16,-51,0.380438,0.1,13.5256,0.1,0.372
0.653606,0.653478,0.691653,0.691474,-0.00308374,-9.89211e-05,-0.00271841,-1.50974e-05,17,-50,0.396322,0.1,13.4912,0.1,0.376
0.653593,0.653478,0.691642,0.691474,-0.00314708,-3.71565e-05,-0.00277424,-1.00649e-05,17,-49,0.412383,0.1,13.4576,0.1,0.38
0.653581,0.653478,0.69163,0.691474,-0.00321101,-2.4771e-05,-0.0028306,-6.70996e-06,18,-49,0.429155,0.1,13.4249,0.1,0.384
0.653568,0.653478,0.691619,0.691474,-0.00327553,-1.6514e-05,-0.00288748,-4.47331e-06,18,-48,0.446363,0.1,13.393,0.1,0.388
0.653555,0.653478,0.691607,0.691475,-0.00334064,-1.10093e-05,-0.00294487,2.58087e-05,19,-47,0.463985,0.1,13.3618,0.1,0.392
0.653541,0.653478,0.691595,0.691474,-0.00340632,-3.61305e-05,-0.00300277,-1.15851e-05,19,-47,0.481995,0.1,13.3318,0.1,0.396
0.653527,0.653477,0.691583,0.691474,-0.00347259,-8.16688e-05,-0.00306119,-7.72341e-06,19,-46,0.500216,0.1,13.3022,0.1,0.4
0.653513,0.653477,0.691571,0.691475,-0.00353944,-2.5655e-05,-0.00312011,2.3642e-05,20,-45,0.51858,0.1,13.2734,0.1,0.404
0.653499,0.653477,0.691558,0.691474,-0.00360686,-1.71033e-05,-0.00317955,-1.30296e-05,21,-45,0.53764,0.1,13.2458,0.1,0.408
0.653484,0.653477,0.691545,0.691475,-0.00367487,-4.01931e-05,-0.0032395,2.01045e-05,21,-44,0.557118,0.1,13.2186,0.1,0.412
0.65347,0.653477,0.691532,0.691474,-0.00374344,-2.67954e-05,-0.00329995,-1.53879e-05,21,-44,0.576855,0.1,13.1925,0.1,0.416
0.653454,0.653477,0.691519,0.691474,-0.00381259,-4.66545e-05,-0.00336091,-1.02586e-05,22,-43,0.597045,0.1,13.1669,0.1,0.42
0.653439,0.653476,0.691506,0.691474,-0.00388232,-8.86849e-05,-0.00342237,-6.83907e-06,22,-42,0.617495,0.1,13.1421,0.1,0.424
0.653423,0.653476,0.691492,0.691474,-0.00395261,-8.79142e-05,-0.00348434,-4.55938e-06,22,-42,0.638101,0.1,13.1182,0.1,0.428
0.653407,0.653475,0.691478,0.691474,-0.00402347,-0.000116191,-0.0035468,-3.03959e-06,23,-41,0.659095,0.1,13.0952,0.1,0.432
0.653391,0.653475,0.691463,0.691474,-0.0040949,-0.000106252,-0.00360977,-2.02639e-06,23,-40,0.680333,0.1,13.0729,0.1,0.436
0.653375,0.653474,0.691449,0.691474,-0.00416689,-9.96255e-05,-0.00367323,-1.35093e-06,24,-39,0.70203,0.1,13.0516,0.1,0.44
0.653358,0.653474,0.691434,0.691474,-0.00423945,-6.6417e-05,-0.00373719,-9.00618e-07,25,-39,0.724183,0.1,13.031,0.1,0.444
0.653341,0.653474,0.691419,0.691474,-0.00431256,-0.00010186,-0.00380165,-6.00412e-07,25,-38,0.746913,0.1,13.0113,0.1,0.448
0.653323,0.653473,0.691404,0.691474,-0.00438624,-0.000125488,-0.0038666,-4.00275e-07,25,-37,0.769845,0.1,12.9924,0.1,0.452
0.653306,0.653472,0.691388,0.691474,-0.00446048,-0.000141241,-0.00393204,-2.6685e-07,26,-36,0.793049,0.1,12.9744,0.1,0.456
0.653288,0.653471,0.691372,0.691474,-0.00453527,-0.000180533,-0.00399797,-2.89688e-05,26,-36,0.816563,0.1,12.9572,0.1,0.46
0.653269,0.653469,0.691356,0.691474,-0.00461062,-0.00026431,-0.00406439,-1.93125e-05,26,-35,0.84024,0.1,12.9406,0.1,0.464
0.653251,0.653468,0.69134,0.691474,-0.00468652,-0.00026258,-0.0041313,-1.2875e-05,26,-34,0.863869,0.1,12.9249,0.1,0.468
0.653232,0.653467,0.691323,0.691474,-0.00476298,-0.000319008,-0.0041987,-8.58336e-06,27,-34,0.887909,0.1,12.9101,0.1,0.472
0.653213,0.653464,0.691306,0.691474,-0.00483998,-0.000414208,-0.00426658,-5.72224e-06,27,-33,0.912019,0.1,12.8963,0.1,0.476
0.653193,0.653463,0.691289,0.691474,-0.00491753,-0.000420093,-0.00433495,-3.81482e-06,27,-32,0.936024,0.1,12.8833,0.1,0.48
0.653173,0.653459,0.691271,0.691474,-0.00499563,-0.000539181,-0.00440379,-2.54322e-06,27,-31,0.960379,0.1,12.8712,0.1,0.484
0.653153,0.653456,0.691254,0.691474,-0.00507428,-0.000647363,-0.00447312,-1.69548e-06,27,-30,0.984458,0.1,12.86,0.1,0.488
0.653133,0.653452,0.691235,0.691473,-0.00515347,-0.000777066,-0.00454293,-2.99212e-05,27,-30,1.00832,0.1,12.8496,0.1,0.492
0.653112,0.653448,0.691217,0.691473,-0.0052332,-0.000863535,-0.00461321,-4.87384e-05,27,-29,1.03185,0.1,12.8398,0.1,0.496
0.653091,0.653444,0.691199,0.691473,-0.00531347,-0.00089239,-0.00468397,-3.24923e-05,27,-28,1.05534,0.1,12.8307,0.1,0.5
0.653069,0.653439,0.69118,0.691473,-0.00539428,-0.000969209,-0.00475521,-2.16615e-05,27,-27,1.07909,0.1,12.8227,0.1,0.504
0.653048,0.653435,0.691161,0.691473,-0.00547563,-0.00104921,-0.00482692,-1.4441e-05,27,-26,1.10283,0.1,12.8157,0.1,0.508
0.653026,0.65343,0.691141,0.691473,-0.00555751,-0.00110255,-0.0048991,-9.62734e-06,27,-26,1.12655,0.1,12.8096,0.1,0.512
0.653003,0.653424,0.691121,0.691473,-0.00563993,-0.00119569,-0.00497176,-6.41823e-06,27,-25,1.1504,0.1,12.8044,0.1,0.516
0.652981,0.653419,0.691101,0.691473,-0.00572288,-0.00125778,-0.00504488,-4.27882e-06,28,-24,1.17416,0.1,12.8001,0.1,0.52
0.652957,0.653412,0.691081,0.691473,-0.00580636,-0.00138555,-0.00511847,-2.85255e-06,27,-23,1.19799,0.1,12.7968,0.1,0.524
0.652934,0.653405,0.69106,0.691473,-0.00589036,-0.00149952,-0.00519252,-3.06926e-05,27,-22,1.22152,0.1,12.7943,0.1,0.528
0.65291,0.653398,0.691039,0.691473,-0.0059749,-0.00163308,-0.00526705,-2.04617e-05,27,-21,1.24484,0.1,12.7925,0.1,0.532
0.652886,0.653389,0.691018,0.691472,-0.00605996,-0.00183728,-0.00534203,-4.24321e-05,26,-21,1.26779,0.1,12.7917,0.1,0.536
0.652862,0.65338,0.690997,0.691472,-0.00614555,-0.00194463,-0.00541748,-2.82881e-05,26,-20,1.29004,0.1,12.7915,0.1,0.54
0.652837,0.653372,0.690975,0.691472,-0.00623166,-0.00192982,-0.00549339,-4.76496e-05,27,-19,1.31218,0.1,12.7924,0.1,0.544
0.652812,0.653365,0.690953,0.691472,-0.00631829,-0.00191995,-0.00556975,-3.17664e-05,28,-18,1.33489,0.1,12.7941,0.1,0.548
0.652787,0.653358,0.69093,0.691472,-0.00640544,-0.00185578,-0.00564658,-2.11776e-05,29,-17,1.35819,0.1,12.7967,0.1,0.552
0.652761,0.653351,0.690908,0.691472,-0.00649311,-0.00181301,-0.00572386,-1.41184e-05,29,-16,1.38235,0.1,12.8004,0.1,0.556
0.652735,0.653344,0.690885,0.691472,-0.00658129,-0.0017557,-0.00580159,-9.41227e-06,30,-15,1.40728,0.1,12.8051,0.1,0.56
0.652708,0.653338,0.690861,0.691472,-0.00666999,-0.0016887,-0.00587978,-3.50658e-05,31,-15,1.43305,0.1,12.8108,0.1,0.564
0.652681,0.653332,0.690837,0.691472,-0.0067592,-0.00167283,-0.00595843,-2.33772e-05,32,-14,1.45971,0.1,12.8171,0.1,0.568
0.652654,0.653324,0.690814,0.691472,-0.00684892,-0.00171983,-0.00603752,-1.55848e-05,32,-13,1.48693,0.1,12.8244,0.1,0.572
0.652626,0.653317,0.690789,0.691472,-0.00693915,-0.00177995,-0.00611706,-1.03899e-05,33,-12,1.51438,0.1,12.8328,0.1,0.576
0.652599,0.653309,0.690765,0.691471,-0.00702989,-0.00182004,-0.00619705,-3.57175e-05,33,-11,1.54197,0.1,12.8421,0.1,0.58
0.65257,0.653301,0.69074,0.691471,-0.00712114,-0.00193313,-0.00627749,-8.13935e-05,33,-10,1.56981,0.1,12.8521,0.1,0.584
0.652542,0.653292,0.690714,0.691471,-0.00721289,-0.00200853,-0.00635837,-2.54714e-05,33,-9,1.59749,0.1,12.8626,0.1,0.588
0.652513,0.653283,0.690689,0.691471,-0.00730515,-0.00211637,-0.0064397,-4.57719e-05,33,-8,1.62522,0.1,12.8746,0.1,0.592
0.652483,0.653272,0.690663,0.69147,-0.0073979,-0.00227464,-0.00652146,-5.93055e-05,33,-7,1.65279,0.1,12.8873,0.1,0.596
0.652453,0.653261,0.690637,0.69147,-0.00749116,-0.00246653,-0.00660367,-9.71189e-05,32,-7,1.67992,0.1,12.9008,0.1,0.6
0.652423,0.653248,0.69061,0.691469,-0.00758492,-0.00273841,-0.00668632,-9.35368e-05,31,-6,1.70638,0.1,12.9149,0.1,0.604
0.652393,0.653233,0.690583,0.691468,-0.00767917,-0.00300603,-0.00676941,-0.000148731,30,-5,1.73173,0.1,12.9299,0.1,0.608
0.652362,0.653219,0.690556,0.691469,-0.00777392,-0.00318445,-0.00685293,-7.03628e-05,30,-3,1.75604,0.1,12.9454,0.1,0.612
0.65233,0.653205,0.690528,0.691468,-0.00786916,-0.00330339,-0.00693689,-7.56995e-05,30,-3,1.77984,0.1,12.9626,0.1,0.616
0.652299,0.653191,0.6905,0.691468,-0.00796489,-0.00341148,-0.00702128,-7.92573e-05,30,-2,1.80347,0.1,12.9807,0.1,0.62
0.652267,0.653176,0.690472,0.691467,-0.00806112,-0.00348354,-0.00710611,-0.000139211,30,-1,1.82702,0.1,12.9997,0.1,0.624
0.652234,0.653162,0.690443,0.691467,-0.00815783,-0.00353158,-0.00719136,-6.40164e-05,30,0,1.85068,0.1,13.0191,0.1,0.628
0.652201,0.653147,0.690415,0.691467,-0.00825503,-0.00353481,-0.00727705,-7.14685e-05,31,1,1.87463,0.1,13.0402,0.1,0.632
0.652168,0.653133,0.690385,0.691467,-0.00835272,-0.00356576,-0.00736316,-7.64366e-05,32,2,1.89911,0.1,13.0622,0.1,0.636
0.652135,0.653117,0.690356,0.691467,-0.00845089,-0.00367277,-0.0074497,-5.09577e-05,32,3,1.92392,0.1,13.0851,0.1,0.64
0.652101,0.653101,0.690326,0.691466,-0.00854955,-0.00380168,-0.00753667,-6.27627e-05,31,4,1.94864,0.1,13.1092,0.1,0.644
0.652066,0.653086,0.690295,0.691466,-0.00864868,-0.00383005,-0.00762406,-4.18418e-05,32,5,1.97319,0.1,13.1342,0.1,0.648
0.652031,0.65307,0.690265,0.691466,-0.0087483,-0.00387775,-0.00771187,-2.78946e-05,32,6,1.99813,0.1,13.1604,0.1,0.652
0.651996,0.653053,0.690234,0.691467,-0.00884839,-0.00393834,-0.00780011,1.01946e-05,33,8,2.02334,0.1,13.1877,0.1,0.656
0.651961,0.653036,0.690202,0.691466,-0.00894896,-0.0040939,-0.00788876,-2.19946e-05,32,8,2.04871,0.1,13.2163,0.1,0.66
0.651925,0.653017,0.690171,0.691466,-0.00905,-0.00428397,-0.00797784,-4.3454e-05,32,9,2.07371,0.1,13.2456,0.1,0.664
0.651888,0.652996,0.690138,0.691465,-0.00915152,-0.00458344,-0.00806733,-0.000115342,31,10,2.09809,0.1,13.2756,0.1,0.668
0.651851,0.652977,0.690106,0.691463,-0.00925351,-0.00469671,-0.00815723,-0.00024964,31,9,2.12133,0.1,13.3058,0.1,0.672
0.651814,0.652956,0.690073,0.69146,-0.00935597,-0.00485859,-0.00824756,-0.000425545,31,9,2.14445,0.1,13.3357,0.1,0.676
0.651777,0.652936,0.69004,0.691457,-0.0094589,-0.00490894,-0.00833829,-0.000542815,31,9,2.16723,0.1,13.3649,0.1,0.68
0.651739,0.652915,0.690006,0.691453,-0.00956229,-0.00502887,-0.00842944,-0.000649786,31,9,2.19026,0.1,13.3938,0.1,0.684
0.6517,0.652893,0.689973,0.691451,-0.00966615,-0.0051952,-0.00852099,-0.000634727,31,10,2.21315,0.1,13.4228,0.1,0.688
0.651661,0.65287,0.689938,0.691449,-0.00977048,-0.00536367,-0.00861296,-0.000538315,30,12,2.23564,0.1,13.453,0.1,0.692
0.651622,0.652848,0.689904,0.691449,-0.00987527,-0.0054184,-0.00870533,-0.000416459,31,14,2.25776,0.1,13.4852,0.1,0.696
0.651582,0.652825,0.689869,0.691448,-0.00998051,-0.00551247,-0.00879811,-0.00030643,31,17,2.28014,0.1,13.5195,0.1,0.7
0.651542,0.652802,0.689833,0.691448,-0.0100862,-0.00563276,-0.00889129,-0.000204287,31,19,2.30254,0.1,13.556,0.1,0.704
0.651502,0.652778,0.689798,0.691448,-0.0101924,-0.00571296,-0.00898488,-0.000164982,31,20,2.32485,0.1,13.5945,0.1,0.708
0.651461,0.652754,0.689761,0.691447,-0.010299,-0.00585279,-0.00907887,-0.00016757,31,21,2.34727,0.1,13.6343,0.1,0.712
0.651419,0.65273,0.689725,0.691445,-0.0104061,-0.00585965,-0.00917326,-0.000255668,32,22,2.36951,0.1,13.6751,0.1,0.716
0.651377,0.652707,0.689688,0.691443,-0.0105136,-0.00583542,-0.00926805,-0.000343191,32,22,2.39234,0.1,13.7161,0.1,0.72
0.651335,0.652683,0.689651,0.69144,-0.0106216,-0.00584806,-0.00936324,-0.000487912,33,22,2.41593,0.1,13.7571,0.1,0.724
0.651292,0.652659,0.689613,0.691437,-0.01073,-0.00591407,-0.00945882,-0.000613184,33,22,2.44004,0.1,13.7977,0.1,0.728
0.651249,0.652634,0.689575,0.691433,-0.0108389,-0.00601566,-0.0095548,-0.000696699,34,22,2.46436,0.1,13.8382,0.1,0.732
0.651206,0.652609,0.689537,0.69143,-0.0109482,-0.00611218,-0.00965117,-0.000723584,34,23,2.4887,0.1,13.8788,0.1,0.736
0.651162,0.652585,0.689498,0.691426,-0.011058,-0.00609015,-0.00974794,-0.00079909,35,23,2.51314,0.1,13.9202,0.1,0.74
0.651117,0.65256,0.689459,0.691423,-0.0111682,-0.00610426,-0.0098451,-0.000820636,35,24,2.53833,0.1,13.9619,0.1,0.744
0.651072,0.652536,0.689419,0.69142,-0.0112789,-0.00608487,-0.00994264,-0.000806209,36,26,2.56408,0.1,14.0045,0.1,0.748
0.651027,0.652513,0.689379,0.691416,-0.01139,-0.00598557,-0.0100406,-0.000825382,37,27,2.59062,0.1,14.0482,0.1,0.752
0.650981,0.652491,0.689339,0.691413,-0.0115015,-0.005833,-0.0101389,-0.000838164,39,28,2.61842,0.1,14.0927,0.1,0.756
0.650935,0.652471,0.689298,0.691409,-0.0116135,-0.00555854,-0.0102376,-0.000904267,41,28,2.64783,0.1,14.1382,0.1,0.76
0.650888,0.652452,0.689257,0.691405,-0.0117259,-0.0052604,-0.0103367,-0.000948336,44,29,2.67955,0.1,14.184,0.1,0.764
0.650841,0.652434,0.689215,0.6914,-0.0118387,-0.00500406,-0.0104362,-0.00100651,46,30,2.71368,0.1,14.2305,0.1,0.768
0.650794,0.652418,0.689173,0.691395,-0.011952,-0.00468922,-0.010536,-0.00110287,49,30,2.75003,0.1,14.2774,0.1,0.772
0.650746,0.652404,0.689131,0.691388,-0.0120657,-0.00433536,-0.0106363,-0.00128227,51,29,2.78893,0.1,14.3244,0.1,0.776
0.650697,0.652392,0.689088,0.691383,-0.0121799,-0.00389792,-0.0107369,-0.00128671,55,31,2.83063,0.1,14.3707,0.1,0.78
0.650648,0.65238,0.689045,0.691378,-0.0122944,-0.00351993,-0.0108379,-0.00131846,58,32,2.87559,0.1,14.418,0.1,0.784
0.650599,0.652372,0.689002,0.691373,-0.0124094,-0.00306639,-0.0109393,-0.00128205,61,33,2.92349,0.1,14.4661,0.1,0.788
0.650549,0.652366,0.688958,0.691368,-0.0125248,-0.00250491,-0.011041,-0.00128656,65,34,2.9748,0.1,14.5156,0.1,0.792
0.650498,0.652363,0.688913,0.691362,-0.0126407,-0.00198664,-0.0111431,-0.00131836,69,35,3.03011,0.1,14.5662,0.1,0.796
0.650448,0.652361,0.688869,0.691356,-0.0127569,-0.00146838,-0.0112456,-0.00136835,73,36,3.08918,0.1,14.6175,0.1,0.8
0.650396,0.65236,0.688823,0.69135,-0.0128736,-0.0010365,-0.0113485,-0.00140168,76,37,3.15195,0.1,14.6693,0.1,0.804
0.650345,0.65236,0.688778,0.691344,-0.0129907,-0.000719794,-0.0114517,-0.00145269,79,38,3.2179,0.1,14.7219,0.1,0.808
0.650292,0.652359,0.688732,0.691337,-0.0131083,-0.000508653,-0.0115553,-0.00160186,81,38,3.28632,0.1,14.775,0.1,0.812
0.65024,0.652359,0.688685,0.691329,-0.0132262,-0.000396684,-0.0116593,-0.0017301,83,38,3.3566,0.1,14.8277,0.1,0.816
0.650187,0.652358,0.688638,0.691319,-0.0133446,-0.000322038,-0.0117636,-0.00195955,84,37,3.42814,0.1,14.8802,0.1,0.82
0.650133,0.652356,0.688591,0.691309,-0.0134633,-0.000387438,-0.0118683,-0.00211251,85,36,3.5007,0.1,14.9315,0.1,0.824
0.650079,0.652354,0.688543,0.691299,-0.0135825,-0.000402246,-0.0119734,-0.00230086,85,36,3.57349,0.1,14.9824,0.1,0.828
0.650024,0.652352,0.688495,0.691287,-0.0137021,-0.000469701,-0.0120788,-0.0025128,86,35,3.64679,0.1,15.0325,0.1,0.832
0.649969,0.652349,0.688447,0.691274,-0.0138221,-0.000572252,-0.0121846,-0.00276925,86,34,3.72029,0.1,15.0815,0.1,0.836
0.649914,0.652345,0.688398,0.69126,-0.0139425,-0.000669411,-0.0122907,-0.0030266,87,33,3.79379,0.1,15.1291,0.1,0.84
0.649858,0.652342,0.688349,0.691244,-0.0140633,-0.000734183,-0.0123972,-0.00328453,87,31,3.86734,0.1,15.1752,0.1,0.844
0.649801,0.652338,0.688299,0.69123,-0.0141845,-0.000834946,-0.0125041,-0.0034277,87,31,3.94112,0.1,15.22,0.1,0.848
0.649744,0.652333,0.688249,0.691214,-0.0143061,-0.000902122,-0.0126113,-0.00358072,88,31,4.01494,0.1,15.2644,0.1,0.852
0.649687,0.652329,0.688198,0.691198,-0.0144282,-0.000946906,-0.0127188,-0.00368274,89,31,4.08899,0.1,15.3085,0.1,0.856
0.649629,0.652325,0.688147,0.691183,-0.0145506,-0.000976762,-0.0128268,-0.00377954,89,32,4.16341,0.1,15.3526,0.1,0.86
0.64957,0.652321,0.688095,0.691167,-0.0146734,-0.000967875,-0.012935,-0.00381529,90,33,4.23831,0.1,15.397,0.1,0.864
0.649512,0.652318,0.688043,0.691152,-0.0147966,-0.00096195,-0.0130436,-0.00381033,91,34,4.3139,0.1,15.4422,0.1,0.868
0.649452,0.652314,0.687991,0.691136,-0.0149202,-0.000929209,-0.0131526,-0.0038646,93,35,4.39018,0.1,15.4886,0.1,0.872
0.649392,0.652311,0.687938,0.69112,-0.0150442,-0.000907382,-0.0132619,-0.00392957,94,36,4.4673,0.1,15.5355,0.1,0.876
0.649332,0.652308,0.687885,0.691103,-0.0151686,-0.000806458,-0.0133716,-0.00397289,95,36,4.54522,0.1,15.583,0.1,0.88
0.649271,0.652306,0.687831,0.691087,-0.0152934,-0.000710384,-0.0134816,-0.00400177,97,37,4.6244,0.1,15.6312,0.1,0.884
0.649209,0.652305,0.687777,0.69107,-0.0154186,-0.000559962,-0.0135919,-0.0040786,99,38,4.70483,0.1,15.6802,0.1,0.888
0.649147,0.652303,0.687722,0.691053,-0.0155441,-0.000546054,-0.0137026,-0.0041874,100,38,4.78676,0.1,15.7296,0.1,0.892
0.649085,0.652302,0.687667,0.691034,-0.0156701,-0.000421618,-0.0138136,-0.00434631,101,38,4.86947,0.1,15.779,0.1,0.896
0.649022,0.652301,0.687612,0.691015,-0.0157964,-0.000367451,-0.013925,-0.00450983,103,38,4.95354,0.1,15.828,0.1,0.9
0.648959,0.6523,0.687556,0.690995,-0.0159231,-0.00033134,-0.0140367,-0.00467643,104,38,5.03859,0.1,15.8765,0.1,0.904
0.648895,0.6523,0.6875,0.690975,-0.0160502,-0.000278475,-0.0141487,-0.00472991,105,38,5.12452,0.1,15.9246,0.1,0.908
0.64883,0.652298,0.687443,0.690957,-0.0161777,-0.000329605,-0.0142611,-0.00467919,106,40,5.21137,0.1,15.9734,0.1,0.912
0.648765,0.652297,0.687385,0.690938,-0.0163056,-0.000277318,-0.0143738,-0.00467417,107,42,5.29861,0.1,16.0238,0.1,0.916
0.6487,0.652296,0.687328,0.690918,-0.0164338,-0.000271252,-0.0144869,-0.00478599,108,42,5.38681,0.1,16.0754,0.1,0.92
0.648634,0.652295,0.68727,0.690898,-0.0165624,-0.000295998,-0.0146002,-0.00488932,109,42,5.47568,0.1,16.1271,0.1,0.924
0.648567,0.652294,0.687211,0.690878,-0.0166914,-0.000283705,-0.014714,-0.00490063,110,43,5.56508,0.1,16.179,0.1,0.928
0.6485,0.652292,0.687152,0.690858,-0.0168208,-0.0003043,-0.014828,-0.00493696,111,44,5.6552,0.1,16.2319,0.1,0.932
0.648433,0.652291,0.687092,0.690838,-0.0169505,-0.00028924,-0.0149423,-0.00498997,112,45,5.74587,0.1,16.2856,0.1,0.936
0.648365,0.65229,0.687032,0.690817,-0.0170806,-0.000336781,-0.015057,-0.00508289,113,46,5.83728,0.1,16.34,0.1,0.94
0.648296,0.652288,0.686972,0.690795,-0.0172111,-0.000368475,-0.015172,-0.00520242,114,46,5.92906,0.1,16.3946,0.1,0.944
0.648227,0.652286,0.686911,0.690773,-0.0173419,-0.000418396,-0.0152874,-0.0053109,114,46,6.02132,0.1,16.4492,0.1,0.948
0.648157,0.652284,0.68685,0.69075,-0.0174731,-0.000422885,-0.015403,-0.00541201,116,47,6.11396,0.1,16.5039,0.1,0.952
0.648087,0.652283,0.686788,0.690728,-0.0176047,-0.000339505,-0.015519,-0.00547942,117,47,6.20729,0.1,16.5588,0.1,0.956
0.648017,0.652282,0.686725,0.690705,-0.0177366,-0.00031271,-0.0156353,-0.00558194,118,48,6.30176,0.1,16.6142,0.1,0.96
0.647945,0.652281,0.686663,0.690681,-0.0178689,-0.000294846,-0.0157519,-0.00570787,119,48,6.39707,0.1,16.6698,0.1,0.964
0.647874,0.65228,0.686599,0.690656,-0.0180015,-0.000282937,-0.0158689,-0.00587819,121,48,6.49317,0.1,16.7253,0.1,0.968
0.647801,0.652279,0.686536,0.690631,-0.0181345,-0.000274997,-0.0159861,-0.00599174,122,48,6.59,0.1,16.7803,0.1,0.972
0.647728,0.652279,0.686471,0.690606,-0.0182679,-0.000240913,-0.0161037,-0.00612502,123,48,6.68758,0.1,16.8355,0.1,0.976
0.647655,0.652278,0.686407,0.690579,-0.0184016,-0.000218191,-0.0162216,-0.00630025,124,48,6.78604,0.1,16.8904,0.1,0.98
0.647581,0.652278,0.686342,0.690552,-0.0185357,-0.000174251,-0.0163397,-0.00641707,125,48,6.88532,0.1,16.9449,0.1,0.984
0.647507,0.652277,0.686276,0.690525,-0.0186701,-0.000173749,-0.0164582,-0.00655253,127,48,6.98554,0.1,16.9994,0.1,0.988
0.647432,0.652276,0.68621,0.690498,-0.0188049,-0.000202206,-0.0165771,-0.00664283,127,49,7.08643,0.1,17.0538,0.1,0.992
0.647356,0.652274,0.686144,0.69047,-0.01894,-0.000249968,-0.0166962,-0.00673183,128,49,7.18783,0.1,17.1085,0.1,0.996
0.64728,0.652272,0.686076,0.690443,-0.0190755,-0.000339391,-0.0168156,-0.00673358,129,51,7.2896,0.1,17.1637,0.1,1
0.647204,0.652271,0.686009,0.690418,-0.0192113,-0.000341424,-0.0169353,-0.00661958,130,53,7.39156,0.1,17.2201,0.1,1.004
0.647127,0.652269,0.685941,0.690395,-0.0193475,-0.000429153,-0.0170554,-0.00634205,131,57,7.49417,0.1,17.2789,0.1,1.008
0.647049,0.652266,0.685873,0.690374,-0.019484,-0.000458847,-0.0171757,-0.0059267,132,63,7.59696,0.1,17.3418,0.1,1.012
0.646971,0.652265,0.685804,0.690357,-0.0196208,-0.000449853,-0.0172963,-0.00539068,133,70,7.70028,0.1,17.4102,0.1,1.016
0.646892,0.652263,0.685734,0.690342,-0.019758,-0.000472647,-0.0174173,-0.00483179,134,76,7.80434,0.1,17.4851,0.1,1.02
0.646813,0.652261,0.685664,0.690329,-0.0198956,-0.000459053,-0.0175385,-0.00428646,135,83,7.90897,0.1,17.5668,0.1,1.024
0.646733,0.652259,0.685594,0.690317,-0.0200334,-0.00044999,-0.0176601,-0.00389411,136,89,8.01437,0.1,17.6551,0.1,1.028
0.646653,0.652257,0.685523,0.690306,-0.0201717,-0.000472739,-0.0177819,-0.0034598,137,94,8.12052,0.1,17.7485,0.1,1.032
0.646572,0.652256,0.685452,0.690297,-0.0203102,-0.000430323,-0.017904,-0.0030551,138,100,8.22725,0.1,17.8474,0.1,1.036
0.64649,0.652254,0.68538,0.69029,-0.0204491,-0.000459627,-0.0180264,-0.00267013,139,105,8.33491,0.1,17.9516,0.1,1.04
0.646408,0.652252,0.685307,0.690284,-0.0205883,-0.000479164,-0.0181492,-0.00229833,140,110,8.4431,0.1,18.0607,0.1,1.044
0.646325,0.652249,0.685235,0.690279,-0.0207278,-0.000520979,-0.0182722,-0.0019065,141,116,8.55186,0.1,18.1748,0.1,1.048
0.646242,0.652246,0.685161,0.690275,-0.0208677,-0.000577647,-0.0183955,-0.0015877,142,120,8.66107,0.1,18.2938,0.1,1.052
0.646158,0.652245,0.685087,0.690272,-0.0210079,-0.000529052,-0.0185191,-0.00131758,144,125,8.77068,0.1,18.4172,0.1,1.056
0.646074,0.652242,0.685013,0.690269,-0.0211484,-0.000554238,-0.0186429,-0.00110872,145,128,8.88125,0.1,18.5445,0.1,1.06
0.645989,0.65224,0.684938,0.690267,-0.0212893,-0.000571029,-0.0187671,-0.000969472,146,131,8.99239,0.1,18.6749,0.1,1.064
0.645904,0.652238,0.684863,0.690264,-0.0214304,-0.00052464,-0.0188915,-0.000876642,147,134,9.10416,0.1,18.8079,0.1,1.068
0.645818,0.652235,0.684787,0.69026,-0.0215719,-0.000608879,-0.0190163,-0.000929919,148,135,9.21686,0.1,18.9429,0.1,1.072
0.645731,0.652232,0.684711,0.690255,-0.0217137,-0.000636246,-0.0191413,-0.00102302,149,136,9.32979,0.1,19.0784,0.1,1.076
0.645644,0.65223,0.684634,0.69025,-0.0218559,-0.000625701,-0.0192666,-0.00111388,150,137,9.44328,0.1,19.2142,0.1,1.08
0.645556,0.652228,0.684557,0.690244,-0.0219983,-0.000589879,-0.0193922,-0.00120324,151,138,9.55757,0.1,19.3503,0.1,1.084
0.645468,0.652226,0.684479,0.690238,-0.0221411,-0.000508417,-0.019518,-0.00129161,153,138,9.6728,0.1,19.4866,0.1,1.088
0.645379,0.652225,0.684401,0.690232,-0.0222842,-0.000425317,-0.0196441,-0.00137931,155,139,9.78924,0.1,19.6233,0.1,1.092
0.64529,0.652225,0.684322,0.690226,-0.0224276,-0.000341127,-0.0197706,-0.00140898,156,141,9.9069,0.1,19.7602,0.1,1.096
0.6452,0.652224,0.684242,0.690219,-0.0225713,-0.000313791,-0.0198972,-0.00151514,158,141,10.0258,0.1,19.898,0.1,1.1
0.645109,0.652223,0.684163,0.690213,-0.0227153,-0.000295566,-0.0200242,-0.00155712,159,143,10.1455,0.1,20.036,0.1,1.104
0.645018,0.652221,0.684082,0.690206,-0.0228596,-0.000312208,-0.0201514,-0.00158511,160,144,10.2661,0.1,20.1747,0.1,1.108
0.644926,0.652219,0.684001,0.6902,-0.0230043,-0.000409675,-0.0202789,-0.00160377,161,146,10.3872,0.1,20.3143,0.1,1.112
0.644834,0.652216,0.68392,0.690194,-0.0231492,-0.000474653,-0.0204067,-0.00150104,162,149,10.5085,0.1,20.4549,0.1,1.116
0.644741,0.652213,0.683838,0.690189,-0.0232945,-0.000604345,-0.0205347,-0.00146135,162,151,10.6301,0.1,20.5978,0.1,1.12
0.644648,0.652209,0.683756,0.690185,-0.02344,-0.000690806,-0.0206631,-0.00126214,163,154,10.7516,0.1,20.7423,0.1,1.124
0.644554,0.652205,0.683673,0.690182,-0.0235859,-0.000806028,-0.0207916,-0.00115813,163,157,10.8734,0.1,20.8899,0.1,1.128
0.644459,0.652202,0.683589,0.69018,-0.023732,-0.000854052,-0.0209205,-0.000944831,164,161,10.9952,0.1,21.0398,0.1,1.132
0.644364,0.652198,0.683505,0.690178,-0.0238785,-0.000828487,-0.0210496,-0.000773842,166,164,11.1174,0.1,21.193,0.1,1.136
0.644268,0.652196,0.683421,0.690176,-0.0240253,-0.000753861,-0.021179,-0.000659849,167,167,11.2406,0.1,21.349,0.1,1.14
0.644172,0.652195,0.683336,0.690175,-0.0241723,-0.000588947,-0.0213086,-0.000526272,170,170,11.365,0.1,21.5074,0.1,1.144
0.644075,0.652195,0.68325,0.690173,-0.0243197,-0.000392631,-0.0214385,-0.000523594,172,172,11.4912,0.1,21.6682,0.1,1.148
0.643977,0.652195,0.683164,0.690171,-0.0244673,-0.000261754,-0.0215686,-0.000550599,174,174,11.6192,0.1,21.8302,0.1,1.152
0.643879,0.652195,0.683078,0.690168,-0.0246152,-0.000203294,-0.021699,-0.000626184,176,175,11.7487,0.1,21.993,0.1,1.156
0.64378,0.652195,0.682991,0.690164,-0.0247635,-0.000135529,-0.0218297,-0.000734156,177,176,11.8793,0.1,22.1563,0.1,1.16
0.643681,0.652194,0.682903,0.690159,-0.024912,-0.000119144,-0.0219606,-0.00086372,179,176,12.0111,0.1,22.3197,0.1,1.164
0.643581,0.652194,0.682815,0.690153,-0.0250608,-0.000137011,-0.0220918,-0.00106526,180,176,12.1436,0.1,22.4829,0.1,1.168
0.64348,0.652193,0.682727,0.690147,-0.0252099,-0.000120132,-0.0222232,-0.00122841,181,176,12.2768,0.1,22.6453,0.1,1.172
0.643379,0.652193,0.682637,0.69014,-0.0253593,-0.00013767,-0.0223549,-0.00145234,182,176,12.4108,0.1,22.8072,0.1,1.176
0.643277,0.652191,0.682548,0.690131,-0.0255089,-0.000178152,-0.0224868,-0.001688,183,176,12.5455,0.1,22.9681,0.1,1.18
0.643175,0.65219,0.682457,0.690121,-0.0256589,-0.000205141,-0.022619,-0.00196027,184,175,12.6806,0.1,23.1278,0.1,1.184
0.643072,0.652189,0.682367,0.690111,-0.0258091,-0.000223134,-0.0227515,-0.00214178,186,175,12.8163,0.1,23.286,0.1,1.188
0.642969,0.652189,0.682275,0.6901,-0.0259596,-0.000206338,-0.0228841,-0.00229158,187,175,12.9527,0.1,23.4437,0.1,1.192
0.642864,0.652188,0.682184,0.690089,-0.0261104,-0.00019514,-0.0230171,-0.00244903,188,176,13.0899,0.1,23.601,0.1,1.196
0.64276,0.652187,0.682091,0.690077,-0.0262615,-0.000187675,-0.0231502,-0.00264037,190,176,13.2279,0.1,23.758,0.1,1.2
0.642654,0.652187,0.681998,0.690066,-0.0264128,-0.000153908,-0.0232836,-0.00273914,191,177,13.3667,0.1,23.9144,0.1,1.204
0.642548,0.652187,0.681905,0.690055,-0.0265644,-0.000131396,-0.0234173,-0.00271861,193,179,13.5065,0.1,24.071,0.1,1.208
0.642442,0.652186,0.681811,0.690045,-0.0267163,-0.000116388,-0.0235512,-0.00264734,194,181,13.6471,0.1,24.2291,0.1,1.212
0.642335,0.652186,0.681717,0.690037,-0.0268685,-0.000106383,-0.0236853,-0.00245588,195,185,13.7886,0.1,24.3892,0.1,1.216
0.642227,0.652186,0.681622,0.690027,-0.0270209,-9.9713e-05,-0.0238197,-0.00241461,197,187,13.9309,0.1,24.5524,0.1,1.22
0.642118,0.652185,0.681526,0.690019,-0.0271736,-0.000124057,-0.0239543,-0.00227193,198,190,14.074,0.1,24.7172,0.1,1.224
0.642009,0.652184,0.68143,0.69001,-0.0273266,-0.000140287,-0.0240891,-0.00229197,199,192,14.2176,0.1,24.8846,0.1,1.228
0.6419,0.652184,0.681333,0.690001,-0.0274798,-0.000151106,-0.0242242,-0.00230534,201,194,14.3619,0.1,25.0531,0.1,1.232
0.64179,0.652182,0.681236,0.689991,-0.0276333,-0.000215901,-0.0243595,-0.00234304,202,195,14.5069,0.1,25.2226,0.1,1.236
0.641679,0.652181,0.681138,0.68998,-0.0277871,-0.000259098,-0.0244951,-0.00248333,203,196,14.6523,0.1,25.3928,0.1,1.24
0.641567,0.652179,0.68104,0.689969,-0.0279411,-0.000316687,-0.0246309,-0.00257687,204,197,14.7981,0.1,25.563,0.1,1.244
0.641455,0.652178,0.680941,0.689957,-0.0280954,-0.000326288,-0.0247669,-0.00266801,205,198,14.9444,0.1,25.7334,0.1,1.248
0.641343,0.652176,0.680842,0.689944,-0.0282499,-0.000332689,-0.0249031,-0.00287273,206,198,15.0913,0.1,25.9041,0.1,1.252
0.641229,0.652175,0.680742,0.689932,-0.0284047,-0.000308165,-0.0250396,-0.00298042,208,199,15.239,0.1,26.074,0.1,1.256
0.641115,0.652175,0.680642,0.689918,-0.0285598,-0.000234235,-0.0251763,-0.003081,210,200,15.3877,0.1,26.2441,0.1,1.26
0.641001,0.652175,0.680541,0.689906,-0.0287151,-0.000184947,-0.0253132,-0.00311926,211,201,15.5375,0.1,26.4145,0.1,1.264
0.640886,0.652174,0.680439,0.689893,-0.0288707,-0.000152089,-0.0254503,-0.00314477,213,203,15.6884,0.1,26.5857,0.1,1.268
0.64077,0.652174,0.680337,0.68988,-0.0290265,-0.000130184,-0.0255877,-0.00316178,214,205,15.8402,0.1,26.7579,0.1,1.272
0.640653,0.652173,0.680235,0.689867,-0.0291826,-0.000144371,-0.0257253,-0.00317312,216,206,15.9929,0.1,26.9312,0.1,1.276
0.640536,0.652173,0.680131,0.689854,-0.0293389,-0.000125038,-0.0258631,-0.00323826,217,208,16.1463,0.1,27.1056,0.1,1.28
0.640419,0.652172,0.680028,0.689839,-0.0294955,-0.000140941,-0.0260011,-0.00339685,218,208,16.3006,0.1,27.2805,0.1,1.284
0.6403,0.652171,0.679923,0.689824,-0.0296523,-0.000151542,-0.0261394,-0.00353137,220,209,16.4556,0.1,27.4551,0.1,1.288
0.640181,0.652171,0.679819,0.689808,-0.0298094,-0.00015861,-0.0262778,-0.00364984,221,210,16.6112,0.1,27.6296,0.1,1.292
0.640062,0.652169,0.679713,0.689792,-0.0299667,-0.000220904,-0.0264165,-0.00375761,222,211,16.7675,0.1,27.8042,0.1,1.296
0.639942,0.652168,0.679607,0.689776,-0.0301242,-0.000291224,-0.0265554,-0.00385824,223,212,16.9243,0.1,27.979,0.1,1.3
0.639821,0.652166,0.679501,0.689761,-0.030282,-0.000366895,-0.0266945,-0.00386775,224,213,17.0814,0.1,28.1541,0.1,1.304
0.639699,0.652162,0.679394,0.689745,-0.0304401,-0.000503715,-0.0268338,-0.00390289,225,215,17.2387,0.1,28.3303,0.1,1.308
0.639577,0.652159,0.679286,0.689728,-0.0305984,-0.000594928,-0.0269733,-0.00398389,226,216,17.3961,0.1,28.5074,0.1,1.312
0.639455,0.652156,0.679178,0.689711,-0.0307569,-0.000713319,-0.0271131,-0.00406668,226,217,17.5536,0.1,28.685,0.1,1.316
0.639331,0.652152,0.679069,0.689694,-0.0309156,-0.000792246,-0.027253,-0.00415067,227,219,17.7112,0.1,28.863,0.1,1.32
0.639207,0.652148,0.67896,0.689677,-0.0310746,-0.000844864,-0.0273932,-0.00417787,228,220,17.8691,0.1,29.0414,0.1,1.324
0.639083,0.652144,0.67885,0.68966,-0.0312339,-0.000879943,-0.0275335,-0.00416721,230,222,18.0275,0.1,29.2209,0.1,1.328
0.638957,0.652141,0.67874,0.689644,-0.0313933,-0.000845747,-0.0276741,-0.0041601,231,224,18.1865,0.1,29.4017,0.1,1.332
0.638832,0.652139,0.678629,0.689628,-0.031553,-0.000765368,-0.0278149,-0.00412658,233,227,18.3465,0.1,29.5839,0.1,1.336
0.638705,0.652137,0.678517,0.68961,-0.0317129,-0.0006542,-0.0279559,-0.0041906,235,228,18.5078,0.1,29.7676,0.1,1.34
0.638578,0.652136,0.678405,0.689594,-0.0318731,-0.000522506,-0.028097,-0.0041469,238,231,18.6706,0.1,29.952,0.1,1.344
0.63845,0.652136,0.678292,0.689577,-0.0320335,-0.000377128,-0.0282384,-0.00414657,240,233,18.8349,0.1,30.1381,0.1,1.348
0.638322,0.652136,0.678179,0.689562,-0.0321941,-0.000251419,-0.02838,-0.00403118,242,236,19.0009,0.1,30.3255,0.1,1.352
0.638193,0.652136,0.678065,0.68955,-0.0323549,-0.000167613,-0.0285218,-0.00372393,244,241,19.1684,0.1,30.5154,0.1,1.356
0.638063,0.652135,0.677951,0.689538,-0.0325159,-0.000140533,-0.0286637,-0.00343272,246,246,19.3372,0.1,30.7097,0.1,1.36
0.637932,0.652135,0.677836,0.689529,-0.0326772,-0.000122479,-0.0288059,-0.00309462,247,251,19.5069,0.1,30.9081,0.1,1.364
0.637801,0.652134,0.67772,0.68952,-0.0328387,-0.000139235,-0.0289483,-0.00275407,249,256,19.6775,0.1,31.1112,0.1,1.368
0.63767,0.652133,0.677604,0.689513,-0.0330004,-0.000207987,-0.0290908,-0.00244065,250,261,19.8487,0.1,31.3189,0.1,1.372
0.637537,0.65213,0.677488,0.689507,-0.0331623,-0.000340194,-0.0292336,-0.00211655,250,267,20.0203,0.1,31.531,0.1,1.376
0.637404,0.652127,0.67737,0.689501,-0.0333245,-0.000485915,-0.0293765,-0.00195806,251,270,20.1919,0.1,31.7475,0.1,1.38
0.637271,0.652123,0.677253,0.689493,-0.0334869,-0.000669434,-0.0295196,-0.00193877,251,273,20.3633,0.1,31.9667,0.1,1.384
0.637136,0.652118,0.677134,0.689486,-0.0336494,-0.000849362,-0.0296629,-0.00186833,252,275,20.5344,0.1,32.1874,0.1,1.388
0.637002,0.652113,0.677015,0.689479,-0.0338122,-0.0010269,-0.0298065,-0.00185017,252,278,20.7052,0.1,32.41,0.1,1.392
0.636866,0.652107,0.676896,0.689472,-0.0339752,-0.00114525,-0.0299501,-0.00178047,253,281,20.8758,0.1,32.634,0.1,1.396
0.63673,0.652102,0.676776,0.689466,-0.0341385,-0.00122416,-0.030094,-0.00170522,254,283,21.0464,0.1,32.86,0.1,1.4
0.636593,0.652096,0.676655,0.689461,-0.0343019,-0.00127676,-0.0302381,-0.00153988,255,287,21.2174,0.1,33.088,0.1,1.404
0.636455,0.65209,0.676534,0.689457,-0.0344655,-0.00134062,-0.0303823,-0.00140087,256,291,21.3888,0.1,33.3189,0.1,1.408
0.636317,0.652084,0.676412,0.689452,-0.0346294,-0.00141198,-0.0305268,-0.00133699,258,293,21.5607,0.1,33.5523,0.1,1.412
0.636178,0.652079,0.67629,0.689449,-0.0347934,-0.00140198,-0.0306714,-0.00117923,259,297,21.7329,0.1,33.7877,0.1,1.416
0.636039,0.652073,0.676167,0.689445,-0.0349576,-0.00136651,-0.0308162,-0.00110286,261,300,21.906,0.1,34.0258,0.1,1.42
0.635899,0.65207,0.676043,0.689441,-0.0351221,-0.00122771,-0.0309611,-0.00108073,263,303,22.0802,0.1,34.2659,0.1,1.424
0.635758,0.652068,0.675919,0.689436,-0.0352867,-0.000962428,-0.0311063,-0.00109477,266,305,22.256,0.1,34.5074,0.1,1.428
0.635616,0.652067,0.675794,0.689432,-0.0354516,-0.00067041,-0.0312516,-0.00110413,269,307,22.4343,0.1,34.75,0.1,1.432
0.635474,0.652067,0.675669,0.689427,-0.0356167,-0.00044694,-0.0313971,-0.00108158,272,309,22.6151,0.1,34.9938,0.1,1.436
0.635331,0.652067,0.675543,0.689424,-0.0357819,-0.00029796,-0.0315428,-0.00103775,275,312,22.798,0.1,35.239,0.1,1.44
0.635188,0.652067,0.675417,0.689418,-0.0359473,-0.00019864,-0.0316886,-0.00118128,277,313,22.9826,0.1,35.4858,0.1,1.444
0.635044,0.652067,0.67529,0.689411,-0.036113,-0.000161218,-0.0318346,-0.00133455,279,313,23.1685,0.1,35.7324,0.1,1.448
0.634899,0.652067,0.675162,0.689404,-0.0362788,-0.000107478,-0.0319808,-0.0015231,280,314,23.3555,0.1,35.9786,0.1,1.452
0.634754,0.652067,0.675034,0.689395,-0.0364448,-0.000100443,-0.0321272,-0.00170638,282,314,23.5436,0.1,36.2242,0.1,1.456
0.634608,0.652066,0.674905,0.689385,-0.0366111,-9.5753e-05,-0.0322737,-0.00197252,284,314,23.7325,0.1,36.4692,0.1,1.46
0.634461,0.652066,0.674776,0.689375,-0.0367775,-6.38353e-05,-0.0324204,-0.00217874,285,314,23.9222,0.1,36.7128,0.1,1.464
0.634313,0.652066,0.674646,0.689365,-0.0369441,-7.13478e-05,-0.0325673,-0.00231622,287,315,24.1129,0.1,36.9557,0.1,1.468
0.634165,0.652065,0.674515,0.689354,-0.0371109,-0.000105147,-0.0327143,-0.00240788,288,317,24.3043,0.1,37.1984,0.1,1.472
0.634016,0.652065,0.674384,0.689344,-0.0372778,-0.00012768,-0.0328615,-0.00249777,290,318,24.4964,0.1,37.4414,0.1,1.476
0.633867,0.652064,0.674252,0.689335,-0.037445,-0.000171493,-0.0330088,-0.00238495,291,321,24.6891,0.1,37.685,0.1,1.48
0.633717,0.652062,0.67412,0.689327,-0.0376123,-0.000258283,-0.0331563,-0.00222337,292,325,24.8823,0.1,37.9309,0.1,1.484
0.633566,0.65206,0.673987,0.689321,-0.0377798,-0.000316143,-0.033304,-0.00200048,293,329,25.0757,0.1,38.1797,0.1,1.488
0.633415,0.652058,0.673853,0.689316,-0.0379475,-0.000383508,-0.0334518,-0.00176552,295,334,25.2697,0.1,38.4321,0.1,1.492
0.633262,0.652056,0.673719,0.689312,-0.0381154,-0.000399626,-0.0335998,-0.0015225,296,339,25.464,0.1,38.688,0.1,1.496
0.63311,0.652054,0.673585,0.689308,-0.0382835,-0.000496745,-0.033748,-0.00136049,297,343,25.659,0.1,38.9475,0.1,1.5
0.632956,0.652051,0.673449,0.689303,-0.0384517,-0.000561491,-0.0338963,-0.00131007,298,345,25.8542,0.1,39.2098,0.1,1.504
0.632802,0.652047,0.673313,0.689298,-0.0386201,-0.000662236,-0.0340447,-0.00127645,299,348,26.0498,0.1,39.4739,0.1,1.508
0.632647,0.652044,0.673177,0.689293,-0.0387887,-0.000758191,-0.0341934,-0.00125404,300,351,26.2456,0.1,39.7395,0.1,1.512
0.632492,0.65204,0.67304,0.689288,-0.0389575,-0.000822161,-0.0343421,-0.00126789,302,353,26.4416,0.1,40.0066,0.1,1.516
0.632336,0.652036,0.672902,0.689283,-0.0391264,-0.000893598,-0.034491,-0.00124833,303,355,26.6381,0.1,40.2748,0.1,1.52
0.632179,0.652031,0.672764,0.689278,-0.0392955,-0.000970014,-0.0346401,-0.00126409,304,357,26.8349,0.1,40.5444,0.1,1.524
0.632021,0.652026,0.672625,0.689273,-0.0394648,-0.00104975,-0.0347893,-0.00127459,305,360,27.032,0.1,40.815,0.1,1.528
0.631863,0.652021,0.672486,0.689268,-0.0396342,-0.0011317,-0.0349387,-0.00128159,306,362,27.2295,0.1,41.0869,0.1,1.532
0.631704,0.652015,0.672346,0.689262,-0.0398038,-0.00124391,-0.0350882,-0.00134384,307,364,27.4273,0.1,41.3598,0.1,1.536
0.631545,0.652009,0.672205,0.689255,-0.0399736,-0.00131872,-0.0352379,-0.00144292,309,365,27.6252,0.1,41.6334,0.1,1.54
0.631384,0.652004,0.672064,0.689248,-0.0401435,-0.0013398,-0.0353877,-0.00153777,310,367,27.8235,0.1,41.9072,0.1,1.544
0.631223,0.651998,0.671922,0.689241,-0.0403136,-0.00135386,-0.0355376,-0.00162979,312,368,28.0225,0.1,42.1813,0.1,1.548
0.631062,0.651992,0.671779,0.689233,-0.0404839,-0.00142081,-0.0356877,-0.00177751,313,369,28.2222,0.1,42.4557,0.1,1.552
0.6309,0.651986,0.671636,0.689223,-0.0406543,-0.00146544,-0.0358379,-0.00196236,314,370,28.4223,0.1,42.7298,0.1,1.556
0.630737,0.651979,0.671493,0.689212,-0.0408249,-0.00152399,-0.0359883,-0.00225834,315,369,28.623,0.1,43.0033,0.1,1.56
0.630573,0.651972,0.671348,0.689197,-0.0409956,-0.00159181,-0.0361388,-0.00271478,317,367,28.8241,0.1,43.2751,0.1,1.564
0.630409,0.651964,0.671204,0.68918,-0.0411665,-0.00175219,-0.0362895,-0.00322061,317,365,29.0255,0.1,43.5434,0.1,1.568
0.630244,0.651954,0.671058,0.689159,-0.0413376,-0.00197427,-0.0364403,-0.00390332,318,360,29.2268,0.1,43.808,0.1,1.572
0.630078,0.651943,0.670912,0.689135,-0.0415088,-0.00223749,-0.0365912,-0.00467516,318,355,29.4276,0.1,44.0669,0.1,1.576
0.629912,0.651931,0.670765,0.689105,-0.0416801,-0.00252813,-0.0367422,-0.00559279,318,349,29.6276,0.1,44.3193,0.1,1.58
0.629745,0.651917,0.670618,0.689069,-0.0418517,-0.00286585,-0.0368934,-0.00675158,318,340,29.8266,0.1,44.5637,0.1,1.584
0.629577,0.651901,0.67047,0.689027,-0.0420233,-0.00323495,-0.0370448,-0.00798475,317,330,30.0245,0.1,44.7979,0.1,1.588
0.629408,0.651883,0.670322,0.688978,-0.0421951,-0.00365376,-0.0371962,-0.00941148,316,318,30.2209,0.1,45.021,0.1,1.592
0.629239,0.651862,0.670173,0.688923,-0.0423671,-0.00419209,-0.0373478,-0.0108233,315,307,30.4156,0.1,45.2312,0.1,1.596
0.629069,0.651838,0.670023,0.688861,-0.0425392,-0.00481009,-0.0374995,-0.0124267,313,294,30.6078,0.1,45.4285,0.1,1.6
0.628899,0.651809,0.669873,0.688792,-0.0427115,-0.00556758,-0.0376514,-0.0139563,310,281,30.7971,0.1,45.6114,0.1,1.604
0.628728,0.651776,0.669722,0.688717,-0.0428839,-0.00650444,-0.0378034,-0.0155518,306,268,30.9826,0.1,45.7803,0.1,1.608
0.628556,0.651738,0.66957,0.688636,-0.0430564,-0.0075033,-0.0379555,-0.0171337,302,254,31.1633,0.1,45.9348,0.1,1.612
0.628383,0.651695,0.669418,0.688549,-0.0432291,-0.00854348,-0.0381077,-0.0187066,298,241,31.3389,0.1,46.0749,0.1,1.616
0.62821,0.651646,0.669265,0.688455,-0.0434019,-0.00984155,-0.03826,-0.0203022,292,228,31.5089,0.1,46.2009,0.1,1.62
0.628036,0.651589,0.669112,0.68836,-0.0435749,-0.0113115,-0.0384125,-0.0214811,285,218,31.6719,0.1,46.3126,0.1,1.624
0.627861,0.651523,0.668958,0.688261,-0.043748,-0.0130401,-0.0385651,-0.0225549,276,210,31.8268,0.1,46.4142,0.1,1.628
0.627686,0.651447,0.668803,0.688157,-0.0439212,-0.0149698,-0.0387178,-0.0237027,266,201,31.9721,0.1,46.5066,0.1,1.632
0.62751,0.651362,0.668648,0.68805,-0.0440946,-0.0170624,-0.0388707,-0.0246694,256,193,32.1066,0.1,46.5892,0.1,1.636
0.627333,0.651269,0.668493,0.687942,-0.0442681,-0.0191773,-0.0390236,-0.0254578,245,187,32.2293,0.1,46.6639,0.1,1.64
0.627156,0.651165,0.668336,0.687831,-0.0444418,-0.0213934,-0.0391767,-0.0262714,233,181,32.3402,0.1,46.7322,0.1,1.644
0.626978,0.651051,0.668179,0.687716,-0.0446156,-0.023792,-0.0393299,-0.0271016,221,175,32.4386,0.1,46.7941,0.1,1.648
0.626799,0.650929,0.668021,0.6876,-0.0447895,-0.0259958,-0.0394832,-0.0277127,209,171,32.5236,0.1,46.8494,0.1,1.652
0.626619,0.650797,0.667863,0.687481,-0.0449635,-0.0283574,-0.0396366,-0.0283504,197,167,32.5961,0.1,46.9003,0.1,1.656
0.626439,0.650655,0.667704,0.687358,-0.0451377,-0.030738,-0.0397902,-0.0291786,184,160,32.6554,0.1,46.9463,0.1,1.66
0.626258,0.650508,0.667545,0.687233,-0.045312,-0.032757,-0.0399438,-0.0298747,174,155,32.7015,0.1,46.9857,0.1,1.664
0.626077,0.650352,0.667385,0.687103,-0.0454864,-0.0348227,-0.0400976,-0.0307419,163,149,32.7365,0.1,47.0198,0.1,1.668
0.625894,0.650192,0.667224,0.68697,-0.0456609,-0.0365741,-0.0402514,-0.0315791,154,142,32.7601,0.1,47.047,0.1,1.672
0.625711,0.650022,0.667063,0.686835,-0.0458356,-0.0384903,-0.0404054,-0.0322812,144,137,32.7742,0.1,47.0675,0.1,1.676
0.625528,0.64985,0.666901,0.686697,-0.0460104,-0.0400557,-0.0405595,-0.0330372,136,132,32.778,0.1,47.0827,0.1,1.68
0.625343,0.649672,0.666738,0.686558,-0.0461853,-0.0415023,-0.0407137,-0.0336275,128,128,32.7736,0.1,47.0921,0.1,1.684
0.625158,0.649491,0.666575,0.686414,-0.0463604,-0.0427834,-0.040868,-0.0343666,122,122,32.7616,0.1,47.0972,0.1,1.688
0.624972,0.649302,0.666411,0.686268,-0.0465355,-0.0442133,-0.0410224,-0.0351472,115,116,32.7429,0.1,47.0967,0.1,1.692
0.624786,0.649113,0.666247,0.68612,-0.0467108,-0.045253,-0.0411769,-0.0356964,110,113,32.717,0.1,47.0902,0.1,1.696
0.624599,0.648917,0.666082,0.685972,-0.0468862,-0.0464931,-0.0413315,-0.0361777,103,110,32.6859,0.1,47.0801,0.1,1.7
0.624411,0.64872,0.665916,0.685822,-0.0470617,-0.047435,-0.0414862,-0.0366425,99,107,32.6486,0.1,47.0668,0.1,1.704
0.624222,0.648516,0.66575,0.685667,-0.0472373,-0.0486388,-0.041641,-0.0372979,93,102,32.6068,0.1,47.0506,0.1,1.708
0.624033,0.64831,0.665583,0.685512,-0.0474131,-0.0495565,-0.041796,-0.0378212,89,99,32.5589,0.1,47.0297,0.1,1.712
0.623843,0.6481,0.665416,0.685354,-0.0475889,-0.0505425,-0.041951,-0.038314,84,95,32.5068,0.1,47.0053,0.1,1.716
0.623652,0.647886,0.665248,0.685196,-0.0477649,-0.0515166,-0.0421061,-0.0387577,79,93,32.4499,0.1,46.9778,0.1,1.72
0.623461,0.647671,0.665079,0.685037,-0.0479409,-0.0522524,-0.0422613,-0.0390823,76,91,32.3885,0.1,46.9477,0.1,1.724
0.623269,0.647451,0.66491,0.684872,-0.0481171,-0.0531747,-0.0424166,-0.0398169,71,86,32.3237,0.1,46.9159,0.1,1.728
0.623076,0.64723,0.66474,0.684709,-0.0482934,-0.053876,-0.042572,-0.0401339,68,84,32.2548,0.1,46.8788,0.1,1.732
0.622882,0.647007,0.664569,0.684543,-0.0484698,-0.0545451,-0.0427275,-0.0405756,65,81,32.1829,0.1,46.8402,0.1,1.736
0.622688,0.646783,0.664398,0.684376,-0.0486463,-0.0549911,-0.0428831,-0.0409276,63,79,32.1083,0.1,46.7991,0.1,1.74
0.622493,0.646558,0.664226,0.684207,-0.0488229,-0.0554036,-0.0430388,-0.0413926,62,77,32.0324,0.1,46.7562,0.1,1.744
0.622298,0.646331,0.664053,0.684039,-0.0489996,-0.055909,-0.0431945,-0.0416451,60,76,31.9551,0.1,46.7105,0.1,1.748
0.622101,0.646103,0.66388,0.683867,-0.0491764,-0.0562747,-0.0433504,-0.0420437,59,73,31.8762,0.1,46.6641,0.1,1.752
0.621904,0.645876,0.663707,0.683699,-0.0493533,-0.0563745,-0.0435063,-0.0420791,59,74,31.7965,0.1,46.6156,0.1,1.756
0.621706,0.645646,0.663532,0.683526,-0.0495303,-0.0567578,-0.0436624,-0.0424194,58,73,31.7174,0.1,46.5685,0.1,1.76
0.621508,0.645418,0.663357,0.683355,-0.0497074,-0.0568693,-0.0438185,-0.0425599,58,73,31.6374,0.1,46.5199,0.1,1.764
0.621309,0.645189,0.663182,0.683185,-0.0498846,-0.0569437,-0.0439747,-0.0425384,58,75,31.558,0.1,46.4717,0.1,1.768
0.621109,0.644959,0.663006,0.683014,-0.0500619,-0.0571372,-0.044131,-0.0425816,58,76,31.4794,0.1,46.4256,0.1,1.772
0.620908,0.644727,0.662829,0.68284,-0.0502392,-0.0574102,-0.0442873,-0.0428696,58,74,31.401,0.1,46.3806,0.1,1.776
0.620707,0.6445,0.662651,0.682669,-0.0504167,-0.0572467,-0.0444438,-0.04286,60,76,31.3224,0.1,46.3348,0.1,1.78
0.620505,0.644266,0.662473,0.682496,-0.0505943,-0.0576271,-0.0446003,-0.0429688,58,77,31.2458,0.1,46.2908,0.1,1.784
0.620302,0.644037,0.662294,0.682326,-0.0507719,-0.0575065,-0.0447569,-0.042811,60,80,31.1685,0.1,46.2477,0.1,1.788
0.620099,0.643805,0.662115,0.682156,-0.0509497,-0.0576563,-0.0449136,-0.0427346,60,82,31.0931,0.1,46.2079,0.1,1.792
0.619895,0.643573,0.661935,0.681986,-0.0511275,-0.0578139,-0.0450704,-0.0426261,60,85,31.0181,0.1,46.1706,0.1,1.796
0.61969,0.643341,0.661755,0.68182,-0.0513055,-0.0578613,-0.0452272,-0.042237,61,90,30.9435,0.1,46.1364,0.1,1.8
0.619484,0.64311,0.661573,0.681656,-0.0514835,-0.0578065,-0.0453842,-0.0418337,62,95,30.87,0.1,46.1078,0.1,1.804
0.619278,0.642874,0.661391,0.681492,-0.0516616,-0.0582019,-0.0455412,-0.0415648,60,100,30.798,0.1,46.085,0.1,1.808
0.619071,0.642641,0.661209,0.681328,-0.0518398,-0.0582063,-0.0456982,-0.0413856,61,103,30.725,0.1,46.0666,0.1,1.812
0.618863,0.642406,0.661026,0.681166,-0.052018,-0.0583821,-0.0458554,-0.0411221,61,107,30.6531,0.1,46.0518,0.1,1.816
0.618655,0.64217,0.660842,0.681002,-0.0521964,-0.0586432,-0.0460126,-0.0410329,61,110,30.5815,0.1,46.0412,0.1,1.82
0.618446,0.641935,0.660658,0.680841,-0.0523748,-0.0586733,-0.0461699,-0.0407718,62,114,30.5097,0.1,46.0334,0.1,1.824
0.618236,0.641699,0.660473,0.680675,-0.0525533,-0.0587797,-0.0463272,-0.0410296,62,113,30.439,0.1,46.0297,0.1,1.828
0.618025,0.641459,0.660287,0.68051,-0.0527319,-0.0591386,-0.0464847,-0.0410864,61,114,30.3688,0.1,46.0252,0.1,1.832
0.617814,0.641222,0.660101,0.680346,-0.0529105,-0.0592051,-0.0466422,-0.0411242,61,115,30.2979,0.1,46.0219,0.1,1.836
0.617602,0.640984,0.659914,0.680181,-0.0530893,-0.0593358,-0.0467997,-0.0411494,61,117,30.2278,0.1,46.02,0.1,1.84
0.617389,0.640743,0.659726,0.680014,-0.0532681,-0.0596245,-0.0469574,-0.0413677,61,116,30.1582,0.1,46.0195,0.1,1.844
0.617176,0.640505,0.659538,0.679845,-0.053447,-0.0596154,-0.047115,-0.0415997,62,116,30.0882,0.1,46.0185,0.1,1.848
0.616962,0.640268,0.65935,0.679678,-0.0536259,-0.0594366,-0.0472728,-0.0416679,64,117,30.0197,0.1,46.017,0.1,1.852
0.616747,0.64003,0.65916,0.679509,-0.053805,-0.0595189,-0.0474306,-0.0418574,64,116,29.9534,0.1,46.0165,0.1,1.856
0.616531,0.639793,0.65897,0.679339,-0.0539841,-0.0593723,-0.0475885,-0.0420701,66,116,29.8881,0.1,46.0158,0.1,1.86
0.616315,0.639559,0.658779,0.679166,-0.0541632,-0.0591018,-0.0477464,-0.0424997,69,114,29.825,0.1,46.0147,0.1,1.864
0.616098,0.639324,0.658588,0.678994,-0.0543425,-0.0589502,-0.0479044,-0.042671,71,114,29.7648,0.1,46.0111,0.1,1.868
0.61588,0.639093,0.658396,0.678821,-0.0545218,-0.0585901,-0.0480625,-0.0428716,74,113,29.707,0.1,46.0075,0.1,1.872
0.615662,0.638864,0.658204,0.678647,-0.0547011,-0.0581196,-0.0482206,-0.0430629,78,113,29.6527,0.1,46.0036,0.1,1.876
0.615442,0.638634,0.65801,0.67847,-0.0548806,-0.0579212,-0.0483788,-0.0434784,80,111,29.6025,0.1,45.9995,0.1,1.88
0.615223,0.638407,0.657817,0.678294,-0.0550601,-0.057501,-0.048537,-0.0436114,83,111,29.5548,0.1,45.9931,0.1,1.884
0.615002,0.638184,0.657622,0.678116,-0.0552396,-0.0569329,-0.0486953,-0.0439304,88,110,29.5112,0.1,45.9871,0.1,1.888
0.614781,0.637959,0.657427,0.677939,-0.0554193,-0.056727,-0.0488537,-0.0440566,90,110,29.4721,0.1,45.9797,0.1,1.892
0.614559,0.637739,0.657231,0.677756,-0.0555989,-0.0561578,-0.0490121,-0.0445439,94,107,29.4358,0.1,45.9725,0.1,1.896
0.614336,0.637518,0.657035,0.677578,-0.0557787,-0.0558071,-0.0491705,-0.0445521,98,108,29.4041,0.1,45.9626,0.1,1.9
0.614112,0.6373,0.656838,0.677399,-0.0559585,-0.0554006,-0.049329,-0.0446439,101,109,29.3759,0.1,45.9542,0.1,1.904
0.613888,0.637082,0.65664,0.677217,-0.0561383,-0.0551296,-0.0494875,-0.0449066,104,108,29.3513,0.1,45.9466,0.1,1.908
0.613663,0.636865,0.656442,0.677035,-0.0563182,-0.054805,-0.0496461,-0.0451106,107,108,29.3298,0.1,45.9382,0.1,1.912
0.613438,0.636651,0.656243,0.676854,-0.0564982,-0.0544158,-0.0498048,-0.0451601,110,109,29.3115,0.1,45.9295,0.1,1.916
0.613211,0.636438,0.656044,0.676672,-0.0566782,-0.0540124,-0.0499635,-0.0452508,114,110,29.2969,0.1,45.9221,0.1,1.92
0.612984,0.636227,0.655843,0.676491,-0.0568583,-0.0535707,-0.0501222,-0.0452536,118,112,29.286,0.1,45.9156,0.1,1.924
0.612756,0.63602,0.655643,0.67631,-0.0570384,-0.0529884,-0.050281,-0.0452843,122,113,29.2792,0.1,45.9107,0.1,1.928
0.612528,0.635812,0.655441,0.676133,-0.0572186,-0.0526289,-0.0504398,-0.0449305,126,118,29.2771,0.1,45.9075,0.1,1.932
0.612299,0.635608,0.655239,0.675959,-0.0573988,-0.0520726,-0.0505987,-0.0444931,130,124,29.2785,0.1,45.9096,0.1,1.936
0.612069,0.635407,0.655036,0.675787,-0.057579,-0.0515002,-0.0507576,-0.0439424,135,131,29.2846,0.1,45.9179,0.1,1.94
0.611838,0.635208,0.654833,0.675618,-0.0577594,-0.0508882,-0.0509165,-0.0434025,139,138,29.2955,0.1,45.9334,0.1,1.944
0.611607,0.635013,0.654629,0.675453,-0.0579397,-0.0502212,-0.0510755,-0.0426682,145,147,29.3114,0.1,45.9561,0.1,1.948
0.611375,0.634821,0.654424,0.675288,-0.0581201,-0.0494597,-0.0512345,-0.0421788,150,153,29.3327,0.1,45.9876,0.1,1.952
0.611142,0.634634,0.654219,0.675127,-0.0583006,-0.0485203,-0.0513936,-0.0415645,157,161,29.36,0.1,46.0258,0.1,1.956
0.610908,0.63445,0.654013,0.674961,-0.058481,-0.0476924,-0.0515527,-0.0415005,164,163,29.3942,0.1,46.0715,0.1,1.96
0.610674,0.634271,0.653807,0.674799,-0.0586616,-0.0467374,-0.0517119,-0.0411988,171,168,29.4348,0.1,46.1196,0.1,1.964
0.610439,0.634095,0.6536,0.674635,-0.0588421,-0.0457841,-0.051871,-0.0411703,178,170,29.4824,0.1,46.1723,0.1,1.968
0.610203,0.633925,0.653392,0.674469,-0.0590228,-0.0446878,-0.0520302,-0.0412665,185,171,29.5372,0.1,46.2268,0.1,1.972
0.609967,0.633756,0.653183,0.674299,-0.0592034,-0.0438995,-0.0521895,-0.0416474,192,169,29.5998,0.1,46.2819,0.1,1.976
0.60973,0.633593,0.652974,0.674132,-0.0593841,-0.0428268,-0.0523488,-0.0417285,199,170,29.6686,0.1,46.3349,0.1,1.98
0.609492,0.633433,0.652765,0.673961,-0.0595648,-0.0418814,-0.0525081,-0.0420705,206,169,29.7451,0.1,46.3887,0.1,1.984
0.609253,0.633277,0.652554,0.673794,-0.0597455,-0.0409632,-0.0526674,-0.041953,213,171,29.8286,0.1,46.441,0.1,1.988
0.609014,0.633124,0.652343,0.673624,-0.0599263,-0.0400344,-0.0528268,-0.0421338,220,172,29.9189,0.1,46.4959,0.1,1.992
0.608774,0.632973,0.652132,0.673457,-0.0601072,-0.0393,-0.0529862,-0.0419664,226,175,30.0159,0.1,46.5508,0.1,1.996
0.608533,0.632824,0.651919,0.673292,-0.060288,-0.0386089,-0.0531456,-0.0417397,232,179,30.1187,0.1,46.6092,0.1,2
0.608291,0.632679,0.651706,0.67313,-0.0604689,-0.0378315,-0.053305,-0.0413582,238,185,30.2268,0.1,46.6715,0.1,2.004
0.608049,0.632536,0.651493,0.672967,-0.0606498,-0.0371404,-0.0534645,-0.0411039,244,189,30.3409,0.1,46.7391,0.1,2.008
0.607806,0.632393,0.651279,0.672804,-0.0608307,-0.0366509,-0.053624,-0.0409919,248,192,30.4602,0.1,46.8109,0.1,2.012
0.607562,0.632252,0.651064,0.672644,-0.0610117,-0.0362094,-0.0537835,-0.0406869,252,197,30.5836,0.1,46.8855,0.1,2.016
0.607318,0.632114,0.650848,0.67248,-0.0611927,-0.035656,-0.0539431,-0.0407427,257,198,30.7108,0.1,46.9646,0.1,2.02
0.607073,0.631974,0.650632,0.672319,-0.0613737,-0.0353734,-0.0541027,-0.0406072,261,201,30.8424,0.1,47.0448,0.1,2.024
0.606827,0.631835,0.650416,0.672152,-0.0615547,-0.0351562,-0.0542623,-0.0410063,263,199,30.9769,0.1,47.1278,0.1,2.028
0.60658,0.631693,0.650198,0.671987,-0.0617358,-0.0353281,-0.0544219,-0.0410708,264,200,31.1135,0.1,47.2085,0.1,2.032
0.606333,0.631541,0.64998,0.671821,-0.0619169,-0.0361625,-0.0545815,-0.041229,261,201,31.2498,0.1,47.2902,0.1,2.036
0.606085,0.631385,0.649762,0.671655,-0.062098,-0.0371794,-0.0547411,-0.0412768,256,202,31.3819,0.1,47.3719,0.1,2.04
0.605836,0.631218,0.649542,0.67149,-0.0622791,-0.0386635,-0.0549008,-0.0413375,249,204,31.5085,0.1,47.4548,0.1,2.044
0.605587,0.631043,0.649322,0.671327,-0.0624602,-0.0403439,-0.0550605,-0.0411477,240,207,31.6268,0.1,47.5389,0.1,2.048
0.605337,0.630856,0.649102,0.671164,-0.0626414,-0.0425006,-0.0552202,-0.0409347,229,211,31.7355,0.1,47.6264,0.1,2.052
0.605086,0.630662,0.648881,0.671005,-0.0628226,-0.0445142,-0.0553799,-0.0405624,218,217,31.8319,0.1,47.7178,0.1,2.056
0.604834,0.630454,0.648659,0.670846,-0.0630037,-0.0470371,-0.0555396,-0.0403142,204,221,31.9166,0.1,47.8144,0.1,2.06
0.604582,0.63024,0.648436,0.670687,-0.0631849,-0.0491221,-0.0556993,-0.0401488,193,225,31.987,0.1,47.915,0.1,2.064
0.604329,0.630015,0.648213,0.670529,-0.0633662,-0.0515197,-0.0558591,-0.0398945,180,229,32.0453,0.1,48.019,0.1,2.068
0.604075,0.629782,0.647989,0.670371,-0.0635474,-0.0538091,-0.0560188,-0.0397826,168,232,32.0898,0.1,48.1269,0.1,2.072
0.60382,0.629539,0.647765,0.670212,-0.0637286,-0.0560552,-0.0561786,-0.0397655,155,234,32.1213,0.1,48.2375,0.1,2.076
0.603565,0.629289,0.64754,0.670048,-0.0639099,-0.0582148,-0.0563384,-0.0401573,144,232,32.1399,0.1,48.3496,0.1,2.08
0.603309,0.629031,0.647314,0.669886,-0.0640911,-0.0603167,-0.0564982,-0.0402745,132,233,32.1463,0.1,48.4595,0.1,2.084
0.603052,0.628767,0.647088,0.66972,-0.0642724,-0.0622362,-0.056658,-0.0407269,122,231,32.1409,0.1,48.5697,0.1,2.088
0.602795,0.628497,0.646861,0.669553,-0.0644537,-0.0639765,-0.0568177,-0.0409997,113,230,32.1248,0.1,48.6769,0.1,2.092
0.602537,0.628223,0.646634,0.669385,-0.0646349,-0.0654822,-0.0569775,-0.0413831,105,228,32.0993,0.1,48.783,0.1,2.096
0.602278,0.62794,0.646405,0.669214,-0.0648162,-0.0672058,-0.0571374,-0.0418402,95,226,32.0654,0.1,48.8867,0.1,2.1
0.602018,0.627656,0.646176,0.669046,-0.0649975,-0.0685276,-0.0572972,-0.0419147,88,227,32.0223,0.1,48.9877,0.1,2.104
0.601758,0.627368,0.645947,0.668876,-0.0651788,-0.0696679,-0.057457,-0.0420507,83,228,31.9723,0.1,49.0895,0.1,2.108
0.601497,0.627078,0.645717,0.668706,-0.0653601,-0.0706008,-0.0576168,-0.0422277,78,228,31.9166,0.1,49.1914,0.1,2.112
0.601235,0.626778,0.645486,0.66853,-0.0655414,-0.0721153,-0.0577766,-0.0428064,70,224,31.856,0.1,49.293,0.1,2.116
0.600972,0.62649,0.645255,0.668363,-0.0657227,-0.0720597,-0.0579364,-0.0424724,71,230,31.7881,0.1,49.3908,0.1,2.12
0.600709,0.626194,0.645022,0.668191,-0.0659039,-0.0726561,-0.0580962,-0.0426528,69,230,31.7215,0.1,49.4933,0.1,2.124
0.600445,0.625898,0.64479,0.668018,-0.0660852,-0.0731112,-0.058256,-0.0428595,67,230,31.6526,0.1,49.5955,0.1,2.128
0.60018,0.625599,0.644556,0.667838,-0.0662665,-0.0736449,-0.0584158,-0.0435155,65,225,31.5821,0.1,49.697,0.1,2.132
0.599915,0.625301,0.644322,0.667661,-0.0664478,-0.0740008,-0.0585756,-0.0438376,63,224,31.5096,0.1,49.7937,0.1,2.136
0.599649,0.625002,0.644088,0.667481,-0.066629,-0.0742092,-0.0587354,-0.0441964,63,223,31.4364,0.1,49.8888,0.1,2.14
0.599382,0.624702,0.643853,0.667298,-0.0668103,-0.0744633,-0.0588952,-0.0446659,63,220,31.3632,0.1,49.9818,0.1,2.144
0.599114,0.624401,0.643617,0.667115,-0.0669916,-0.0747479,-0.059055,-0.0450652,62,218,31.2897,0.1,50.0718,0.1,2.148
0.598846,0.6241,0.64338,0.666931,-0.0671728,-0.0749376,-0.0592147,-0.0453603,62,217,31.2157,0.1,50.1594,0.1,2.152
0.598577,0.623798,0.643143,0.666747,-0.067354,-0.0750929,-0.0593745,-0.0455569,62,217,31.142,0.1,50.2457,0.1,2.156
0.598307,0.623498,0.642905,0.666563,-0.0675353,-0.0750812,-0.0595343,-0.0457169,63,217,31.0687,0.1,50.3317,0.1,2.16
0.598037,0.623198,0.642667,0.666379,-0.0677165,-0.0750447,-0.059694,-0.0458523,64,218,30.9968,0.1,50.4177,0.1,2.164
0.597765,0.622896,0.642428,0.666196,-0.0678977,-0.0751931,-0.0598537,-0.0457698,64,221,30.9264,0.1,50.5041,0.1,2.168
0.597493,0.622593,0.642188,0.666013,-0.0680788,-0.0754071,-0.0600135,-0.04583,64,222,30.8564,0.1,50.5929,0.1,2.172
0.597221,0.622289,0.641947,0.665828,-0.06826,-0.0755786,-0.0601732,-0.0459565,64,223,30.7864,0.1,50.6826,0.1,2.176
0.596947,0.621986,0.641706,0.665646,-0.0684412,-0.0756642,-0.0603329,-0.0458105,64,226,30.7166,0.1,50.7728,0.1,2.18
0.596673,0.62168,0.641465,0.66546,-0.0686223,-0.075894,-0.0604925,-0.0460298,64,226,30.6476,0.1,50.8658,0.1,2.184
0.596398,0.621376,0.641223,0.665277,-0.0688034,-0.0759032,-0.0606522,-0.0459169,65,229,30.5786,0.1,50.9584,0.1,2.188
0.596123,0.621072,0.64098,0.66509,-0.0689845,-0.0759669,-0.0608118,-0.046216,65,228,30.5108,0.1,51.0535,0.1,2.192
0.595847,0.620767,0.640736,0.664903,-0.0691656,-0.0760382,-0.0609715,-0.0463865,66,228,30.4439,0.1,51.1473,0.1,2.196
0.595569,0.620461,0.640492,0.664715,-0.0693466,-0.0762297,-0.0611311,-0.0465578,66,228,30.3779,0.1,51.241,0.1,2.2
0.595292,0.620154,0.640247,0.664527,-0.0695277,-0.0764149,-0.0612906,-0.0467584,65,228,30.3119,0.1,51.3345,0.1,2.204
0.595013,0.619848,0.640001,0.664335,-0.0697087,-0.076452,-0.0614502,-0.0471512,66,226,30.2462,0.1,51.4275,0.1,2.208
0.594734,0.61954,0.639755,0.664144,-0.0698897,-0.076592,-0.0616098,-0.047298,66,227,30.1815,0.1,51.5184,0.1,2.212
0.594454,0.619233,0.639509,0.663951,-0.0700706,-0.0766564,-0.0617693,-0.0476549,67,225,30.1173,0.1,51.6092,0.1,2.216
0.594174,0.618926,0.639261,0.663758,-0.0702516,-0.0766994,-0.0619288,-0.0478641,68,225,30.054,0.1,51.6982,0.1,2.22
0.593892,0.618615,0.639013,0.663562,-0.0704325,-0.077016,-0.0620882,-0.0482338,67,224,29.9917,0.1,51.7865,0.1,2.224
0.59361,0.618308,0.638765,0.663369,-0.0706134,-0.0769679,-0.0622477,-0.0482212,68,226,29.9288,0.1,51.873,0.1,2.228
0.593327,0.617999,0.638515,0.663177,-0.0707942,-0.0770798,-0.0624071,-0.048184,68,228,29.8675,0.1,51.9613,0.1,2.232
0.593044,0.617689,0.638265,0.662984,-0.070975,-0.0771832,-0.0625665,-0.048188,69,230,29.8068,0.1,52.0514,0.1,2.236
0.592759,0.617378,0.638015,0.662794,-0.0711558,-0.0773673,-0.0627259,-0.0479891,69,234,29.7467,0.1,52.1433,0.1,2.24
0.592474,0.61707,0.637763,0.662602,-0.0713366,-0.0772885,-0.0628852,-0.0479717,70,236,29.6869,0.1,52.2386,0.1,2.244
0.592189,0.616758,0.637512,0.662414,-0.0715173,-0.0774663,-0.0630445,-0.0476722,70,241,29.6287,0.1,52.3358,0.1,2.248
0.591902,0.616448,0.637259,0.662221,-0.071698,-0.0775272,-0.0632038,-0.047818,71,241,29.5708,0.1,52.4374,0.1,2.252
0.591615,0.616137,0.637006,0.66203,-0.0718786,-0.0775967,-0.0633631,-0.0477713,71,243,29.5139,0.1,52.5391,0.1,2.256
0.591327,0.615825,0.636752,0.66184,-0.0720592,-0.0777293,-0.0635223,-0.0476825,72,246,29.4577,0.1,52.643,0.1,2.26
0.591039,0.615513,0.636498,0.661651,-0.0722398,-0.0777602,-0.0636815,-0.0475658,72,249,29.4021,0.1,52.7493,0.1,2.264
0.590749,0.6152,0.636243,0.66146,-0.0724204,-0.0779535,-0.0638406,-0.0476607,72,250,29.3475,0.1,52.8582,0.1,2.268
0.590459,0.614886,0.635987,0.661268,-0.0726009,-0.0781399,-0.0639997,-0.047724,72,252,29.2929,0.1,52.9678,0.1,2.272
0.590169,0.61457,0.635731,0.661075,-0.0727813,-0.0784658,-0.0641588,-0.0479389,71,252,29.2385,0.1,53.0782,0.1,2.276
0.589877,0.614256,0.635474,0.66088,-0.0729617,-0.0784239,-0.0643179,-0.0481686,72,251,29.1834,0.1,53.188,0.1,2.28
0.589585,0.61394,0.635216,0.660685,-0.0731421,-0.0786263,-0.0644769,-0.048408,72,251,29.1297,0.1,53.2971,0.1,2.284
0.589292,0.613625,0.634958,0.66049,-0.0733225,-0.0787036,-0.0646358,-0.0485101,73,252,29.0762,0.1,53.4054,0.1,2.288
0.588998,0.613308,0.634699,0.660295,-0.0735027,-0.0788416,-0.0647948,-0.0485494,73,254,29.0234,0.1,53.5143,0.1,2.292
0.588704,0.61299,0.63444,0.660098,-0.073683,-0.0791063,-0.0649537,-0.0488346,72,253,28.971,0.1,53.6242,0.1,2.296
0.588409,0.612671,0.634179,0.659902,-0.0738632,-0.079254,-0.0651125,-0.0488521,72,255,28.9183,0.1,53.733,0.1,2.3
0.588113,0.612352,0.633919,0.659704,-0.0740433,-0.0794676,-0.0652713,-0.0490941,72,254,28.8658,0.1,53.843,0.1,2.304
0.587816,0.612031,0.633657,0.659505,-0.0742234,-0.0797539,-0.0654301,-0.0492842,71,254,28.8133,0.1,53.9523,0.1,2.308
0.587519,0.6117,0.633395,0.659299,-0.0744035,-0.0806934,-0.0655888,-0.0500731,67,249,28.7599,0.1,54.0608,0.1,2.312
0.587221,0.611378,0.633133,0.659097,-0.0745835,-0.0806288,-0.0657475,-0.0501959,68,249,28.7024,0.1,54.1634,0.1,2.316
0.586923,0.611054,0.632869,0.658893,-0.0747634,-0.0807872,-0.0659061,-0.0504218,68,249,28.6464,0.1,54.2663,0.1,2.32
0.586623,0.610731,0.632605,0.658686,-0.0749433,-0.0807776,-0.0660647,-0.0508891,69,247,28.5908,0.1,54.3684,0.1,2.324
0.586323,0.610406,0.632341,0.65848,-0.0751232,-0.0808864,-0.0662232,-0.0510567,70,247,28.5366,0.1,54.4675,0.1,2.328
0.586022,0.610081,0.632076,0.658272,-0.075303,-0.0810453,-0.0663817,-0.0513987,70,245,28.4828,0.1,54.5665,0.1,2.332
0.585721,0.609757,0.63181,0.658063,-0.0754827,-0.0810361,-0.0665402,-0.0516555,71,245,28.4295,0.1,54.6636,0.1,2.336
0.585418,0.609431,0.631543,0.657853,-0.0756624,-0.0811739,-0.0666986,-0.0519995,71,243,28.3774,0.1,54.7597,0.1,2.34
0.585115,0.609105,0.631276,0.657643,-0.075842,-0.0813234,-0.0668569,-0.0521712,71,244,28.3258,0.1,54.8541,0.1,2.344
0.584812,0.608784,0.631008,0.657437,-0.0760216,-0.0809623,-0.0670152,-0.0518826,74,248,28.2747,0.1,54.9485,0.1,2.348
0.584507,0.608449,0.63074,0.657219,-0.0762011,-0.0818733,-0.0671735,-0.0527555,70,242,28.2266,0.1,55.0468,0.1,2.352
0.584202,0.608121,0.630471,0.657006,-0.0763806,-0.0819336,-0.0673317,-0.0529343,70,242,28.1744,0.1,55.1383,0.1,2.356
0.583896,0.607791,0.630201,0.656793,-0.0765599,-0.0820601,-0.0674898,-0.0530823,71,243,28.1231,0.1,55.2297,0.1,2.36
0.583589,0.607462,0.629931,0.656575,-0.0767393,-0.0821733,-0.0676479,-0.0535553,71,240,28.0722,0.1,55.3209,0.1,2.364
0.583282,0.607134,0.62966,0.656359,-0.0769185,-0.0821048,-0.0678059,-0.0536691,72,241,28.022,0.1,55.4093,0.1,2.368
0.582974,0.606803,0.629389,0.656141,-0.0770977,-0.0822894,-0.0679639,-0.0539752,72,240,27.9734,0.1,55.4979,0.1,2.372
0.582665,0.606474,0.629116,0.655921,-0.0772769,-0.0822974,-0.0681218,-0.0543233,73,238,27.925,0.1,55.5851,0.1,2.376
0.582356,0.606151,0.628844,0.655704,-0.0774559,-0.0817844,-0.0682796,-0.0542675,77,241,27.8781,0.1,55.6705,0.1,2.38
0.582046,0.605824,0.62857,0.655483,-0.077635,-0.0817592,-0.0684374,-0.0546333,79,239,27.8354,0.1,55.7579,0.1,2.384
0.581735,0.605487,0.628296,0.655256,-0.0778139,-0.0826348,-0.0685952,-0.055309,74,234,27.7938,0.1,55.8432,0.1,2.388
0.581423,0.605157,0.628021,0.655032,-0.0779928,-0.0825564,-0.0687529,-0.055558,76,234,27.7483,0.1,55.9234,0.1,2.392
0.581111,0.604826,0.627746,0.654808,-0.0781716,-0.0826193,-0.0689105,-0.0556952,76,234,27.7046,0.1,56.0028,0.1,2.396
0.580798,0.604501,0.62747,0.654589,-0.0783503,-0.082143,-0.069068,-0.0553836,80,239,27.6619,0.1,56.0827,0.1,2.4
0.580484,0.604165,0.627194,0.654359,-0.0785289,-0.0827756,-0.0692255,-0.0560971,78,234,27.6231,0.1,56.1667,0.1,2.404
0.58017,0.603832,0.626916,0.65413,-0.0787075,-0.0829094,-0.0693829,-0.0564865,78,232,27.5817,0.1,56.2454,0.1,2.408
0.579854,0.603504,0.626639,0.653904,-0.078886,-0.0826243,-0.0695403,-0.0564869,81,234,27.5409,0.1,56.322,0.1,2.412
0.579539,0.603175,0.62636,0.653671,-0.0790645,-0.0825206,-0.0696976,-0.0570918,82,230,27.5031,0.1,56.3998,0.1,2.416
0.579222,0.602851,0.626081,0.653439,-0.0792428,-0.0819908,-0.0698548,-0.0573223,87,230,27.4675,0.1,56.4734,0.1,2.42
0.578905,0.602529,0.625801,0.653206,-0.0794211,-0.0815225,-0.070012,-0.0576776,91,228,27.4364,0.1,56.5462,0.1,2.424
0.578587,0.602214,0.625521,0.65297,-0.0795993,-0.0805481,-0.0701691,-0.0580871,98,226,27.4099,0.1,56.617,0.1,2.428
0.578268,0.601905,0.62524,0.652734,-0.0797775,-0.0794666,-0.0703261,-0.0584465,105,224,27.391,0.1,56.6854,0.1,2.432
0.577948,0.601614,0.624958,0.652506,-0.0799555,-0.0772197,-0.0704831,-0.0579088,121,231,27.3808,0.1,56.7522,0.1,2.436
0.577628,0.601321,0.624676,0.652263,-0.0801335,-0.0759233,-0.07064,-0.0588747,130,224,27.3857,0.1,56.8252,0.1,2.44
0.577307,0.601048,0.624393,0.652027,-0.0803114,-0.0733316,-0.0707968,-0.0588852,147,225,27.4009,0.1,56.8906,0.1,2.444
0.576986,0.60079,0.62411,0.651792,-0.0804892,-0.0703945,-0.0709536,-0.0588634,166,227,27.434,0.1,56.9575,0.1,2.448
0.576663,0.600548,0.623826,0.651554,-0.0806669,-0.0671409,-0.0711102,-0.059108,188,227,27.4874,0.1,57.0261,0.1,2.452
0.57634,0.600316,0.623541,0.651316,-0.0808446,-0.0640505,-0.0712668,-0.0591847,208,228,27.5627,0.1,57.094,0.1,2.456
0.576017,0.600097,0.623255,0.651081,-0.0810222,-0.0609538,-0.0714234,-0.0590631,229,231,27.659,0.1,57.1628,0.1,2.46
0.575692,0.599893,0.622969,0.650847,-0.0811996,-0.0576225,-0.0715798,-0.0588668,251,235,27.7765,0.1,57.2344,0.1,2.464
0.575367,0.599685,0.622683,0.650605,-0.081377,-0.0557759,-0.0717362,-0.0593982,264,231,27.9157,0.1,57.3093,0.1,2.468
0.575041,0.599494,0.622395,0.650374,-0.0815543,-0.0530765,-0.0718925,-0.0589175,283,238,28.0682,0.1,57.381,0.1,2.472
0.574715,0.599299,0.622108,0.650129,-0.0817316,-0.05168,-0.0720487,-0.0596911,293,232,28.2385,0.1,57.4584,0.1,2.476
0.574387,0.599114,0.621819,0.649889,-0.0819087,-0.0498853,-0.0722049,-0.059775,306,233,28.419,0.1,57.53,0.1,2.48
0.574059,0.598932,0.62153,0.649649,-0.0820857,-0.0484297,-0.0723609,-0.0598309,317,235,28.6119,0.1,57.6025,0.1,2.484
0.573731,0.598754,0.62124,0.649404,-0.0822627,-0.047085,-0.0725169,-0.0603,327,232,28.8151,0.1,57.6757,0.1,2.488
0.573401,0.598581,0.62095,0.649161,-0.0824395,-0.0458142,-0.0726728,-0.0604688,337,232,29.028,0.1,57.746,0.1,2.492
0.573071,0.59841,0.620659,0.648917,-0.0826163,-0.0447655,-0.0728286,-0.0606389,345,232,29.2498,0.1,57.8163,0.1,2.496
0.57274,0.598242,0.620367,0.648672,-0.082793,-0.0438361,-0.0729844,-0.0608675,353,232,29.4793,0.1,57.8863,0.1,2.5
0.572409,0.598079,0.620075,0.648427,-0.0829695,-0.042871,-0.07314,-0.0609911,361,232,29.7158,0.1,57.9558,0.1,2.504
0.572076,0.597913,0.619782,0.648182,-0.083146,-0.0423427,-0.0732956,-0.0610159,366,234,29.9592,0.1,58.0257,0.1,2.508
0.571744,0.597751,0.619489,0.647935,-0.0833224,-0.0417314,-0.0734511,-0.0612628,372,233,30.207,0.1,58.0967,0.1,2.512
0.57141,0.597586,0.619194,0.647687,-0.0834987,-0.0416118,-0.0736065,-0.0615713,374,232,30.4595,0.1,58.1669,0.1,2.516
0.571076,0.597424,0.6189,0.647438,-0.0836749,-0.0412153,-0.0737618,-0.061777,379,232,30.7137,0.1,58.2357,0.1,2.52
0.57074,0.597261,0.618604,0.647187,-0.083851,-0.041095,-0.0739171,-0.0620581,382,231,30.9713,0.1,58.3039,0.1,2.524
0.570405,0.597098,0.618308,0.646933,-0.084027,-0.0409284,-0.0740722,-0.0625334,385,228,31.2307,0.1,58.3708,0.1,2.528
0.570068,0.596938,0.618012,0.646685,-0.0842029,-0.0406734,-0.0742272,-0.0623608,388,232,31.492,0.1,58.4349,0.1,2.532
0.569731,0.596775,0.617715,0.646432,-0.0843787,-0.0407049,-0.0743822,-0.0627064,390,230,31.7558,0.1,58.502,0.1,2.536
0.569393,0.596606,0.617417,0.646178,-0.0845544,-0.0411866,-0.0745371,-0.0629944,389,229,32.0201,0.1,58.5673,0.1,2.54
0.569055,0.596437,0.617118,0.645924,-0.0847299,-0.0415365,-0.0746919,-0.0631576,389,229,32.2822,0.1,58.6314,0.1,2.544
0.568715,0.596263,0.616819,0.645673,-0.0849054,-0.0422016,-0.0748466,-0.0629785,387,233,32.5428,0.1,58.6956,0.1,2.548
0.568375,0.596085,0.616519,0.645426,-0.0850808,-0.0429329,-0.0750012,-0.0626,384,238,32.8001,0.1,58.7634,0.1,2.552
0.568035,0.595906,0.616219,0.645176,-0.0852561,-0.0435357,-0.0751557,-0.0625204,382,241,33.0535,0.1,58.8363,0.1,2.556
0.567693,0.595727,0.615918,0.644929,-0.0854312,-0.0439663,-0.0753101,-0.0622945,382,245,33.3041,0.1,58.9116,0.1,2.56
0.567351,0.595543,0.615617,0.644678,-0.0856063,-0.0446564,-0.0754644,-0.0624031,379,246,33.5526,0.1,58.9906,0.1,2.564
0.567009,0.595362,0.615315,0.644426,-0.0857812,-0.0448574,-0.0756186,-0.062677,380,245,33.7979,0.1,59.07,0.1,2.568
0.566665,0.595178,0.615012,0.644168,-0.0859561,-0.0452217,-0.0757728,-0.0632051,380,242,34.0427,0.1,59.148,0.1,2.572
0.566321,0.594995,0.614708,0.643909,-0.0861308,-0.045407,-0.0759268,-0.0637875,380,238,34.2862,0.1,59.2223,0.1,2.576
0.565976,0.594809,0.614404,0.643646,-0.0863054,-0.0458184,-0.0760807,-0.0644349,380,233,34.5293,0.1,59.2923,0.1,2.58
0.56563,0.594622,0.6141,0.64338,-0.0864799,-0.0461215,-0.0762345,-0.0651256,380,229,34.7707,0.1,59.3574,0.1,2.584
0.565284,0.594436,0.613794,0.643113,-0.0866543,-0.0462084,-0.0763883,-0.0656437,381,225,35.0113,0.1,59.4173,0.1,2.588
0.564937,0.594251,0.613489,0.642846,-0.0868286,-0.0462375,-0.0765419,-0.0660178,383,223,35.2522,0.1,59.4736,0.1,2.592
0.56459,0.594064,0.613182,0.642581,-0.0870028,-0.0464009,-0.0766954,-0.0661233,384,224,35.4939,0.1,59.528,0.1,2.596
0.564241,0.59388,0.612875,0.642314,-0.0871768,-0.0463083,-0.0768489,-0.0663088,386,224,35.7356,0.1,59.5828,0.1,2.6
0.563892,0.593695,0.612567,0.642055,-0.0873508,-0.0462466,-0.0770022,-0.0657991,389,231,35.9789,0.1,59.6378,0.1,2.604
0.563542,0.593513,0.612259,0.641796,-0.0875246,-0.0459751,-0.0771554,-0.0654592,392,236,36.2236,0.1,59.6993,0.1,2.608
0.563192,0.593329,0.61195,0.641539,-0.0876983,-0.0459668,-0.0773085,-0.0650311,394,242,36.471,0.1,59.7659,0.1,2.612
0.562841,0.59315,0.611641,0.64128,-0.0878718,-0.045587,-0.0774616,-0.0649185,399,245,36.7195,0.1,59.8381,0.1,2.616
0.562489,0.592969,0.61133,0.641016,-0.0880453,-0.0455066,-0.0776145,-0.0653328,401,242,36.9713,0.1,59.9127,0.1,2.62
0.562136,0.592791,0.61102,0.640753,-0.0882186,-0.0451651,-0.0777673,-0.0654363,405,243,37.2247,0.1,59.9848,0.1,2.624
0.561783,0.59261,0.610708,0.640487,-0.0883919,-0.0451677,-0.07792,-0.0657644,407,242,37.4811,0.1,60.0574,0.1,2.628
0.561429,0.592432,0.610396,0.640217,-0.088565,-0.0449391,-0.0780725,-0.0663575,411,238,37.7386,0.1,60.1281,0.1,2.632
0.561075,0.59225,0.610084,0.639945,-0.0887379,-0.0451322,-0.078225,-0.0669256,412,234,37.9982,0.1,60.1945,0.1,2.636
0.560719,0.592071,0.60977,0.639673,-0.0889108,-0.0450594,-0.0783774,-0.0673043,414,232,38.2578,0.1,60.2568,0.1,2.64
0.560363,0.591888,0.609457,0.639398,-0.0890835,-0.04527,-0.0785297,-0.0677583,415,230,38.5186,0.1,60.3169,0.1,2.644
0.560007,0.591707,0.609142,0.639126,-0.0892561,-0.0452377,-0.0786818,-0.0678307,417,231,38.7791,0.1,60.3742,0.1,2.648
0.559649,0.591523,0.608827,0.638849,-0.0894286,-0.045504,-0.0788338,-0.0683108,418,228,39.0406,0.1,60.4322,0.1,2.652
0.559291,0.59134,0.608512,0.638577,-0.0896009,-0.0455952,-0.0789858,-0.0682278,419,230,39.3014,0.1,60.4872,0.1,2.656
0.558933,0.591157,0.608195,0.638306,-0.0897731,-0.045656,-0.0791376,-0.0680573,421,234,39.5626,0.1,60.5447,0.1,2.66
0.558573,0.590973,0.607878,0.638034,-0.0899452,-0.0457253,-0.0792893,-0.0680588,422,235,39.8244,0.1,60.6053,0.1,2.664
0.558213,0.590791,0.607561,0.637761,-0.0901172,-0.0456564,-0.0794409,-0.0680598,425,237,40.0867,0.1,60.6675,0.1,2.668
0.557852,0.590609,0.607243,0.637489,-0.090289,-0.0456104,-0.0795923,-0.0680604,427,239,40.3504,0.1,60.7313,0.1,2.672
0.557491,0.590427,0.606924,0.637218,-0.0904607,-0.0455797,-0.0797437,-0.0679745,429,241,40.6154,0.1,60.7966,0.1,2.676
0.557129,0.590247,0.606605,0.636947,-0.0906322,-0.0453866,-0.0798949,-0.0679172,433,244,40.8816,0.1,60.8643,0.1,2.68
0.556766,0.590068,0.606285,0.636671,-0.0908037,-0.0451714,-0.080046,-0.0682533,436,242,41.15,0.1,60.9339,0.1,2.684
0.556402,0.589884,0.605965,0.636396,-0.0909749,-0.045431,-0.080197,-0.0684486,436,242,41.4206,0.1,61.0017,0.1,2.688
0.556038,0.589702,0.605644,0.636118,-0.0911461,-0.045489,-0.0803479,-0.0687515,438,241,41.6905,0.1,61.0691,0.1,2.692
0.555673,0.589515,0.605322,0.635839,-0.0913171,-0.0459019,-0.0804987,-0.0691262,438,239,41.9608,0.1,61.135,0.1,2.696
0.555307,0.589327,0.605,0.635557,-0.091488,-0.0462923,-0.0806493,-0.0695487,437,237,42.2293,0.1,61.1987,0.1,2.7
0.554941,0.589134,0.604677,0.63527,-0.0916588,-0.0469269,-0.0807998,-0.0703199,435,231,42.4961,0.1,61.2595,0.1,2.704
0.554574,0.588942,0.604353,0.634984,-0.0918294,-0.0472923,-0.0809502,-0.0706612,435,229,42.7599,0.1,61.3143,0.1,2.708
0.554206,0.588742,0.604029,0.634688,-0.0919998,-0.0481694,-0.0811005,-0.0718101,431,220,43.0219,0.1,61.3669,0.1,2.712
0.553838,0.588548,0.603704,0.6344,-0.0921702,-0.0483222,-0.0812506,-0.0718562,433,221,43.2795,0.1,61.4102,0.1,2.716
0.553469,0.588355,0.603379,0.634117,-0.0923403,-0.0482801,-0.0814007,-0.0714551,435,227,43.5372,0.1,61.4548,0.1,2.72
0.553099,0.588162,0.603053,0.633831,-0.0925104,-0.0482233,-0.0815506,-0.0715044,437,228,43.7962,0.1,61.5047,0.1,2.724
0.552729,0.587971,0.602727,0.633548,-0.0926803,-0.048099,-0.0817003,-0.0712494,440,232,44.0566,0.1,61.5559,0.1,2.728
0.552358,0.587779,0.6024,0.633264,-0.09285,-0.048045,-0.08185,-0.0711369,442,235,44.3187,0.1,61.611,0.1,2.732
0.551986,0.587586,0.602072,0.632983,-0.0930197,-0.0481529,-0.0819995,-0.070918,444,239,44.5821,0.1,61.6689,0.1,2.736
0.551614,0.587393,0.601744,0.632702,-0.0931891,-0.0481673,-0.0821489,-0.0706857,446,243,44.8457,0.1,61.7306,0.1,2.74
0.551241,0.587201,0.601415,0.632419,-0.0933585,-0.0481193,-0.0822982,-0.0707036,448,244,45.1103,0.1,61.7959,0.1,2.744
0.550867,0.587007,0.601085,0.632145,-0.0935276,-0.0482312,-0.0824473,-0.0699669,450,253,45.3761,0.1,61.863,0.1,2.748
0.550492,0.586804,0.600755,0.631858,-0.0936967,-0.0490832,-0.0825963,-0.0705411,446,249,45.6417,0.1,61.9383,0.1,2.752
0.550117,0.586599,0.600424,0.631579,-0.0938655,-0.0497664,-0.0827452,-0.0702905,444,254,45.9028,0.1,62.0098,0.1,2.756
0.549741,0.586391,0.600093,0.6313,-0.0940343,-0.0505385,-0.0828939,-0.0701234,441,257,46.1603,0.1,62.0852,0.1,2.76
0.549365,0.586178,0.599761,0.631017,-0.0942029,-0.0514563,-0.0830425,-0.0703287,437,257,46.4135,0.1,62.1637,0.1,2.764
0.548988,0.585962,0.599429,0.630738,-0.0943713,-0.0522698,-0.083191,-0.0701201,434,260,46.6618,0.1,62.2418,0.1,2.768
0.54861,0.585742,0.599096,0.630455,-0.0945396,-0.0532151,-0.0833393,-0.0702977,430,261,46.9055,0.1,62.3232,0.1,2.772
0.548232,0.585517,0.598762,0.630172,-0.0947077,-0.0542484,-0.0834876,-0.0704449,425,261,47.144,0.1,62.4044,0.1,2.776
0.547852,0.585286,0.598428,0.629885,-0.0948757,-0.0553404,-0.0836356,-0.0709173,420,258,47.3766,0.1,62.4855,0.1,2.78
0.547473,0.585056,0.598093,0.629592,-0.0950435,-0.0561259,-0.0837836,-0.0716929,417,252,47.6031,0.1,62.5631,0.1,2.784
0.547092,0.584819,0.597758,0.629299,-0.0952112,-0.0571391,-0.0839314,-0.07221,413,249,47.8253,0.1,62.6346,0.1,2.788
0.546711,0.58458,0.597422,0.629001,-0.0953787,-0.058016,-0.084079,-0.072929,409,244,48.0418,0.1,62.7024,0.1,2.792
0.546329,0.58434,0.597085,0.628705,-0.095546,-0.0586583,-0.0842266,-0.0733507,407,241,48.2537,0.1,62.7646,0.1,2.796
0.545946,0.584097,0.596748,0.628409,-0.0957132,-0.0594031,-0.084374,-0.0735455,404,241,48.4624,0.1,62.8243,0.1,2.8
0.545563,0.583851,0.59641,0.628109,-0.0958803,-0.0600436,-0.0845212,-0.0740209,402,238,48.6672,0.1,62.8834,0.1,2.804
0.545179,0.583607,0.596072,0.627814,-0.0960471,-0.0603843,-0.0846683,-0.0739347,401,241,48.869,0.1,62.9395,0.1,2.808
0.544795,0.583359,0.595733,0.627517,-0.0962139,-0.0608993,-0.0848153,-0.0740212,400,242,49.0694,0.1,62.998,0.1,2.812
0.54441,0.583117,0.595393,0.627229,-0.0963804,-0.0607532,-0.0849621,-0.0733879,403,250,49.2679,0.1,63.0574,0.1,2.816
0.544024,0.582863,0.595053,0.626927,-0.0965468,-0.061721,-0.0851088,-0.0740309,399,245,49.4678,0.1,63.124,0.1,2.82
0.543637,0.582613,0.594712,0.626632,-0.0967131,-0.0619632,-0.0852553,-0.073999,399,247,49.6627,0.1,63.1861,0.1,2.824
0.54325,0.58236,0.594371,0.626335,-0.0968791,-0.062355,-0.0854017,-0.0740353,398,248,49.857,0.1,63.2499,0.1,2.828
0.542862,0.582109,0.594029,0.626035,-0.0970451,-0.0625586,-0.085548,-0.0743474,399,247,50.0498,0.1,63.3147,0.1,2.832
0.542474,0.581856,0.593686,0.625732,-0.0972108,-0.0627807,-0.0856941,-0.0748146,399,244,50.2424,0.1,63.3778,0.1,2.836
0.542085,0.581603,0.593343,0.625428,-0.0973764,-0.0628999,-0.0858401,-0.07527,400,242,50.4345,0.1,63.4377,0.1,2.84
0.541695,0.581349,0.593,0.625125,-0.0975418,-0.0631234,-0.0859859,-0.0754008,401,242,50.627,0.1,63.4948,0.1,2.844
0.541304,0.581103,0.592655,0.624829,-0.097707,-0.0626102,-0.0861316,-0.0749698,406,248,50.8194,0.1,63.5523,0.1,2.848
0.540913,0.58085,0.592311,0.624523,-0.0978721,-0.0628151,-0.0862771,-0.0754311,406,245,51.0159,0.1,63.6151,0.1,2.852
0.540521,0.580592,0.591965,0.624216,-0.098037,-0.063326,-0.0864225,-0.0759113,405,242,51.2119,0.1,63.6749,0.1,2.856
0.540129,0.580336,0.591619,0.623907,-0.0982018,-0.0635514,-0.0865677,-0.0763178,405,240,51.4058,0.1,63.7314,0.1,2.86
0.539736,0.58008,0.591273,0.6236,-0.0983664,-0.0637592,-0.0867128,-0.0764449,406,240,51.5992,0.1,63.7854,0.1,2.864
0.539342,0.57982,0.590926,0.623293,-0.0985308,-0.0641569,-0.0868577,-0.076616,405,240,51.7923,0.1,63.8397,0.1,2.868
0.538947,0.579559,0.590578,0.622989,-0.098695,-0.0644797,-0.0870025,-0.0764133,405,244,51.9838,0.1,63.894,0.1,2.872
0.538552,0.579299,0.59023,0.622687,-0.0988591,-0.0646948,-0.0871471,-0.0760767,405,249,52.1743,0.1,63.9518,0.1,2.876
0.538157,0.579035,0.589881,0.622383,-0.099023,-0.0651261,-0.0872916,-0.076025,405,251,52.3643,0.1,64.0144,0.1,2.88
0.53776,0.578771,0.589531,0.622082,-0.0991867,-0.0653849,-0.0874359,-0.0757602,405,255,52.5526,0.1,64.079,0.1,2.884
0.537363,0.578504,0.589181,0.621781,-0.0993502,-0.0658741,-0.0875801,-0.0756413,403,258,52.7401,0.1,64.1477,0.1,2.888
0.536965,0.578234,0.588831,0.621476,-0.0995136,-0.066373,-0.0877241,-0.0757923,402,258,52.9253,0.1,64.2189,0.1,2.892
0.536567,0.577963,0.588479,0.621169,-0.0996768,-0.0668207,-0.0878679,-0.0760946,401,257,53.1084,0.1,64.2899,0.1,2.896
0.536168,0.577688,0.588128,0.620861,-0.0998398,-0.0674935,-0.0880116,-0.0764112,398,256,53.2894,0.1,64.3594,0.1,2.9
0.535768,0.577413,0.587775,0.620552,-0.100003,-0.0679133,-0.0881552,-0.0766799,397,255,53.4671,0.1,64.4272,0.1,2.904
0.535368,0.577136,0.587422,0.620242,-0.100165,-0.0683658,-0.0882986,-0.0769742,396,253,53.6431,0.1,64.4938,0.1,2.908
0.534967,0.576859,0.587069,0.61993,-0.100328,-0.0686675,-0.0884418,-0.0773719,396,251,53.8172,0.1,64.5588,0.1,2.912
0.534565,0.57658,0.586715,0.619612,-0.10049,-0.0689838,-0.0885849,-0.0780113,396,247,53.9903,0.1,64.6212,0.1,2.916
0.534163,0.576299,0.58636,0.619295,-0.100652,-0.0694538,-0.0887278,-0.0784664,395,244,54.1624,0.1,64.6788,0.1,2.92
0.53376,0.576018,0.586005,0.618974,-0.100814,-0.0697096,-0.0888705,-0.0790577,395,240,54.3325,0.1,64.7332,0.1,2.924
0.533356,0.575737,0.585649,0.618654,-0.100976,-0.0698513,-0.0890131,-0.0793655,396,239,54.502,0.1,64.7834,0.1,2.928
0.532952,0.575453,0.585293,0.618327,-0.101137,-0.0702912,-0.0891555,-0.0801466,395,233,54.6716,0.1,64.8316,0.1,2.932
0.532547,0.57517,0.584936,0.618007,-0.101299,-0.0704118,-0.0892978,-0.080149,396,234,54.8395,0.1,64.874,0.1,2.936
0.532142,0.574879,0.584579,0.617679,-0.10146,-0.0711832,-0.0894399,-0.0806977,392,230,55.0073,0.1,64.9176,0.1,2.94
0.531736,0.574591,0.584221,0.617358,-0.101621,-0.0714959,-0.0895819,-0.080574,392,233,55.1713,0.1,64.9575,0.1,2.944
0.531329,0.574296,0.583862,0.617034,-0.101782,-0.0722226,-0.0897236,-0.0806931,389,234,55.3341,0.1,65.0001,0.1,2.948
0.530921,0.574002,0.583503,0.616713,-0.101943,-0.0726207,-0.0898653,-0.0805998,388,236,55.4932,0.1,65.043,0.1,2.952
0.530513,0.573706,0.583143,0.616393,-0.102103,-0.0730876,-0.0900067,-0.0803648,387,240,55.6508,0.1,65.0884,0.1,2.956
0.530105,0.573409,0.582783,0.616076,-0.102263,-0.0734853,-0.090148,-0.0799778,386,245,55.8064,0.1,65.1377,0.1,2.96
0.529695,0.573109,0.582422,0.615759,-0.102423,-0.0739807,-0.0902891,-0.0797198,385,250,55.9603,0.1,65.1923,0.1,2.964
0.529285,0.57281,0.58206,0.615442,-0.102583,-0.0742822,-0.0904301,-0.0795766,384,253,56.1122,0.1,65.2508,0.1,2.968
0.528875,0.57251,0.581698,0.615129,-0.102743,-0.0744832,-0.0905709,-0.0791932,385,258,56.2631,0.1,65.3123,0.1,2.972
0.528463,0.572208,0.581336,0.61481,-0.102902,-0.0748475,-0.0907115,-0.0793119,384,258,56.4138,0.1,65.3789,0.1,2.976
0.528051,0.571907,0.580973,0.614494,-0.103062,-0.0749465,-0.0908519,-0.0792183,385,261,56.5632,0.1,65.4457,0.1,2.98
0.527639,0.571607,0.580609,0.614177,-0.103221,-0.0750124,-0.0909922,-0.0792423,387,262,56.7131,0.1,65.5149,0.1,2.984
0.527226,0.571306,0.580245,0.613858,-0.10338,-0.0750852,-0.0911323,-0.0794598,388,262,56.8636,0.1,65.5851,0.1,2.988
0.526812,0.571005,0.57988,0.613535,-0.103539,-0.0751337,-0.0912722,-0.0798351,389,260,57.0148,0.1,65.6545,0.1,2.992
0.526397,0.570705,0.579515,0.61321,-0.103697,-0.0750796,-0.091412,-0.0803445,391,257,57.1669,0.1,65.7215,0.1,2.996
0.525982,0.570405,0.579149,0.612882,-0.103856,-0.0750436,-0.0915516,-0.0808856,393,253,57.3204,0.1,65.7848,0.1,3
0.525566,0.570103,0.578782,0.612547,-0.104014,-0.0751636,-0.091691,-0.0817933,394,246,57.4752,0.1,65.8439,0.1,3.004
0.52515,0.569801,0.578415,0.612214,-0.104172,-0.0753587,-0.0918303,-0.0822833,395,243,57.6303,0.1,65.8957,0.1,3.008
0.524733,0.569494,0.578048,0.611879,-0.104329,-0.0757767,-0.0919693,-0.0827828,394,239,57.7851,0.1,65.944,0.1,3.012
0.524315,0.569182,0.577679,0.611544,-0.104487,-0.0764872,-0.0921082,-0.0831445,391,237,57.938,0.1,65.9888,0.1,3.016
0.523897,0.56886,0.577311,0.611197,-0.104644,-0.0778534,-0.092247,-0.0843357,384,228,58.0868,0.1,66.031,0.1,3.02
0.523478,0.568545,0.576941,0.610865,-0.104801,-0.0781884,-0.0923855,-0.0838631,383,234,58.228,0.1,66.0637,0.1,3.024
0.523059,0.568233,0.576572,0.61054,-0.104958,-0.0780662,-0.0925239,-0.0829722,386,244,58.3684,0.1,66.1027,0.1,3.028
0.522639,0.567913,0.576201,0.610212,-0.105115,-0.0787045,-0.0926621,-0.0827238,383,248,58.5103,0.1,66.1518,0.1,3.032
0.522218,0.567584,0.57583,0.609874,-0.105272,-0.0799362,-0.0928001,-0.0833067,377,244,58.6487,0.1,66.2044,0.1,3.036
0.521796,0.567262,0.575459,0.609546,-0.105428,-0.0800952,-0.0929379,-0.0828316,377,250,58.7804,0.1,66.253,0.1,3.04
0.521374,0.566941,0.575087,0.609217,-0.105584,-0.0802011,-0.0930756,-0.0826588,378,253,58.9121,0.1,66.3077,0.1,3.044
0.520952,0.566621,0.574714,0.608889,-0.10574,-0.0801278,-0.0932131,-0.0824285,380,257,59.0444,0.1,66.3656,0.1,3.048
0.520529,0.566298,0.574341,0.608559,-0.105896,-0.0803093,-0.0933504,-0.0824476,381,258,59.1782,0.1,66.427,0.1,3.052
0.520105,0.565986,0.573967,0.608235,-0.106052,-0.0795377,-0.0934875,-0.081971,388,265,59.3124,0.1,66.4899,0.1,3.056
0.51968,0.565666,0.573593,0.607903,-0.106207,-0.0796568,-0.0936244,-0.0823442,389,263,59.4525,0.1,66.5585,0.1,3.06
0.519255,0.565347,0.573218,0.607567,-0.106362,-0.0797073,-0.0937612,-0.0828809,390,259,59.593,0.1,66.6246,0.1,3.064
0.518829,0.565019,0.572843,0.60722,-0.106517,-0.0805184,-0.0938977,-0.0841888,386,248,59.7338,0.1,66.6864,0.1,3.068
0.518403,0.564697,0.572467,0.606875,-0.106672,-0.0804833,-0.0940341,-0.0848592,388,243,59.8707,0.1,66.7369,0.1,3.072
0.517976,0.564373,0.572091,0.606531,-0.106826,-0.0806326,-0.0941703,-0.0852198,389,241,60.0088,0.1,66.7822,0.1,3.076
0.517548,0.564048,0.571714,0.606186,-0.10698,-0.0808185,-0.0943064,-0.0855753,389,239,60.1471,0.1,66.8254,0.1,3.08
0.51712,0.563728,0.571336,0.60585,-0.107135,-0.0805682,-0.0944422,-0.0850638,393,246,60.2855,0.1,66.8669,0.1,3.084
0.516691,0.563394,0.570958,0.605501,-0.107288,-0.081553,-0.0945778,-0.0857304,388,241,60.426,0.1,66.9143,0.1,3.088
0.516262,0.563063,0.57058,0.605163,-0.107442,-0.0819791,-0.0947133,-0.0853399,387,246,60.5613,0.1,66.957,0.1,3.092
0.515832,0.562719,0.570201,0.604812,-0.107596,-0.0832709,-0.0948486,-0.0861449,380,240,60.6943,0.1,67.0045,0.1,3.096
0.515401,0.562384,0.569821,0.604469,-0.107749,-0.0834699,-0.0949837,-0.0860193,380,242,60.8201,0.1,67.0457,0.1,3.1
0.51497,0.562048,0.569441,0.604126,-0.107902,-0.0836026,-0.0951186,-0.0859356,381,245,60.9458,0.1,67.0896,0.1,3.104
0.514538,0.561716,0.56906,0.603788,-0.108055,-0.0834032,-0.0952533,-0.0854479,384,251,61.0719,0.1,67.1359,0.1,3.108
0.514105,0.561382,0.568679,0.603446,-0.108207,-0.0835005,-0.0953878,-0.0854971,385,252,61.2003,0.1,67.1882,0.1,3.112
0.513672,0.561056,0.568297,0.603113,-0.10836,-0.0827593,-0.0955221,-0.0846949,391,261,61.3297,0.1,67.2419,0.1,3.116
0.513238,0.560712,0.567915,0.60276,-0.108512,-0.0839062,-0.0956563,-0.0858876,386,251,61.4642,0.1,67.3039,0.1,3.12
0.512804,0.560384,0.567532,0.602425,-0.108664,-0.08326,-0.0957902,-0.0852144,391,259,61.593,0.1,67.3563,0.1,3.124
0.512369,0.560038,0.567148,0.602068,-0.108815,-0.0842976,-0.095924,-0.0865506,386,248,61.7264,0.1,67.4158,0.1,3.128
0.511933,0.559697,0.566764,0.601714,-0.108967,-0.0846151,-0.0960575,-0.0871823,386,244,61.8542,0.1,67.4637,0.1,3.132
0.511497,0.559357,0.56638,0.60136,-0.109118,-0.0847691,-0.0961909,-0.087661,386,240,61.981,0.1,67.5067,0.1,3.136
0.51106,0.559014,0.565995,0.601002,-0.109269,-0.0851309,-0.0963241,-0.0882681,386,236,62.1078,0.1,67.5463,0.1,3.14
0.510623,0.558674,0.565609,0.600646,-0.10942,-0.0850266,-0.0964571,-0.0885,388,235,62.2336,0.1,67.5814,0.1,3.144
0.510185,0.558339,0.565223,0.600295,-0.109571,-0.0846404,-0.0965899,-0.0882228,392,239,62.3613,0.1,67.6158,0.1,3.148
0.509747,0.557993,0.564836,0.599933,-0.109721,-0.0852179,-0.0967224,-0.0889881,390,233,62.4923,0.1,67.6539,0.1,3.152
0.509307,0.557644,0.564449,0.59957,-0.109871,-0.0858907,-0.0968548,-0.0896135,387,229,62.6204,0.1,67.6858,0.1,3.156
0.508868,0.557296,0.564062,0.599207,-0.110021,-0.086253,-0.096987,-0.089944,386,227,62.7452,0.1,67.713,0.1,3.16
0.508427,0.556946,0.563673,0.598844,-0.110171,-0.086696,-0.097119,-0.0902219,385,226,62.8686,0.1,67.7383,0.1,3.164
0.507986,0.556596,0.563285,0.59848,-0.110321,-0.0869913,-0.0972509,-0.0904936,385,225,62.9901,0.1,67.7623,0.1,3.168
0.507545,0.556246,0.562895,0.59812,-0.11047,-0.0871882,-0.0973825,-0.0903004,385,228,63.1108,0.1,67.7852,0.1,3.172
0.507102,0.555895,0.562506,0.59776,-0.110619,-0.0873195,-0.0975139,-0.0902292,386,230,63.2313,0.1,67.8113,0.1,3.176
0.50666,0.555543,0.562115,0.597403,-0.110768,-0.0875221,-0.0976451,-0.0899226,386,235,63.352,0.1,67.8397,0.1,3.18
0.506216,0.555189,0.561724,0.597044,-0.110917,-0.0878588,-0.0977761,-0.0898622,385,237,63.4724,0.1,67.8724,0.1,3.184
0.505772,0.554835,0.561333,0.59669,-0.111065,-0.0881408,-0.0979069,-0.0894188,385,242,63.5916,0.1,67.9073,0.1,3.188
0.505328,0.554478,0.560941,0.596334,-0.111213,-0.088444,-0.0980375,-0.089296,385,245,63.71,0.1,67.9479,0.1,3.192
0.504883,0.554119,0.560549,0.595975,-0.111361,-0.0889052,-0.0981679,-0.0893868,383,246,63.8273,0.1,67.9909,0.1,3.196
0.504437,0.553758,0.560156,0.595617,-0.111509,-0.0893279,-0.0982981,-0.0894474,382,246,63.9426,0.1,68.0343,0.1,3.2
0.503991,0.553396,0.559762,0.595261,-0.111656,-0.0897536,-0.0984281,-0.0893151,381,249,64.0561,0.1,68.0786,0.1,3.204
0.503544,0.553031,0.559368,0.594902,-0.111803,-0.0902102,-0.0985579,-0.0894284,379,250,64.1677,0.1,68.1255,0.1,3.208
0.503096,0.552664,0.558974,0.594544,-0.11195,-0.0907161,-0.0986875,-0.0895039,377,250,64.2773,0.1,68.1726,0.1,3.212
0.502648,0.552296,0.558579,0.594184,-0.112097,-0.0911685,-0.0988169,-0.0896694,376,250,64.3845,0.1,68.2202,0.1,3.216
0.502199,0.551918,0.558183,0.593815,-0.112244,-0.0923339,-0.0989461,-0.0904707,370,244,64.4893,0.1,68.2672,0.1,3.22
0.50175,0.551546,0.557787,0.593452,-0.11239,-0.0925349,-0.099075,-0.0905731,370,244,64.5877,0.1,68.3079,0.1,3.224
0.5013,0.551176,0.557391,0.593091,-0.112536,-0.092525,-0.0992038,-0.0904686,371,247,64.6859,0.1,68.3489,0.1,3.228
0.50085,0.550802,0.556994,0.592726,-0.112682,-0.0928063,-0.0993324,-0.0907444,371,246,64.7853,0.1,68.3922,0.1,3.232
0.500399,0.550428,0.556596,0.592363,-0.112828,-0.0930515,-0.0994607,-0.0907267,371,247,64.8838,0.1,68.4342,0.1,3.236
0.499947,0.550053,0.556198,0.592,-0.112973,-0.09333,-0.0995889,-0.0907437,371,249,64.9817,0.1,68.4778,0.1,3.24
0.499495,0.549674,0.555799,0.591635,-0.113118,-0.0937749,-0.0997168,-0.0909566,369,248,65.0788,0.1,68.5223,0.1,3.244
0.499042,0.549303,0.5554,0.591278,-0.113263,-0.093438,-0.0998445,-0.09035,373,255,65.1744,0.1,68.5665,0.1,3.248
0.498589,0.548914,0.555001,0.590906,-0.113408,-0.0946818,-0.099972,-0.0912412,366,248,65.2725,0.1,68.6173,0.1,3.252
0.498135,0.548535,0.554601,0.590542,-0.113552,-0.0947049,-0.100099,-0.0911731,367,250,65.3638,0.1,68.661,0.1,3.256
0.49768,0.548155,0.5542,0.590179,-0.113696,-0.0948066,-0.100226,-0.0909837,368,253,65.456,0.1,68.7068,0.1,3.26
0.497225,0.547772,0.553799,0.589813,-0.11384,-0.0951623,-0.100353,-0.0911742,367,253,65.5486,0.1,68.7556,0.1,3.264
0.49677,0.547391,0.553397,0.58945,-0.113984,-0.0951691,-0.10048,-0.0910709,369,256,65.64,0.1,68.8039,0.1,3.268
0.496314,0.547012,0.552995,0.589085,-0.114127,-0.095001,-0.100606,-0.0911171,371,257,65.7326,0.1,68.8545,0.1,3.272
0.495857,0.546632,0.552592,0.588717,-0.11427,-0.0950616,-0.100733,-0.0913783,372,255,65.8274,0.1,68.9058,0.1,3.276
0.495399,0.546262,0.552189,0.588356,-0.114413,-0.0941807,-0.100859,-0.0910342,380,260,65.9234,0.1,68.9561,0.1,3.28
0.494941,0.545884,0.551785,0.587983,-0.114556,-0.0942844,-0.100985,-0.0917261,381,255,66.0262,0.1,69.0106,0.1,3.284
0.494483,0.545505,0.551381,0.587606,-0.114699,-0.0944399,-0.10111,-0.0925904,381,248,66.1293,0.1,69.0594,0.1,3.288
0.494024,0.545122,0.550976,0.587224,-0.114841,-0.0948315,-0.101236,-0.0935985,380,240,66.2324,0.1,69.1008,0.1,3.292
0.493564,0.544737,0.550571,0.586837,-0.114983,-0.0953229,-0.101361,-0.094616,378,231,66.3338,0.1,69.1334,0.1,3.296
0.493104,0.544351,0.550166,0.586448,-0.115125,-0.0957656,-0.101486,-0.0954671,377,224,66.4329,0.1,69.1573,0.1,3.3
0.492643,0.543962,0.549759,0.58606,-0.115266,-0.0962623,-0.10161,-0.0960346,375,220,66.53,0.1,69.1741,0.1,3.304
0.492182,0.543568,0.549353,0.585669,-0.115407,-0.0969678,-0.101735,-0.0966144,372,216,66.6247,0.1,69.1867,0.1,3.308
0.49172,0.543174,0.548945,0.585283,-0.115548,-0.0975244,-0.101859,-0.0965402,369,218,66.7156,0.1,69.1951,0.1,3.312
0.491257,0.542776,0.548538,0.584898,-0.115689,-0.0981546,-0.101983,-0.0964333,367,220,66.8037,0.1,69.2057,0.1,3.316
0.490794,0.542364,0.54813,0.584506,-0.11583,-0.0997264,-0.102107,-0.0969377,357,217,66.888,0.1,69.2184,0.1,3.32
0.490331,0.541962,0.547721,0.584129,-0.11597,-0.0999969,-0.102231,-0.0960649,357,227,66.9631,0.1,69.228,0.1,3.324
0.489867,0.541556,0.547312,0.583754,-0.11611,-0.100552,-0.102354,-0.0953102,355,235,67.0374,0.1,69.2477,0.1,3.328
0.489402,0.541148,0.546902,0.583379,-0.11625,-0.100979,-0.102477,-0.0947783,353,242,67.1089,0.1,69.2761,0.1,3.332
0.488937,0.540743,0.546492,0.583007,-0.116389,-0.101062,-0.1026,-0.0941646,354,249,67.1787,0.1,69.3111,0.1,3.336
0.488471,0.54034,0.546081,0.582637,-0.116529,-0.101003,-0.102723,-0.0936402,356,255,67.2492,0.1,69.3535,0.1,3.34
0.488004,0.539941,0.54567,0.582264,-0.116668,-0.100589,-0.102846,-0.0934634,360,259,67.3214,0.1,69.4021,0.1,3.344
0.487537,0.539553,0.545259,0.581902,-0.116806,-0.0993337,-0.102968,-0.0924819,370,269,67.3982,0.1,69.4542,0.1,3.348
0.48707,0.53915,0.544846,0.581518,-0.116945,-0.0998215,-0.10309,-0.0936989,368,259,67.484,0.1,69.5162,0.1,3.352
0.486602,0.538755,0.544434,0.58114,-0.117083,-0.0995133,-0.103212,-0.093992,372,258,67.5679,0.1,69.5678,0.1,3.356
0.486133,0.538359,0.544021,0.580755,-0.117221,-0.0993366,-0.103334,-0.0947344,374,252,67.655,0.1,69.6175,0.1,3.36
0.485664,0.537965,0.543607,0.58037,-0.117359,-0.099046,-0.103455,-0.0952006,378,249,67.7447,0.1,69.6611,0.1,3.364
0.485194,0.53757,0.543193,0.579977,-0.117496,-0.0989099,-0.103576,-0.0962023,380,240,67.8373,0.1,69.7011,0.1,3.368
