peachynonah/Fire_monitor_KIRO_CDSL/csv_datas/trial12/cdsl_data_t12_13_u.csv
joint1_pos_desired, joint1_pos, joint2_pos_desired, joint2_pos, joint1_vel_desired, joint1_vel_filtered, joint2_vel_desired, joint2_vel_filtered, target_torque_joint1, target_torque_joint2, estimated_disturbance_joint1, saturated_DOB_joint1, estimated_disturbance_joint2, saturated_DOB_joint2, current_time
0.036315,0.0372412,0.218456,0.0182858,3.76499e-07,0,0.0500001,0,10,-2500,0,0,23.0524,10,0.004
0.036315,0.0372398,0.218656,0.0182868,1.50479e-06,-0.000115164,0.0500006,8.63728e-05,9,-2500,0.0105281,0.0105281,20.2209,10,0.008
0.036315,0.0372398,0.218856,0.0182955,3.38307e-06,-7.67758e-05,0.0500013,0.000777355,9,-2500,0.0199836,0.0199836,17.401,10,0.012
0.036315,0.0372398,0.219056,0.0184624,6.00952e-06,-5.11839e-05,0.0500023,0.0144243,9,-2500,0.0297955,0.0297955,14.6074,10,0.016
0.0363151,0.0372398,0.219256,0.0188085,9.38236e-06,-3.41226e-05,0.0500036,0.0384647,9,-2363,0.0398307,0.0398307,11.9689,10,0.02
0.0363151,0.0372394,0.219456,0.0192908,1.34998e-05,-5.15393e-05,0.0500052,0.0658352,9,-2099,0.0499775,0.0499775,9.58521,9.58521,0.024
0.0363152,0.0372391,0.219656,0.0198733,1.836e-05,-6.31505e-05,0.050007,0.0924317,9,-1849,0.0599073,0.0599073,7.48516,7.48516,0.028
0.0363153,0.0372381,0.219856,0.0205246,2.39611e-05,-0.000128473,0.0500092,0.115892,9,-1627,0.0696282,0.0696282,5.65181,5.65181,0.032
0.0363154,0.037237,0.220056,0.0212197,3.03014e-05,-0.000172021,0.0500116,0.135189,8,-1443,0.0786399,0.0786399,4.05402,4.05402,0.036
0.0363155,0.037236,0.220256,0.0219173,3.73792e-05,-0.000201054,0.0500143,0.148255,8,-1318,0.0871479,0.0871479,2.64939,2.64939,0.04
0.0363157,0.0372346,0.220456,0.0226013,4.51925e-05,-0.0002492,0.0500173,0.155842,7,-1246,0.0952659,0.0952659,1.37651,1.37651,0.044
0.0363159,0.0372329,0.220656,0.0232567,5.37396e-05,-0.000310088,0.0500205,0.158511,7,-1220,0.102795,0.102795,0.181104,0.181104,0.048
0.0363161,0.0372312,0.220856,0.02389,6.30187e-05,-0.00035068,0.0500241,0.158448,6,-1221,0.10962,0.10962,-0.984537,-0.984537,0.052
0.0363164,0.0372298,0.221057,0.0245057,7.3028e-05,-0.00034895,0.0500279,0.156937,6,-1236,0.115952,0.115952,-2.14695,-2.14695,0.056
0.0363167,0.0372291,0.221257,0.0251262,8.37657e-05,-0.000290215,0.050032,0.156333,6,-1242,0.122221,0.122221,-3.31906,-3.31906,0.06
0.036317,0.0372284,0.221457,0.0257577,9.52301e-05,-0.000251059,0.0500363,0.156852,7,-1238,0.128946,0.128946,-4.49167,-4.49167,0.064
0.0363174,0.0372287,0.221657,0.0263402,0.000107419,-0.000138582,0.050041,0.15311,8,-1274,0.135988,0.135988,-5.65726,-5.65726,0.068
0.0363179,0.0372284,0.221857,0.0269518,0.000120332,-0.000121179,0.0500459,0.153033,8,-1276,0.143966,0.143966,-6.85321,-6.85321,0.072
0.0363184,0.0372284,0.222057,0.0275671,0.000133965,-8.07858e-05,0.0500511,0.153299,8,-1274,0.151995,0.151995,-8.04506,-8.04506,0.076
0.036319,0.0372284,0.222258,0.028189,0.000148318,-5.38572e-05,0.0500566,0.154023,8,-1267,0.160276,0.160276,-9.22929,-9.22929,0.08
0.0363196,0.0372284,0.222458,0.0288243,0.000163389,-3.59048e-05,0.0500623,0.155628,8,-1251,0.16867,0.16867,-10.401,-10,0.084
0.0363203,0.0372284,0.222658,0.0294345,0.000179176,-2.39365e-05,0.0500683,0.154597,8,-1256,0.177081,0.177081,-11.5519,-10,0.088
0.036321,0.0372284,0.222858,0.0300522,0.000195676,-1.59577e-05,0.0500746,0.154543,8,-1252,0.185441,0.185441,-12.7026,-10,0.092
0.0363218,0.0372284,0.223059,0.0306692,0.00021289,-1.06385e-05,0.0500812,0.154449,8,-1248,0.193705,0.193705,-13.8442,-10,0.096
0.0363227,0.0372284,0.223259,0.0312749,0.000230814,-7.0923e-06,0.050088,0.153437,8,-1254,0.201839,0.201839,-14.9777,-10,0.1
0.0363237,0.0372284,0.223459,0.0318681,0.000249446,-4.7282e-06,0.0500951,0.151725,8,-1266,0.209816,0.209816,-16.1121,-10,0.104
0.0363247,0.0372284,0.22366,0.0324589,0.000268786,-3.15213e-06,0.0501025,0.150383,8,-1275,0.217618,0.217618,-17.2539,-10,0.108
0.0363258,0.0372284,0.22386,0.0330486,0.000288831,-2.10142e-06,0.0501101,0.149401,8,-1280,0.225229,0.225229,-18.3995,-10,0.112
0.036327,0.0372284,0.224061,0.0336342,0.00030958,-1.40095e-06,0.050118,0.148401,7,-1285,0.232636,0.232636,-19.5453,-10,0.116
0.0363283,0.0372284,0.224261,0.0342199,0.00033103,-9.33966e-07,0.0501262,0.147735,7,-1288,0.239828,0.239828,-20.6915,-10,0.12
0.0363297,0.0372284,0.224462,0.0348041,0.00035318,-6.22644e-07,0.0501346,0.147175,7,-1289,0.246793,0.246793,-21.835,-10,0.124
0.0363311,0.0372284,0.224662,0.0353887,0.000376029,-4.15096e-07,0.0501433,0.146831,7,-1288,0.253523,0.253523,-22.9745,-10,0.128
0.0363327,0.0372284,0.224863,0.0359815,0.000399574,-2.76731e-07,0.0501522,0.147293,7,-1279,0.260009,0.260009,-24.1075,-10,0.132
0.0363343,0.0372284,0.225063,0.0365706,0.000423814,-1.84487e-07,0.0501615,0.147284,6,-1275,0.266242,0.266242,-25.2269,-10,0.136
0.0363361,0.0372284,0.225264,0.0371738,0.000448746,-1.22991e-07,0.050171,0.148458,6,-1260,0.272213,0.272213,-26.3363,-10,0.14
0.0363379,0.0372284,0.225465,0.0377791,0.00047437,-8.19942e-08,0.0501807,0.149414,6,-1246,0.277914,0.277914,-27.4248,-10,0.144
0.0363399,0.0372284,0.225665,0.0383858,0.000500683,-5.46628e-08,0.0501907,0.150166,6,-1235,0.283337,0.283337,-28.4946,-10,0.148
0.0363419,0.0372284,0.225866,0.0389907,0.000527684,-3.64419e-08,0.050201,0.150524,5,-1227,0.288474,0.288474,-29.5479,-10,0.152
0.0363441,0.0372284,0.226067,0.0396012,0.000555371,-2.42946e-08,0.0502115,0.151223,5,-1216,0.293316,0.293316,-30.5884,-10,0.156
0.0363464,0.0372284,0.226268,0.0401965,0.000583742,-1.61964e-08,0.0502223,0.150422,5,-1219,0.297856,0.297856,-31.6137,-10,0.16
0.0363488,0.0372284,0.226469,0.040788,0.000612796,-1.07976e-08,0.0502333,0.149571,5,-1223,0.302084,0.302084,-32.6382,-10,0.164
0.0363513,0.0372284,0.22667,0.0413726,0.00064253,-7.1984e-09,0.0502446,0.148428,4,-1230,0.305994,0.305994,-33.6624,-10,0.168
0.0363539,0.0372284,0.226871,0.0419557,0.000672943,-4.79893e-09,0.0502562,0.147551,4,-1234,0.309576,0.309576,-34.6891,-10,0.172
0.0363567,0.0372284,0.227072,0.0425272,0.000704033,-3.19929e-09,0.050268,0.145988,4,-1245,0.312824,0.312824,-35.7162,-10,0.176
0.0363596,0.0372284,0.227273,0.043091,0.000735798,-2.13286e-09,0.05028,0.144312,3,-1258,0.315727,0.315727,-36.7503,-10,0.18
0.0363626,0.0372284,0.227474,0.0436635,0.000768238,-1.42191e-09,0.0502924,0.143915,3,-1257,0.318279,0.318279,-37.7916,-10,0.184
0.0363657,0.0372287,0.227675,0.0442339,0.000801349,2.879e-05,0.0503049,0.143477,3,-1258,0.320492,0.320492,-38.8282,-10,0.188
0.036369,0.0372287,0.227877,0.0448095,0.00083513,1.91933e-05,0.0503178,0.143617,2,-1252,0.322601,0.322601,-39.8601,-10,0.192
0.0363724,0.0372287,0.228078,0.0453892,0.00086958,1.27955e-05,0.0503308,0.144056,2,-1244,0.324241,0.324241,-40.8817,-10,0.196
0.0363759,0.0372287,0.228279,0.0459769,0.000904697,8.53036e-06,0.0503442,0.145011,2,-1231,0.325434,0.325434,-41.8899,-10,0.2
0.0363796,0.0372287,0.228481,0.046558,0.000940478,5.68691e-06,0.0503577,0.1451,1,-1226,0.326192,0.326192,-42.8805,-10,0.204
0.0363835,0.0372287,0.228682,0.0471533,0.000976923,3.79127e-06,0.0503716,0.14634,1,-1210,0.326521,0.326521,-43.8608,-10,0.208
0.0363874,0.0372287,0.228884,0.0477472,0.00101403,2.52752e-06,0.0503857,0.147052,0,-1199,0.326423,0.326423,-44.8205,-10,0.212
0.0363916,0.0372287,0.229085,0.0483726,0.0010518,1.68501e-06,0.0504,0.150146,0,-1165,0.325895,0.325895,-45.7629,-10,0.216
0.0363959,0.0372287,0.229287,0.0489523,0.00109022,1.12334e-06,0.0504145,0.148409,0,-1177,0.324933,0.324933,-46.6691,-10,0.22
0.0364003,0.0372287,0.229488,0.0495569,0.0011293,7.48893e-07,0.0504294,0.149323,0,-1164,0.323532,0.323532,-47.5825,-10,0.224
0.0364049,0.0372287,0.22969,0.0501622,0.00116904,4.99262e-07,0.0504444,0.14999,0,-1154,0.321685,0.321685,-48.4786,-10,0.228
0.0364096,0.0372287,0.229892,0.0507944,0.00120942,3.32841e-07,0.0504597,0.152681,-1,-1123,0.319384,0.319384,-49.3582,-10,0.232
0.0364146,0.0372287,0.230094,0.0513797,0.00125046,2.21894e-07,0.0504753,0.150559,-1,-1140,0.316624,0.316624,-50.2057,-10,0.236
0.0364196,0.0372287,0.230296,0.0519836,0.00129215,1.4793e-07,0.0504911,0.150699,-2,-1134,0.313395,0.313395,-51.0649,-10,0.24
0.0364249,0.0372287,0.230498,0.0525851,0.00133449,9.86197e-08,0.0505071,0.150591,-2,-1131,0.30969,0.30969,-51.9146,-10,0.244
0.0364303,0.0372287,0.2307,0.0531856,0.00137747,6.57465e-08,0.0505234,0.150433,-3,-1128,0.3055,0.3055,-52.7573,-10,0.248
0.0364359,0.0372287,0.230902,0.053785,0.00142109,4.3831e-08,0.05054,0.150241,-3,-1126,0.300818,0.300818,-53.5935,-10,0.252
0.0364417,0.0372287,0.231104,0.0543558,0.00146536,2.92207e-08,0.0505567,0.147723,-4,-1146,0.295636,0.295636,-54.4252,-10,0.256
0.0364476,0.0372287,0.231306,0.0549348,0.00151027,1.94804e-08,0.0505737,0.146736,-4,-1151,0.289944,0.289944,-55.2731,-10,0.26
0.0364538,0.0372287,0.231509,0.055508,0.00155582,1.2987e-08,0.050591,0.145588,-5,-1159,0.283735,0.283735,-56.1232,-10,0.264
0.0364601,0.0372287,0.231711,0.0560829,0.00160201,8.65797e-09,0.0506085,0.144967,-5,-1161,0.277,0.277,-56.9765,-10,0.268
0.0364666,0.0372287,0.231914,0.056644,0.00164883,5.77198e-09,0.0506262,0.143401,-6,-1172,0.269731,0.269731,-57.8287,-10,0.272
0.0364733,0.0372287,0.232116,0.0572085,0.00169629,3.84799e-09,0.0506441,0.142645,-6,-1175,0.261919,0.261919,-58.6884,-10,0.276
0.0364802,0.0372287,0.232319,0.0577889,0.00174437,2.56532e-09,0.0506623,0.143465,-7,-1163,0.253557,0.253557,-59.5467,-10,0.28
0.0364872,0.0372287,0.232522,0.0583317,0.00179309,1.71022e-09,0.0506808,0.140874,-8,-1185,0.244635,0.244635,-60.3913,-10,0.284
0.0364945,0.0372287,0.232724,0.058899,0.00184244,1.14014e-09,0.0506994,0.141191,-8,-1178,0.235145,0.235145,-61.2523,-10,0.288
0.036502,0.0372291,0.232927,0.0594639,0.00189241,2.87917e-05,0.0507183,0.1412,-9,-1174,0.225099,0.225099,-62.1026,-10,0.292
0.0365097,0.0372294,0.23313,0.0600305,0.00194301,4.79854e-05,0.0507375,0.141351,-9,-1169,0.214754,0.214754,-62.945,-10,0.296
0.0365175,0.0372301,0.233333,0.0606123,0.00199424,8.95721e-05,0.0507569,0.142718,-9,-1152,0.204027,0.204027,-63.7773,-10,0.3
0.0365256,0.0372305,0.233536,0.0611557,0.00204608,8.85057e-05,0.0507765,0.140433,-10,-1170,0.193092,0.193092,-64.5909,-10,0.304
0.0365339,0.0372305,0.233739,0.0617116,0.00209855,5.90038e-05,0.0507963,0.139947,-11,-1171,0.18152,0.18152,-65.4186,-10,0.308
0.0365424,0.0372305,0.233942,0.0622585,0.00215163,3.93358e-05,0.0508163,0.138874,-12,-1178,0.169041,0.169041,-66.2441,-10,0.312
0.0365511,0.0372305,0.234146,0.0628255,0.00220534,2.62239e-05,0.0508366,0.139828,-12,-1165,0.155743,0.155743,-67.0715,-10,0.316
0.03656,0.0372305,0.234349,0.0633686,0.00225965,1.74826e-05,0.0508572,0.138478,-13,-1174,0.141682,0.141682,-67.8835,-10,0.32
0.0365692,0.0372305,0.234553,0.0639117,0.00231458,1.16551e-05,0.0508779,0.137578,-14,-1179,0.126892,0.126892,-68.7013,-10,0.324
0.0365786,0.0372305,0.234756,0.0644362,0.00237012,7.77004e-06,0.0508989,0.135423,-15,-1197,0.111391,0.111391,-69.5216,-10,0.328
0.0365881,0.0372308,0.23496,0.0649751,0.00242628,3.3971e-05,0.0509201,0.135196,-15,-1195,0.095212,0.095212,-70.355,-10,0.332
0.036598,0.0372308,0.235164,0.0655086,0.00248304,2.26473e-05,0.0509415,0.134584,-16,-1198,0.0786023,0.0786023,-71.1837,-10,0.336
0.036608,0.0372308,0.235367,0.0660506,0.00254041,1.50982e-05,0.0509632,0.134896,-17,-1191,0.0612038,0.0612038,-72.0106,-10,0.34
0.0366183,0.0372312,0.235571,0.0665941,0.00259838,3.88564e-05,0.0509851,0.135219,-17,-1185,0.043065,0.043065,-72.827,-10,0.344
0.0366288,0.0372312,0.235775,0.0671358,0.00265695,2.59043e-05,0.0510072,0.13529,-18,-1181,0.0244462,0.0244462,-73.6333,-10,0.348
0.0366395,0.0372315,0.235979,0.067681,0.00271613,4.60604e-05,0.0510295,0.135625,-19,-1174,0.00501717,0.00501717,-74.4314,-10,0.352
0.0366505,0.0372315,0.236183,0.0682172,0.00277591,3.0707e-05,0.0510521,0.1351,-20,-1175,-0.0149441,-0.0149441,-75.2196,-10,0.356
0.0366618,0.0372315,0.236388,0.0687538,0.00283629,2.04713e-05,0.0510749,0.134779,-21,-1175,-0.0357764,-0.0357764,-76.0059,-10,0.36
0.0366732,0.0372318,0.236592,0.0692917,0.00289726,4.24385e-05,0.0510979,0.13468,-21,-1173,-0.0574181,-0.0574181,-76.7881,-10,0.364
0.0366849,0.0372318,0.236796,0.0698217,0.00295883,2.82923e-05,0.0511211,0.133952,-22,-1176,-0.0796003,-0.0796003,-77.5648,-10,0.368
0.0366969,0.0372322,0.237001,0.0703513,0.00302099,4.76525e-05,0.0511445,0.133438,-23,-1178,-0.102647,-0.102647,-78.3417,-10,0.372
0.0367091,0.0372325,0.237206,0.0708834,0.00308374,6.05592e-05,0.0511682,0.133297,-23,-1176,-0.126257,-0.126257,-79.1165,-10,0.376
0.0367216,0.0372329,0.23741,0.0714092,0.00314708,6.91637e-05,0.051192,0.132684,-24,-1178,-0.150502,-0.150502,-79.8862,-10,0.38
0.0367343,0.0372336,0.237615,0.0719406,0.00321101,0.000103691,0.0512161,0.132737,-25,-1175,-0.175411,-0.175411,-80.6546,-10,0.384
0.0367473,0.0372339,0.23782,0.0724716,0.00327553,9.79183e-05,0.0512405,0.132743,-26,-1171,-0.200778,-0.200778,-81.4157,-10,0.388
0.0367605,0.0372346,0.238025,0.0730057,0.00334064,0.000122861,0.051265,0.133006,-26,-1165,-0.226968,-0.226968,-82.1698,-10,0.392
0.036774,0.0372353,0.23823,0.0735426,0.00340632,0.000139489,0.0512897,0.133412,-27,-1158,-0.253705,-0.253705,-82.9143,-10,0.396
0.0367877,0.0372356,0.238435,0.0740805,0.00347259,0.000121784,0.0513147,0.133769,-28,-1151,-0.281101,-0.281101,-83.648,-10,0.4
0.0368018,0.0372363,0.238641,0.0746209,0.00353944,0.000138771,0.0513399,0.134208,-29,-1143,-0.309461,-0.309461,-84.3713,-10,0.404
0.0368161,0.037237,0.238846,0.0751661,0.00360686,0.000150096,0.0513653,0.134904,-30,-1133,-0.338472,-0.338472,-85.0833,-10,0.408
0.0368306,0.0372374,0.239052,0.0757006,0.00367487,0.000128855,0.0513909,0.134476,-31,-1134,-0.368219,-0.368219,-85.7824,-10,0.412
0.0368455,0.0372377,0.239257,0.0762526,0.00374344,0.000114694,0.0514167,0.135658,-32,-1119,-0.399012,-0.399012,-86.4781,-10,0.416
0.0368606,0.0372381,0.239463,0.0767768,0.00381259,0.000105254,0.0514427,0.134115,-33,-1131,-0.430789,-0.430789,-87.1571,-10,0.42
0.036876,0.0372388,0.239669,0.0773126,0.00388232,0.000127751,0.0514689,0.134065,-34,-1128,-0.463494,-0.463494,-87.8441,-10,0.424
0.0368916,0.0372391,0.239875,0.0778554,0.00395261,0.000113958,0.0514954,0.134607,-35,-1119,-0.496861,-0.496861,-88.5247,-10,0.428
0.0369076,0.0372394,0.240081,0.0783788,0.00402347,0.000104763,0.051522,0.133356,-36,-1128,-0.531235,-0.531235,-89.1945,-10,0.432
0.0369238,0.0372401,0.240287,0.0789102,0.0040949,0.000127424,0.0515489,0.133185,-37,-1126,-0.566561,-0.566561,-89.8698,-10,0.436
0.0369403,0.0372408,0.240493,0.079436,0.00416689,0.000142531,0.051576,0.132609,-37,-1129,-0.602552,-0.602552,-90.5406,-10,0.44
0.0369571,0.0372422,0.2407,0.0799542,0.00423945,0.000210184,0.0516032,0.131593,-38,-1135,-0.639252,-0.639252,-91.2111,-10,0.444
0.0369743,0.0372439,0.240906,0.0804811,0.00431256,0.000284078,0.0516307,0.131635,-38,-1131,-0.67617,-0.67617,-91.8847,-10,0.448
0.0369917,0.0372464,0.241113,0.08099,0.00438624,0.000390922,0.0516584,0.130165,-38,-1142,-0.713229,-0.713229,-92.5526,-10,0.452
0.0370093,0.0372491,0.241319,0.0815072,0.00446048,0.000490942,0.0516863,0.129877,-38,-1142,-0.75013,-0.75013,-93.2282,-10,0.456
0.0370273,0.0372519,0.241526,0.0820144,0.00453527,0.000557622,0.0517144,0.12885,-39,-1149,-0.786966,-0.786966,-93.901,-10,0.46
0.0370456,0.037255,0.241733,0.0825278,0.00461062,0.000630866,0.0517427,0.128683,-39,-1147,-0.824048,-0.824048,-94.5773,-10,0.464
0.0370642,0.0372585,0.24194,0.0830391,0.00468652,0.000708487,0.0517712,0.128399,-39,-1147,-0.861318,-0.861318,-95.2491,-10,0.468
0.0370831,0.0372623,0.242147,0.0835549,0.00476298,0.000789025,0.0518,0.128584,-40,-1142,-0.898739,-0.898739,-95.9172,-10,0.472
0.0371023,0.0372667,0.242354,0.084077,0.00483998,0.000900298,0.0518289,0.129226,-40,-1133,-0.936267,-0.936267,-96.5771,-10,0.476
0.0371218,0.0372723,0.242562,0.0845911,0.00491753,0.00106085,0.051858,0.128992,-39,-1132,-0.973584,-0.973584,-97.2249,-10,0.48
0.0371417,0.0372781,0.242769,0.0851166,0.00499563,0.00119668,0.0518873,0.129785,-39,-1121,-1.01025,-1.01025,-97.8683,-10,0.484
0.0371618,0.0372847,0.242977,0.085649,0.00507428,0.00134482,0.0519168,0.13089,-38,-1107,-1.04648,-1.04648,-98.4975,-10,0.488
0.0371823,0.0372927,0.243185,0.086181,0.00515347,0.00155873,0.0519465,0.131598,-37,-1097,-1.08213,-1.08213,-99.1098,-10,0.492
0.037203,0.0373016,0.243392,0.0867162,0.0052332,0.00178772,0.0519765,0.132329,-36,-1087,-1.11657,-1.11657,-99.7089,-10,0.496
0.0372241,0.0373117,0.2436,0.0872552,0.00531347,0.00202675,0.0520066,0.133133,-35,-1076,-1.14965,-1.14965,-100.295,-10,0.5
0.0372455,0.037322,0.243808,0.0877986,0.00539428,0.00221489,0.0520369,0.134044,-34,-1064,-1.1813,-1.1813,-100.866,-10,0.504
0.0372673,0.0373331,0.244017,0.0883348,0.00547563,0.00239791,0.0520674,0.134046,-34,-1060,-1.21201,-1.21201,-101.423,-10,0.508
0.0372893,0.0373448,0.244225,0.0888866,0.00555751,0.0025775,0.0520981,0.135343,-33,-1045,-1.24184,-1.24184,-101.974,-10,0.512
0.0373117,0.0373562,0.244433,0.0894089,0.00563993,0.00266843,0.052129,0.133761,-33,-1057,-1.27086,-1.27086,-102.507,-10,0.516
0.0373345,0.0373694,0.244642,0.089941,0.00572288,0.00287301,0.0521601,0.133512,-32,-1056,-1.29984,-1.29984,-103.05,-10,0.52
0.0373575,0.0373839,0.244851,0.0904782,0.00580636,0.00312456,0.0521913,0.133778,-31,-1050,-1.32769,-1.32769,-103.589,-10,0.524
0.0373809,0.0373987,0.24506,0.0910113,0.00589036,0.00332105,0.0522228,0.13361,-30,-1048,-1.354,-1.354,-104.119,-10,0.528
0.0374047,0.0374156,0.245269,0.09155,0.0059749,0.00362479,0.0522545,0.133958,-28,-1042,-1.37921,-1.37921,-104.646,-10,0.532
0.0374287,0.0374329,0.245478,0.0920768,0.00605996,0.00385607,0.0522863,0.133212,-27,-1046,-1.40237,-1.40237,-105.164,-10,0.536
0.0374531,0.0374502,0.245687,0.0926047,0.00614555,0.00401026,0.0523184,0.1328,-26,-1046,-1.4242,-1.4242,-105.683,-10,0.54
0.0374779,0.0374651,0.245896,0.093133,0.00623166,0.00391152,0.0523506,0.132555,-28,-1045,-1.4456,-1.4456,-106.201,-10,0.544
0.037503,0.0374796,0.246106,0.0936581,0.00631829,0.0038169,0.0523831,0.132132,-30,-1046,-1.46895,-1.46895,-106.716,-10,0.548
0.0375284,0.0374927,0.246315,0.0941646,0.00640544,0.00363865,0.0524157,0.130296,-33,-1061,-1.49428,-1.49428,-107.231,-10,0.552
0.0375542,0.0375075,0.246525,0.0946684,0.00649311,0.00366378,0.0524485,0.128841,-34,-1072,-1.52224,-1.52224,-107.758,-10,0.556
0.0375804,0.0375217,0.246735,0.0951666,0.00658129,0.00362295,0.0524815,0.12741,-35,-1083,-1.55099,-1.55099,-108.294,-10,0.56
0.0376069,0.0375366,0.246945,0.0956758,0.00666999,0.00365331,0.0525147,0.127378,-36,-1080,-1.58111,-1.58111,-108.839,-10,0.564
0.0376337,0.0375521,0.247155,0.0961699,0.0067592,0.00373113,0.052548,0.12609,-36,-1090,-1.61191,-1.61191,-109.378,-10,0.568
0.037661,0.0375684,0.247365,0.0966498,0.00684892,0.00384059,0.0525816,0.12405,-36,-1107,-1.64292,-1.64292,-109.926,-10,0.572
0.0376885,0.037586,0.247576,0.0971497,0.00693915,0.00402873,0.0526153,0.124361,-36,-1101,-1.67381,-1.67381,-110.488,-10,0.576
0.0377165,0.037605,0.247786,0.0976548,0.00702989,0.00426932,0.0526493,0.125,-34,-1092,-1.70379,-1.70379,-111.041,-10,0.58
0.0377448,0.0376254,0.247997,0.0981606,0.00712114,0.00454488,0.0526834,0.125483,-33,-1084,-1.73237,-1.73237,-111.582,-10,0.584
0.0377734,0.0376478,0.248208,0.0986968,0.00721289,0.00490133,0.0527177,0.128339,-31,-1054,-1.75914,-1.75914,-112.111,-10,0.588
0.0378025,0.0376689,0.248419,0.0992067,0.00730515,0.0050238,0.0527521,0.128055,-30,-1053,-1.78351,-1.78351,-112.608,-10,0.592
0.0378319,0.0376907,0.24863,0.0997409,0.0073979,0.00516303,0.0527868,0.129881,-30,-1033,-1.80766,-1.80766,-113.102,-10,0.596
0.0378617,0.0377107,0.248841,0.100257,0.00749116,0.00511189,0.0528216,0.129601,-32,-1032,-1.83157,-1.83157,-113.573,-10,0.6
0.0378918,0.0377318,0.249052,0.100795,0.00758492,0.00516417,0.0528566,0.131199,-32,-1014,-1.85695,-1.85695,-114.041,-10,0.604
0.0379223,0.0377525,0.249264,0.101328,0.00767917,0.00517024,0.0528918,0.13189,-33,-1004,-1.88287,-1.88287,-114.487,-10,0.608
0.0379532,0.037775,0.249475,0.101861,0.00777392,0.00531824,0.0529272,0.132409,-33,-996,-1.90967,-1.90967,-114.922,-10,0.612
0.0379845,0.0377978,0.249687,0.102393,0.00786916,0.00544569,0.0529627,0.132553,-33,-991,-1.93606,-1.93606,-115.347,-10,0.616
0.0380162,0.0378226,0.249899,0.102931,0.00796489,0.00570341,0.0529985,0.133254,-32,-981,-1.96213,-1.96213,-115.765,-10,0.62
0.0380483,0.0378472,0.250111,0.103471,0.00806112,0.00584643,0.0530344,0.133836,-31,-972,-1.98674,-1.98674,-116.17,-10,0.624
0.0380807,0.0378707,0.250323,0.103978,0.00815783,0.0058554,0.0530704,0.131432,-32,-993,-2.01107,-2.01107,-116.567,-10,0.628
0.0381135,0.0378952,0.250536,0.104499,0.00825503,0.00594776,0.0531067,0.131009,-33,-994,-2.03631,-2.03631,-116.981,-10,0.632
0.0381467,0.0379194,0.250748,0.10501,0.00835272,0.00598054,0.0531431,0.129979,-34,-1001,-2.06172,-2.06172,-117.396,-10,0.636
0.0381803,0.0379443,0.250961,0.105523,0.00845089,0.00605997,0.0531797,0.129378,-34,-1003,-2.08786,-2.08786,-117.815,-10,0.64
0.0382143,0.0379691,0.251174,0.106019,0.00854955,0.00611293,0.0532165,0.127625,-35,-1018,-2.11429,-2.11429,-118.236,-10,0.644
0.0382487,0.0379961,0.251387,0.106516,0.00864868,0.00632098,0.0532535,0.126427,-34,-1026,-2.14116,-2.14116,-118.669,-10,0.648
0.0382835,0.038023,0.2516,0.107004,0.0087483,0.00645968,0.0532906,0.124995,-34,-1037,-2.16709,-2.16709,-119.11,-10,0.652
0.0383187,0.0380517,0.251813,0.107494,0.00884839,0.0066961,0.0533279,0.124156,-32,-1043,-2.19265,-2.19265,-119.56,-10,0.656
0.0383543,0.0380786,0.252026,0.107969,0.00894896,0.00670976,0.0533653,0.122329,-33,-1058,-2.21708,-2.21708,-120.014,-10,0.66
0.0383903,0.0381056,0.25224,0.108443,0.00905,0.00671886,0.053403,0.121083,-35,-1067,-2.24248,-2.24248,-120.481,-10,0.664
0.0384267,0.0381332,0.252453,0.108917,0.00915152,0.00678252,0.0534408,0.120223,-35,-1073,-2.26884,-2.26884,-120.956,-10,0.668
0.0384635,0.0381602,0.252667,0.109389,0.00925351,0.00676737,0.0534787,0.119448,-36,-1078,-2.29574,-2.29574,-121.435,-10,0.672
0.0385007,0.0381878,0.252881,0.109858,0.00935597,0.00681485,0.0535169,0.11873,-37,-1082,-2.32386,-2.32386,-121.916,-10,0.676
0.0385384,0.0382162,0.253095,0.110322,0.0094589,0.00690409,0.0535552,0.117848,-38,-1088,-2.35261,-2.35261,-122.4,-10,0.68
0.0385764,0.0382455,0.25331,0.110787,0.00956229,0.00704996,0.0535937,0.117289,-37,-1091,-2.38155,-2.38155,-122.888,-10,0.684
0.0386149,0.0382759,0.253524,0.111252,0.00966615,0.00723357,0.0536323,0.116917,-37,-1093,-2.41014,-2.41014,-123.377,-10,0.688
0.0386537,0.038306,0.253739,0.111716,0.00977048,0.00732719,0.0536711,0.116668,-37,-1093,-2.43809,-2.43809,-123.865,-10,0.692
0.038693,0.0383364,0.253954,0.112179,0.00987527,0.0074184,0.0537101,0.116301,-37,-1094,-2.46625,-2.46625,-124.351,-10,0.696
0.0387327,0.0383671,0.254168,0.112639,0.00998051,0.00750799,0.0537492,0.115941,-38,-1095,-2.49464,-2.49464,-124.836,-10,0.7
0.0387729,0.0383996,0.254384,0.113098,0.0100862,0.00771167,0.0537885,0.115528,-37,-1097,-2.52321,-2.52321,-125.32,-10,0.704
0.0388134,0.0384328,0.254599,0.113552,0.0101924,0.00790504,0.053828,0.11485,-36,-1101,-2.5509,-2.5509,-125.804,-10,0.708
0.0388544,0.0384663,0.254814,0.114002,0.010299,0.00806275,0.0538676,0.114053,-36,-1106,-2.57783,-2.57783,-126.29,-10,0.712
0.0388958,0.0384998,0.25503,0.114449,0.0104061,0.00816789,0.0539074,0.113291,-36,-1111,-2.60437,-2.60437,-126.779,-10,0.716
0.0389377,0.038533,0.255245,0.114894,0.0105136,0.00820919,0.0539473,0.11261,-37,-1116,-2.63106,-2.63106,-127.272,-10,0.72
0.0389799,0.0385654,0.255461,0.115335,0.0106216,0.00817914,0.0539874,0.111782,-39,-1122,-2.65855,-2.65855,-127.767,-10,0.724
0.0390226,0.0385983,0.255677,0.115778,0.01073,0.0081879,0.0540277,0.111489,-40,-1122,-2.68749,-2.68749,-128.266,-10,0.728
0.0390658,0.0386318,0.255894,0.116216,0.0108389,0.00825132,0.0540681,0.110833,-41,-1127,-2.71749,-2.71749,-128.764,-10,0.732
0.0391094,0.0386646,0.25611,0.11665,0.0109482,0.00823602,0.0541087,0.11005,-42,-1132,-2.7481,-2.7481,-129.263,-10,0.736
0.0391534,0.038696,0.256326,0.11708,0.011058,0.00811065,0.0541494,0.109182,-45,-1138,-2.78014,-2.78014,-129.767,-10,0.74
0.0391978,0.0387261,0.256543,0.11751,0.0111682,0.00791191,0.0541903,0.108604,-48,-1142,-2.81469,-2.81469,-130.274,-10,0.744
0.0392427,0.0387534,0.25676,0.11794,0.0112789,0.00754909,0.0542314,0.108219,-53,-1144,-2.85258,-2.85258,-130.783,-10,0.748
0.0392881,0.0387786,0.256977,0.118367,0.01139,0.00713446,0.0542726,0.107789,-58,-1146,-2.89538,-2.89538,-131.292,-10,0.752
0.0393338,0.0388011,0.257194,0.118787,0.0115015,0.00662772,0.054314,0.106869,-64,-1153,-2.94366,-2.94366,-131.8,-10,0.756
0.0393801,0.0388228,0.257411,0.11921,0.0116135,0.00623231,0.0543555,0.106457,-70,-1155,-2.99825,-2.99825,-132.314,-10,0.76
0.0394267,0.0388429,0.257629,0.119649,0.0117259,0.00582475,0.0543972,0.107536,-75,-1143,-3.05814,-3.05814,-132.826,-10,0.764
0.0394739,0.0388601,0.257847,0.120059,0.0118387,0.00532271,0.054439,0.105866,-82,-1157,-3.12352,-3.12352,-133.325,-10,0.768
0.0395215,0.0388747,0.258064,0.120476,0.011952,0.00475769,0.054481,0.105299,-89,-1161,-3.19537,-3.19537,-133.837,-10,0.772
0.0395695,0.0388868,0.258282,0.1209,0.0120657,0.00417948,0.0545231,0.105555,-96,-1156,-3.27429,-3.27429,-134.349,-10,0.776
0.039618,0.0388975,0.258501,0.121326,0.0121799,0.00367884,0.0545654,0.105898,-103,-1151,-3.36041,-3.36041,-134.854,-10,0.78
0.0396669,0.0389071,0.258719,0.121757,0.0122944,0.0032587,0.0546078,0.106501,-109,-1143,-3.45296,-3.45296,-135.351,-10,0.784
0.0397163,0.0389168,0.258938,0.122182,0.0124094,0.00297862,0.0546504,0.106413,-113,-1142,-3.55113,-3.55113,-135.839,-10,0.788
0.0397662,0.0389268,0.259156,0.122612,0.0125248,0.00282068,0.0546931,0.106816,-117,-1137,-3.65357,-3.65357,-136.323,-10,0.792
0.0398165,0.0389368,0.259375,0.123057,0.0126407,0.00271539,0.054736,0.108264,-120,-1121,-3.75911,-3.75911,-136.799,-10,0.796
0.0398673,0.0389479,0.259594,0.123497,0.0127569,0.00273157,0.054779,0.108827,-122,-1113,-3.8672,-3.8672,-137.256,-10,0.8
0.0399186,0.0389583,0.259813,0.123919,0.0128736,0.00268477,0.0548222,0.107763,-124,-1122,-3.97675,-3.97675,-137.705,-10,0.804
0.0399703,0.03897,0.260033,0.12436,0.0129907,0.00276874,0.0548655,0.108521,-125,-1112,-4.08828,-4.08828,-138.159,-10,0.808
0.0400225,0.0389814,0.260252,0.124809,0.0131083,0.00279593,0.054909,0.109776,-127,-1098,-4.20062,-4.20062,-138.601,-10,0.812
0.0400752,0.0389932,0.260472,0.125235,0.0132262,0.00284284,0.0549526,0.108712,-129,-1107,-4.31428,-4.31428,-139.029,-10,0.816
0.0401283,0.0390053,0.260692,0.125669,0.0133446,0.00290291,0.0549963,0.108636,-130,-1105,-4.42909,-4.42909,-139.462,-10,0.82
0.0401819,0.0390173,0.260912,0.126104,0.0134633,0.00294296,0.0550402,0.108643,-132,-1103,-4.54494,-4.54494,-139.892,-10,0.824
0.040236,0.0390298,0.261132,0.126551,0.0135825,0.00299844,0.0550843,0.109684,-133,-1091,-4.66201,-4.66201,-140.318,-10,0.828
0.0402906,0.0390419,0.261353,0.126981,0.0137021,0.00300665,0.0551285,0.108967,-135,-1096,-4.7802,-4.7802,-140.73,-10,0.832
0.0403457,0.0390519,0.261573,0.127401,0.0138221,0.00283937,0.0551728,0.107655,-139,-1107,-4.90007,-4.90007,-141.146,-10,0.836
0.0404012,0.0390598,0.261794,0.127825,0.0139425,0.0025551,0.0552173,0.107125,-144,-1110,-5.02336,-5.02336,-141.571,-10,0.84
0.0404572,0.0390668,0.262015,0.128249,0.0140633,0.00227922,0.0552619,0.106743,-149,-1112,-5.15116,-5.15116,-141.997,-10,0.844
0.0405137,0.0390719,0.262236,0.128681,0.0141845,0.00195134,0.0553066,0.10718,-154,-1106,-5.28345,-5.28345,-142.423,-10,0.848
0.0405707,0.0390761,0.262457,0.129101,0.0143061,0.00164639,0.0553515,0.106405,-159,-1112,-5.42072,-5.42072,-142.842,-10,0.852
0.0406281,0.0390792,0.262679,0.129528,0.0144282,0.00135671,0.0553966,0.10658,-164,-1108,-5.56277,-5.56277,-143.263,-10,0.856
0.0406861,0.0390813,0.262901,0.129959,0.0145506,0.00107722,0.0554417,0.106927,-170,-1103,-5.70947,-5.70947,-143.68,-10,0.86
0.0407445,0.039084,0.263122,0.130409,0.0146734,0.000948473,0.055487,0.108799,-173,-1083,-5.86065,-5.86065,-144.088,-10,0.864
0.0408035,0.0390868,0.263344,0.130813,0.0147966,0.000862643,0.0555325,0.106218,-176,-1106,-6.01489,-6.01489,-144.476,-10,0.868
0.0408629,0.0390899,0.263567,0.131241,0.0149202,0.000834214,0.0555781,0.106455,-179,-1102,-6.17177,-6.17177,-144.885,-10,0.872
0.0409228,0.0390937,0.263789,0.131669,0.0150442,0.000872843,0.0556238,0.106613,-181,-1099,-6.33072,-6.33072,-145.288,-10,0.876
0.0409833,0.0390989,0.264012,0.132094,0.0151686,0.00101376,0.0556696,0.106517,-182,-1098,-6.49105,-6.49105,-145.686,-10,0.88
0.0410442,0.0391048,0.264234,0.132521,0.0152934,0.00116528,0.0557156,0.106626,-183,-1095,-6.65182,-6.65182,-146.081,-10,0.884
0.0411056,0.0391113,0.264457,0.132945,0.0154186,0.00132388,0.0557617,0.106382,-184,-1096,-6.81293,-6.81293,-146.471,-10,0.888
0.0411675,0.0391193,0.264681,0.13337,0.0155441,0.00154478,0.055808,0.106363,-185,-1094,-6.97426,-6.97426,-146.861,-10,0.892
0.04123,0.0391272,0.264904,0.133797,0.0156701,0.00169205,0.0558544,0.106436,-186,-1092,-7.1353,-7.1353,-147.247,-10,0.896
0.0412929,0.0391355,0.265127,0.134227,0.0157964,0.00181901,0.0559009,0.106831,-187,-1086,-7.29673,-7.29673,-147.628,-10,0.9
0.0413563,0.0391455,0.265351,0.13466,0.0159231,0.00204761,0.0559475,0.107267,-187,-1080,-7.45868,-7.45868,-148.002,-10,0.904
0.0414203,0.0391559,0.265575,0.135093,0.0160502,0.0022288,0.0559943,0.107644,-188,-1075,-7.62025,-7.62025,-148.368,-10,0.908
0.0414847,0.0391673,0.265799,0.135525,0.0161777,0.00243597,0.0560412,0.107751,-188,-1072,-7.78185,-7.78185,-148.727,-10,0.912
0.0415497,0.0391797,0.266023,0.135952,0.0163056,0.00266045,0.0560883,0.10742,-189,-1073,-7.94323,-7.94323,-149.081,-10,0.916
0.0416152,0.0391929,0.266248,0.136376,0.0164338,0.00286769,0.0561354,0.106968,-189,-1076,-8.10425,-8.10425,-149.436,-10,0.92
0.0416812,0.0392084,0.266472,0.136799,0.0165624,0.00320738,0.0561827,0.106495,-188,-1079,-8.26497,-8.26497,-149.792,-10,0.924
0.0417477,0.039226,0.266697,0.137216,0.0166914,0.00360659,0.0562302,0.105805,-187,-1084,-8.42411,-8.42411,-150.149,-10,0.928
0.0418147,0.0392468,0.266922,0.137647,0.0168208,0.00413185,0.0562777,0.106468,-184,-1075,-8.58105,-8.58105,-150.509,-10,0.932
0.0418823,0.0392689,0.267147,0.138055,0.0169505,0.00459719,0.0563254,0.10498,-182,-1088,-8.73462,-8.73462,-150.86,-10,0.936
0.0419503,0.0392948,0.267373,0.138477,0.0170806,0.00522411,0.0563732,0.105141,-179,-1085,-8.88528,-8.88528,-151.222,-10,0.94
0.0420189,0.0393235,0.267598,0.138896,0.0172111,0.00587239,0.0564211,0.104988,-175,-1085,-9.0315,-9.0315,-151.579,-10,0.944
0.042088,0.0393577,0.267824,0.139331,0.0173419,0.00676523,0.0564692,0.10624,-169,-1071,-9.17288,-9.17288,-151.934,-10,0.948
0.0421576,0.0393946,0.26805,0.139746,0.0174731,0.00759078,0.0565174,0.105433,-163,-1077,-9.30718,-9.30718,-152.274,-10,0.952
0.0422278,0.0394385,0.268276,0.140172,0.0176047,0.00871697,0.0565657,0.105788,-154,-1072,-9.4348,-9.4348,-152.618,-10,0.956
0.0422985,0.0394869,0.268503,0.1406,0.0177366,0.00984204,0.0566141,0.10614,-146,-1067,-9.55292,-9.55292,-152.955,-10,0.96
0.0423697,0.0395387,0.268729,0.141023,0.0178689,0.01088,0.0566627,0.106029,-138,-1066,-9.66157,-9.66157,-153.285,-10,0.964
0.0424414,0.039594,0.268956,0.141443,0.0180015,0.0118599,0.0567113,0.105724,-130,-1067,-9.76155,-9.76155,-153.614,-10,0.968
0.0425137,0.0396527,0.269183,0.141859,0.0181345,0.012801,0.0567601,0.105118,-123,-1071,-9.8534,-9.8534,-153.943,-10,0.972
0.0425865,0.0397149,0.26941,0.142274,0.0182679,0.0137164,0.056809,0.104657,-116,-1074,-9.93746,-9.93746,-154.274,-10,0.976
0.0426598,0.039783,0.269637,0.1427,0.0184016,0.0148161,0.0568581,0.105242,-107,-1067,-10.0138,-10,-154.606,-10,0.98
0.0427337,0.0398521,0.269865,0.143105,0.0185357,0.0156356,0.0569072,0.103933,-101,-1078,-10.0809,-10,-154.931,-10,0.984
0.0428081,0.0399229,0.270093,0.143507,0.0186701,0.0163259,0.0569565,0.102772,-96,-1088,-10.141,-10,-155.265,-10,0.988
0.0428831,0.0399978,0.270321,0.143913,0.0188049,0.0171315,0.0570059,0.102402,-89,-1090,-10.1954,-10,-155.608,-10,0.992
0.0429586,0.0400766,0.270549,0.144323,0.01894,0.0179854,0.0570554,0.102414,-82,-1088,-10.2429,-10,-155.951,-10,0.996
0.0430346,0.0401554,0.270777,0.14472,0.0190755,0.0185546,0.057105,0.101386,-78,-1097,-10.2832,-10,-156.291,-10,1
0.0431112,0.0402355,0.271006,0.145115,0.0192113,0.0190492,0.0571547,0.10047,-75,-1104,-10.3192,-10,-156.639,-10,1.004
0.0431883,0.0403174,0.271234,0.145515,0.0193475,0.0195229,0.0572046,0.100348,-72,-1104,-10.3514,-10,-156.992,-10,1.008
0.043266,0.0403997,0.271463,0.14591,0.019484,0.0198675,0.0572546,0.0997494,-70,-1108,-10.3802,-10,-157.343,-10,1.012
0.0433442,0.040485,0.271692,0.146304,0.0196208,0.0203564,0.0573046,0.09935,-66,-1111,-10.4067,-10,-157.698,-10,1.016
0.0434229,0.0405714,0.271922,0.146691,0.019758,0.0207686,0.0573548,0.098508,-64,-1118,-10.4296,-10,-158.054,-10,1.02
0.0435022,0.0406581,0.272151,0.147076,0.0198956,0.0210723,0.0574051,0.0977163,-62,-1124,-10.4497,-10,-158.415,-10,1.024
0.0435821,0.0407462,0.272381,0.147466,0.0200334,0.0213899,0.0574556,0.0977067,-60,-1123,-10.4679,-10,-158.781,-10,1.028
0.0436625,0.0408326,0.272611,0.147842,0.0201717,0.0214576,0.0575061,0.0964623,-61,-1134,-10.4844,-10,-159.145,-10,1.032
0.0437435,0.0409272,0.272841,0.148237,0.0203102,0.0221938,0.0575568,0.0971875,-55,-1125,-10.501,-10,-159.517,-10,1.036
0.043825,0.0410174,0.273071,0.148616,0.0204491,0.0223103,0.0576075,0.0964329,-55,-1131,-10.5119,-10,-159.88,-10,1.04
0.0439071,0.0411083,0.273302,0.149002,0.0205883,0.0224456,0.0576584,0.096448,-55,-1130,-10.5228,-10,-160.247,-10,1.044
0.0439897,0.0412019,0.273532,0.14939,0.0207278,0.022766,0.0577093,0.0966021,-53,-1127,-10.5336,-10,-160.611,-10,1.048
0.0440729,0.0412983,0.273763,0.149787,0.0208677,0.02321,0.0577604,0.0974822,-50,-1118,-10.5423,-10,-160.97,-10,1.052
0.0441566,0.0413923,0.273995,0.150175,0.0210079,0.0233045,0.0578116,0.0973491,-50,-1118,-10.548,-10,-161.318,-10,1.056
0.0442409,0.041489,0.274226,0.150569,0.0211484,0.0235978,0.0578629,0.0976923,-49,-1113,-10.554,-10,-161.664,-10,1.06
0.0443258,0.0415864,0.274457,0.15096,0.0212893,0.0238509,0.0579143,0.0976907,-48,-1112,-10.5583,-10,-162.005,-10,1.064
0.0444113,0.0416838,0.274689,0.151347,0.0214304,0.0240196,0.0579659,0.0974018,-47,-1113,-10.5614,-10,-162.342,-10,1.068
0.0444973,0.0417813,0.274921,0.151737,0.0215719,0.0241321,0.0580175,0.0974395,-47,-1112,-10.5641,-10,-162.68,-10,1.072
0.0445838,0.0418784,0.275153,0.152123,0.0217137,0.0241783,0.0580692,0.0971479,-48,-1113,-10.567,-10,-163.014,-10,1.076
0.044671,0.0419792,0.275386,0.152515,0.0218559,0.0245258,0.058121,0.097443,-46,-1109,-10.5705,-10,-163.349,-10,1.08
0.0447587,0.0420777,0.275618,0.1529,0.0219983,0.024556,0.058173,0.0970351,-47,-1112,-10.5721,-10,-163.678,-10,1.084
0.044847,0.0421769,0.275851,0.153294,0.0221411,0.0246336,0.058225,0.0975117,-48,-1106,-10.5745,-10,-164.008,-10,1.088
0.0449358,0.0422771,0.276084,0.153689,0.0222842,0.0247718,0.0582771,0.0979158,-47,-1101,-10.5775,-10,-164.33,-10,1.092
0.0450252,0.0423786,0.276317,0.154086,0.0224276,0.0249791,0.0583294,0.098358,-47,-1095,-10.5803,-10,-164.646,-10,1.096
0.0451152,0.0424819,0.276551,0.154501,0.0225713,0.0252612,0.0583817,0.100121,-45,-1077,-10.5823,-10,-164.953,-10,1.1
0.0452058,0.0425811,0.276784,0.154897,0.0227153,0.0251038,0.0584342,0.0998282,-48,-1078,-10.583,-10,-165.242,-10,1.104
0.045297,0.0426823,0.277018,0.155304,0.0228596,0.0251716,0.0584867,0.100468,-49,-1071,-10.5865,-10,-165.53,-10,1.108
0.0453887,0.0427839,0.277252,0.15571,0.0230043,0.0252456,0.0585394,0.100779,-49,-1067,-10.5906,-10,-165.81,-10,1.112
0.045481,0.0428858,0.277487,0.156118,0.0231492,0.0253237,0.0585921,0.101217,-50,-1061,-10.5952,-10,-166.083,-10,1.116
0.0455739,0.0429908,0.277721,0.156531,0.0232945,0.0256349,0.058645,0.101854,-48,-1053,-10.6002,-10,-166.35,-10,1.12
0.0456673,0.0430955,0.277956,0.156938,0.02344,0.0258136,0.0586979,0.10179,-48,-1053,-10.6036,-10,-166.608,-10,1.124
0.0457614,0.0431988,0.278191,0.157339,0.0235859,0.0258176,0.0587509,0.101344,-49,-1056,-10.6065,-10,-166.864,-10,1.128
0.045856,0.0433028,0.278426,0.15773,0.023732,0.0258778,0.0588041,0.100125,-50,-1066,-10.6107,-10,-167.123,-10,1.132
0.0459512,0.0434092,0.278661,0.158122,0.0238785,0.0261195,0.0588573,0.0994277,-49,-1072,-10.6155,-10,-167.391,-10,1.136
0.0460471,0.0435153,0.278897,0.158512,0.0240253,0.0262518,0.0589107,0.0987325,-49,-1077,-10.6193,-10,-167.663,-10,1.14
0.0461435,0.0436269,0.279132,0.158923,0.0241723,0.0268007,0.0589641,0.100083,-45,-1063,-10.6228,-10,-167.939,-10,1.144
0.0462404,0.0437354,0.279368,0.159311,0.0243197,0.0269075,0.0590176,0.0990541,-45,-1071,-10.6225,-10,-168.2,-10,1.148
0.046338,0.0438404,0.279604,0.159689,0.0244673,0.0266907,0.0590712,0.0975621,-48,-1085,-10.6227,-10,-168.47,-10,1.152
0.0464362,0.0439478,0.279841,0.160078,0.0246152,0.0267478,0.0591249,0.09746,-49,-1084,-10.6262,-10,-168.751,-10,1.156
0.0465349,0.0440581,0.280077,0.160467,0.0247635,0.0270162,0.0591787,0.0973919,-48,-1084,-10.6303,-10,-169.03,-10,1.16
0.0466343,0.0441672,0.280314,0.160856,0.024912,0.0271087,0.0592326,0.0973465,-48,-1083,-10.6332,-10,-169.308,-10,1.164
0.0467342,0.0442802,0.280551,0.161254,0.0250608,0.0274871,0.0592866,0.0980648,-46,-1075,-10.6363,-10,-169.583,-10,1.168
0.0468348,0.0443897,0.280789,0.161636,0.0252099,0.0274515,0.0593407,0.0971905,-47,-1082,-10.6374,-10,-169.85,-10,1.172
0.0469359,0.0445031,0.281026,0.162027,0.0253593,0.0277444,0.0593948,0.097385,-46,-1079,-10.6398,-10,-170.122,-10,1.176
0.0470376,0.0446146,0.281264,0.162421,0.0255089,0.0277957,0.0594491,0.0977162,-47,-1075,-10.641,-10,-170.39,-10,1.18
0.04714,0.0447266,0.281502,0.162807,0.0256589,0.0278587,0.0595035,0.09739,-48,-1077,-10.6429,-10,-170.653,-10,1.184
0.0472429,0.0448441,0.28174,0.163207,0.0258091,0.0283614,0.0595579,0.0982377,-44,-1068,-10.6453,-10,-170.916,-10,1.188
0.0473465,0.0449536,0.281978,0.163584,0.0259596,0.0280343,0.0596124,0.0969027,-48,-1079,-10.6446,-10,-171.169,-10,1.192
0.0474506,0.0450672,0.282217,0.163974,0.0261104,0.0281618,0.059667,0.097078,-49,-1077,-10.6482,-10,-171.433,-10,1.196
0.0475553,0.0451864,0.282455,0.164374,0.0262615,0.0287074,0.0597217,0.0980298,-45,-1066,-10.6517,-10,-171.692,-10,1.2
0.0476607,0.0452977,0.282694,0.16475,0.0264128,0.0284089,0.0597765,0.0967065,-49,-1078,-10.6516,-10,-171.94,-10,1.204
0.0477666,0.0454127,0.282934,0.165134,0.0265644,0.0285267,0.0598314,0.0964865,-49,-1079,-10.6556,-10,-172.199,-10,1.208
0.0478732,0.0455312,0.283173,0.165519,0.0267163,0.0288931,0.0598863,0.0963974,-47,-1079,-10.6597,-10,-172.458,-10,1.212
0.0479804,0.0456494,0.283413,0.165903,0.0268685,0.0291085,0.0599414,0.0963092,-46,-1079,-10.6616,-10,-172.715,-10,1.216
0.0480881,0.0457627,0.283653,0.166264,0.0270209,0.0288491,0.0599965,0.0942927,-50,-1097,-10.6631,-10,-172.972,-10,1.22
0.0481965,0.0458816,0.283893,0.166639,0.0271736,0.0291368,0.0600517,0.0940999,-49,-1098,-10.6682,-10,-173.246,-10,1.224
0.0483055,0.0459997,0.284133,0.167012,0.0273266,0.029271,0.060107,0.0937987,-49,-1100,-10.6719,-10,-173.52,-10,1.228
0.0484151,0.04612,0.284374,0.167391,0.0274798,0.0295333,0.0601624,0.0941449,-48,-1096,-10.6756,-10,-173.795,-10,1.232
0.0485254,0.0462402,0.284614,0.167769,0.0276333,0.0297081,0.0602179,0.0942317,-47,-1094,-10.6782,-10,-174.064,-10,1.236
0.0486362,0.0463608,0.284855,0.168156,0.0277871,0.0298534,0.0602734,0.0950382,-47,-1085,-10.6804,-10,-174.329,-10,1.24
0.0487477,0.046482,0.285097,0.168544,0.0279411,0.0300079,0.060329,0.0957198,-47,-1077,-10.6826,-10,-174.584,-10,1.244
0.0488597,0.0466085,0.285338,0.168942,0.0280954,0.0305427,0.0603847,0.0969516,-43,-1064,-10.6845,-10,-174.83,-10,1.248
0.0489724,0.046727,0.28558,0.169321,0.0282499,0.0302371,0.0604405,0.0962468,-48,-1070,-10.683,-10,-175.062,-10,1.252
0.0490857,0.0468496,0.285821,0.169709,0.0284047,0.0303789,0.0604964,0.0964967,-48,-1067,-10.6856,-10,-175.299,-10,1.256
0.0491997,0.0469744,0.286064,0.1701,0.0285598,0.0306461,0.0605523,0.0968937,-47,-1062,-10.6882,-10,-175.531,-10,1.26
0.0493142,0.047098,0.286306,0.170491,0.0287151,0.0307379,0.0606083,0.0971871,-47,-1058,-10.6896,-10,-175.757,-10,1.264
0.0494294,0.0472235,0.286548,0.170879,0.0288707,0.030943,0.0606644,0.0971524,-46,-1057,-10.6915,-10,-175.978,-10,1.268
0.0495452,0.0473502,0.286791,0.171267,0.0290265,0.031195,0.0607206,0.0970717,-45,-1057,-10.6928,-10,-176.198,-10,1.272
0.0496616,0.0474757,0.287034,0.171657,0.0291826,0.0312477,0.0607768,0.0971906,-46,-1055,-10.6931,-10,-176.416,-10,1.276
0.0497787,0.0476018,0.287277,0.172038,0.0293389,0.0313405,0.0608332,0.0965501,-47,-1060,-10.6943,-10,-176.631,-10,1.28
0.0498963,0.047732,0.287521,0.172431,0.0294955,0.0317479,0.0608896,0.0971596,-44,-1053,-10.6958,-10,-176.85,-10,1.284
0.0500146,0.0478543,0.287765,0.172805,0.0296523,0.0313572,0.060946,0.0959537,-49,-1064,-10.6953,-10,-177.062,-10,1.288
0.0501335,0.0479842,0.288008,0.173196,0.0298094,0.0317302,0.0610026,0.0965028,-47,-1057,-10.6995,-10,-177.283,-10,1.292
0.0502531,0.0481117,0.288253,0.173579,0.0299667,0.0317773,0.0610592,0.0962356,-48,-1059,-10.7017,-10,-177.497,-10,1.296
0.0503733,0.0482395,0.288497,0.173962,0.0301242,0.0318375,0.0611159,0.0961438,-49,-1059,-10.7048,-10,-177.711,-10,1.3
0.0504941,0.0483694,0.288741,0.174347,0.030282,0.0320504,0.0611727,0.0961689,-48,-1057,-10.7088,-10,-177.925,-10,1.304
0.0506155,0.0484983,0.288986,0.17473,0.0304401,0.032106,0.0612295,0.0959842,-49,-1058,-10.7121,-10,-178.136,-10,1.308
0.0507376,0.0486299,0.289231,0.175116,0.0305984,0.0323733,0.0612864,0.0961489,-48,-1056,-10.7162,-10,-178.347,-10,1.312
0.0508603,0.0487612,0.289477,0.175498,0.0307569,0.0325228,0.0613434,0.095942,-48,-1057,-10.7192,-10,-178.555,-10,1.316
0.0509837,0.0488908,0.289722,0.175882,0.0309156,0.0324784,0.0614004,0.0960057,-50,-1055,-10.7224,-10,-178.762,-10,1.32
0.0511076,0.0490231,0.289968,0.176261,0.0310746,0.0326792,0.0614576,0.0955586,-50,-1058,-10.7272,-10,-178.967,-10,1.324
0.0512323,0.0491572,0.290214,0.176643,0.0312339,0.032957,0.0615148,0.0955773,-48,-1057,-10.7315,-10,-179.175,-10,1.328
0.0513575,0.0492909,0.29046,0.177024,0.0313933,0.0331134,0.061572,0.095417,-48,-1058,-10.7346,-10,-179.381,-10,1.332
0.0514834,0.0494222,0.290706,0.177384,0.031553,0.0330162,0.0616293,0.0936115,-51,-1075,-10.7377,-10,-179.587,-10,1.336
0.0516099,0.0495555,0.290953,0.17775,0.0317129,0.0331241,0.0616867,0.092926,-51,-1080,-10.7432,-10,-179.809,-10,1.34
0.0517371,0.0496889,0.2912,0.178114,0.0318731,0.033196,0.0617442,0.0923251,-52,-1085,-10.749,-10,-180.036,-10,1.344
0.0518649,0.0498253,0.291447,0.178487,0.0320335,0.0335031,0.0618017,0.0925579,-50,-1082,-10.7555,-10,-180.267,-10,1.348
0.0519934,0.0499597,0.291694,0.178852,0.0321941,0.0335351,0.0618593,0.0921373,-51,-1086,-10.7606,-10,-180.494,-10,1.352
0.0521225,0.0500962,0.291942,0.179212,0.0323549,0.0337291,0.061917,0.091425,-51,-1092,-10.7668,-10,-180.724,-10,1.356
0.0522522,0.0502337,0.29219,0.179573,0.0325159,0.0339449,0.0619747,0.0910653,-50,-1094,-10.7725,-10,-180.958,-10,1.36
0.0523826,0.0503719,0.292438,0.17994,0.0326772,0.0341463,0.0620325,0.091315,-50,-1091,-10.7776,-10,-181.194,-10,1.364
0.0525136,0.0505146,0.292686,0.180315,0.0328387,0.0346548,0.0620903,0.0921148,-47,-1083,-10.782,-10,-181.426,-10,1.368
0.0526453,0.0506469,0.292934,0.180667,0.0330004,0.0341302,0.0621482,0.0906902,-53,-1096,-10.7836,-10,-181.649,-10,1.372
0.0527776,0.0507872,0.293183,0.18103,0.0331623,0.0344425,0.0622062,0.090777,-52,-1094,-10.7912,-10,-181.884,-10,1.376
0.0529106,0.0509282,0.293432,0.181395,0.0333245,0.0347084,0.0622643,0.0909212,-51,-1092,-10.7973,-10,-182.116,-10,1.38
0.0530442,0.051066,0.293681,0.181755,0.0334869,0.0346265,0.0623224,0.0906143,-53,-1095,-10.8025,-10,-182.345,-10,1.384
0.0531785,0.0512073,0.293931,0.182119,0.0336494,0.0348598,0.0623805,0.0907552,-52,-1092,-10.8098,-10,-182.575,-10,1.388
0.0533134,0.0513479,0.29418,0.18248,0.0338122,0.0349578,0.0624387,0.0905612,-53,-1094,-10.8164,-10,-182.802,-10,1.392
0.053449,0.0514934,0.29443,0.182847,0.0339752,0.0354262,0.062497,0.0909789,-50,-1089,-10.8233,-10,-183.029,-10,1.396
0.0535852,0.051634,0.29468,0.183204,0.0341385,0.0353354,0.0625554,0.0903648,-52,-1094,-10.8274,-10,-183.251,-10,1.4
0.0537221,0.0517767,0.29493,0.183567,0.0343019,0.0354476,0.0626138,0.0905313,-52,-1092,-10.8338,-10,-183.477,-10,1.404
0.0538596,0.0519225,0.295181,0.183932,0.0344655,0.0357815,0.0626722,0.0906998,-51,-1090,-10.8405,-10,-183.699,-10,1.408
0.0539978,0.0520665,0.295432,0.1843,0.0346294,0.0358601,0.0627307,0.0911577,-51,-1084,-10.8455,-10,-183.918,-10,1.412
0.0541367,0.052211,0.295683,0.184663,0.0347934,0.0359414,0.0627893,0.0910022,-52,-1085,-10.8513,-10,-184.131,-10,1.416
0.0542762,0.0523574,0.295934,0.185032,0.0349576,0.0361683,0.0628479,0.0914745,-51,-1080,-10.8577,-10,-184.344,-10,1.42
0.0544163,0.0525022,0.296186,0.185395,0.0351221,0.0361756,0.0629066,0.0912422,-53,-1082,-10.8636,-10,-184.55,-10,1.424
0.0545572,0.0526487,0.296437,0.185755,0.0352867,0.0363244,0.0629654,0.0907707,-53,-1086,-10.8707,-10,-184.758,-10,1.428
0.0546986,0.0527945,0.296689,0.186114,0.0354516,0.036366,0.0630242,0.0904852,-54,-1088,-10.8781,-10,-184.968,-10,1.432
0.0548408,0.0529441,0.296942,0.186476,0.0356167,0.0367105,0.063083,0.0904387,-52,-1087,-10.8863,-10,-185.18,-10,1.436
0.0549836,0.0530923,0.297194,0.186838,0.0357819,0.036825,0.0631419,0.0904654,-53,-1087,-10.8928,-10,-185.39,-10,1.44
0.055127,0.0532436,0.297447,0.187204,0.0359473,0.0371604,0.0632009,0.0908574,-51,-1082,-10.8996,-10,-185.598,-10,1.444
0.0552711,0.0533915,0.2977,0.187557,0.036113,0.0370961,0.0632599,0.0899384,-53,-1090,-10.9049,-10,-185.802,-10,1.448
0.0554159,0.0535397,0.297953,0.187912,0.0362788,0.0370821,0.0633189,0.0895848,-55,-1093,-10.9123,-10,-186.013,-10,1.452
0.0555614,0.0536931,0.298206,0.188267,0.0364448,0.0375045,0.0633781,0.0892915,-52,-1095,-10.921,-10,-186.226,-10,1.456
0.0557075,0.0538455,0.29846,0.188626,0.0366111,0.0376998,0.0634372,0.0894126,-52,-1094,-10.9274,-10,-186.44,-10,1.46
0.0558543,0.0539978,0.298714,0.188982,0.0367775,0.03783,0.0634964,0.0892631,-52,-1095,-10.9334,-10,-186.652,-10,1.464
0.0560017,0.0541499,0.298968,0.189343,0.0369441,0.037888,0.0635557,0.089624,-53,-1091,-10.9397,-10,-186.863,-10,1.468
0.0561498,0.0543036,0.299222,0.189706,0.0371109,0.0380706,0.063615,0.0899798,-53,-1086,-10.9469,-10,-187.069,-10,1.472
0.0562986,0.0544591,0.299477,0.190072,0.0372778,0.0383363,0.0636744,0.0905337,-52,-1080,-10.9537,-10,-187.27,-10,1.476
0.056448,0.0546156,0.299732,0.190441,0.037445,0.0385999,0.0637338,0.0911045,-51,-1074,-10.9596,-10,-187.463,-10,1.48
0.0565982,0.054771,0.299987,0.190803,0.0376123,0.0386891,0.0637933,0.0908804,-52,-1076,-10.9645,-10,-187.65,-10,1.484
0.0567489,0.0549244,0.300242,0.191164,0.0377798,0.0385759,0.0638528,0.0907023,-54,-1077,-10.9702,-10,-187.838,-10,1.488
0.0569004,0.0550827,0.300497,0.191528,0.0379475,0.0389035,0.0639123,0.0907562,-53,-1076,-10.9783,-10,-188.026,-10,1.492
0.0570525,0.0552402,0.300753,0.191893,0.0381154,0.0390644,0.0639719,0.0909362,-53,-1073,-10.9848,-10,-188.212,-10,1.496
0.0572053,0.0554019,0.301009,0.192265,0.0382835,0.0395171,0.0640316,0.0916319,-50,-1066,-10.9911,-10,-188.394,-10,1.5
0.0573588,0.055556,0.301265,0.192622,0.0384517,0.0391855,0.0640913,0.0908578,-55,-1073,-10.9951,-10,-188.569,-10,1.504
0.0575129,0.0557149,0.301522,0.19298,0.0386201,0.0393675,0.064151,0.0903417,-54,-1077,-11.0035,-10,-188.75,-10,1.508
0.0576678,0.0558759,0.301779,0.193338,0.0387887,0.0396615,0.0642108,0.0900552,-53,-1080,-11.0116,-10,-188.935,-10,1.512
0.0578232,0.0560393,0.302036,0.193699,0.0389575,0.0400591,0.0642706,0.0901809,-51,-1078,-11.0183,-10,-189.12,-10,1.516
0.0579794,0.0561976,0.302293,0.194043,0.0391264,0.0398923,0.0643305,0.0887388,-54,-1091,-11.0231,-10,-189.304,-10,1.52
0.0581363,0.0563579,0.30255,0.19439,0.0392955,0.0399539,0.0643904,0.0881228,-55,-1097,-11.0309,-10,-189.501,-10,1.524
0.0582938,0.056522,0.302808,0.194734,0.0394648,0.0403116,0.0644503,0.0873955,-53,-1103,-11.0395,-10,-189.703,-10,1.528
0.058452,0.0566896,0.303066,0.195088,0.0396342,0.040838,0.0645103,0.0877744,-50,-1099,-11.0461,-10,-189.91,-10,1.532
0.0586109,0.0568485,0.303324,0.195424,0.0398038,0.0404692,0.0645704,0.0864722,-55,-1111,-11.0496,-10,-190.113,-10,1.536
0.0587704,0.0570116,0.303582,0.195769,0.0399736,0.0405688,0.0646304,0.0864391,-55,-1111,-11.058,-10,-190.326,-10,1.54
0.0589306,0.0571767,0.303841,0.196114,0.0401435,0.0408079,0.0646906,0.0863306,-55,-1112,-11.067,-10,-190.539,-10,1.544
0.0590916,0.0573446,0.3041,0.196468,0.0403136,0.0411977,0.0647507,0.0870644,-53,-1105,-11.0751,-10,-190.751,-10,1.548
0.0592531,0.0575073,0.304359,0.196811,0.0404839,0.0410256,0.0648109,0.0866899,-56,-1108,-11.0813,-10,-190.955,-10,1.552
0.0594154,0.0576735,0.304618,0.197163,0.0406543,0.0411989,0.0648711,0.0871312,-56,-1103,-11.0905,-10,-191.161,-10,1.556
0.0595784,0.0578387,0.304878,0.197517,0.0408249,0.041228,0.0649314,0.0875406,-57,-1099,-11.0998,-10,-191.361,-10,1.56
0.059742,0.0580062,0.305138,0.197874,0.0409956,0.0414489,0.0649917,0.088159,-56,-1092,-11.1102,-10,-191.556,-10,1.564
0.0599063,0.0581724,0.305398,0.198233,0.0411665,0.041481,0.0650521,0.0886577,-58,-1087,-11.1201,-10,-191.743,-10,1.568
0.0600714,0.0583396,0.305658,0.198592,0.0413376,0.0415888,0.0651125,0.0890189,-58,-1083,-11.1313,-10,-191.924,-10,1.572
0.0602371,0.0585086,0.305919,0.19895,0.0415088,0.0418047,0.0651729,0.0891733,-58,-1081,-11.143,-10,-192.1,-10,1.576
0.0604034,0.0586789,0.30618,0.199307,0.0416801,0.0420637,0.0652333,0.0891611,-57,-1081,-11.154,-10,-192.274,-10,1.58
0.0605705,0.0588475,0.306441,0.199664,0.0418517,0.0420924,0.0652938,0.0892106,-58,-1080,-11.1643,-10,-192.446,-10,1.584
0.0607382,0.0590192,0.306702,0.200021,0.0420233,0.0423707,0.0653544,0.0892147,-57,-1079,-11.1758,-10,-192.617,-10,1.588
0.0609067,0.0591892,0.306964,0.200382,0.0421951,0.0424123,0.0654149,0.0895918,-58,-1075,-11.1863,-10,-192.786,-10,1.592
0.0610758,0.059364,0.307225,0.200745,0.0423671,0.0428431,0.0654755,0.0899871,-56,-1071,-11.1977,-10,-192.95,-10,1.596
0.0612456,0.0595357,0.307487,0.201107,0.0425392,0.0428711,0.0655361,0.0901643,-57,-1069,-11.2068,-10,-193.109,-10,1.6
0.0614161,0.0597078,0.30775,0.201465,0.0427115,0.0429186,0.0655968,0.0899081,-58,-1071,-11.2171,-10,-193.265,-10,1.604
0.0615873,0.0598812,0.308012,0.201824,0.0428839,0.0430655,0.0656575,0.0898525,-59,-1071,-11.2286,-10,-193.423,-10,1.608
0.0617592,0.0600612,0.308275,0.202189,0.0430564,0.0437104,0.0657182,0.0903337,-54,-1065,-11.2399,-10,-193.579,-10,1.612
0.0619318,0.060236,0.308538,0.202549,0.0432291,0.0437085,0.0657789,0.0902226,-56,-1066,-11.2469,-10,-193.73,-10,1.616
0.062105,0.060407,0.308801,0.202896,0.0434019,0.0433905,0.0658397,0.0890257,-60,-1077,-11.2558,-10,-193.882,-10,1.62
0.062279,0.0605812,0.309065,0.203253,0.0435749,0.0434376,0.0659005,0.0891203,-62,-1076,-11.2691,-10,-194.044,-10,1.624
0.0624536,0.0607598,0.309328,0.203609,0.043748,0.0438433,0.0659614,0.0891258,-59,-1075,-11.2833,-10,-194.203,-10,1.628
0.062629,0.0609353,0.309592,0.203962,0.0439212,0.0438547,0.0660223,0.0887839,-61,-1078,-11.2955,-10,-194.362,-10,1.632
0.062805,0.0611139,0.309857,0.204317,0.0440946,0.0441214,0.0660832,0.0887576,-60,-1078,-11.309,-10,-194.522,-10,1.636
0.0629817,0.0612915,0.310121,0.204669,0.0442681,0.0442128,0.0661441,0.0885384,-61,-1080,-11.3216,-10,-194.682,-10,1.64
0.0631591,0.0614788,0.310386,0.205032,0.0444418,0.0450799,0.066205,0.0892849,-54,-1072,-11.3344,-10,-194.843,-10,1.644
0.0633372,0.061657,0.310651,0.205385,0.0446156,0.0449094,0.066266,0.0889188,-57,-1075,-11.3411,-10,-194.995,-10,1.648
0.0635161,0.0618343,0.310916,0.205731,0.0447895,0.0447093,0.066327,0.0880989,-61,-1083,-11.351,-10,-195.15,-10,1.652
0.0636956,0.0620136,0.311181,0.206086,0.0449635,0.0447487,0.066388,0.0883585,-62,-1080,-11.3644,-10,-195.312,-10,1.656
0.0638758,0.0621981,0.311447,0.206444,0.0451377,0.0452068,0.0664491,0.0887618,-59,-1076,-11.3787,-10,-195.47,-10,1.66
0.0640567,0.0623864,0.311713,0.20682,0.045312,0.0458289,0.0665102,0.0904703,-55,-1059,-11.3901,-10,-195.622,-10,1.664
0.0642383,0.0625633,0.311979,0.207172,0.0454864,0.0452936,0.0665713,0.0896227,-62,-1066,-11.3978,-10,-195.757,-10,1.668
0.0644206,0.0627467,0.312245,0.207537,0.0456609,0.0454837,0.0666324,0.0901805,-62,-1060,-11.4119,-10,-195.899,-10,1.672
0.0646036,0.0629336,0.312512,0.207902,0.0458356,0.0458984,0.0666936,0.0905811,-59,-1056,-11.4256,-10,-196.035,-10,1.676
0.0647872,0.0631178,0.312779,0.208266,0.0460104,0.0459445,0.0667548,0.0906755,-61,-1055,-11.4371,-10,-196.165,-10,1.68
0.0649716,0.063304,0.313046,0.208627,0.0461853,0.046148,0.066816,0.090508,-60,-1056,-11.4497,-10,-196.294,-10,1.684
0.0651567,0.0634902,0.313313,0.208987,0.0463604,0.0462836,0.0668772,0.0903388,-61,-1057,-11.462,-10,-196.423,-10,1.688
0.0653425,0.0636775,0.313581,0.209341,0.0465355,0.0464604,0.0669384,0.0897654,-61,-1062,-11.4745,-10,-196.553,-10,1.692
0.065529,0.0638637,0.313849,0.209694,0.0467108,0.0464919,0.0669997,0.0892967,-62,-1066,-11.4871,-10,-196.688,-10,1.696
0.0657162,0.0640506,0.314117,0.210045,0.0468862,0.0465705,0.067061,0.0887251,-63,-1071,-11.501,-10,-196.827,-10,1.7
0.0659041,0.0642406,0.314385,0.210394,0.0470617,0.046882,0.0671223,0.0882865,-62,-1075,-11.5155,-10,-196.97,-10,1.704
0.0660927,0.0644279,0.314654,0.21074,0.0472373,0.0468594,0.0671836,0.0876486,-63,-1081,-11.5289,-10,-197.117,-10,1.708
0.066282,0.064621,0.314923,0.21109,0.0474131,0.0473337,0.0672449,0.0876264,-61,-1081,-11.5439,-10,-197.269,-10,1.712
0.066472,0.0648076,0.315192,0.211432,0.0475889,0.0471029,0.0673063,0.0869206,-64,-1088,-11.5563,-10,-197.42,-10,1.716
0.0666627,0.0649938,0.315461,0.211769,0.0477649,0.0469202,0.0673677,0.0860182,-68,-1096,-11.5725,-10,-197.578,-10,1.72
0.0668541,0.0651848,0.315731,0.212118,0.0479409,0.0472015,0.0674291,0.0864243,-67,-1092,-11.5919,-10,-197.743,-10,1.724
0.0670462,0.0653686,0.316001,0.212453,0.0481171,0.0467845,0.0674905,0.0855434,-72,-1100,-11.6107,-10,-197.904,-10,1.728
0.0672391,0.0655559,0.316271,0.212793,0.0482934,0.0467943,0.0675519,0.0853304,-74,-1102,-11.6348,-10,-198.072,-10,1.732
0.0674326,0.0657449,0.316541,0.213129,0.0484698,0.0469449,0.0676134,0.0849293,-74,-1106,-11.6604,-10,-198.242,-10,1.736
0.0676268,0.0659304,0.316812,0.213463,0.0486463,0.0467573,0.0676748,0.0844604,-78,-1110,-11.6864,-10,-198.414,-10,1.74
0.0678218,0.0661208,0.317083,0.213805,0.0488229,0.0470353,0.0677363,0.0847811,-77,-1107,-11.7156,-10,-198.59,-10,1.744
0.0680174,0.0663149,0.317354,0.214163,0.0489996,0.0475374,0.0677978,0.0863482,-74,-1092,-11.7436,-10,-198.761,-10,1.748
0.0682138,0.0664994,0.317625,0.214503,0.0491764,0.0470659,0.0678593,0.0858669,-80,-1096,-11.7689,-10,-198.917,-10,1.752
0.0684108,0.066687,0.317897,0.21485,0.0493533,0.0470108,0.0679208,0.0862083,-82,-1093,-11.8003,-10,-199.076,-10,1.756
0.0686086,0.0668767,0.318168,0.215202,0.0495303,0.0471467,0.0679823,0.0868101,-83,-1086,-11.8337,-10,-199.231,-10,1.76
0.0688071,0.067074,0.31844,0.215561,0.0497074,0.0478708,0.0680439,0.0877584,-78,-1077,-11.867,-10,-199.378,-10,1.764
0.0690062,0.0672616,0.318713,0.2159,0.0498846,0.0475473,0.0681054,0.0868071,-82,-1086,-11.8956,-10,-199.516,-10,1.768
0.0692061,0.0674551,0.318985,0.216246,0.0500619,0.0478211,0.068167,0.0866623,-81,-1087,-11.9286,-10,-199.663,-10,1.772
0.0694067,0.0676472,0.319258,0.216589,0.0502392,0.0478885,0.0682286,0.0863931,-83,-1090,-11.9608,-10,-199.81,-10,1.776
0.069608,0.0678431,0.319531,0.216933,0.0504167,0.0482501,0.0682902,0.0862135,-81,-1091,-11.9938,-10,-199.958,-10,1.78
0.0698101,0.0680469,0.319804,0.21729,0.0505943,0.0491534,0.0683518,0.0872167,-74,-1081,-12.0245,-10,-200.107,-10,1.784
0.0700128,0.0682317,0.320078,0.217607,0.0507719,0.0481721,0.0684134,0.0846033,-85,-1106,-12.0494,-10,-200.248,-10,1.788
0.0702162,0.0684283,0.320352,0.21794,0.0509497,0.0484968,0.068475,0.0841279,-84,-1111,-12.0846,-10,-200.412,-10,1.792
0.0704204,0.0686228,0.320626,0.218267,0.0511275,0.0485405,0.0685366,0.0833215,-85,-1119,-12.1184,-10,-200.581,-10,1.796
0.0706253,0.0688198,0.3209,0.218601,0.0513055,0.0487711,0.0685982,0.0834173,-85,-1118,-12.1534,-10,-200.756,-10,1.8
0.0708308,0.0690143,0.321175,0.218936,0.0514835,0.0487234,0.0686599,0.0834811,-87,-1117,-12.188,-10,-200.929,-10,1.804
0.0710371,0.0692108,0.321449,0.219274,0.0516616,0.0488643,0.0687215,0.0838116,-87,-1114,-12.2246,-10,-201.101,-10,1.808
0.0712441,0.069405,0.321724,0.219612,0.0518398,0.0487567,0.0687832,0.0840895,-90,-1111,-12.2617,-10,-201.269,-10,1.812
0.0714518,0.0696047,0.322,0.219959,0.052018,0.0491456,0.0688449,0.0849658,-88,-1102,-12.3011,-10,-201.433,-10,1.816
0.0716603,0.069792,0.322275,0.220288,0.0521964,0.0483684,0.0689065,0.0840528,-97,-1111,-12.3392,-10,-201.588,-10,1.82
0.0718694,0.0699865,0.322551,0.220625,0.0523748,0.0484549,0.0689682,0.0841351,-98,-1110,-12.3859,-10,-201.751,-10,1.824
0.0720793,0.070173,0.322827,0.220958,0.0525533,0.0478504,0.0690299,0.0838445,-106,-1113,-12.4339,-10,-201.913,-10,1.828
0.0722898,0.0703631,0.323103,0.221295,0.0527319,0.0477353,0.0690916,0.0839387,-109,-1112,-12.4891,-10,-202.076,-10,1.832
0.0725011,0.0705476,0.32338,0.221626,0.0529105,0.0471979,0.0691532,0.0835696,-115,-1115,-12.5473,-10,-202.238,-10,1.836
0.0727131,0.0707331,0.323656,0.221954,0.0530893,0.046926,0.0692149,0.0830645,-120,-1120,-12.6122,-10,-202.403,-10,1.84
0.0729258,0.0709148,0.323933,0.22228,0.0532681,0.046428,0.0692766,0.082555,-126,-1125,-12.6816,-10,-202.573,-10,1.844
0.0731393,0.0710934,0.32421,0.222603,0.053447,0.0458369,0.0693383,0.0819561,-134,-1131,-12.7575,-10,-202.747,-10,1.848
0.0733534,0.0712717,0.324488,0.222925,0.0536259,0.0454141,0.0694,0.0814706,-140,-1136,-12.8406,-10,-202.926,-10,1.852
0.0735683,0.0714462,0.324766,0.223248,0.053805,0.0448155,0.0694617,0.0811756,-147,-1139,-12.9297,-10,-203.109,-10,1.856
0.0737839,0.0716175,0.325044,0.223573,0.0539841,0.0441573,0.0695234,0.0812094,-155,-1138,-13.0262,-10,-203.294,-10,1.86
0.0740002,0.0717844,0.325322,0.223899,0.0541632,0.0433442,0.0695851,0.081347,-165,-1137,-13.1309,-10,-203.478,-10,1.864
0.0742172,0.0719402,0.3256,0.224223,0.0543425,0.0418808,0.0696468,0.0812084,-181,-1139,-13.2455,-10,-203.66,-10,1.868
0.0744349,0.0720947,0.325879,0.224552,0.0545218,0.0407901,0.0697085,0.0815479,-193,-1135,-13.3757,-10,-203.842,-10,1.872
0.0746533,0.072246,0.326158,0.224881,0.0547011,0.0398038,0.0697702,0.0817454,-205,-1133,-13.518,-10,-204.02,-10,1.876
0.0748725,0.0724015,0.326437,0.225212,0.0548806,0.0394918,0.0698319,0.0821075,-210,-1130,-13.6711,-10,-204.196,-10,1.88
0.0750924,0.0725604,0.326717,0.225542,0.0550601,0.0395717,0.0698936,0.0822624,-211,-1129,-13.8286,-10,-204.367,-10,1.884
0.075313,0.072729,0.326996,0.225873,0.0552396,0.0404311,0.0699553,0.0823945,-205,-1127,-13.9865,-10,-204.536,-10,1.888
0.0755343,0.0729045,0.327276,0.226199,0.0554193,0.0415799,0.070017,0.0821083,-197,-1130,-14.1375,-10,-204.704,-10,1.892
0.0757563,0.0730973,0.327556,0.226536,0.0555989,0.0437852,0.0700787,0.08281,-179,-1123,-14.2785,-10,-204.873,-10,1.896
0.0759791,0.0732856,0.327837,0.226846,0.0557787,0.0448812,0.0701404,0.0810609,-171,-1140,-14.4005,-10,-205.035,-10,1.9
0.0762026,0.0734915,0.328118,0.227166,0.0559585,0.0470802,0.0702021,0.080701,-152,-1144,-14.5128,-10,-205.214,-10,1.904
0.0764268,0.0737019,0.328399,0.227486,0.0561383,0.0489205,0.0702637,0.0804611,-137,-1146,-14.6059,-10,-205.396,-10,1.908
0.0766517,0.0739189,0.32868,0.227809,0.0563182,0.0506943,0.0703254,0.0805602,-123,-1146,-14.6829,-10,-205.579,-10,1.912
0.0768773,0.0741483,0.328961,0.228149,0.0564982,0.0529134,0.0703871,0.0820083,-104,-1132,-14.7442,-10,-205.759,-10,1.916
0.0771037,0.0743701,0.329243,0.228474,0.0566782,0.0537594,0.0704487,0.0817645,-98,-1134,-14.7866,-10,-205.926,-10,1.92
0.0773307,0.0746005,0.329525,0.228808,0.0568583,0.0550431,0.0705104,0.0823793,-88,-1128,-14.8222,-10,-206.093,-10,1.924
0.0775585,0.0748316,0.329807,0.229139,0.0570384,0.0559566,0.070572,0.0824724,-81,-1127,-14.8474,-10,-206.255,-10,1.928
0.077787,0.0750638,0.330089,0.229471,0.0572186,0.0566519,0.0706337,0.0827073,-76,-1125,-14.8656,-10,-206.414,-10,1.932
0.0780163,0.0753039,0.330372,0.229817,0.0573988,0.0577776,0.0706953,0.0839291,-67,-1113,-14.8785,-10,-206.57,-10,1.936
0.0782462,0.0755299,0.330655,0.230145,0.057579,0.0573477,0.0707569,0.0832753,-73,-1120,-14.8832,-10,-206.714,-10,1.94
0.0784769,0.0757638,0.330938,0.230488,0.0577594,0.0577232,0.0708185,0.0841351,-71,-1111,-14.8932,-10,-206.864,-10,1.944
0.0787083,0.0760011,0.331221,0.230838,0.0579397,0.0582615,0.0708801,0.0852265,-68,-1101,-14.9012,-10,-207.003,-10,1.948
0.0789404,0.076234,0.331505,0.231182,0.0581201,0.0582461,0.0709417,0.0854934,-69,-1098,-14.906,-10,-207.132,-10,1.952
0.0791733,0.0764686,0.331789,0.231527,0.0583006,0.0583798,0.0710033,0.0857289,-70,-1096,-14.9126,-10,-207.258,-10,1.956
0.0794068,0.0767028,0.332073,0.231868,0.058481,0.0584401,0.0710649,0.0855981,-71,-1097,-14.9195,-10,-207.38,-10,1.96
0.0796411,0.0769405,0.332357,0.232216,0.0586616,0.0587682,0.0711265,0.0860866,-70,-1092,-14.9275,-10,-207.503,-10,1.964
0.0798761,0.0771751,0.332642,0.232562,0.0588421,0.0587279,0.071188,0.086182,-72,-1091,-14.9341,-10,-207.621,-10,1.968
0.0801119,0.0774118,0.332927,0.232911,0.0590228,0.0588737,0.0712496,0.0865911,-72,-1087,-14.9428,-10,-207.737,-10,1.972
0.0803483,0.0776464,0.333212,0.233262,0.0592034,0.0587982,0.0713111,0.086979,-74,-1083,-14.9518,-10,-207.849,-10,1.976
0.0805855,0.0778841,0.333497,0.233616,0.0593841,0.0590069,0.0713726,0.0874103,-74,-1079,-14.9631,-10,-207.956,-10,1.98
0.0808234,0.0781304,0.333783,0.23398,0.0595648,0.0598659,0.0714341,0.0886192,-68,-1067,-14.9736,-10,-208.057,-10,1.984
0.081062,0.0783612,0.334069,0.234316,0.0597455,0.0591429,0.0714956,0.0871218,-76,-1082,-14.9786,-10,-208.148,-10,1.988
0.0813013,0.0786016,0.334355,0.234664,0.0599263,0.0594671,0.0715571,0.0871025,-75,-1082,-14.9915,-10,-208.252,-10,1.992
0.0815414,0.078849,0.334641,0.23502,0.0601072,0.060259,0.0716186,0.0876654,-69,-1076,-15.0027,-10,-208.355,-10,1.996
0.0817822,0.0790836,0.334928,0.235354,0.060288,0.0597217,0.07168,0.0862844,-76,-1089,-15.0088,-10,-208.453,-10,2
0.0820237,0.0793254,0.335215,0.235693,0.0604689,0.0599681,0.0717414,0.0858244,-75,-1094,-15.0212,-10,-208.564,-10,2.004
0.082266,0.0795694,0.335502,0.236031,0.0606498,0.0603051,0.0718028,0.085345,-74,-1098,-15.0329,-10,-208.679,-10,2.008
0.0825089,0.079816,0.335789,0.236366,0.0608307,0.0607602,0.0718642,0.0848239,-71,-1103,-15.0429,-10,-208.799,-10,2.012
0.0827526,0.0800638,0.336077,0.236702,0.0610117,0.0611499,0.0719256,0.0845628,-69,-1106,-15.0504,-10,-208.923,-10,2.016
0.082997,0.0803098,0.336365,0.237031,0.0611927,0.0612657,0.071987,0.0837554,-70,-1114,-15.0559,-10,-209.049,-10,2.02
0.0832421,0.0805557,0.336653,0.237361,0.0613737,0.0613429,0.0720483,0.083361,-71,-1118,-15.062,-10,-209.183,-10,2.024
0.083488,0.0808024,0.336941,0.237692,0.0615547,0.061452,0.0721097,0.0831269,-71,-1120,-15.0691,-10,-209.321,-10,2.028
0.0837346,0.0810456,0.33723,0.238022,0.0617358,0.0612368,0.072171,0.0829709,-75,-1122,-15.077,-10,-209.46,-10,2.032
0.0839819,0.0812896,0.337518,0.238356,0.0619169,0.0611509,0.0722323,0.0830972,-77,-1121,-15.0886,-10,-209.599,-10,2.036
0.0842299,0.0815304,0.337807,0.238695,0.062098,0.0608346,0.0722936,0.0836708,-82,-1115,-15.1028,-10,-209.737,-10,2.04
0.0844787,0.0817719,0.338097,0.239044,0.0622791,0.0606812,0.0723548,0.0848306,-85,-1104,-15.1217,-10,-209.868,-10,2.044
0.0847281,0.0820044,0.338386,0.239385,0.0624602,0.0598304,0.072416,0.0849704,-95,-1103,-15.1442,-10,-209.988,-10,2.048
0.0849783,0.0822362,0.338676,0.239732,0.0626414,0.0592057,0.0724773,0.0856394,-102,-1096,-15.1763,-10,-210.106,-10,2.052
0.0852293,0.082466,0.338966,0.240081,0.0628226,0.0586164,0.0725385,0.0861717,-109,-1091,-15.2162,-10,-210.216,-10,2.056
0.0854809,0.0826967,0.339256,0.240432,0.0630037,0.0583099,0.0725996,0.0866418,-114,-1086,-15.2632,-10,-210.321,-10,2.06
0.0857333,0.0829251,0.339547,0.240787,0.0631849,0.0579041,0.0726608,0.0873871,-120,-1079,-15.3148,-10,-210.42,-10,2.064
0.0859864,0.0831525,0.339838,0.241146,0.0633662,0.0575472,0.0727219,0.088143,-125,-1072,-15.3721,-10,-210.511,-10,2.068
0.0862402,0.0833801,0.340129,0.241512,0.0635474,0.057338,0.072783,0.0892804,-129,-1061,-15.4343,-10,-210.594,-10,2.072
0.0864948,0.0836054,0.34042,0.241882,0.0637286,0.056997,0.0728441,0.0903841,-134,-1050,-15.5003,-10,-210.665,-10,2.076
0.0867501,0.0838296,0.340711,0.242258,0.0639099,0.0566833,0.0729051,0.0915518,-139,-1038,-15.5713,-10,-210.724,-10,2.08
0.0870061,0.0840594,0.341003,0.242644,0.0640911,0.0569348,0.0729662,0.093194,-138,-1022,-15.6465,-10,-210.771,-10,2.084
0.0872628,0.0842763,0.341295,0.243013,0.0642724,0.0560373,0.0730272,0.0929068,-148,-1024,-15.7218,-10,-210.802,-10,2.088
0.0875202,0.0844985,0.341587,0.24339,0.0644537,0.0558707,0.0730882,0.09332,-152,-1020,-15.8068,-10,-210.835,-10,2.092
0.0877784,0.0847182,0.34188,0.24377,0.0646349,0.0555582,0.0731491,0.0938834,-157,-1014,-15.8953,-10,-210.864,-10,2.096
0.0880373,0.0849383,0.342173,0.244151,0.0648162,0.0553786,0.0732101,0.0943453,-161,-1009,-15.9883,-10,-210.886,-10,2.1
0.088297,0.085158,0.342466,0.244533,0.0649975,0.0552301,0.073271,0.0947684,-164,-1005,-16.0847,-10,-210.904,-10,2.104
0.0885573,0.0853771,0.342759,0.244915,0.0651788,0.0550735,0.0733318,0.0949929,-167,-1002,-16.1842,-10,-210.916,-10,2.108
0.0888184,0.0855971,0.343052,0.245293,0.0653601,0.0550555,0.0733927,0.0948547,-170,-1003,-16.2867,-10,-210.927,-10,2.112
0.0890802,0.0858158,0.343346,0.245671,0.0655414,0.0549283,0.0734535,0.0946761,-173,-1005,-16.3912,-10,-210.938,-10,2.116
0.0893427,0.0860345,0.34364,0.246051,0.0657227,0.0548435,0.0735143,0.0948162,-176,-1003,-16.4986,-10,-210.951,-10,2.12
0.089606,0.086255,0.343934,0.246433,0.0659039,0.054931,0.0735751,0.0950536,-177,-1000,-16.6083,-10,-210.961,-10,2.124
0.0898699,0.0864806,0.344228,0.246828,0.0660852,0.0554211,0.0736358,0.0962483,-175,-988,-16.7186,-10,-210.969,-10,2.128
0.0901346,0.086701,0.344523,0.247216,0.0662665,0.055316,0.0736965,0.0965265,-178,-985,-16.8263,-10,-210.964,-10,2.132
0.0904001,0.0869183,0.344818,0.247591,0.0664478,0.0549868,0.0737572,0.095618,-183,-994,-16.9368,-10,-210.957,-10,2.136
0.0906662,0.0871401,0.345113,0.247973,0.066629,0.0551417,0.0738178,0.0955593,-183,-994,-17.0518,-10,-210.958,-10,2.14
0.0909331,0.0873647,0.345409,0.24835,0.0668103,0.0554752,0.0738785,0.0950883,-182,-998,-17.1669,-10,-210.96,-10,2.144
0.0912007,0.087591,0.345704,0.248725,0.0669916,0.0558415,0.0739391,0.0946303,-181,-1002,-17.2804,-10,-210.966,-10,2.148
0.091469,0.0878211,0.346,0.249095,0.0671728,0.0564024,0.0739996,0.0939796,-178,-1008,-17.3919,-10,-210.976,-10,2.152
0.0917381,0.0880467,0.346296,0.249453,0.067354,0.0564021,0.0740601,0.0924229,-180,-1023,-17.5002,-10,-210.993,-10,2.156
0.0920079,0.0882747,0.346593,0.249804,0.0675353,0.0566034,0.0741206,0.0908956,-180,-1038,-17.6099,-10,-211.025,-10,2.16
0.0922784,0.0885114,0.346889,0.250162,0.0677165,0.0574574,0.0741811,0.0904245,-175,-1042,-17.7191,-10,-211.072,-10,2.164
0.0925496,0.0887314,0.347186,0.250486,0.0678977,0.0566447,0.0742415,0.0872601,-184,-1073,-17.8227,-10,-211.125,-10,2.168
0.0928216,0.0889526,0.347483,0.250813,0.0680788,0.0561894,0.0743019,0.0854384,-190,-1090,-17.9356,-10,-211.208,-10,2.172
0.0930942,0.0891761,0.34778,0.251141,0.06826,0.0560873,0.0743623,0.0843103,-193,-1101,-18.0543,-10,-211.309,-10,2.176
0.0933676,0.0894065,0.348078,0.251484,0.0684412,0.0565951,0.0744226,0.084825,-191,-1097,-18.1753,-10,-211.42,-10,2.18
0.0936418,0.0896142,0.348376,0.2518,0.0686223,0.0550334,0.0744829,0.0828361,-207,-1116,-18.2944,-10,-211.527,-10,2.184
0.0939166,0.0898318,0.348674,0.252139,0.0688034,0.0548272,0.0745431,0.0835256,-211,-1110,-18.4292,-10,-211.652,-10,2.188
0.0941922,0.0900474,0.348972,0.252488,0.0689845,0.054517,0.0746034,0.0847338,-216,-1098,-18.5677,-10,-211.769,-10,2.192
0.0944685,0.0902671,0.349271,0.252852,0.0691656,0.0546557,0.0746635,0.0868636,-217,-1077,-18.7106,-10,-211.873,-10,2.196
0.0947455,0.0904789,0.349569,0.253205,0.0693466,0.054086,0.0747237,0.0873046,-225,-1073,-18.8543,-10,-211.957,-10,2.2
0.0950233,0.0906918,0.349868,0.253569,0.0695277,0.0537925,0.0747838,0.0884911,-230,-1062,-19.0049,-10,-212.035,-10,2.204
0.0953017,0.0909084,0.350168,0.253938,0.0697087,0.0539136,0.0748439,0.0898004,-231,-1049,-19.1597,-10,-212.101,-10,2.208
0.0955809,0.0911264,0.350467,0.254312,0.0698897,0.0541095,0.0749039,0.0909899,-231,-1037,-19.3149,-10,-212.154,-10,2.212
0.0958609,0.0913489,0.350767,0.254696,0.0700706,0.0546143,0.0749639,0.0927042,-229,-1020,-19.4698,-10,-212.194,-10,2.216
0.0961415,0.0915621,0.351067,0.255068,0.0702516,0.0541736,0.0750239,0.0927531,-235,-1020,-19.622,-10,-212.217,-10,2.22
0.0964229,0.0917773,0.351367,0.255452,0.0704325,0.0540525,0.0750838,0.0938509,-239,-1009,-19.78,-10,-212.239,-10,2.224
0.096705,0.0919943,0.351668,0.255843,0.0706134,0.0541157,0.0751437,0.0951586,-240,-996,-19.9406,-10,-212.25,-10,2.228
0.0969878,0.0922074,0.351968,0.256233,0.0707942,0.0538411,0.0752035,0.095944,-245,-988,-20.1025,-10,-212.247,-10,2.232
0.0972713,0.0924182,0.352269,0.256627,0.070975,0.0534565,0.0752633,0.0967555,-251,-980,-20.2687,-10,-212.236,-10,2.236
0.0975556,0.09263,0.35257,0.257024,0.0711558,0.0532865,0.0753231,0.0975845,-255,-971,-20.4401,-10,-212.217,-10,2.24
0.0978406,0.0928362,0.352872,0.25742,0.0713366,0.0527125,0.0753828,0.0980507,-263,-966,-20.6151,-10,-212.189,-10,2.244
0.0981263,0.0930418,0.353173,0.257816,0.0715173,0.0522723,0.0754425,0.0983903,-269,-963,-20.797,-10,-212.157,-10,2.248
0.0984127,0.0932453,0.353475,0.258213,0.071698,0.051806,0.0755021,0.0987031,-276,-959,-20.9848,-10,-212.12,-10,2.252
0.0986999,0.0934481,0.353777,0.258612,0.0718786,0.0514376,0.0755617,0.0990556,-281,-955,-21.1786,-10,-212.081,-10,2.256
0.0989877,0.0936492,0.35408,0.259005,0.0720592,0.0510481,0.0756212,0.0987436,-287,-958,-21.3776,-10,-212.037,-10,2.26
0.0992763,0.0938554,0.354382,0.25941,0.0722398,0.0512202,0.0756808,0.0996008,-288,-949,-21.5816,-10,-211.996,-10,2.264
0.0995656,0.0940499,0.354685,0.259787,0.0724204,0.0503561,0.0757402,0.0977826,-299,-966,-21.7862,-10,-211.948,-10,2.268
0.0998557,0.0942441,0.354988,0.260165,0.0726009,0.0497512,0.0757996,0.0967145,-307,-976,-22.0005,-10,-211.917,-10,2.272
0.100146,0.0944383,0.355292,0.260541,0.0727813,0.049348,0.075859,0.0958296,-313,-984,-22.222,-10,-211.897,-10,2.276
0.100438,0.0946317,0.355595,0.260915,0.0729617,0.0490216,0.0759183,0.0950382,-318,-992,-22.449,-10,-211.885,-10,2.28
0.10073,0.0948318,0.355899,0.261299,0.0731421,0.049351,0.0759776,0.0953455,-318,-988,-22.6803,-10,-211.881,-10,2.284
0.101023,0.0950132,0.356203,0.261647,0.0733225,0.0480159,0.0760369,0.0925561,-333,-1015,-22.9112,-10,-211.874,-10,2.288
0.101317,0.0952021,0.356507,0.262009,0.0735027,0.0477592,0.0760961,0.0919346,-338,-1021,-23.1557,-10,-211.895,-10,2.292
0.101611,0.0953963,0.356812,0.262376,0.073683,0.04802,0.0761552,0.0918081,-338,-1022,-23.4039,-10,-211.921,-10,2.296
0.101906,0.0955853,0.357117,0.262736,0.0738632,0.047762,0.0762143,0.0912631,-343,-1027,-23.6517,-10,-211.948,-10,2.3
0.102202,0.0957722,0.357422,0.263085,0.0740433,0.0474172,0.0762734,0.0899209,-349,-1040,-23.9035,-10,-211.981,-10,2.304
0.102499,0.0959612,0.357727,0.263443,0.0742234,0.0473601,0.0763324,0.0897459,-352,-1042,-24.1601,-10,-212.027,-10,2.308
0.102796,0.0961543,0.358032,0.263798,0.0744035,0.0476675,0.0763914,0.0893989,-352,-1045,-24.4186,-10,-212.074,-10,2.312
0.103094,0.0963554,0.358338,0.264163,0.0745835,0.0485347,0.0764503,0.09006,-347,-1039,-24.6756,-10,-212.123,-10,2.316
0.103392,0.0965471,0.358644,0.264502,0.0747634,0.0483354,0.0765091,0.0882551,-351,-1056,-24.9265,-10,-212.168,-10,2.32
0.103692,0.0967486,0.35895,0.264847,0.0749433,0.0490087,0.076568,0.0875989,-348,-1063,-25.1805,-10,-212.23,-10,2.324
0.103992,0.0969524,0.359256,0.265186,0.0751232,0.0496591,0.0766267,0.0866432,-344,-1072,-25.4297,-10,-212.298,-10,2.328
0.104293,0.0971594,0.359563,0.265521,0.075303,0.0503518,0.0766854,0.0856605,-341,-1082,-25.6743,-10,-212.376,-10,2.332
0.104594,0.097368,0.35987,0.265854,0.0754827,0.0509576,0.0767441,0.084919,-338,-1089,-25.9141,-10,-212.463,-10,2.336
0.104897,0.0975802,0.360177,0.266187,0.0756624,0.0516494,0.0768027,0.0843671,-334,-1095,-26.1497,-10,-212.557,-10,2.34
0.1052,0.0977947,0.360484,0.266524,0.075842,0.0523121,0.0768613,0.0843159,-330,-1096,-26.3804,-10,-212.657,-10,2.344
0.105503,0.0980055,0.360792,0.266856,0.0760216,0.0524372,0.0769198,0.0838787,-332,-1100,-26.6068,-10,-212.757,-10,2.348
0.105808,0.0982176,0.3611,0.267189,0.0762011,0.0526357,0.0769783,0.0836736,-332,-1102,-26.8337,-10,-212.861,-10,2.352
0.106113,0.0984301,0.361408,0.267526,0.0763806,0.0527969,0.0770367,0.0838535,-334,-1101,-27.0603,-10,-212.966,-10,2.356
0.106419,0.0986425,0.361716,0.267863,0.0765599,0.0529044,0.077095,0.0840023,-335,-1100,-27.287,-10,-213.07,-10,2.36
0.106726,0.0988536,0.362024,0.268203,0.0767393,0.0528608,0.0771533,0.084303,-338,-1097,-27.5144,-10,-213.172,-10,2.364
0.107033,0.0990723,0.362333,0.268556,0.0769185,0.0534652,0.0772116,0.0856263,-335,-1084,-27.7435,-10,-213.27,-10,2.368
0.107341,0.0992741,0.362642,0.268885,0.0770977,0.0524574,0.0772698,0.084522,-347,-1095,-27.9695,-10,-213.356,-10,2.372
0.10765,0.09948,0.362951,0.269226,0.0772769,0.052131,0.0773279,0.084707,-352,-1094,-28.2062,-10,-213.452,-10,2.376
0.107959,0.099688,0.363261,0.269565,0.0774559,0.0520861,0.077386,0.0847728,-355,-1093,-28.4475,-10,-213.546,-10,2.38
0.108269,0.0998908,0.36357,0.269902,0.077635,0.0516244,0.0774441,0.0845864,-362,-1095,-28.691,-10,-213.64,-10,2.384
0.10858,0.100095,0.36388,0.270237,0.0778139,0.0514029,0.077502,0.0842893,-367,-1098,-28.9404,-10,-213.735,-10,2.388
0.108892,0.100297,0.36419,0.270573,0.0779928,0.0511113,0.07756,0.0841777,-372,-1100,-29.1935,-10,-213.833,-10,2.392
0.109204,0.100501,0.364501,0.270906,0.0781716,0.0510608,0.0776178,0.0839305,-375,-1102,-29.4509,-10,-213.932,-10,2.396
0.109517,0.100703,0.364811,0.271238,0.0783503,0.050912,0.0776756,0.0836217,-379,-1106,-29.7103,-10,-214.034,-10,2.4
0.109831,0.100911,0.365122,0.271576,0.0785289,0.0513023,0.0777334,0.0839053,-378,-1103,-29.9725,-10,-214.138,-10,2.404
0.110145,0.101119,0.365433,0.271909,0.0787075,0.0515337,0.0777911,0.0836913,-379,-1106,-30.2327,-10,-214.239,-10,2.408
0.110461,0.101328,0.365744,0.272242,0.078886,0.0517743,0.0778487,0.0835487,-379,-1107,-30.4923,-10,-214.343,-10,2.412
0.110776,0.101533,0.366056,0.272561,0.0790645,0.0515604,0.0779063,0.0822444,-384,-1120,-30.7516,-10,-214.448,-10,2.416
0.111093,0.101748,0.366368,0.272888,0.0792428,0.0522816,0.0779639,0.0820946,-380,-1122,-31.0138,-10,-214.565,-10,2.42
0.11141,0.101963,0.36668,0.273211,0.0794211,0.0527623,0.0780213,0.0816492,-378,-1127,-31.2711,-10,-214.685,-10,2.424
0.111728,0.102179,0.366992,0.273533,0.0795993,0.0531692,0.0780787,0.081266,-377,-1131,-31.5254,-10,-214.808,-10,2.428
0.112047,0.102401,0.367304,0.273867,0.0797775,0.0540163,0.0781361,0.0819893,-372,-1124,-31.7773,-10,-214.934,-10,2.432
0.112367,0.102614,0.367617,0.27419,0.0799555,0.0537461,0.0781934,0.0816079,-377,-1128,-32.0235,-10,-215.054,-10,2.436
0.112687,0.102831,0.36793,0.274521,0.0801335,0.0538826,0.0782506,0.081987,-379,-1125,-32.2735,-10,-215.177,-10,2.44
0.113008,0.103042,0.368243,0.274857,0.0803114,0.0534842,0.0783078,0.0826427,-385,-1119,-32.5243,-10,-215.296,-10,2.444
0.113329,0.103253,0.368556,0.275195,0.0804892,0.053305,0.0783649,0.0832815,-389,-1113,-32.7802,-10,-215.408,-10,2.448
0.113652,0.103464,0.36887,0.275543,0.0806669,0.0530703,0.0784219,0.0844847,-394,-1102,-33.0395,-10,-215.513,-10,2.452
0.113975,0.10367,0.369184,0.275887,0.0808446,0.0525396,0.0784789,0.0850277,-401,-1097,-33.3028,-10,-215.607,-10,2.456
0.114298,0.103879,0.369498,0.276238,0.0810222,0.0525025,0.0785358,0.0859367,-404,-1088,-33.5723,-10,-215.694,-10,2.46
0.114623,0.104094,0.369812,0.276601,0.0811996,0.052852,0.0785927,0.0874928,-404,-1073,-33.8436,-10,-215.772,-10,2.464
0.114948,0.104306,0.370127,0.276956,0.081377,0.0529411,0.0786495,0.0879544,-406,-1069,-34.1133,-10,-215.835,-10,2.468
0.115274,0.10451,0.370441,0.277295,0.0815543,0.0522519,0.0787062,0.0868226,-415,-1080,-34.3842,-10,-215.894,-10,2.472
0.1156,0.104725,0.370756,0.277646,0.0817316,0.0527714,0.0787629,0.0871621,-413,-1077,-34.6624,-10,-215.964,-10,2.476
0.115928,0.104944,0.371071,0.277997,0.0819087,0.0534344,0.0788195,0.0873884,-409,-1075,-34.9373,-10,-216.03,-10,2.48
0.116256,0.105162,0.371387,0.278344,0.0820857,0.0537612,0.078876,0.0871363,-409,-1078,-35.2077,-10,-216.094,-10,2.484
0.116584,0.105387,0.371702,0.278693,0.0822627,0.0546413,0.0789325,0.0871985,-404,-1077,-35.4762,-10,-216.16,-10,2.488
0.116914,0.105614,0.372018,0.279045,0.0824395,0.0552856,0.0789889,0.0874703,-401,-1075,-35.7383,-10,-216.225,-10,2.492
0.117244,0.105839,0.372334,0.279397,0.0826163,0.0556863,0.0790453,0.0876515,-400,-1073,-35.996,-10,-216.287,-10,2.496
0.117575,0.106078,0.372651,0.279769,0.082793,0.0569899,0.0791016,0.0893845,-390,-1056,-36.2509,-10,-216.347,-10,2.5
0.117906,0.106302,0.372967,0.28012,0.0829695,0.0566786,0.0791578,0.0888701,-396,-1061,-36.4962,-10,-216.391,-10,2.504
0.118239,0.106536,0.373284,0.280487,0.083146,0.0572772,0.0792139,0.0898515,-393,-1052,-36.7454,-10,-216.438,-10,2.508
0.118571,0.106784,0.373601,0.280868,0.0833224,0.0588279,0.07927,0.0916574,-381,-1034,-36.99,-10,-216.475,-10,2.512
0.118905,0.10702,0.373918,0.28123,0.0834987,0.0589116,0.079326,0.0912202,-383,-1039,-37.2225,-10,-216.496,-10,2.516
0.119239,0.107258,0.374235,0.281582,0.0836749,0.0591113,0.079382,0.0901802,-384,-1049,-37.4557,-10,-216.521,-10,2.52
0.119575,0.107504,0.374553,0.281936,0.083851,0.0599355,0.0794379,0.0896021,-379,-1054,-37.6882,-10,-216.556,-10,2.524
0.11991,0.107753,0.374871,0.282288,0.084027,0.0607152,0.0794937,0.0891014,-374,-1059,-37.9145,-10,-216.596,-10,2.528
0.120247,0.108006,0.375189,0.282641,0.0842029,0.0615518,0.0795494,0.0887965,-369,-1063,-38.1351,-10,-216.642,-10,2.532
0.120584,0.108263,0.375507,0.282992,0.0843787,0.062455,0.0796051,0.0884492,-364,-1066,-38.3494,-10,-216.691,-10,2.536
0.120922,0.108532,0.375826,0.283355,0.0845544,0.0639784,0.0796607,0.0891678,-352,-1059,-38.5564,-10,-216.742,-10,2.54
0.12126,0.108787,0.376145,0.283698,0.0847299,0.0639,0.0797162,0.0880922,-355,-1070,-38.7516,-10,-216.787,-10,2.544
0.1216,0.109056,0.376464,0.284057,0.0849054,0.0650281,0.0797717,0.0886131,-347,-1065,-38.9484,-10,-216.842,-10,2.548
0.12194,0.10931,0.376783,0.284392,0.0850808,0.0645134,0.0798271,0.0869738,-354,-1081,-39.1372,-10,-216.893,-10,2.552
0.12228,0.109576,0.377102,0.284741,0.0852561,0.0652067,0.0798824,0.087119,-350,-1080,-39.3317,-10,-216.959,-10,2.556
0.122622,0.109842,0.377422,0.285091,0.0854312,0.0656402,0.0799377,0.0872445,-349,-1079,-39.5214,-10,-217.024,-10,2.56
0.122964,0.110113,0.377742,0.285448,0.0856063,0.0663034,0.0799929,0.0878465,-345,-1073,-39.7085,-10,-217.087,-10,2.564
0.123306,0.110387,0.378062,0.285803,0.0857812,0.0670911,0.080048,0.0881614,-340,-1070,-39.8908,-10,-217.144,-10,2.568
0.12365,0.110664,0.378382,0.286162,0.0859561,0.0677889,0.080103,0.0887456,-336,-1065,-40.0674,-10,-217.198,-10,2.572
0.123994,0.11094,0.378703,0.286518,0.0861308,0.0681966,0.080158,0.0887896,-335,-1064,-40.2392,-10,-217.246,-10,2.576
0.124339,0.111218,0.379023,0.286877,0.0863054,0.0686123,0.0802129,0.0891356,-333,-1061,-40.4087,-10,-217.294,-10,2.58
0.124685,0.111496,0.379344,0.287236,0.0864799,0.068947,0.0802677,0.0893087,-332,-1060,-40.576,-10,-217.338,-10,2.584
0.125031,0.111772,0.379665,0.287592,0.0866543,0.068911,0.0803224,0.0891938,-335,-1061,-40.7419,-10,-217.38,-10,2.588
0.125378,0.112043,0.379987,0.287949,0.0868286,0.0685416,0.0803771,0.0892036,-341,-1061,-40.9099,-10,-217.424,-10,2.592
0.125725,0.112316,0.380308,0.288314,0.0870028,0.068468,0.0804317,0.089901,-343,-1054,-41.0827,-10,-217.467,-10,2.596
0.126074,0.11259,0.38063,0.288681,0.0871768,0.0685053,0.0804862,0.09051,-345,-1048,-41.2577,-10,-217.503,-10,2.6
0.126423,0.112865,0.380952,0.289049,0.0873508,0.0685878,0.0805407,0.0910311,-347,-1043,-41.4339,-10,-217.532,-10,2.604
0.126773,0.113139,0.381275,0.289418,0.0875246,0.0685564,0.0805951,0.0914361,-349,-1039,-41.6109,-10,-217.557,-10,2.608
0.127123,0.113413,0.381597,0.289789,0.0876983,0.0684779,0.0806494,0.0919077,-352,-1035,-41.7898,-10,-217.577,-10,2.612
0.127474,0.113692,0.38192,0.290171,0.0878718,0.0689726,0.0807036,0.0931145,-350,-1023,-41.9707,-10,-217.593,-10,2.616
0.127826,0.113957,0.382243,0.290535,0.0880453,0.0680068,0.0807577,0.0923356,-361,-1031,-42.1493,-10,-217.597,-10,2.62
0.128179,0.114228,0.382566,0.290907,0.0882186,0.0679387,0.0808118,0.0926225,-364,-1028,-42.3379,-10,-217.608,-10,2.624
0.128532,0.114498,0.382889,0.291278,0.0883919,0.0677782,0.0808658,0.0926122,-368,-1028,-42.5288,-10,-217.617,-10,2.628
0.128886,0.114779,0.383213,0.29166,0.088565,0.0686213,0.0809197,0.0935842,-362,-1019,-42.7221,-10,-217.625,-10,2.632
0.12924,0.115046,0.383537,0.292016,0.0887379,0.0680317,0.0809736,0.0921017,-370,-1033,-42.9099,-10,-217.625,-10,2.636
0.129596,0.115325,0.383861,0.292377,0.0889108,0.0685887,0.0810273,0.0914301,-367,-1039,-43.104,-10,-217.639,-10,2.64
0.129952,0.115609,0.384185,0.292733,0.0890835,0.0693344,0.081081,0.0906656,-363,-1047,-43.2944,-10,-217.66,-10,2.644
0.130308,0.115898,0.384509,0.293093,0.0892561,0.0703209,0.0811346,0.0904439,-356,-1049,-43.4792,-10,-217.688,-10,2.648
0.130666,0.116184,0.384834,0.293443,0.0894286,0.0707483,0.0811881,0.0894036,-355,-1059,-43.6566,-10,-217.72,-10,2.652
0.131024,0.116477,0.385159,0.293794,0.0896009,0.0715514,0.0812416,0.0889115,-350,-1064,-43.8314,-10,-217.761,-10,2.656
0.131382,0.116774,0.385484,0.294149,0.0897731,0.0724899,0.0812949,0.0888426,-343,-1065,-44.0001,-10,-217.806,-10,2.66
0.131742,0.117073,0.385809,0.294506,0.0899452,0.0732308,0.0813482,0.0889982,-339,-1064,-44.1618,-10,-217.853,-10,2.664
0.132102,0.11737,0.386135,0.294862,0.0901172,0.0735807,0.0814014,0.0890156,-338,-1064,-44.3183,-10,-217.898,-10,2.668
0.132463,0.117668,0.38646,0.295223,0.090289,0.0738428,0.0814546,0.0894015,-338,-1060,-44.4732,-10,-217.942,-10,2.672
0.132824,0.117966,0.386786,0.295588,0.0904607,0.0741039,0.0815076,0.090033,-338,-1054,-44.6271,-10,-217.982,-10,2.676
0.133186,0.118262,0.387112,0.295955,0.0906322,0.0740476,0.0815606,0.0905979,-340,-1049,-44.7804,-10,-218.016,-10,2.68
0.133549,0.118556,0.387439,0.296324,0.0908037,0.073895,0.0816134,0.0911185,-344,-1044,-44.9357,-10,-218.045,-10,2.684
0.133913,0.118851,0.387765,0.296698,0.0909749,0.0738508,0.0816662,0.0918975,-346,-1036,-45.0939,-10,-218.068,-10,2.688
0.134277,0.119143,0.388092,0.297073,0.0911461,0.0735334,0.0817189,0.0925607,-351,-1030,-45.2542,-10,-218.083,-10,2.692
0.134642,0.119443,0.388419,0.297462,0.0913171,0.0740128,0.0817716,0.0940681,-349,-1015,-45.4185,-10,-218.091,-10,2.696
0.135008,0.119726,0.388746,0.297829,0.091488,0.0729792,0.0818241,0.0933456,-360,-1022,-45.5808,-10,-218.085,-10,2.7
0.135374,0.120013,0.389074,0.298201,0.0916588,0.0725205,0.0818766,0.0932383,-367,-1023,-45.7538,-10,-218.086,-10,2.704
0.135741,0.120308,0.389401,0.298578,0.0918294,0.0729056,0.081929,0.0935409,-365,-1020,-45.9321,-10,-218.088,-10,2.708
0.136109,0.120607,0.389729,0.298962,0.0919998,0.0735655,0.0819813,0.0943473,-362,-1013,-46.1081,-10,-218.087,-10,2.712
0.136477,0.120912,0.390057,0.299348,0.0921702,0.0744373,0.0820335,0.0951153,-356,-1005,-46.2794,-10,-218.077,-10,2.716
0.136846,0.121206,0.390385,0.299721,0.0923403,0.0741547,0.0820856,0.0944756,-361,-1011,-46.4447,-10,-218.061,-10,2.72
0.137216,0.121511,0.390714,0.300107,0.0925104,0.0748589,0.0821377,0.0951144,-357,-1005,-46.6136,-10,-218.05,-10,2.724
0.137586,0.12182,0.391042,0.30049,0.0926803,0.0756162,0.0821896,0.0953675,-352,-1002,-46.7774,-10,-218.034,-10,2.728
0.137957,0.122131,0.391371,0.300874,0.09285,0.0763514,0.0822415,0.0955363,-348,-1001,-46.9357,-10,-218.014,-10,2.732
0.138329,0.122457,0.3917,0.301271,0.0930197,0.0780508,0.0822933,0.0968004,-334,-988,-47.0881,-10,-217.992,-10,2.736
0.138701,0.122767,0.39203,0.301649,0.0931891,0.0778881,0.082345,0.0960597,-338,-995,-47.2274,-10,-217.959,-10,2.74
0.139074,0.123082,0.392359,0.30203,0.0933585,0.0781539,0.0823966,0.0957962,-338,-998,-47.3693,-10,-217.933,-10,2.744
0.139448,0.123401,0.392689,0.302417,0.0935276,0.0786767,0.0824481,0.0960812,-335,-995,-47.5102,-10,-217.909,-10,2.748
0.139823,0.123726,0.393019,0.302804,0.0936967,0.0795722,0.0824996,0.0962999,-329,-993,-47.6474,-10,-217.883,-10,2.752
0.140198,0.124046,0.393349,0.303184,0.0938655,0.0797085,0.0825509,0.0958412,-330,-997,-47.7784,-10,-217.855,-10,2.756
0.140574,0.124367,0.393679,0.303565,0.0940343,0.0798858,0.0826022,0.0956793,-330,-998,-47.9095,-10,-217.831,-10,2.76
0.14095,0.124686,0.39401,0.303944,0.0942029,0.07986,0.0826533,0.0953986,-332,-1001,-48.0405,-10,-217.809,-10,2.764
0.141327,0.125015,0.39434,0.304338,0.0943713,0.0806202,0.0827044,0.0963632,-328,-992,-48.1729,-10,-217.788,-10,2.768
0.141705,0.12533,0.394671,0.304716,0.0945396,0.0799753,0.0827554,0.0957682,-335,-997,-48.3005,-10,-217.76,-10,2.772
0.142083,0.125631,0.395002,0.305078,0.0947077,0.0783938,0.0828063,0.0939895,-351,-1015,-48.4361,-10,-217.738,-10,2.776
0.142463,0.125945,0.395334,0.305454,0.0948757,0.0784623,0.0828572,0.094013,-353,-1014,-48.5869,-10,-217.732,-10,2.78
0.142842,0.126255,0.395665,0.305826,0.0950435,0.0781624,0.0829079,0.0936832,-358,-1017,-48.7387,-10,-217.727,-10,2.784
0.143223,0.126574,0.395997,0.306206,0.0952112,0.0786823,0.0829585,0.0940967,-355,-1013,-48.8943,-10,-217.725,-10,2.788
0.143604,0.126892,0.396329,0.306581,0.0953787,0.0789425,0.0830091,0.0940269,-355,-1014,-49.0467,-10,-217.719,-10,2.792
0.143986,0.127208,0.396661,0.306953,0.095546,0.0790008,0.0830595,0.0936348,-356,-1018,-49.1983,-10,-217.713,-10,2.796
0.144369,0.127532,0.396993,0.307328,0.0957132,0.0796443,0.0831099,0.0937477,-353,-1017,-49.3504,-10,-217.712,-10,2.8
0.144752,0.127853,0.397326,0.307695,0.0958803,0.079843,0.0831602,0.0930457,-353,-1024,-49.4984,-10,-217.71,-10,2.804
0.145136,0.128178,0.397659,0.308062,0.0960471,0.0803209,0.0832103,0.0926352,-351,-1028,-49.6458,-10,-217.714,-10,2.808
0.14552,0.128502,0.397992,0.308427,0.0962139,0.0805532,0.0832604,0.09216,-351,-1032,-49.7904,-10,-217.723,-10,2.812
0.145905,0.128828,0.398325,0.308794,0.0963804,0.0808807,0.0833104,0.0920448,-350,-1034,-49.9342,-10,-217.737,-10,2.816
0.146291,0.129154,0.398658,0.309162,0.0965468,0.0810703,0.0833603,0.0920255,-350,-1034,-50.0766,-10,-217.751,-10,2.82
0.146678,0.129483,0.398992,0.309535,0.0967131,0.0814271,0.0834101,0.092387,-349,-1030,-50.2186,-10,-217.766,-10,2.824
0.147065,0.129811,0.399325,0.309906,0.0968791,0.0816361,0.0834599,0.0925415,-349,-1029,-50.3589,-10,-217.777,-10,2.828
0.147453,0.130139,0.399659,0.310281,0.0970451,0.0817754,0.0835095,0.0929037,-350,-1026,-50.4987,-10,-217.787,-10,2.832
0.147841,0.130469,0.399993,0.310662,0.0972108,0.0819835,0.083559,0.093721,-350,-1018,-50.6387,-10,-217.792,-10,2.836
0.14823,0.130797,0.400328,0.311044,0.0973764,0.0820358,0.0836085,0.0942946,-352,-1012,-50.7783,-10,-217.79,-10,2.84
0.14862,0.131128,0.400662,0.311427,0.0975418,0.0822435,0.0836578,0.0947922,-352,-1007,-50.9187,-10,-217.782,-10,2.844
0.149011,0.131455,0.400997,0.311806,0.097707,0.082094,0.083707,0.0947785,-355,-1007,-51.0589,-10,-217.769,-10,2.848
0.149402,0.131787,0.401332,0.312186,0.0978721,0.0823686,0.0837562,0.0948844,-355,-1006,-51.2017,-10,-217.756,-10,2.852
0.149794,0.132121,0.401667,0.312566,0.098037,0.0827244,0.0838052,0.0948975,-353,-1006,-51.3433,-10,-217.743,-10,2.856
0.150186,0.132457,0.402002,0.312949,0.0982018,0.083192,0.0838542,0.0951654,-351,-1004,-51.483,-10,-217.729,-10,2.86
0.150579,0.132797,0.402338,0.313334,0.0983664,0.0838204,0.0839031,0.0955167,-348,-1000,-51.6198,-10,-217.712,-10,2.864
0.150973,0.133143,0.402674,0.313721,0.0985308,0.0846712,0.0839518,0.0959812,-342,-996,-51.7521,-10,-217.692,-10,2.868
0.151368,0.13347,0.40301,0.314087,0.098695,0.0837413,0.0840005,0.0944771,-352,-1010,-51.879,-10,-217.669,-10,2.872
0.151763,0.133811,0.403346,0.314462,0.0988591,0.0842441,0.0840491,0.0942229,-350,-1013,-52.015,-10,-217.66,-10,2.876
0.152158,0.134144,0.403682,0.314828,0.099023,0.0838596,0.0840975,0.093276,-355,-1022,-52.1484,-10,-217.654,-10,2.88
0.152555,0.134477,0.404018,0.315193,0.0991867,0.0836321,0.0841459,0.0925872,-359,-1028,-52.2867,-10,-217.657,-10,2.884
0.152952,0.134812,0.404355,0.315563,0.0993502,0.0837107,0.0841942,0.0925887,-360,-1029,-52.4283,-10,-217.667,-10,2.888
0.15335,0.135149,0.404692,0.315936,0.0995136,0.0839071,0.0842424,0.09282,-361,-1026,-52.5706,-10,-217.677,-10,2.892
0.153748,0.135485,0.405029,0.316307,0.0996768,0.0839228,0.0842905,0.0928302,-362,-1026,-52.7126,-10,-217.685,-10,2.896
0.154147,0.135819,0.405366,0.316679,0.0998398,0.0838182,0.0843385,0.0928371,-365,-1026,-52.856,-10,-217.692,-10,2.9
0.154547,0.136154,0.405704,0.317049,0.100003,0.0837196,0.0843863,0.0926977,-368,-1028,-53.0017,-10,-217.7,-10,2.904
0.154947,0.136495,0.406041,0.317427,0.100165,0.0842873,0.0844341,0.0933245,-365,-1022,-53.1493,-10,-217.709,-10,2.908
0.155348,0.136828,0.406379,0.317797,0.100328,0.0839172,0.0844818,0.0930514,-370,-1025,-53.2937,-10,-217.712,-10,2.912
0.15575,0.137165,0.406717,0.318171,0.10049,0.0840159,0.0845294,0.0931861,-372,-1023,-53.4427,-10,-217.718,-10,2.916
0.156152,0.137502,0.407055,0.318547,0.100652,0.0841394,0.0845769,0.0934486,-372,-1021,-53.5921,-10,-217.722,-10,2.92
0.156555,0.137842,0.407394,0.31892,0.100814,0.0844232,0.0846243,0.0933932,-372,-1021,-53.7417,-10,-217.724,-10,2.924
0.156959,0.138193,0.407732,0.319303,0.100976,0.0855337,0.0846715,0.0941913,-364,-1014,-53.8896,-10,-217.726,-10,2.928
0.157363,0.138524,0.408071,0.319662,0.101137,0.0846042,0.0847187,0.092708,-374,-1028,-54.03,-10,-217.721,-10,2.932
0.157768,0.138864,0.40841,0.320032,0.101299,0.0847331,0.0847658,0.0926692,-375,-1029,-54.1796,-10,-217.73,-10,2.936
0.158173,0.139201,0.408749,0.3204,0.10146,0.0845311,0.0848128,0.0924418,-379,-1031,-54.3297,-10,-217.741,-10,2.94
0.158579,0.139541,0.409089,0.320773,0.101621,0.0846843,0.0848596,0.0926645,-380,-1029,-54.4828,-10,-217.753,-10,2.944
0.158986,0.139889,0.409428,0.321151,0.101782,0.0855063,0.0849064,0.0932736,-374,-1023,-54.6355,-10,-217.762,-10,2.948
0.159394,0.140225,0.409768,0.321512,0.101943,0.0849602,0.0849531,0.0922689,-381,-1033,-54.7828,-10,-217.767,-10,2.952
0.159802,0.140563,0.410108,0.321872,0.102103,0.0848552,0.0849997,0.0915127,-384,-1040,-54.9363,-10,-217.782,-10,2.956
0.16021,0.140917,0.410448,0.322243,0.102263,0.086052,0.0850461,0.0919587,-375,-1036,-55.0914,-10,-217.803,-10,2.96
0.16062,0.141245,0.410788,0.322585,0.102423,0.0846618,0.0850925,0.0898088,-390,-1057,-55.2384,-10,-217.822,-10,2.964
0.16103,0.141587,0.411129,0.322941,0.102583,0.0850018,0.0851387,0.0895272,-389,-1060,-55.3985,-10,-217.862,-10,2.968
0.16144,0.141928,0.411469,0.323296,0.102743,0.0850269,0.0851849,0.0893107,-390,-1062,-55.5571,-10,-217.904,-10,2.972
0.161852,0.142269,0.41181,0.323656,0.102902,0.0851588,0.0852309,0.0895406,-391,-1060,-55.7168,-10,-217.948,-10,2.976
0.162264,0.142625,0.412151,0.324034,0.103062,0.0864272,0.0852769,0.0911334,-382,-1045,-55.8761,-10,-217.989,-10,2.98
0.162676,0.142959,0.412492,0.324393,0.103221,0.085459,0.0853227,0.0906982,-393,-1050,-56.0264,-10,-218.016,-10,2.984
0.163089,0.143304,0.412834,0.324769,0.10338,0.0856772,0.0853684,0.0917612,-393,-1040,-56.1862,-10,-218.045,-10,2.988
0.163503,0.143651,0.413175,0.325149,0.103539,0.086053,0.0854141,0.0928441,-391,-1029,-56.3454,-10,-218.065,-10,2.992
0.163918,0.143999,0.413517,0.325528,0.103697,0.0863323,0.0854596,0.0934797,-391,-1023,-56.5025,-10,-218.074,-10,2.996
0.164333,0.144348,0.413859,0.32591,0.103856,0.0866913,0.085505,0.0941914,-390,-1016,-56.6584,-10,-218.076,-10,3
0.164749,0.144696,0.414201,0.326291,0.104014,0.0867867,0.0855503,0.0945506,-391,-1013,-56.8125,-10,-218.072,-10,3.004
0.165165,0.145044,0.414543,0.326674,0.104172,0.086879,0.0855955,0.0949341,-392,-1009,-56.9671,-10,-218.064,-10,3.008
0.165582,0.145394,0.414886,0.327058,0.104329,0.087027,0.0856406,0.0953049,-393,-1005,-57.1222,-10,-218.052,-10,3.012
0.166,0.145741,0.415229,0.327439,0.104487,0.0869529,0.0856856,0.095293,-395,-1006,-57.2774,-10,-218.037,-10,3.016
0.166418,0.146089,0.415571,0.327819,0.104644,0.086961,0.0857305,0.0951987,-397,-1006,-57.4346,-10,-218.022,-10,3.02
0.166837,0.146438,0.415914,0.328197,0.104801,0.0871104,0.0857752,0.0949631,-398,-1009,-57.593,-10,-218.008,-10,3.024
0.167256,0.146787,0.416258,0.328576,0.104958,0.0871237,0.0858199,0.0948924,-400,-1009,-57.7514,-10,-217.997,-10,3.028
0.167676,0.147148,0.416601,0.328969,0.105115,0.088169,0.0858644,0.0959681,-393,-999,-57.9105,-10,-217.985,-10,3.032
0.168097,0.147482,0.416944,0.329335,0.105272,0.0865626,0.0859089,0.0944683,-409,-1014,-58.0629,-10,-217.965,-10,3.036
0.168519,0.147827,0.417288,0.329711,0.105428,0.0864705,0.0859532,0.0943898,-411,-1014,-58.2305,-10,-217.959,-10,3.04
0.168941,0.148171,0.417632,0.330086,0.105584,0.0863516,0.0859975,0.0941647,-414,-1017,-58.4002,-10,-217.953,-10,3.044
0.169363,0.148519,0.417976,0.330462,0.10574,0.0865314,0.0860416,0.094101,-415,-1017,-58.5722,-10,-217.95,-10,3.048
0.169786,0.148866,0.41832,0.33084,0.105896,0.0865937,0.0860856,0.0942025,-416,-1016,-58.7439,-10,-217.948,-10,3.052
0.17021,0.149214,0.418665,0.331219,0.106052,0.0868079,0.0861295,0.0944141,-417,-1014,-58.9164,-10,-217.945,-10,3.056
0.170635,0.14956,0.419009,0.331596,0.106207,0.0866341,0.0861733,0.0943536,-420,-1015,-59.0884,-10,-217.939,-10,3.06
0.17106,0.149909,0.419354,0.33198,0.106362,0.0868925,0.0862169,0.0948603,-420,-1010,-59.2631,-10,-217.935,-10,3.064
0.171486,0.150258,0.419699,0.33236,0.106517,0.0869784,0.0862605,0.094939,-421,-1009,-59.4369,-10,-217.925,-10,3.068
0.171912,0.150606,0.420044,0.332739,0.106672,0.0870356,0.0863039,0.0948475,-423,-1010,-59.6112,-10,-217.915,-10,3.072
0.172339,0.150959,0.42039,0.333116,0.106826,0.0873617,0.0863473,0.0947002,-422,-1012,-59.7861,-10,-217.905,-10,3.076
0.172767,0.151311,0.420735,0.33349,0.10698,0.0876079,0.0863905,0.0942564,-422,-1016,-59.9594,-10,-217.898,-10,3.08
0.173195,0.151661,0.421081,0.333855,0.107135,0.0875705,0.0864336,0.0932984,-424,-1025,-60.132,-10,-217.895,-10,3.084
0.173624,0.152014,0.421427,0.33422,0.107288,0.0878046,0.0864766,0.0926022,-424,-1032,-60.3061,-10,-217.902,-10,3.088
0.174053,0.152368,0.421773,0.334585,0.107442,0.0880183,0.0865195,0.0921668,-424,-1037,-60.4794,-10,-217.916,-10,3.092
0.174483,0.152723,0.422119,0.334956,0.107596,0.0882472,0.0865623,0.0923084,-424,-1035,-60.652,-10,-217.934,-10,3.096
0.174914,0.153069,0.422465,0.335324,0.107749,0.0877375,0.086605,0.0922013,-430,-1037,-60.8243,-10,-217.951,-10,3.1
0.175345,0.153419,0.422812,0.3357,0.107902,0.0876281,0.0866475,0.092792,-433,-1031,-61.0024,-10,-217.969,-10,3.104
0.175777,0.153766,0.423158,0.336075,0.108055,0.0873248,0.08669,0.0931571,-438,-1028,-61.1828,-10,-217.981,-10,3.108
0.17621,0.154115,0.423505,0.336454,0.108207,0.0872954,0.0867323,0.0937172,-440,-1022,-61.3671,-10,-217.989,-10,3.112
0.176643,0.154484,0.423852,0.336852,0.10836,0.0889456,0.0867745,0.0955877,-428,-1004,-61.5521,-10,-217.991,-10,3.116
0.177077,0.154833,0.424199,0.337225,0.108512,0.0883759,0.0868166,0.0948193,-435,-1012,-61.7245,-10,-217.975,-10,3.12
0.177511,0.155175,0.424547,0.337589,0.108664,0.0874491,0.0868586,0.0935585,-445,-1024,-61.9037,-10,-217.968,-10,3.124
0.177946,0.155527,0.424894,0.337965,0.108815,0.0876373,0.0869004,0.0937257,-445,-1022,-62.0919,-10,-217.973,-10,3.128
0.178382,0.155883,0.425242,0.338344,0.108967,0.0880795,0.0869422,0.0940386,-444,-1020,-62.2795,-10,-217.976,-10,3.132
0.178818,0.156236,0.42559,0.338716,0.109118,0.0881152,0.0869838,0.0937002,-445,-1023,-62.4647,-10,-217.976,-10,3.136
0.179255,0.156589,0.425938,0.339083,0.109269,0.0881678,0.0870253,0.0930716,-447,-1029,-62.6508,-10,-217.981,-10,3.14
0.179692,0.156942,0.426286,0.339445,0.10942,0.0882029,0.0870667,0.0921918,-449,-1038,-62.8376,-10,-217.991,-10,3.144
0.18013,0.157305,0.426634,0.339815,0.109571,0.0890324,0.087108,0.0922675,-443,-1037,-63.025,-10,-218.01,-10,3.148
0.180568,0.157652,0.426983,0.340166,0.109721,0.088261,0.0871492,0.0907632,-452,-1052,-63.2071,-10,-218.03,-10,3.152
0.181008,0.158004,0.427331,0.340523,0.109871,0.0881786,0.0871903,0.0902499,-455,-1057,-63.3971,-10,-218.064,-10,3.156
0.181447,0.158362,0.42768,0.340884,0.110021,0.0886131,0.0872312,0.0902531,-453,-1057,-63.5887,-10,-218.102,-10,3.16
0.181888,0.158722,0.428029,0.341245,0.110171,0.0890756,0.087272,0.0902552,-451,-1058,-63.7777,-10,-218.141,-10,3.164
0.182329,0.159078,0.428378,0.341596,0.110321,0.089096,0.0873127,0.0894505,-453,-1066,-63.964,-10,-218.181,-10,3.168
0.18277,0.159441,0.428728,0.341948,0.11047,0.0896278,0.0873533,0.0889716,-450,-1071,-64.1511,-10,-218.228,-10,3.172
0.183213,0.159809,0.429077,0.3423,0.110619,0.090443,0.0873938,0.0886812,-445,-1074,-64.3345,-10,-218.281,-10,3.176
0.183655,0.16018,0.429427,0.342657,0.110768,0.091188,0.0874341,0.0888618,-441,-1072,-64.5119,-10,-218.336,-10,3.18
0.184099,0.160556,0.429777,0.343019,0.110917,0.0921453,0.0874743,0.0893565,-434,-1068,-64.6837,-10,-218.389,-10,3.184
0.184543,0.160931,0.430127,0.343382,0.111065,0.0926684,0.0875144,0.0898015,-432,-1064,-64.8483,-10,-218.437,-10,3.188
0.184987,0.16131,0.430477,0.343746,0.111213,0.0933338,0.0875544,0.0902421,-428,-1060,-65.0094,-10,-218.481,-10,3.192
0.185432,0.161688,0.430827,0.34411,0.111361,0.0937774,0.0875943,0.0904782,-426,-1058,-65.1659,-10,-218.521,-10,3.196
0.185878,0.162071,0.431178,0.344474,0.111509,0.0944186,0.087634,0.0906645,-422,-1056,-65.3195,-10,-218.558,-10,3.2
0.186324,0.162458,0.431528,0.34484,0.111656,0.0951628,0.0876737,0.0909613,-418,-1054,-65.4685,-10,-218.594,-10,3.204
0.186771,0.16285,0.431879,0.345206,0.111803,0.0961483,0.0877132,0.0911305,-411,-1052,-65.6119,-10,-218.627,-10,3.208
0.187219,0.163246,0.43223,0.345575,0.11195,0.0970645,0.0877526,0.0914736,-405,-1049,-65.7477,-10,-218.658,-10,3.212
0.187667,0.163643,0.432581,0.345943,0.112097,0.0978192,0.0877918,0.0916735,-400,-1047,-65.8766,-10,-218.686,-10,3.216
0.188116,0.164045,0.432932,0.346315,0.112244,0.0986679,0.087831,0.0921235,-394,-1043,-65.9999,-10,-218.711,-10,3.22
0.188565,0.164448,0.433284,0.346683,0.11239,0.0993488,0.08787,0.0921068,-390,-1043,-66.1169,-10,-218.733,-10,3.224
0.189015,0.164856,0.433635,0.347055,0.112536,0.100292,0.0879089,0.0923548,-383,-1041,-66.2288,-10,-218.755,-10,3.228
0.189465,0.165264,0.433987,0.347424,0.112682,0.100864,0.0879477,0.0923761,-380,-1041,-66.3337,-10,-218.774,-10,3.232
0.189916,0.165679,0.434339,0.347799,0.112828,0.101763,0.0879864,0.0928222,-374,-1037,-66.4345,-10,-218.793,-10,3.236
0.190368,0.166086,0.434691,0.348165,0.112973,0.101815,0.0880249,0.0923423,-375,-1042,-66.5289,-10,-218.809,-10,3.24
0.19082,0.166501,0.435043,0.348537,0.113118,0.102455,0.0880633,0.0925981,-371,-1039,-66.6238,-10,-218.829,-10,3.244
0.191273,0.166912,0.435395,0.348905,0.113263,0.102507,0.0881016,0.0923656,-372,-1042,-66.7144,-10,-218.846,-10,3.248
0.191726,0.167325,0.435748,0.349277,0.113408,0.102829,0.0881398,0.0925849,-371,-1040,-66.8057,-10,-218.866,-10,3.252
0.19218,0.167739,0.4361,0.349645,0.113552,0.103044,0.0881778,0.0923856,-371,-1042,-66.8954,-10,-218.884,-10,3.256
0.192635,0.168156,0.436453,0.350013,0.113696,0.103447,0.0882158,0.0922815,-369,-1043,-66.9842,-10,-218.904,-10,3.26
0.19309,0.168573,0.436806,0.350377,0.11384,0.103686,0.0882536,0.0918379,-368,-1048,-67.0707,-10,-218.925,-10,3.264
0.193545,0.168988,0.437159,0.350737,0.113984,0.103702,0.0882912,0.0912254,-370,-1054,-67.1565,-10,-218.951,-10,3.268
0.194001,0.169405,0.437513,0.351099,0.114127,0.103914,0.0883288,0.090961,-369,-1057,-67.2432,-10,-218.983,-10,3.272
0.194458,0.169821,0.437866,0.351459,0.11427,0.10394,0.0883662,0.0906408,-371,-1060,-67.3293,-10,-219.018,-10,3.276
0.194916,0.170237,0.438219,0.35182,0.114413,0.103958,0.0884035,0.0905713,-372,-1061,-67.4164,-10,-219.056,-10,3.28
0.195374,0.17065,0.438573,0.352179,0.114556,0.10371,0.0884407,0.0902659,-376,-1064,-67.5047,-10,-219.095,-10,3.284
0.195832,0.171064,0.438927,0.352541,0.114699,0.103632,0.0884778,0.0903213,-378,-1064,-67.5964,-10,-219.137,-10,3.288
0.196291,0.171477,0.439281,0.352902,0.114841,0.103493,0.0885147,0.0903007,-381,-1064,-67.69,-10,-219.179,-10,3.292
0.196751,0.171901,0.439635,0.353276,0.114983,0.104322,0.0885515,0.0913523,-375,-1054,-67.7855,-10,-219.22,-10,3.296
0.197211,0.172307,0.439989,0.353637,0.115125,0.103435,0.0885882,0.0910168,-384,-1058,-67.8758,-10,-219.252,-10,3.3
0.197672,0.172711,0.440344,0.354,0.115266,0.102584,0.0886247,0.0908796,-393,-1059,-67.9751,-10,-219.286,-10,3.304
0.198133,0.173124,0.440698,0.354372,0.115407,0.102823,0.0886611,0.0915942,-393,-1053,-68.0827,-10,-219.322,-10,3.308
