peachynonah/Fire_monitor_KIRO_CDSL/csv_datas/trial12/cdsl_data_debug.csv
joint1_pos_desired, joint1_pos, joint2_pos_desired, joint2_pos, joint1_vel_desired, joint1_vel_filtered, joint2_vel_desired, joint2_vel_filtered, target_torque_joint1, target_torque_joint2, estimated_disturbance_joint1, saturated_DOB_joint1, estimated_disturbance_joint2, saturated_DOB_joint2, current_time
1.20204e-10,0.000516164,8.3175e-11,-0.000276393,9.01439e-08,0,6.2375e-08,0,5,-3,-0,-0,-98.3494,-98.3494,0.004
9.61343e-10,0.000516164,6.65201e-10,-0.000276393,3.60431e-07,0,2.494e-07,0,5,-3,-0.0252385,-0.0252385,-98.336,-98.336,0.008
3.24356e-09,0.000516164,2.24438e-09,-0.000276393,8.10646e-07,0,5.60926e-07,0,5,-3,-0.0504648,-0.0504648,-98.3226,-98.3226,0.012
7.68613e-09,0.000516164,5.31841e-09,-0.000276393,1.44057e-06,0,9.96803e-07,0,5,-3,-0.0756712,-0.0756712,-98.3092,-98.3092,0.016
1.50075e-08,0.000516164,1.03844e-08,-0.000276393,2.24999e-06,0,1.55688e-06,0,5,-3,-0.10085,-0.10085,-98.2957,-98.2957,0.02
2.59251e-08,0.000516164,1.79389e-08,-0.000276393,3.23869e-06,0,2.24101e-06,0,5,-3,-0.125993,-0.125993,-98.2822,-98.2822,0.024
4.11558e-08,0.000516164,2.84777e-08,-0.000276393,4.40646e-06,0,3.04904e-06,0,5,-3,-0.151093,-0.151093,-98.2687,-98.2687,0.028
6.14152e-08,0.000515818,4.24962e-08,-0.000276393,5.75307e-06,-2.87909e-05,3.98083e-06,0,5,-3,-0.176053,-0.176053,-98.2552,-98.2552,0.032
8.74185e-08,0.000515818,6.04892e-08,-0.000276393,7.27831e-06,-1.91939e-05,5.03622e-06,0,5,-3,-0.199823,-0.199823,-98.2416,-98.2416,0.036
1.1988e-07,0.000515818,8.29506e-08,-0.000276393,8.98196e-06,-1.2796e-05,6.21506e-06,0,5,-3,-0.223926,-0.223926,-98.228,-98.228,0.04
1.59512e-07,0.000515818,1.10374e-07,-0.000276393,1.08638e-05,-8.53064e-06,7.51721e-06,0,5,-3,-0.248222,-0.248222,-98.2143,-98.2143,0.044
2.07027e-07,0.000515818,1.43253e-07,-0.000276393,1.29237e-05,-5.6871e-06,8.94252e-06,0,5,-3,-0.272613,-0.272613,-98.2006,-98.2006,0.048
2.63138e-07,0.000515818,1.82078e-07,-0.000276393,1.51613e-05,-3.7914e-06,1.04908e-05,0,5,-3,-0.297032,-0.297032,-98.1868,-98.1868,0.052
3.28554e-07,0.000515818,2.27343e-07,-0.000276393,1.75764e-05,-2.5276e-06,1.2162e-05,0,5,-3,-0.321431,-0.321431,-98.1729,-98.1729,0.056
4.03986e-07,0.000515818,2.79538e-07,-0.000276393,2.01689e-05,-1.68507e-06,1.39559e-05,0,5,-3,-0.345775,-0.345775,-98.159,-98.159,0.06
4.90142e-07,0.000515818,3.39154e-07,-0.000276393,2.29386e-05,-1.12338e-06,1.58723e-05,0,5,-3,-0.37004,-0.37004,-98.145,-98.145,0.064
5.8773e-07,0.000515818,4.0668e-07,-0.000276393,2.58851e-05,-7.48918e-07,1.79112e-05,0,5,-3,-0.394205,-0.394205,-98.1308,-98.1308,0.068
6.97458e-07,0.000515818,4.82606e-07,-0.000276393,2.90083e-05,-4.99279e-07,2.00723e-05,0,5,-3,-0.418254,-0.418254,-98.1167,-98.1167,0.072
8.20032e-07,0.000515818,5.67421e-07,-0.000276393,3.2308e-05,-3.32852e-07,2.23555e-05,0,5,-3,-0.442174,-0.442174,-98.1024,-98.1024,0.076
9.56158e-07,0.000515818,6.61613e-07,-0.000276393,3.5784e-05,-2.21902e-07,2.47607e-05,0,5,-3,-0.465953,-0.465953,-98.088,-98.088,0.08
1.10654e-06,0.000515818,7.65669e-07,-0.000276393,3.9436e-05,-1.47934e-07,2.72877e-05,0,5,-3,-0.48958,-0.48958,-98.0735,-98.0735,0.084
1.27188e-06,0.000515818,8.80077e-07,-0.000276393,4.32639e-05,-9.86229e-08,2.99364e-05,0,5,-3,-0.513047,-0.513047,-98.0589,-98.0589,0.088
1.45288e-06,0.000515818,1.00532e-06,-0.000276393,4.72673e-05,-6.57486e-08,3.27066e-05,0,5,-3,-0.536344,-0.536344,-98.0441,-98.0441,0.092
1.65025e-06,0.000515818,1.14189e-06,-0.000276393,5.14462e-05,-4.38324e-08,3.55982e-05,0,5,-3,-0.559461,-0.559461,-98.0293,-98.0293,0.096
1.86469e-06,0.000515818,1.29027e-06,-0.000276393,5.58003e-05,-2.92216e-08,3.8611e-05,0,5,-3,-0.58239,-0.58239,-98.0143,-98.0143,0.1
2.09689e-06,0.000515818,1.45094e-06,-0.000276393,6.03293e-05,-1.94811e-08,4.17448e-05,0,5,-3,-0.605122,-0.605122,-97.9992,-97.9992,0.104
2.34756e-06,0.000515818,1.62439e-06,-0.000276393,6.50331e-05,-1.29874e-08,4.49996e-05,0,5,-3,-0.627649,-0.627649,-97.9839,-97.9839,0.108
2.61739e-06,0.000515818,1.8111e-06,-0.000276393,6.99115e-05,-8.65826e-09,4.83752e-05,0,5,-3,-0.649962,-0.649962,-97.9685,-97.9685,0.112
2.90708e-06,0.000515818,2.01155e-06,-0.000276393,7.49642e-05,-5.77217e-09,5.18714e-05,0,5,-3,-0.672053,-0.672053,-97.953,-97.953,0.116
3.21733e-06,0.000515818,2.22623e-06,-0.000276393,8.0191e-05,-3.84811e-09,5.54881e-05,0,5,-4,-0.693913,-0.693913,-97.9372,-97.9372,0.12
3.54884e-06,0.000515818,2.45562e-06,-0.000276393,8.55917e-05,-2.56541e-09,5.92251e-05,0,5,-4,-0.715533,-0.715533,-97.9214,-97.9214,0.124
3.9023e-06,0.000515818,2.70019e-06,-0.000276393,9.11661e-05,-1.71027e-09,6.30823e-05,0,5,-4,-0.736906,-0.736906,-97.9053,-97.9053,0.128
4.2784e-06,0.000515818,2.96044e-06,-0.000276393,9.6914e-05,-1.14018e-09,6.70596e-05,0,5,-4,-0.758023,-0.758023,-97.8891,-97.8891,0.132
4.67784e-06,0.000515818,3.23683e-06,-0.000276393,0.000102835,-7.60121e-10,7.11567e-05,0,5,-4,-0.778875,-0.778875,-97.8727,-97.8727,0.136
5.10131e-06,0.000515818,3.52985e-06,-0.000276393,0.000108929,-5.06748e-10,7.53736e-05,0,5,-4,-0.799453,-0.799453,-97.8561,-97.8561,0.14
5.5495e-06,0.000515818,3.83998e-06,-0.000276393,0.000115196,-3.37832e-10,7.97101e-05,0,5,-4,-0.819749,-0.819749,-97.8393,-97.8393,0.144
6.02311e-06,0.000515818,4.16769e-06,-0.000276393,0.000121636,-2.25221e-10,8.4166e-05,0,5,-4,-0.839755,-0.839755,-97.8223,-97.8223,0.148
6.52282e-06,0.000515818,4.51346e-06,-0.000276393,0.000128248,-1.50147e-10,8.87412e-05,0,5,-4,-0.859462,-0.859462,-97.8051,-97.8051,0.152
7.04933e-06,0.000515818,4.87778e-06,-0.000276393,0.000135032,-1.00098e-10,9.34356e-05,0,5,-4,-0.87886,-0.87886,-97.7877,-97.7877,0.156
7.60331e-06,0.000515818,5.26111e-06,-0.000276393,0.000141989,-6.67322e-11,9.82489e-05,0,5,-4,-0.897942,-0.897942,-97.7701,-97.7701,0.16
8.18546e-06,0.000515818,5.66393e-06,-0.000276393,0.000149117,-4.44881e-11,0.000103181,0,5,-4,-0.916699,-0.916699,-97.7522,-97.7522,0.164
8.79647e-06,0.000515818,6.08671e-06,-0.000276393,0.000156416,-2.96587e-11,0.000108232,0,5,-4,-0.935121,-0.935121,-97.7342,-97.7342,0.168
9.43702e-06,0.000515818,6.52994e-06,-0.000276393,0.000163887,-1.97725e-11,0.000113402,0,4,-4,-0.953201,-0.953201,-97.7158,-97.7158,0.172
1.01078e-05,0.000515818,6.99409e-06,-0.000276393,0.000171529,-1.31817e-11,0.00011869,0,4,-4,-0.97093,-0.97093,-97.6973,-97.6973,0.176
1.08095e-05,0.000515818,7.47962e-06,-0.000276393,0.000179342,-8.78778e-12,0.000124096,0,4,-4,-0.988298,-0.988298,-97.6785,-97.6785,0.18
1.15428e-05,0.000515818,7.98701e-06,-0.000276393,0.000187326,-5.85852e-12,0.00012962,0,4,-5,-1.0053,-1.0053,-97.6594,-97.6594,0.184
1.23083e-05,0.000515818,8.51673e-06,-0.000276393,0.00019548,-3.90568e-12,0.000135262,0,4,-5,-1.02192,-1.02192,-97.6401,-97.6401,0.188
1.31068e-05,0.000515818,9.06927e-06,-0.000276393,0.000203805,-2.60379e-12,0.000141022,0,4,-5,-1.03815,-1.03815,-97.6205,-97.6205,0.192
1.3939e-05,0.000515818,9.64507e-06,-0.000276393,0.000212299,-1.73586e-12,0.0001469,0,4,-5,-1.05399,-1.05399,-97.6007,-97.6007,0.196
1.48055e-05,0.000515818,1.02446e-05,-0.000276393,0.000220964,-1.15724e-12,0.000152896,0,4,-5,-1.06942,-1.06942,-97.5806,-97.5806,0.2
1.57069e-05,0.000515818,1.08684e-05,-0.000276393,0.000229798,-7.71492e-13,0.000159008,0,4,-5,-1.08444,-1.08444,-97.5602,-97.5602,0.204
1.66441e-05,0.000515818,1.15168e-05,-0.000276393,0.000238801,-5.14328e-13,0.000165238,0,4,-5,-1.09904,-1.09904,-97.5395,-97.5395,0.208
1.76176e-05,0.000515818,1.21905e-05,-0.000276393,0.000247974,-3.42885e-13,0.000171585,0,4,-5,-1.11321,-1.11321,-97.5185,-97.5185,0.212
1.86281e-05,0.000515818,1.28897e-05,-0.000276393,0.000257316,-2.2859e-13,0.000178049,0,4,-5,-1.12693,-1.12693,-97.4972,-97.4972,0.216
1.96763e-05,0.000515818,1.3615e-05,-0.000276393,0.000266826,-1.52393e-13,0.00018463,0,4,-5,-1.14021,-1.14021,-97.4755,-97.4755,0.22
2.07629e-05,0.000515818,1.43669e-05,-0.000276393,0.000276505,-1.01596e-13,0.000191328,0,3,-5,-1.15302,-1.15302,-97.4536,-97.4536,0.224
2.18886e-05,0.000515818,1.51458e-05,-0.000276393,0.000286353,-6.77304e-14,0.000198142,0,3,-6,-1.16537,-1.16537,-97.4314,-97.4314,0.228
2.3054e-05,0.000515818,1.59522e-05,-0.000276393,0.000296368,-4.51536e-14,0.000205072,0,3,-6,-1.17724,-1.17724,-97.4088,-97.4088,0.232
2.42597e-05,0.000515818,1.67865e-05,-0.000276393,0.000306552,-3.01024e-14,0.000212118,0,3,-6,-1.18863,-1.18863,-97.3859,-97.3859,0.236
2.55066e-05,0.000515818,1.76493e-05,-0.000276393,0.000316903,-2.00683e-14,0.000219281,0,3,-6,-1.19952,-1.19952,-97.3626,-97.3626,0.24
2.67952e-05,0.000515818,1.85409e-05,-0.000276393,0.000327422,-1.33789e-14,0.00022656,0,3,-6,-1.2099,-1.2099,-97.3391,-97.3391,0.244
2.81262e-05,0.000515818,1.94619e-05,-0.000276393,0.000338108,-8.91924e-15,0.000233954,0,3,-6,-1.21978,-1.21978,-97.3151,-97.3151,0.248
2.95003e-05,0.000515818,2.04127e-05,-0.000276393,0.000348962,-5.94616e-15,0.000241464,0,3,-6,-1.22913,-1.22913,-97.2908,-97.2908,0.252
3.09181e-05,0.000515818,2.13938e-05,-0.000276393,0.000359982,-3.9641e-15,0.000249089,0,3,-6,-1.23794,-1.23794,-97.2661,-97.2661,0.256
3.23804e-05,0.000515818,2.24056e-05,-0.000276393,0.000371169,-2.64274e-15,0.00025683,0,2,-6,-1.24622,-1.24622,-97.2411,-97.2411,0.26
3.38877e-05,0.000515818,2.34486e-05,-0.000276393,0.000382522,-1.76182e-15,0.000264686,0,2,-6,-1.25394,-1.25394,-97.2157,-97.2157,0.264
3.54407e-05,0.000515818,2.45232e-05,-0.000276393,0.000394042,-1.17455e-15,0.000272657,0,2,-7,-1.26111,-1.26111,-97.1899,-97.1899,0.268
3.70402e-05,0.000515818,2.563e-05,-0.000276393,0.000405727,-7.83033e-16,0.000280743,0,2,-7,-1.2677,-1.2677,-97.1637,-97.1637,0.272
3.86868e-05,0.000515818,2.67693e-05,-0.000276393,0.000417579,-5.22022e-16,0.000288943,0,2,-7,-1.27372,-1.27372,-97.1371,-97.1371,0.276
4.03811e-05,0.000515818,2.79417e-05,-0.000276393,0.000429596,-3.48015e-16,0.000297259,0,2,-7,-1.27915,-1.27915,-97.1101,-97.1101,0.28
4.21238e-05,0.000515818,2.91475e-05,-0.000276393,0.000441778,-2.3201e-16,0.000305688,0,2,-7,-1.28398,-1.28398,-97.0827,-97.0827,0.284
4.39155e-05,0.000515818,3.03873e-05,-0.000276393,0.000454126,-1.54673e-16,0.000314232,0,2,-7,-1.2882,-1.2882,-97.0549,-97.0549,0.288
4.5757e-05,0.000515818,3.16615e-05,-0.000276393,0.000466639,-1.03115e-16,0.000322891,0,1,-7,-1.29181,-1.29181,-97.0266,-97.0266,0.292
4.76489e-05,0.000515818,3.29706e-05,-0.000276393,0.000479317,-6.87436e-17,0.000331663,0,1,-7,-1.29479,-1.29479,-96.998,-96.998,0.296
4.95918e-05,0.000515818,3.4315e-05,-0.000276393,0.000492159,-4.58291e-17,0.000340549,0,1,-8,-1.29714,-1.29714,-96.9688,-96.9688,0.3
5.15864e-05,0.000515818,3.56951e-05,-0.000276393,0.000505165,-3.05527e-17,0.000349549,0,1,-8,-1.29884,-1.29884,-96.9393,-96.9393,0.304
5.36333e-05,0.000515818,3.71115e-05,-0.000276393,0.000518336,-2.03685e-17,0.000358662,0,1,-8,-1.29989,-1.29989,-96.9093,-96.9093,0.308
5.57333e-05,0.000515818,3.85646e-05,-0.000276393,0.000531671,-1.3579e-17,0.000367889,0,1,-8,-1.30027,-1.30027,-96.8788,-96.8788,0.312
5.78869e-05,0.000515818,4.00548e-05,-0.000276393,0.000545169,-9.05266e-18,0.000377229,0,1,-8,-1.29998,-1.29998,-96.8479,-96.8479,0.316
6.00948e-05,0.000515818,4.15826e-05,-0.000276393,0.000558831,-6.03511e-18,0.000386683,0,0,-8,-1.299,-1.299,-96.8165,-96.8165,0.32
6.23577e-05,0.000515818,4.31484e-05,-0.000276393,0.000572656,-4.0234e-18,0.000396249,0,0,-8,-1.29733,-1.29733,-96.7847,-96.7847,0.324
6.46763e-05,0.000515818,4.47527e-05,-0.000276393,0.000586644,-2.68227e-18,0.000405928,0,0,-9,-1.29496,-1.29496,-96.7523,-96.7523,0.328
6.70511e-05,0.000515818,4.6396e-05,-0.000276393,0.000600796,-1.78818e-18,0.00041572,0,0,-9,-1.29188,-1.29188,-96.7195,-96.7195,0.332
6.94829e-05,0.000515818,4.80786e-05,-0.000276393,0.00061511,-1.19212e-18,0.000425625,0,0,-9,-1.28807,-1.28807,-96.6861,-96.6861,0.336
7.19722e-05,0.000515818,4.98011e-05,-0.000276393,0.000629586,-7.94747e-19,0.000435642,0,0,-9,-1.28354,-1.28354,-96.6523,-96.6523,0.34
7.45198e-05,0.000515818,5.15639e-05,-0.000276393,0.000644225,-5.29831e-19,0.000445771,0,0,-9,-1.27826,-1.27826,-96.618,-96.618,0.344
7.71262e-05,0.000515818,5.33674e-05,-0.000276393,0.000659026,-3.53221e-19,0.000456012,0,0,-9,-1.27223,-1.27223,-96.5831,-96.5831,0.348
7.97922e-05,0.000515818,5.52122e-05,-0.000276393,0.000673988,-2.3548e-19,0.000466366,0,0,-9,-1.26543,-1.26543,-96.5477,-96.5477,0.352
8.25183e-05,0.000515818,5.70985e-05,-0.000276393,0.000689112,-1.56987e-19,0.000476831,0,0,-10,-1.25787,-1.25787,-96.5118,-96.5118,0.356
8.53053e-05,0.000515818,5.9027e-05,-0.000276393,0.000704398,-1.04658e-19,0.000487408,0,0,-10,-1.24953,-1.24953,-96.4754,-96.4754,0.36
8.81537e-05,0.000515818,6.09979e-05,-0.000276393,0.000719845,-6.9772e-20,0.000498096,0,-1,-10,-1.24039,-1.24039,-96.4384,-96.4384,0.364
9.10643e-05,0.000515818,6.30119e-05,-0.000276393,0.000735453,-4.65147e-20,0.000508896,0,-1,-10,-1.23045,-1.23045,-96.4008,-96.4008,0.368
9.40376e-05,0.000515818,6.50693e-05,-0.000276393,0.000751222,-3.10098e-20,0.000519808,0,-1,-10,-1.21971,-1.21971,-96.3627,-96.3627,0.372
9.70743e-05,0.000515818,6.71705e-05,-0.000276393,0.000767151,-2.06732e-20,0.00053083,0,-1,-10,-1.20814,-1.20814,-96.3241,-96.3241,0.376
0.000100175,0.000515818,6.9316e-05,-0.000276393,0.000783241,-1.37821e-20,0.000541963,0,-1,-11,-1.19574,-1.19574,-96.2849,-96.2849,0.38
0.00010334,0.000515818,7.15063e-05,-0.000276393,0.000799491,-9.18808e-21,0.000553207,0,-2,-11,-1.1825,-1.1825,-96.245,-96.245,0.384
0.000106571,0.000515818,7.37418e-05,-0.000276393,0.000815901,-6.12539e-21,0.000564562,0,-2,-11,-1.16841,-1.16841,-96.2047,-96.2047,0.388
0.000109868,0.000515818,7.6023e-05,-0.000276393,0.000832471,-4.08359e-21,0.000576028,0,-2,-11,-1.15346,-1.15346,-96.1637,-96.1637,0.392
0.000113231,0.000515818,7.83502e-05,-0.000276393,0.0008492,-2.72239e-21,0.000587604,0,-2,-11,-1.13764,-1.13764,-96.1221,-96.1221,0.396
0.000116662,0.000515818,8.0724e-05,-0.000276393,0.000866089,-1.81493e-21,0.00059929,0,-2,-11,-1.12094,-1.12094,-96.0799,-96.0799,0.4
0.00012016,0.000515818,8.31447e-05,-0.000276393,0.000883137,-1.20995e-21,0.000611086,0,-3,-12,-1.10335,-1.10335,-96.0371,-96.0371,0.404
0.000123727,0.000515818,8.56128e-05,-0.000276393,0.000900343,-8.06635e-22,0.000622992,0,-3,-12,-1.08486,-1.08486,-95.9937,-95.9937,0.408
0.000127363,0.000515818,8.81288e-05,-0.000276393,0.000917709,-5.37757e-22,0.000635008,0,-3,-12,-1.06545,-1.06545,-95.9497,-95.9497,0.412
0.000131069,0.000515818,9.0693e-05,-0.000276393,0.000935233,-3.58505e-22,0.000647134,0,-3,-12,-1.04512,-1.04512,-95.905,-95.905,0.416
0.000134845,0.000515818,9.3306e-05,-0.000276393,0.000952915,-2.39003e-22,0.000659369,0,-3,-12,-1.02387,-1.02387,-95.8597,-95.8597,0.42
0.000138692,0.000515818,9.59681e-05,-0.000276393,0.000970756,-1.59335e-22,0.000671714,0,-4,-13,-1.00167,-1.00167,-95.8137,-95.8137,0.424
0.000142611,0.000515818,9.86798e-05,-0.000276393,0.000988754,-1.06224e-22,0.000684168,0,-4,-13,-0.978515,-0.978515,-95.7671,-95.7671,0.428
0.000146603,0.000515818,0.000101442,-0.000276047,0.00100691,-7.08157e-23,0.000696731,2.87909e-05,-4,-13,-0.954401,-0.954401,-95.7199,-95.7199,0.432
0.000150667,0.000515818,0.000104254,-0.000276047,0.00102522,-4.72105e-23,0.000709403,1.91939e-05,-4,-13,-0.929314,-0.929314,-95.6732,-95.6732,0.436
0.000154805,0.000515818,0.000107117,-0.000276047,0.00104369,-3.14737e-23,0.000722184,1.2796e-05,-5,-13,-0.903244,-0.903244,-95.6254,-95.6254,0.44
0.000159017,0.000515818,0.000110031,-0.000276047,0.00106232,-2.09824e-23,0.000735073,8.53064e-06,-5,-13,-0.876181,-0.876181,-95.5767,-95.5767,0.444
0.000163303,0.000515818,0.000112998,-0.000276047,0.00108111,-1.39883e-23,0.000748071,5.6871e-06,-5,-14,-0.848115,-0.848115,-95.5271,-95.5271,0.448
0.000167666,0.000515818,0.000116016,-0.000276047,0.00110005,-9.32553e-24,0.000761178,3.7914e-06,-5,-14,-0.819035,-0.819035,-95.4766,-95.4766,0.452
0.000172104,0.000515818,0.000119087,-0.000276047,0.00111915,-6.21702e-24,0.000774393,2.5276e-06,-6,-14,-0.78893,-0.78893,-95.4254,-95.4254,0.456
0.000176619,0.000515818,0.000122211,-0.000276047,0.0011384,-4.14468e-24,0.000787716,1.68507e-06,-6,-14,-0.75779,-0.75779,-95.3734,-95.3734,0.46
0.000181211,0.000515818,0.000125389,-0.000276047,0.00115781,-2.76312e-24,0.000801146,1.12338e-06,-6,-15,-0.725606,-0.725606,-95.3207,-95.3207,0.464
0.000185882,0.000515818,0.000128621,-0.000276047,0.00117738,-1.84208e-24,0.000814685,7.48918e-07,-7,-15,-0.692365,-0.692365,-95.2673,-95.2673,0.468
0.000190631,0.000515818,0.000131907,-0.000276047,0.0011971,-1.22805e-24,0.000828331,4.99279e-07,-7,-15,-0.658059,-0.658059,-95.213,-95.213,0.472
0.000195459,0.000515818,0.000135248,-0.000276047,0.00121698,-8.18702e-25,0.000842085,3.32852e-07,-7,-15,-0.622676,-0.622676,-95.1581,-95.1581,0.476
0.000200367,0.000515818,0.000138644,-0.000276047,0.00123701,-5.45801e-25,0.000855947,2.21902e-07,-7,-16,-0.586205,-0.586205,-95.1024,-95.1024,0.48
0.000205355,0.000515818,0.000142095,-0.000276047,0.00125719,-3.63868e-25,0.000869915,1.47934e-07,-8,-16,-0.548637,-0.548637,-95.0459,-95.0459,0.484
0.000210424,0.000516164,0.000145603,-0.000276047,0.00127754,2.87909e-05,0.000883991,9.86229e-08,-8,-16,-0.510049,-0.510049,-94.9886,-94.9886,0.488
0.000215575,0.000516509,0.000149167,-0.000276047,0.00129803,4.79849e-05,0.000898174,6.57486e-08,-8,-16,-0.471561,-0.471561,-94.9306,-94.9306,0.492
0.000220809,0.000516509,0.000152789,-0.000276047,0.00131868,3.19899e-05,0.000912463,4.38324e-08,-8,-16,-0.432675,-0.432675,-94.8718,-94.8718,0.496
0.000226125,0.000516509,0.000156467,-0.000276047,0.00133949,2.13266e-05,0.000926859,2.92216e-08,-9,-17,-0.39198,-0.39198,-94.8123,-94.8123,0.5
0.000231525,0.000516509,0.000160204,-0.000276047,0.00136045,1.42177e-05,0.000941362,1.94811e-08,-9,-17,-0.349689,-0.349689,-94.7519,-94.7519,0.504
0.000237009,0.000516509,0.000163998,-0.000275702,0.00138156,9.47849e-06,0.000955971,2.88039e-05,-9,-17,-0.30594,-0.30594,-94.6908,-94.6908,0.508
0.000242578,0.000516509,0.000167852,-0.000275702,0.00140283,6.319e-06,0.000970687,1.92026e-05,-10,-17,-0.260821,-0.260821,-94.6301,-94.6301,0.512
0.000248232,0.000516509,0.000171764,-0.000275702,0.00142425,4.21266e-06,0.000985508,1.28017e-05,-10,-18,-0.214387,-0.214387,-94.5681,-94.5681,0.516
0.000253972,0.000516509,0.000175736,-0.000275702,0.00144582,2.80844e-06,0.00100044,8.53449e-06,-10,-18,-0.166671,-0.166671,-94.5051,-94.5051,0.52
0.000259799,0.000516509,0.000179767,-0.000275702,0.00146755,1.8723e-06,0.00101547,5.68966e-06,-11,-18,-0.117692,-0.117692,-94.441,-94.441,0.524
0.000265712,0.000516509,0.00018386,-0.000275702,0.00148943,1.2482e-06,0.00103061,3.79311e-06,-11,-18,-0.0674593,-0.0674593,-94.376,-94.376,0.528
0.000271714,0.000516855,0.000188012,-0.000275702,0.00151146,2.96231e-05,0.00104585,2.52874e-06,-11,-19,-0.0160623,-0.0160623,-94.3101,-94.3101,0.532
0.000277804,0.000516855,0.000192227,-0.000275702,0.00153364,1.97487e-05,0.0010612,1.68583e-06,-12,-19,0.0354571,0.0354571,-94.2433,-94.2433,0.536
0.000283984,0.000516855,0.000196502,-0.000275702,0.00155598,1.31658e-05,0.00107666,1.12388e-06,-12,-19,0.0886367,0.0886367,-94.1755,-94.1755,0.54
0.000290252,0.000516855,0.00020084,-0.000275702,0.00157847,8.7772e-06,0.00109222,7.49256e-07,-12,-19,0.14335,0.14335,-94.1069,-94.1069,0.544
0.000296611,0.000516855,0.00020524,-0.000275702,0.00160111,5.85147e-06,0.00110788,4.99504e-07,-13,-20,0.199515,0.199515,-94.0374,-94.0374,0.548
0.000303061,0.000516855,0.000209703,-0.000275702,0.0016239,3.90098e-06,0.00112365,3.33003e-07,-13,-20,0.257083,0.257083,-93.9671,-93.9671,0.552
0.000309603,0.000516855,0.00021423,-0.000276047,0.00164684,2.60065e-06,0.00113953,-2.85689e-05,-13,-21,0.316024,0.316024,-93.8957,-93.8957,0.556
0.000316236,0.000516855,0.00021882,-0.000275702,0.00166993,1.73377e-06,0.00115551,9.74498e-06,-14,-20,0.376321,0.376321,-93.8224,-93.8224,0.56
0.000322963,0.000516855,0.000223474,-0.000275702,0.00169318,1.15585e-06,0.00117159,6.49665e-06,-14,-21,0.437968,0.437968,-93.7497,-93.7497,0.564
0.000329782,0.0005172,0.000228192,-0.000275356,0.00171657,2.95615e-05,0.00118778,3.3122e-05,-14,-21,0.500874,0.500874,-93.6761,-93.6761,0.568
0.000336695,0.0005172,0.000232976,-0.000275356,0.00174012,1.97077e-05,0.00120407,2.20814e-05,-15,-21,0.564001,0.564001,-93.6026,-93.6026,0.572
0.000343703,0.0005172,0.000237825,-0.000275356,0.00176381,1.31384e-05,0.00122047,1.47209e-05,-15,-22,0.628885,0.628885,-93.5277,-93.5277,0.576
0.000350806,0.0005172,0.00024274,-0.000275356,0.00178766,8.75896e-06,0.00123697,9.81393e-06,-16,-22,0.6954,0.6954,-93.4516,-93.4516,0.58
0.000358005,0.000517546,0.000247721,-0.000275356,0.00181165,3.46302e-05,0.00125357,6.54262e-06,-16,-22,0.763379,0.763379,-93.3743,-93.3743,0.584
0.000365299,0.000517546,0.000252769,-0.000275356,0.0018358,2.30868e-05,0.00127028,4.36175e-06,-16,-22,0.831727,0.831727,-93.2959,-93.2959,0.588
0.000372691,0.000517546,0.000257883,-0.000275356,0.0018601,1.53912e-05,0.00128709,2.90783e-06,-17,-23,0.901948,0.901948,-93.2165,-93.2165,0.592
0.00038018,0.000517546,0.000263066,-0.000275356,0.00188454,1.02608e-05,0.00130401,1.93855e-06,-17,-23,0.973892,0.973892,-93.1361,-93.1361,0.596
0.000387768,0.000517891,0.000268316,-0.000275011,0.00190913,3.56315e-05,0.00132102,3.00833e-05,-17,-23,1.04738,1.04738,-93.0547,-93.0547,0.6
0.000395454,0.000517891,0.000273634,-0.000275356,0.00193388,2.37543e-05,0.00133814,-8.7354e-06,-18,-24,1.12129,1.12129,-92.9734,-92.9734,0.604
0.000403239,0.000517891,0.000279021,-0.000275011,0.00195877,1.58362e-05,0.00135537,2.29673e-05,-18,-24,1.19714,1.19714,-92.8897,-92.8897,0.608
0.000411124,0.000517891,0.000284477,-0.000275356,0.00198381,1.05575e-05,0.00137269,-1.34794e-05,-19,-24,1.27477,1.27477,-92.8061,-92.8061,0.612
0.00041911,0.000518582,0.000290003,-0.000275011,0.00200899,6.46202e-05,0.00139012,1.98047e-05,-19,-24,1.3539,1.3539,-92.7201,-92.7201,0.616
0.000427196,0.000518237,0.000295598,-0.000275011,0.00203433,1.42892e-05,0.00140765,1.32031e-05,-19,-25,1.43247,1.43247,-92.6345,-92.6345,0.62
0.000435384,0.000518237,0.000301264,-0.000275011,0.00205981,9.52612e-06,0.00142529,8.80208e-06,-20,-25,1.51455,1.51455,-92.5476,-92.5476,0.624
0.000443675,0.000518237,0.000307001,-0.000275011,0.00208544,6.35075e-06,0.00144302,5.86805e-06,-20,-26,1.59832,1.59832,-92.4594,-92.4594,0.628
0.000452068,0.000518237,0.000312808,-0.000275011,0.00211122,4.23383e-06,0.00146086,3.91203e-06,-21,-26,1.68373,1.68373,-92.3701,-92.3701,0.632
0.000460565,0.000518582,0.000318688,-0.000274665,0.00213715,3.16135e-05,0.0014788,3.13989e-05,-21,-26,1.77065,1.77065,-92.2798,-92.2798,0.636
0.000469165,0.000518582,0.000324639,-0.000274665,0.00216322,2.10757e-05,0.00149684,2.09326e-05,-22,-26,1.85802,1.85802,-92.1895,-92.1895,0.64
0.000477871,0.000518582,0.000330662,-0.000274665,0.00218944,1.40504e-05,0.00151498,1.39551e-05,-22,-27,1.94737,1.94737,-92.0977,-92.0977,0.644
0.000486681,0.000518928,0.000336759,-0.000274665,0.00221581,3.81579e-05,0.00153323,9.30339e-06,-22,-27,2.03848,2.03848,-92.0046,-92.0046,0.648
0.000495597,0.000518928,0.000342928,-0.000273974,0.00224232,2.54386e-05,0.00155157,6.37841e-05,-23,-27,2.13021,2.13021,-91.9104,-91.9104,0.652
0.00050462,0.000519273,0.000349172,-0.00027432,0.00226898,4.575e-05,0.00157002,1.37318e-05,-23,-28,2.22395,2.22395,-91.8171,-91.8171,0.656
0.000513749,0.000519273,0.000355489,-0.00027432,0.00229578,3.05e-05,0.00158857,9.15454e-06,-24,-28,2.31849,2.31849,-91.7207,-91.7207,0.66
0.000522986,0.000519273,0.00036188,-0.00027432,0.00232274,2.03333e-05,0.00160722,6.10303e-06,-24,-29,2.41527,2.41527,-91.6231,-91.6231,0.664
0.000532332,0.000519619,0.000368346,-0.00027432,0.00234983,4.23465e-05,0.00162596,4.06869e-06,-24,-29,2.51399,2.51399,-91.5242,-91.5242,0.668
0.000541785,0.000519619,0.000374888,-0.00027432,0.00237707,2.8231e-05,0.00164481,2.71246e-06,-25,-29,2.61348,2.61348,-91.4241,-91.4241,0.672
0.000551348,0.000519619,0.000381505,-0.00027432,0.00240446,1.88207e-05,0.00166377,1.8083e-06,-26,-30,2.71519,2.71519,-91.3229,-91.3229,0.676
0.000561021,0.000519964,0.000388198,-0.000273974,0.00243199,4.1338e-05,0.00168282,2.99965e-05,-26,-30,2.81884,2.81884,-91.2205,-91.2205,0.68
0.000570804,0.000519964,0.000394968,-0.000273974,0.00245967,2.75587e-05,0.00170197,1.99976e-05,-27,-30,2.92328,2.92328,-91.1182,-91.1182,0.684
0.000580699,0.00052031,0.000401814,-0.000273629,0.00248749,4.71634e-05,0.00172122,4.21227e-05,-27,-30,3.02986,3.02986,-91.0144,-91.0144,0.688
0.000590705,0.000520655,0.000408738,-0.000273629,0.00251546,6.02332e-05,0.00174057,2.80818e-05,-27,-31,3.13729,3.13729,-90.9102,-90.9102,0.692
0.000600823,0.000521001,0.000415739,-0.000273629,0.00254357,6.89464e-05,0.00176002,1.87212e-05,-28,-31,3.24584,3.24584,-90.8044,-90.8044,0.696
0.000611053,0.000521692,0.000422818,-0.000273283,0.00257182,0.000103546,0.00177957,4.12717e-05,-28,-31,3.35561,3.35561,-90.697,-90.697,0.7
0.000621397,0.000522037,0.000429976,-0.000273283,0.00260022,9.78217e-05,0.00179922,2.75145e-05,-28,-32,3.46571,3.46571,-90.5894,-90.5894,0.704
0.000631855,0.000522728,0.000437212,-0.000273283,0.00262876,0.000122796,0.00181897,1.8343e-05,-29,-32,3.57766,3.57766,-90.48,-90.48,0.708
0.000642428,0.000523419,0.000444527,-0.000273283,0.00265745,0.000139446,0.00183882,1.22287e-05,-29,-33,3.69027,3.69027,-90.369,-90.369,0.712
0.000653115,0.00052411,0.000451923,-0.000272938,0.00268628,0.000150546,0.00185877,3.69434e-05,-29,-33,3.80389,3.80389,-90.2567,-90.2567,0.716
0.000663918,0.000524801,0.000459398,-0.000272592,0.00271525,0.000157946,0.00187881,5.34198e-05,-30,-33,3.91878,3.91878,-90.1442,-90.1442,0.72
0.000674837,0.000525837,0.000466953,-0.000271901,0.00274436,0.00019167,0.00189896,9.31951e-05,-30,-33,4.035,4.035,-90.0312,-90.0312,0.724
0.000685873,0.000526528,0.00047459,-0.000271556,0.00277362,0.000185362,0.0019192,9.0921e-05,-30,-34,4.15162,4.15162,-89.9187,-89.9187,0.728
0.000697026,0.000527565,0.000482307,-0.00027052,0.00280302,0.000209947,0.00193955,0.000146987,-31,-34,4.27019,4.27019,-89.805,-89.805,0.732
0.000708297,0.000528256,0.000490106,-0.000270174,0.00283256,0.000197547,0.00195999,0.000126782,-31,-34,4.38957,4.38957,-89.6923,-89.6923,0.736
0.000719687,0.000529292,0.000497987,-0.000269138,0.00286224,0.000218071,0.00198053,0.000170894,-32,-34,4.51115,4.51115,-89.5777,-89.5777,0.74
0.000731196,0.000530329,0.00050595,-0.000268447,0.00289207,0.000231753,0.00200116,0.000171511,-32,-34,4.63366,4.63366,-89.4636,-89.4636,0.744
0.000742824,0.000531365,0.000513996,-0.000266719,0.00292203,0.000240875,0.0020219,0.000258295,-33,-34,4.75739,4.75739,-89.3486,-89.3486,0.748
0.000754572,0.000532056,0.000522126,-0.000265337,0.00295214,0.000218165,0.00204273,0.000287361,-33,-34,4.88262,4.88262,-89.2359,-89.2359,0.752
0.000766441,0.000533438,0.000530338,-0.000262919,0.00298239,0.000260607,0.00206366,0.00039311,-33,-33,5.01046,5.01046,-89.1234,-89.1234,0.756
0.000778431,0.000534475,0.000538635,-0.000261191,0.00301278,0.000260111,0.00208469,0.000406028,-34,-34,5.13842,5.13842,-89.014,-89.014,0.76
0.000790543,0.000535511,0.000547016,-0.000258773,0.00304331,0.00025978,0.00210582,0.000472222,-35,-33,5.26823,5.26823,-88.9041,-88.9041,0.764
0.000802778,0.000536548,0.000555482,-0.0002567,0.00307398,0.000259559,0.00212704,0.00048756,-35,-34,5.39991,5.39991,-88.7957,-88.7957,0.768
0.000815136,0.000537584,0.000564033,-0.000254281,0.0031048,0.000259412,0.00214836,0.000526577,-36,-34,5.53346,5.53346,-88.6867,-88.6867,0.772
0.000827617,0.000538275,0.000572669,-0.000252209,0.00313575,0.000230523,0.00216978,0.000523797,-36,-34,5.66898,5.66898,-88.5781,-88.5781,0.776
0.000840222,0.000539312,0.000581391,-0.00024979,0.00316684,0.000240055,0.00219129,0.000550734,-37,-34,5.80751,5.80751,-88.4683,-88.4683,0.78
0.000852951,0.000541039,0.000590199,-0.000247717,0.00319807,0.000303991,0.0022129,0.000539902,-37,-35,5.94737,5.94737,-88.3582,-88.3582,0.784
0.000865806,0.000543112,0.000599094,-0.000245299,0.00322944,0.000375406,0.00223461,0.000561471,-37,-35,6.08634,6.08634,-88.2466,-88.2466,0.788
0.000878787,0.00054553,0.000608076,-0.000243226,0.00326096,0.000451807,0.00225642,0.00054706,-37,-35,6.22412,6.22412,-88.1345,-88.1345,0.792
0.000891894,0.00054864,0.000617146,-0.000240462,0.00329261,0.000560323,0.00227832,0.000595034,-36,-35,6.36039,6.36039,-88.0207,-88.0207,0.796
0.000905128,0.000551749,0.000626303,-0.000238043,0.0033244,0.000632667,0.00230031,0.000598226,-36,-36,6.49397,6.49397,-87.9076,-87.9076,0.8
0.00091849,0.00055555,0.000635548,-0.000235625,0.00335632,0.000738478,0.00232241,0.000600354,-35,-36,6.62621,6.62621,-87.7934,-87.7934,0.804
0.000931979,0.000560041,0.000644882,-0.000232861,0.00338839,0.000866601,0.00234459,0.000630563,-35,-36,6.75569,6.75569,-87.6781,-87.6781,0.808
0.000945597,0.000564187,0.000654305,-0.000230788,0.0034206,0.000923225,0.00236688,0.000593121,-35,-37,6.88171,6.88171,-87.5626,-87.5626,0.812
0.000959344,0.00057006,0.000663818,-0.000228024,0.00345294,0.00110493,0.00238926,0.000625741,-34,-37,7.00678,7.00678,-87.4444,-87.4444,0.816
0.000973221,0.000576625,0.000673419,-0.000224569,0.00348542,0.00128365,0.00241173,0.00070507,-32,-37,7.12584,7.12584,-87.3265,-87.3265,0.82
0.000987228,0.000583189,0.000683112,-0.000220423,0.00351804,0.00140279,0.00243431,0.000815538,-32,-36,7.23919,7.23919,-87.2107,-87.2107,0.824
0.00100137,0.000591135,0.000692894,-0.000215241,0.0035508,0.00159739,0.00245697,0.000975556,-30,-35,7.34897,7.34897,-87.0986,-87.0986,0.828
0.00101563,0.000600118,0.000702767,-0.000209368,0.00358369,0.00181349,0.00247973,0.00113982,-29,-34,7.45206,7.45206,-86.9921,-86.9921,0.832
0.00103003,0.000610137,0.000712732,-0.000202112,0.00361672,0.00204393,0.00250259,0.00136449,-27,-32,7.54753,7.54753,-86.8916,-86.8916,0.836
0.00104457,0.000621193,0.000722788,-0.000194511,0.00364989,0.00228393,0.00252554,0.00154306,-25,-31,7.63473,7.63473,-86.7994,-86.7994,0.84
0.00105923,0.000632594,0.000732936,-0.000185529,0.0036832,0.00247272,0.00254859,0.00177727,-24,-29,7.71342,7.71342,-86.7138,-86.7138,0.844
0.00107403,0.000644686,0.000743177,-0.000175855,0.00371664,0.00265616,0.00257173,0.00199099,-22,-27,7.78562,7.78562,-86.6371,-86.6371,0.848
0.00108897,0.000654706,0.00075351,-0.000165145,0.00375022,0.00260571,0.00259496,0.00221985,-23,-25,7.85225,7.85225,-86.5685,-86.5685,0.852
0.00110404,0.000664379,0.000763937,-0.00015478,0.00378393,0.00254329,0.00261829,0.00234363,-24,-24,7.92276,7.92276,-86.5083,-86.5083,0.856
0.00111924,0.000673017,0.000774457,-0.000145106,0.00381778,0.0024153,0.00264171,0.00236856,-26,-24,7.99785,7.99785,-86.4521,-86.4521,0.86
0.00113458,0.000679926,0.000785071,-0.000136123,0.00385177,0.00218602,0.00266523,0.00232761,-29,-25,8.08049,8.08049,-86.3957,-86.3957,0.864
0.00115005,0.000687182,0.000795779,-0.000127486,0.00388589,0.00206195,0.00268884,0.00227151,-30,-26,8.17449,8.17449,-86.3365,-86.3365,0.868
0.00116567,0.000694092,0.000806582,-0.00011954,0.00392015,0.00195045,0.00271254,0.00217653,-32,-27,8.27562,8.27562,-86.2736,-86.2736,0.872
0.00118141,0.000702038,0.000817479,-0.000111594,0.00395454,0.00196249,0.00273634,0.00211321,-32,-28,8.38303,8.38303,-86.2057,-86.2057,0.876
0.0011973,0.000711366,0.000828472,-0.000103647,0.00398907,0.00208568,0.00276023,0.002071,-32,-29,8.49145,8.49145,-86.134,-86.134,0.88
0.00121333,0.000720694,0.000839561,-9.50101e-05,0.00402373,0.00216781,0.00278422,0.00210044,-32,-29,8.59652,8.59652,-86.0595,-86.0595,0.884
0.00122949,0.000731059,0.000850746,-8.77547e-05,0.00405853,0.00230894,0.0028083,0.0020049,-31,-30,8.6997,8.6997,-85.9848,-85.9848,0.888
0.0012458,0.000742115,0.000862028,-8.01539e-05,0.00409346,0.0024606,0.00283247,0.00197,-30,-31,8.79859,8.79859,-85.905,-85.905,0.892
0.00126224,0.000753171,0.000873406,-7.32441e-05,0.00412852,0.00256171,0.00285673,0.00188915,-29,-32,8.89289,8.89289,-85.8224,-85.8224,0.896
0.00127882,0.000764226,0.000884882,-6.63343e-05,0.00416372,0.00262912,0.00288109,0.00183525,-29,-33,8.98474,8.98474,-85.7351,-85.7351,0.9
0.00129555,0.000775628,0.000896455,-5.94245e-05,0.00419906,0.00270284,0.00290554,0.00179932,-29,-33,9.07545,9.07545,-85.6444,-85.6444,0.904
0.00131242,0.000787029,0.000908126,-5.25146e-05,0.00423453,0.002752,0.00293008,0.00177537,-29,-34,9.16486,9.16486,-85.551,-85.551,0.908
0.00132943,0.000798084,0.000919896,-4.52593e-05,0.00427013,0.00275597,0.00295471,0.00178819,-29,-34,9.25409,9.25409,-85.4553,-85.4553,0.912
0.00134658,0.000809486,0.000931764,-3.8004e-05,0.00430586,0.00278742,0.00297944,0.00179673,-29,-34,9.34489,9.34489,-85.3589,-85.3589,0.916
0.00136387,0.000821232,0.000943731,-2.97122e-05,0.00434173,0.00283717,0.00300426,0.0018888,-30,-34,9.43609,9.43609,-85.2619,-85.2619,0.92
0.00138131,0.000834706,0.000955798,-2.24569e-05,0.00437773,0.00301429,0.00302917,0.00186381,-28,-35,9.52657,9.52657,-85.1672,-85.1672,0.924
0.0013989,0.000848872,0.000967965,-1.52016e-05,0.00441386,0.00318996,0.00305417,0.00184715,-27,-35,9.61122,9.61122,-85.0702,-85.0702,0.928
0.00141662,0.000862346,0.000980232,-7.6008e-06,0.00445013,0.00324948,0.00307926,0.00186483,-27,-35,9.69042,9.69042,-84.9712,-84.9712,0.932
0.0014345,0.000875474,0.000992599,-3.45491e-07,0.00448652,0.00326038,0.00310445,0.00184783,-27,-36,9.76899,9.76899,-84.8716,-84.8716,0.936
0.00145252,0.000887912,0.00100507,7.25531e-06,0.00452305,0.00321006,0.00312972,0.00186529,-28,-36,9.84906,9.84906,-84.7701,-84.7701,0.94
0.00147068,0.000901041,0.00101764,1.52016e-05,0.00455972,0.00323409,0.00315509,0.00190572,-29,-36,9.93289,9.93289,-84.6681,-84.6681,0.944
0.00148899,0.000913824,0.00103031,2.34934e-05,0.00459651,0.00322133,0.00318055,0.00196146,-29,-36,10.0176,10.0176,-84.5665,-84.5665,0.948
0.00150745,0.000926262,0.00104308,3.24762e-05,0.00463343,0.00318402,0.0032061,0.0020562,-30,-36,10.1048,10.1048,-84.4662,-84.4662,0.952
0.00152606,0.000938354,0.00105596,4.18044e-05,0.00467049,0.00313037,0.00323174,0.00214816,-31,-35,10.1956,10.1956,-84.3685,-84.3685,0.956
0.00154482,0.000950791,0.00106894,5.07872e-05,0.00470768,0.00312338,0.00325747,0.00218067,-32,-35,10.2903,10.2903,-84.2734,-84.2734,0.96
0.00156372,0.00096392,0.00108202,6.04609e-05,0.00474499,0.00317631,0.0032833,0.00225993,-32,-35,10.3871,10.3871,-84.1784,-84.1784,0.964
0.00158278,0.000978085,0.0010952,6.97892e-05,0.00478244,0.00329797,0.00330921,0.00228397,-31,-35,10.4833,10.4833,-84.0854,-84.0854,0.968
0.00160198,0.00099225,0.00110849,7.9463e-05,0.00482002,0.00337907,0.00333521,0.00232879,-31,-35,10.5763,10.5763,-83.9922,-83.9922,0.972
0.00162134,0.00100814,0.00112188,8.91367e-05,0.00485773,0.0035771,0.00336131,0.00235868,-29,-35,10.6673,10.6673,-83.8996,-83.8996,0.976
0.00164084,0.00102369,0.00113538,9.91559e-05,0.00489557,0.00368032,0.00338749,0.00240739,-29,-35,10.7519,10.7519,-83.807,-83.807,0.98
0.0016605,0.00103958,0.00114898,0.00010883,0.00493354,0.00377793,0.00341376,0.00241107,-28,-35,10.8339,10.8339,-83.7151,-83.7151,0.984
0.00168031,0.00105582,0.00116269,0.000117467,0.00497164,0.00387179,0.00344012,0.00232715,-28,-36,10.9135,10.9135,-83.6218,-83.6218,0.988
0.00170028,0.00107171,0.0011765,0.000125068,0.00500987,0.00390558,0.00346658,0.00218484,-28,-38,10.9911,10.9911,-83.5233,-83.5233,0.992
0.00172039,0.00108761,0.00119042,0.000131978,0.00504823,0.0039281,0.00349312,0.00203238,-28,-40,11.0692,11.0692,-83.4174,-83.4174,0.996
0.00174066,0.0011035,0.00120445,0.000138196,0.00508672,0.00394312,0.00351975,0.00187315,-29,-42,11.1481,11.1481,-83.3035,-83.3035,1
0.00176109,0.00112077,0.00121858,0.000143724,0.00512533,0.00406829,0.00354647,0.00170942,-28,-44,11.228,11.228,-83.1813,-83.1813,1.004
0.00178166,0.00113667,0.00123282,0.000149252,0.00516408,0.00403658,0.00357328,0.00160027,-29,-46,11.3047,11.3047,-83.0507,-83.0507,1.008
0.0018024,0.00115221,0.00124717,0.00015478,0.00520295,0.00398664,0.00360018,0.0015275,-30,-47,11.3848,11.3848,-82.9141,-82.9141,1.012
0.00182329,0.00116845,0.00126162,0.000160653,0.00524195,0.00401094,0.00362717,0.00150778,-30,-47,11.4687,11.4687,-82.773,-82.773,1.016
0.00184433,0.00118503,0.00127619,0.000167909,0.00528108,0.00405592,0.00365424,0.0016098,-30,-47,11.5534,11.5534,-82.6299,-82.6299,1.02
0.00186554,0.00120196,0.00129086,0.000175855,0.00532034,0.0041147,0.00368141,0.00173539,-30,-46,11.638,11.638,-82.4897,-82.4897,1.024
0.0018869,0.00122131,0.00130564,0.000184492,0.00535973,0.00435543,0.00370866,0.0018767,-28,-45,11.7214,11.7214,-82.3533,-82.3533,1.028
0.00190842,0.00124031,0.00132053,0.000194511,0.00539924,0.00448712,0.003736,0.00208607,-28,-44,11.7966,11.7966,-82.2218,-82.2218,1.032
0.00193009,0.00125966,0.00133553,0.000205222,0.00543888,0.0046037,0.00376343,0.00228323,-27,-42,11.8681,11.8681,-82.0976,-82.0976,1.036
0.00195193,0.00127763,0.00135063,0.000216277,0.00547865,0.00456626,0.00379095,0.00244346,-28,-41,11.9369,11.9369,-81.9804,-81.9804,1.04
0.00197392,0.00129594,0.00136585,0.000227333,0.00551855,0.0045701,0.00381855,0.00255029,-28,-41,12.009,12.009,-81.8684,-81.8684,1.044
0.00199608,0.00131252,0.00138118,0.000238734,0.00555857,0.00442869,0.00384625,0.00265029,-30,-40,12.0833,12.0833,-81.7596,-81.7596,1.048
0.00201839,0.00133152,0.00139662,0.000249445,0.00559872,0.00453596,0.00387403,0.00265938,-30,-40,12.1649,12.1649,-81.6533,-81.6533,1.052
0.00204086,0.00134983,0.00141218,0.000259809,0.00563899,0.00454989,0.0039019,0.00263665,-30,-41,12.244,12.244,-81.546,-81.546,1.056
0.0020635,0.0013678,0.00142784,0.000269829,0.00567939,0.00453039,0.00392985,0.0025927,-31,-42,12.3246,12.3246,-81.4361,-81.4361,1.06
0.0020863,0.00138542,0.00144361,0.000279848,0.00571992,0.0044886,0.0039579,0.0025634,-32,-43,12.408,12.408,-81.3231,-81.3231,1.064
0.00210926,0.00140304,0.0014595,0.000290558,0.00576057,0.00446074,0.00398603,0.00260146,-32,-43,12.4952,12.4952,-81.2074,-81.2074,1.068
0.00213239,0.0014217,0.0014755,0.00030265,0.00580135,0.00452853,0.00401424,0.00274199,-32,-42,12.5853,12.5853,-81.0923,-81.0923,1.072
0.00215567,0.00144104,0.00149162,0.000315433,0.00584226,0.00463131,0.00404255,0.00289325,-32,-41,12.6743,12.6743,-80.9818,-80.9818,1.076
0.00217912,0.00146212,0.00150784,0.000327526,0.00588329,0.00484379,0.00407094,0.00293652,-30,-41,12.7606,12.7606,-80.876,-80.876,1.08
0.00220274,0.00148181,0.00152418,0.000338927,0.00592444,0.00487028,0.00409941,0.00290778,-31,-42,12.8402,12.8402,-80.7704,-80.7704,1.084
0.00222652,0.00150081,0.00154064,0.000349291,0.00596572,0.00483035,0.00412798,0.00280225,-31,-43,12.9208,12.9208,-80.662,-80.662,1.088
0.00225046,0.00152085,0.00155721,0.000359311,0.00600713,0.00489011,0.00415663,0.0027031,-31,-44,13.0048,13.0048,-80.5475,-80.5475,1.092
0.00227458,0.00154089,0.00157389,0.000368294,0.00604865,0.00492995,0.00418536,0.00255063,-32,-46,13.0883,13.0883,-80.4272,-80.4272,1.096
0.00229885,0.00156162,0.00159069,0.000376931,0.00609031,0.00501409,0.00421418,0.00242019,-31,-48,13.1719,13.1719,-80.2988,-80.2988,1.1
0.0023233,0.00158304,0.00160761,0.000385914,0.00613208,0.00512776,0.00424309,0.00236203,-31,-49,13.2538,13.2538,-80.1635,-80.1635,1.104
0.00234791,0.00160446,0.00162464,0.000394896,0.00617399,0.00520354,0.00427209,0.00232325,-30,-50,13.3329,13.3329,-80.0242,-80.0242,1.108
0.00237269,0.00162554,0.00164178,0.000405261,0.00621601,0.00522528,0.00430117,0.00241256,-31,-50,13.4108,13.4108,-79.882,-79.882,1.112
0.00239764,0.0016473,0.00165905,0.000417008,0.00625816,0.00529735,0.00433033,0.00258726,-31,-48,13.4897,13.4897,-79.7423,-79.7423,1.116
0.00242276,0.00166976,0.00167642,0.000429791,0.00630043,0.00540297,0.00435958,0.00279011,-30,-47,13.5673,13.5673,-79.6086,-79.6086,1.12
0.00244804,0.00169152,0.00169392,0.000443265,0.00634283,0.00541581,0.00438892,0.00298292,-30,-46,13.6426,13.6426,-79.482,-79.482,1.124
0.0024735,0.00171398,0.00171154,0.000457776,0.00638534,0.00548195,0.00441834,0.00319783,-30,-44,13.7192,13.7192,-79.3623,-79.3623,1.128
0.00249913,0.00173678,0.00172927,0.000471941,0.00642798,0.00555483,0.00444784,0.00331232,-30,-43,13.7949,13.7949,-79.2499,-79.2499,1.132
0.00252492,0.00175786,0.00174712,0.000486451,0.00647075,0.00545947,0.00447743,0.00341743,-32,-43,13.87,13.87,-79.1409,-79.1409,1.136
0.00255089,0.00177962,0.00176509,0.000500962,0.00651363,0.00545347,0.00450711,0.0034875,-32,-42,13.9509,13.9509,-79.0349,-79.0349,1.14
0.00257703,0.00180139,0.00178318,0.000516164,0.00655664,0.00544948,0.00453686,0.0035918,-33,-42,14.0341,14.0341,-78.9306,-78.9306,1.144
0.00260335,0.0018235,0.00180138,0.000531711,0.00659977,0.0054756,0.00456671,0.00369013,-33,-41,14.1195,14.1195,-78.8292,-78.8292,1.148
0.00262983,0.00184561,0.00181971,0.000546912,0.00664302,0.00549302,0.00459664,0.00372689,-34,-41,14.2058,14.2058,-78.7304,-78.7304,1.152
0.00265649,0.00186634,0.00183816,0.000561769,0.0066864,0.00538947,0.00462665,0.0037226,-35,-42,14.2938,14.2938,-78.6317,-78.6317,1.156
0.00268332,0.00188707,0.00185672,0.000576279,0.00672989,0.00532044,0.00465674,0.00369095,-36,-43,14.3883,14.3883,-78.5312,-78.5312,1.16
0.00271033,0.00190607,0.00187541,0.000589753,0.00677351,0.00513046,0.00468692,0.00358348,-39,-44,14.4883,14.4883,-78.4277,-78.4277,1.164
0.00273751,0.00192611,0.00189422,0.000603227,0.00681724,0.00509018,0.00471719,0.00351183,-40,-45,14.5982,14.5982,-78.3182,-78.3182,1.168
0.00276487,0.00194477,0.00191315,0.000616356,0.0068611,0.00494816,0.00474754,0.00343528,-42,-46,14.7123,14.7123,-78.2041,-78.2041,1.172
0.0027924,0.00196377,0.0019322,0.000629485,0.00690508,0.00488228,0.00477797,0.00338424,-43,-47,14.8346,14.8346,-78.0852,-78.0852,1.176
0.00282011,0.0019807,0.00195137,0.000644686,0.00694918,0.00466561,0.00480848,0.00352296,-46,-47,14.9625,14.9625,-77.9632,-77.9632,1.18
0.00284799,0.00199763,0.00197067,0.000659197,0.0069934,0.00452116,0.00483908,0.00355786,-48,-47,15.1019,15.1019,-77.8453,-77.8453,1.184
0.00287606,0.00201456,0.00199008,0.000674053,0.00703774,0.00442486,0.00486976,0.00360992,-50,-47,15.2497,15.2497,-77.7273,-77.7273,1.188
0.00290429,0.0020308,0.00200963,0.000688909,0.0070822,0.00430308,0.00490052,0.00364462,-51,-47,15.4041,15.4041,-77.61,-77.61,1.192
0.00293271,0.00204703,0.00202929,0.000704111,0.00712678,0.00422189,0.00493137,0.00369655,-53,-47,15.5661,15.5661,-77.4927,-77.4927,1.196
0.00296131,0.00206224,0.00204908,0.000719312,0.00717147,0.0040814,0.0049623,0.00373117,-55,-47,15.7343,15.7343,-77.376,-77.376,1.2
0.00299008,0.00207502,0.00206899,0.000733132,0.00721629,0.0037862,0.00499331,0.00363908,-59,-48,15.9116,15.9116,-77.2589,-77.2589,1.204
0.00301904,0.00208504,0.00208902,0.000745915,0.00726123,0.00335907,0.0050244,0.00349132,-64,-50,16.1045,16.1045,-77.1361,-77.1361,1.208
0.00304817,0.00209264,0.00210918,0.00075628,0.00730628,0.00287278,0.00505558,0.00319127,-69,-54,16.3188,16.3188,-77.0049,-77.0049,1.212
0.00307749,0.00209886,0.00212947,0.000764226,0.00735146,0.00243342,0.00508684,0.00278971,-74,-58,16.5567,16.5567,-76.8588,-76.8588,1.216
0.00310699,0.00210335,0.00214988,0.000771827,0.00739675,0.00199656,0.00511818,0.0024932,-80,-61,16.8165,16.8165,-76.6941,-76.6941,1.22
0.00313666,0.0021075,0.00217041,0.000778046,0.00744216,0.00167653,0.0051496,0.00218037,-84,-65,17.0978,17.0978,-76.5148,-76.5148,1.224
0.00316652,0.0021113,0.00219107,0.000784265,0.00748769,0.00143439,0.00518111,0.00197182,-87,-68,17.3957,17.3957,-76.3205,-76.3205,1.228
0.00319657,0.0021151,0.00221186,0.000789793,0.00753334,0.00127296,0.00521269,0.0017752,-90,-70,17.707,17.707,-76.1153,-76.1153,1.232
0.00322679,0.0021189,0.00223278,0.000796011,0.00757911,0.00116534,0.00524436,0.0017017,-92,-72,18.0283,18.0283,-75.9001,-75.9001,1.236
0.0032572,0.00212442,0.00225382,0.000801885,0.00762499,0.00123755,0.00527611,0.00162391,-92,-73,18.3568,18.3568,-75.6798,-75.6798,1.24
0.00328779,0.00212926,0.00227499,0.000807758,0.00767099,0.0012281,0.00530794,0.00157206,-93,-74,18.6857,18.6857,-75.4541,-75.4541,1.244
0.00331857,0.00213513,0.00229628,0.000814323,0.00771711,0.00130818,0.00533985,0.00159506,-94,-75,19.018,19.018,-75.2243,-75.2243,1.248
0.00334953,0.00214032,0.0023177,0.000820196,0.00776334,0.00130399,0.00537184,0.00155282,-95,-76,19.3502,19.3502,-74.9932,-74.9932,1.252
0.00338067,0.00214515,0.00233926,0.000826415,0.0078097,0.0012724,0.00540391,0.00155345,-96,-77,19.686,19.686,-74.7584,-74.7584,1.256
0.00341201,0.00214965,0.00236094,0.000831597,0.00785616,0.00122255,0.00543607,0.0014675,-98,-78,20.0265,20.0265,-74.5212,-74.5212,1.26
0.00344352,0.00215345,0.00238274,0.000836434,0.00790275,0.00113173,0.0054683,0.00138141,-100,-80,20.3725,20.3725,-74.2783,-74.2783,1.264
0.00347523,0.00215621,0.00240468,0.000840925,0.00794945,0.000984815,0.00550062,0.00129522,-102,-81,20.7259,20.7259,-74.0294,-74.0294,1.268
0.00350712,0.00215794,0.00242675,0.000844726,0.00799627,0.000800498,0.00553301,0.00118018,-105,-83,21.0892,21.0892,-73.7746,-73.7746,1.272
0.0035392,0.0021607,0.00244895,0.000847835,0.0080432,0.000763993,0.00556549,0.0010459,-107,-85,21.4633,21.4633,-73.5126,-73.5126,1.276
0.00357146,0.00216208,0.00247127,0.000850254,0.00809025,0.000624492,0.00559804,0.000898806,-109,-87,21.8428,21.8428,-73.2426,-73.2426,1.28
0.00360392,0.00216416,0.00249373,0.000852672,0.00813741,0.000589074,0.00563068,0.000800741,-111,-89,22.2315,22.2315,-72.9641,-72.9641,1.284
0.00363656,0.00216727,0.00251632,0.000854745,0.00818469,0.000651834,0.00566339,0.000706573,-111,-91,22.6248,22.6248,-72.6791,-72.6791,1.288
0.0036694,0.00216968,0.00253904,0.000856472,0.00823209,0.000636093,0.00569619,0.000615003,-113,-93,23.0192,23.0192,-72.3878,-72.3878,1.292
0.00370242,0.00217279,0.00256189,0.0008582,0.0082796,0.00068318,0.00572906,0.000553957,-113,-94,23.4176,23.4176,-72.0902,-72.0902,1.296
0.00373563,0.00217556,0.00258487,0.000860273,0.00832722,0.000685781,0.00576202,0.00054205,-114,-95,23.8176,23.8176,-71.7878,-71.7878,1.3
0.00376904,0.00217832,0.00260798,0.000862691,0.00837496,0.000687515,0.00579505,0.000562903,-116,-96,24.221,24.221,-71.4825,-71.4825,1.304
0.00380263,0.00218143,0.00263123,0.000864764,0.00842282,0.000717461,0.00582816,0.000548014,-117,-97,24.6278,24.6278,-71.1757,-71.1757,1.308
0.00383642,0.00218419,0.00265461,0.000867183,0.00847078,0.000708635,0.00586135,0.000566879,-118,-97,25.037,25.037,-70.8658,-70.8658,1.312
0.0038704,0.0021873,0.00267812,0.000869256,0.00851887,0.000731542,0.00589462,0.000550665,-119,-98,25.4501,25.4501,-70.5543,-70.5543,1.316
0.00390457,0.00219007,0.00270177,0.000870983,0.00856706,0.000718022,0.00592797,0.000511065,-120,-100,25.8658,25.8658,-70.2395,-70.2395,1.32
0.00393894,0.00219283,0.00272555,0.000872711,0.00861537,0.000709009,0.0059614,0.000484664,-122,-101,26.2857,26.2857,-69.9206,-69.9206,1.324
0.0039735,0.00219629,0.00274946,0.000874092,0.00866379,0.000760582,0.00599491,0.000438273,-122,-102,26.7094,26.7094,-69.598,-69.598,1.328
0.00400825,0.00220009,0.00277351,0.000876165,0.00871233,0.000823755,0.00602849,0.000464928,-123,-103,27.1345,27.1345,-69.2712,-69.2712,1.332
0.00404319,0.00220423,0.00279769,0.000878929,0.00876098,0.000894661,0.00606215,0.000540279,-123,-103,27.5604,27.5604,-68.9431,-68.9431,1.336
0.00407834,0.00220872,0.002822,0.000882039,0.00880974,0.000970723,0.0060959,0.000619304,-124,-103,27.9868,27.9868,-68.6158,-68.6158,1.34
0.00411367,0.0022146,0.00284645,0.000885839,0.00885862,0.00113659,0.00612971,0.00072957,-124,-103,28.4134,28.4134,-68.2895,-68.2895,1.344
0.00414921,0.00222151,0.00287104,0.000889985,0.0089076,0.00133355,0.00616361,0.000831871,-123,-103,28.8362,28.8362,-67.9654,-67.9654,1.348
0.00418493,0.00222807,0.00289576,0.00089344,0.0089567,0.00143606,0.00619759,0.00084249,-123,-104,29.2544,29.2544,-67.6429,-67.6429,1.352
0.00422086,0.00223567,0.00292062,0.000896204,0.00900591,0.00159077,0.00623164,0.000791987,-123,-105,29.6716,29.6716,-67.3183,-67.3183,1.356
0.00425698,0.00224362,0.00294562,0.000897931,0.00905524,0.00172271,0.00626577,0.000671946,-123,-107,30.0858,30.0858,-66.9887,-66.9887,1.36
0.0042933,0.00225087,0.00297075,0.000898622,0.00910467,0.00175308,0.00629997,0.000505546,-124,-110,30.4981,30.4981,-66.6514,-66.6514,1.364
0.00432982,0.00225744,0.00299602,0.000899313,0.00915422,0.00171575,0.00633426,0.000394612,-125,-112,30.9128,30.9128,-66.3045,-66.3045,1.368
0.00436654,0.00226228,0.00302142,0.000899659,0.00920388,0.0015469,0.00636862,0.000291866,-128,-113,31.3331,31.3331,-65.9503,-65.9503,1.372
0.00440345,0.00226711,0.00304696,0.00090035,0.00925365,0.00143434,0.00640306,0.000252159,-131,-115,31.7642,31.7642,-65.5892,-65.5892,1.376
0.00444056,0.00226988,0.00307265,0.000901041,0.00930353,0.00118656,0.00643757,0.000225688,-134,-116,32.2042,32.2042,-65.2238,-65.2238,1.38
0.00447788,0.00227264,0.00309847,0.000902077,0.00935352,0.00102136,0.00647216,0.000236831,-137,-117,32.6583,32.6583,-64.8547,-64.8547,1.384
0.00451539,0.00227437,0.00312442,0.000903459,0.00940362,0.000824864,0.00650683,0.000273051,-140,-118,33.1235,33.1235,-64.4836,-64.4836,1.388
0.00455311,0.00227679,0.00315052,0.000904841,0.00945384,0.000751446,0.00654158,0.000297198,-142,-118,33.6006,33.6006,-64.1112,-64.1112,1.392
0.00459102,0.00227851,0.00317676,0.000906223,0.00950416,0.000644919,0.0065764,0.000313296,-145,-119,34.0847,34.0847,-63.7372,-63.7372,1.396
0.00462914,0.00227955,0.00320313,0.00090726,0.00955459,0.000516319,0.0066113,0.000295237,-147,-120,34.5775,34.5775,-63.3611,-63.3611,1.4
0.00466746,0.00228231,0.00322965,0.000908642,0.00960514,0.00057454,0.00664627,0.000311988,-148,-121,35.0791,35.0791,-62.9816,-62.9816,1.404
0.00470598,0.00228473,0.0032563,0.000910024,0.00965579,0.000584563,0.00668132,0.000323156,-150,-122,35.5823,35.5823,-62.6001,-62.6001,1.408
0.00474471,0.0022875,0.0032831,0.000911751,0.00970655,0.000620036,0.00671644,0.000359392,-151,-123,36.089,36.089,-62.2164,-62.2164,1.412
0.00478363,0.00229061,0.00331003,0.000913478,0.00975742,0.000672476,0.00675164,0.000383549,-152,-123,36.598,36.598,-61.8315,-61.8315,1.416
0.00482277,0.00229337,0.00333711,0.000915897,0.0098084,0.000678645,0.00678692,0.000457236,-153,-124,37.1088,37.1088,-61.4451,-61.4451,1.42
0.0048621,0.00229613,0.00336433,0.000918315,0.00985949,0.000682757,0.00682227,0.00050636,-154,-124,37.6233,37.6233,-61.059,-61.059,1.424
0.00490164,0.0022989,0.00339169,0.000921079,0.00991069,0.000685499,0.0068577,0.000567901,-156,-125,38.1416,38.1416,-60.6724,-60.6724,1.428
0.00494139,0.00230132,0.00341919,0.000923498,0.009962,0.000658536,0.0068932,0.000580137,-157,-126,38.6639,38.6639,-60.2855,-60.2855,1.432
0.00498134,0.00230408,0.00344683,0.000925225,0.0100134,0.000669351,0.00692878,0.000530713,-159,-127,39.1913,39.1913,-59.8963,-59.8963,1.436
0.0050215,0.00230684,0.00347462,0.000926953,0.0100649,0.000676562,0.00696443,0.000497763,-160,-128,39.7222,39.7222,-59.5022,-59.5022,1.44
0.00506186,0.00230995,0.00350255,0.00092868,0.0101166,0.000710159,0.00700016,0.000475797,-161,-130,40.2567,40.2567,-59.1039,-59.1039,1.444
0.00510243,0.0023141,0.00353062,0.000930062,0.0101683,0.000818931,0.00703596,0.000432361,-162,-131,40.7937,40.7937,-58.7019,-58.7019,1.448
0.00514321,0.00231825,0.00355884,0.000931444,0.0102202,0.000891445,0.00707183,0.000403405,-162,-132,41.33,41.33,-58.2953,-58.2953,1.452
0.00518419,0.0023217,0.0035872,0.000932826,0.0102721,0.000882206,0.00710778,0.0003841,-164,-134,41.8676,41.8676,-57.8847,-57.8847,1.456
0.00522538,0.0023255,0.0036157,0.000934553,0.0103242,0.000904837,0.00714381,0.000400021,-165,-134,42.4094,42.4094,-57.4705,-57.4705,1.46
0.00526678,0.00232896,0.00364435,0.000936626,0.0103763,0.000891134,0.00717991,0.000439426,-167,-135,42.9545,42.9545,-57.0542,-57.0542,1.464
0.00530839,0.00233276,0.00367314,0.000938008,0.0104286,0.00091079,0.00721608,0.000408115,-168,-137,43.5042,43.5042,-56.6366,-56.6366,1.468
0.00535021,0.00233621,0.00370208,0.000939736,0.010481,0.000895102,0.00725233,0.000416031,-170,-138,44.0572,44.0572,-56.2148,-56.2148,1.472
0.00539224,0.00233967,0.00373116,0.000941118,0.0105335,0.000884644,0.00728865,0.000392518,-171,-139,44.615,44.615,-55.7905,-55.7905,1.476
0.00543448,0.00234312,0.00376039,0.000942845,0.0105861,0.000877672,0.00732504,0.000405633,-173,-140,45.1774,45.1774,-55.3624,-55.3624,1.48
0.00547693,0.00234692,0.00378976,0.000944918,0.0106388,0.000901815,0.00736151,0.000443168,-174,-140,45.7441,45.7441,-54.9321,-54.9321,1.484
0.00551959,0.00235072,0.00381928,0.000946646,0.0106916,0.00091791,0.00739805,0.0004394,-175,-142,46.3139,46.3139,-54.5003,-54.5003,1.488
0.00556246,0.00235487,0.00384894,0.000949064,0.0107445,0.000957431,0.00743466,0.00049447,-177,-142,46.8872,46.8872,-54.0657,-54.0657,1.492
0.00560555,0.00235901,0.00387876,0.000951482,0.0107975,0.000983779,0.00747135,0.000531183,-178,-143,47.4629,47.4629,-53.6304,-53.6304,1.496
0.00564884,0.00236385,0.00390871,0.000953901,0.0108507,0.00105893,0.00750811,0.000555658,-179,-144,48.0416,48.0416,-53.1938,-53.1938,1.5
0.00569235,0.00236869,0.00393882,0.000956665,0.0109039,0.00110902,0.00754494,0.000600766,-180,-144,48.6212,48.6212,-52.7554,-52.7554,1.504
0.00573607,0.00237421,0.00396907,0.000959429,0.0109572,0.0012,0.00758185,0.000630838,-180,-145,49.2028,49.2028,-52.316,-52.316,1.508
0.00578001,0.00237905,0.00399948,0.000962193,0.0110107,0.00120308,0.00761883,0.000650886,-182,-146,49.7849,49.7849,-51.875,-51.875,1.512
0.00582416,0.00238389,0.00403002,0.000964611,0.0110642,0.00120512,0.00765588,0.000635461,-183,-147,50.3711,50.3711,-51.4317,-51.4317,1.516
0.00586852,0.00238873,0.00406072,0.00096703,0.0111179,0.00120649,0.007693,0.000625177,-185,-149,50.9613,50.9613,-50.9849,-50.9849,1.52
0.0059131,0.00239322,0.00409157,0.000969103,0.0111716,0.00117861,0.0077302,0.00058953,-187,-150,51.5559,51.5559,-50.5346,-50.5346,1.524
0.0059579,0.00239702,0.00412256,0.000971175,0.0112255,0.00110244,0.00776746,0.000565766,-189,-151,52.1561,52.1561,-50.0799,-50.0799,1.528
0.00600291,0.00240116,0.00415371,0.000973594,0.0112794,0.00108045,0.0078048,0.000578714,-191,-152,52.7636,52.7636,-49.6213,-49.6213,1.532
0.00604813,0.00240531,0.004185,0.000975667,0.0113335,0.00106579,0.00784221,0.000558555,-192,-154,53.3764,53.3764,-49.1602,-49.1602,1.536
0.00609358,0.00240876,0.00421645,0.00097774,0.0113877,0.000998437,0.0078797,0.000545115,-195,-155,53.9943,53.9943,-48.6952,-48.6952,1.54
0.00613923,0.00241256,0.00424804,0.000980158,0.0114419,0.000982325,0.00791725,0.000564947,-196,-156,54.6193,54.6193,-48.2268,-48.2268,1.544
0.00618511,0.00241602,0.00427978,0.000983268,0.0114963,0.000942792,0.00795488,0.000635749,-199,-156,55.2494,55.2494,-47.7563,-47.7563,1.548
0.00623121,0.00241913,0.00431168,0.000987068,0.0115508,0.000887647,0.00799257,0.000740533,-201,-157,55.8857,55.8857,-47.2859,-47.2859,1.552
0.00627752,0.00242224,0.00434372,0.000990868,0.0116054,0.000850883,0.00803034,0.000810389,-203,-157,56.5287,56.5287,-46.817,-46.817,1.556
0.00632405,0.002425,0.00437592,0.000994669,0.0116601,0.000797583,0.00806818,0.000856959,-205,-158,57.1777,57.1777,-46.3479,-46.3479,1.56
0.0063708,0.00242777,0.00440827,0.000998124,0.0117149,0.000762049,0.00810609,0.000859216,-207,-159,57.8335,57.8335,-45.8777,-45.8777,1.564
0.00641777,0.00243053,0.00444077,0.00100158,0.0117698,0.00073836,0.00814407,0.00086072,-209,-160,58.4953,58.4953,-45.4046,-45.4046,1.568
0.00646496,0.00243364,0.00447342,0.00100538,0.0118247,0.000751358,0.00818212,0.000890513,-210,-161,59.1625,59.1625,-44.9286,-44.9286,1.572
0.00651237,0.00243744,0.00450623,0.00100814,0.0118798,0.000817606,0.00822025,0.000824003,-211,-163,59.8334,59.8334,-44.4506,-44.4506,1.576
0.00656,0.00244089,0.00453919,0.00101056,0.011935,0.00083298,0.00825844,0.000750872,-213,-165,60.5062,60.5062,-43.9666,-43.9666,1.58
0.00660785,0.00244504,0.0045723,0.00101263,0.0119903,0.000900811,0.0082967,0.000673327,-214,-167,61.1827,61.1827,-43.4765,-43.4765,1.584
0.00665592,0.00244953,0.00460556,0.00101436,0.0120457,0.000974823,0.00833504,0.000592839,-215,-169,61.8608,61.8608,-42.9799,-42.9799,1.588
0.00670421,0.0024561,0.00463898,0.0010154,0.0121012,0.00119691,0.00837344,0.000481599,-214,-171,62.5397,62.5397,-42.4766,-42.4766,1.592
0.00675273,0.00246335,0.00467255,0.00101643,0.0121568,0.00140255,0.00841191,0.000407439,-214,-173,63.2136,63.2136,-41.9656,-41.9656,1.596
0.00680147,0.00247372,0.00470627,0.00101678,0.0122125,0.00179876,0.00845046,0.000300417,-212,-175,63.8825,63.8825,-41.448,-41.448,1.6
0.00685043,0.00248546,0.00474015,0.00101782,0.0122683,0.00217807,0.00848907,0.000286651,-210,-176,64.5388,64.5388,-40.923,-40.923,1.604
0.00689961,0.00250032,0.00477418,0.00101851,0.0123242,0.00269005,0.00852775,0.000248682,-207,-178,65.1827,65.1827,-40.3941,-40.3941,1.608
0.00694902,0.00251725,0.00480837,0.00101954,0.0123802,0.00320412,0.00856651,0.000252161,-203,-179,65.8087,65.8087,-39.8604,-39.8604,1.612
0.00699866,0.00253452,0.00484272,0.00102058,0.0124364,0.00357563,0.00860533,0.00025448,-201,-181,66.4171,66.4171,-39.3236,-39.3236,1.616
0.00704851,0.00255249,0.00487722,0.00102127,0.0124926,0.00388088,0.00864422,0.000227235,-200,-182,67.0138,67.0138,-38.7836,-38.7836,1.62
0.0070986,0.00257011,0.00491187,0.00102162,0.0125489,0.00405559,0.00868318,0.000180281,-199,-184,67.6019,67.6019,-38.239,-38.239,1.624
0.0071489,0.00258842,0.00494668,0.00102196,0.0126053,0.00422965,0.00872221,0.000148978,-199,-185,68.1864,68.1864,-37.6892,-37.6892,1.628
0.00719944,0.00260777,0.00498165,0.00102231,0.0126618,0.00443206,0.0087613,0.00012811,-199,-187,68.7674,68.7674,-37.1348,-37.1348,1.632
0.0072502,0.00262815,0.00501677,0.001023,0.0127184,0.00465337,0.00880047,0.000142988,-198,-188,69.3436,69.3436,-36.5762,-36.5762,1.636
0.00730119,0.00264853,0.00505205,0.00102334,0.0127751,0.00480091,0.0088397,0.000124117,-198,-190,69.9145,69.9145,-36.0148,-36.0148,1.64
0.0073524,0.00266754,0.00508749,0.00102438,0.0128319,0.00478411,0.00887901,0.000169117,-200,-191,70.4835,70.4835,-35.4495,-35.4495,1.644
0.00740384,0.00268619,0.00512308,0.00102576,0.0128888,0.00474412,0.00891838,0.000227908,-202,-191,71.0573,71.0573,-34.8828,-34.8828,1.648
0.00745551,0.00270278,0.00515884,0.00102818,0.0129458,0.00454471,0.00895782,0.000353475,-205,-191,71.6373,71.6373,-34.3155,-34.3155,1.652
0.00750741,0.00272005,0.00519475,0.00103198,0.0130029,0.00446935,0.00899732,0.00055235,-207,-191,72.2296,72.2296,-33.7504,-33.7504,1.656
0.00755953,0.00273663,0.00523081,0.00103647,0.0130601,0.00436153,0.0090369,0.000742516,-210,-190,72.8294,72.8294,-33.1905,-33.1905,1.66
0.00761189,0.00275356,0.00526704,0.00104166,0.0131173,0.00431844,0.00907654,0.000926874,-212,-190,73.4378,73.4378,-32.6354,-32.6354,1.664
0.00766447,0.00277015,0.00530343,0.00104684,0.0131747,0.00426093,0.00911625,0.00104978,-214,-190,74.0523,74.0523,-32.0848,-32.0848,1.668
0.00771729,0.00278535,0.00533997,0.00105237,0.0132322,0.00410742,0.00915603,0.00116051,-217,-190,74.6737,74.6737,-31.5362,-31.5362,1.672
0.00777033,0.00279986,0.00537668,0.00105789,0.0132898,0.0039475,0.00919588,0.00123433,-220,-191,75.306,75.306,-30.9889,-30.9889,1.676
0.0078236,0.00281299,0.00541354,0.00106308,0.0133475,0.00372572,0.00923579,0.00125475,-224,-192,75.9497,75.9497,-30.4415,-30.4415,1.68
0.00787711,0.00282784,0.00545056,0.0010686,0.0134053,0.00372182,0.00927577,0.00129715,-226,-193,76.6067,76.6067,-29.8917,-29.8917,1.684
0.00793085,0.00284408,0.00548774,0.00107413,0.0134632,0.00383439,0.00931582,0.00132542,-226,-194,77.2678,77.2678,-29.3405,-29.3405,1.688
0.00798482,0.00286032,0.00552509,0.00108035,0.0135211,0.00390943,0.00935593,0.00140185,-227,-194,77.9286,77.9286,-28.7874,-28.7874,1.692
0.00803902,0.0028769,0.00556259,0.00108691,0.0135792,0.00398825,0.00939612,0.0014816,-228,-195,78.5904,78.5904,-28.2343,-28.2343,1.696
0.00809345,0.0028928,0.00560026,0.00109279,0.0136374,0.00398322,0.00943636,0.00147718,-230,-196,79.2535,79.2535,-27.6811,-27.6811,1.7
0.00814811,0.00290834,0.00563808,0.00109763,0.0136956,0.00395107,0.00947668,0.00138786,-232,-198,79.9212,79.9212,-27.1243,-27.1243,1.704
0.00820301,0.00292182,0.00567607,0.00110315,0.013754,0.00375689,0.00951706,0.00138589,-235,-199,80.5952,80.5952,-26.5606,-26.5606,1.708
0.00825815,0.00293667,0.00571422,0.00110695,0.0138124,0.0037426,0.00955751,0.00124063,-237,-202,81.2815,81.2815,-25.9931,-25.9931,1.712
0.00831351,0.00295084,0.00575253,0.00111041,0.013871,0.0036755,0.00959802,0.001115,-239,-205,81.973,81.973,-25.4161,-25.4161,1.716
0.00836911,0.0029657,0.005791,0.00111317,0.0139296,0.00368834,0.0096386,0.000973657,-241,-207,82.6717,82.6717,-24.8303,-24.8303,1.72
0.00842495,0.00298124,0.00582964,0.00111559,0.0139884,0.00375449,0.00967924,0.000850641,-242,-210,83.3742,83.3742,-24.2351,-24.2351,1.724
0.00848102,0.0029961,0.00586844,0.00111766,0.0140472,0.003741,0.00971996,0.00073984,-244,-212,84.0786,84.0786,-23.6313,-23.6313,1.728
0.00853733,0.00301026,0.0059074,0.00111974,0.0141061,0.00367443,0.00976073,0.000665972,-246,-215,84.7882,84.7882,-23.0193,-23.0193,1.732
0.00859387,0.00302512,0.00594652,0.00112181,0.0141652,0.00368763,0.00980157,0.000616727,-248,-216,85.505,85.505,-22.4008,-22.4008,1.736
0.00865065,0.00303998,0.00598581,0.00112354,0.0142243,0.00369643,0.00984248,0.000555106,-250,-218,86.2259,86.2259,-21.7766,-21.7766,1.74
0.00870767,0.00305621,0.00602526,0.00112596,0.0142835,0.00381746,0.00988346,0.000571607,-250,-220,86.9506,86.9506,-21.1465,-21.1465,1.744
0.00876492,0.00307349,0.00606488,0.00112734,0.0143428,0.00398452,0.00992449,0.000496235,-250,-222,87.6745,87.6745,-20.5133,-20.5133,1.748
0.00882241,0.00309249,0.00610466,0.00112906,0.0144022,0.00423985,0.0099656,0.000474778,-250,-224,88.3955,88.3955,-19.8734,-19.8734,1.752
0.00888014,0.00311322,0.0061446,0.00113148,0.0144617,0.00455402,0.0100068,0.000518055,-248,-225,89.1098,89.1098,-19.2293,-19.2293,1.756
0.0089381,0.00313568,0.00618471,0.00113356,0.0145213,0.00490742,0.010048,0.000518116,-246,-226,89.8149,89.8149,-18.5832,-18.5832,1.76
0.00899631,0.00315883,0.00622499,0.00113494,0.014581,0.00520061,0.0100893,0.000460574,-245,-228,90.5093,90.5093,-17.9334,-17.9334,1.764
0.00905475,0.0031837,0.00626543,0.00113701,0.0146408,0.00554002,0.0101307,0.000479795,-244,-229,91.1954,91.1954,-17.2778,-17.2778,1.768
0.00911343,0.0032103,0.00630603,0.00113978,0.0147006,0.00591025,0.0101721,0.000550191,-242,-230,91.871,91.871,-16.6195,-16.6195,1.772
0.00917235,0.00324071,0.00634681,0.00114185,0.0147606,0.00647377,0.0102136,0.000539539,-238,-232,92.5343,92.5343,-15.9603,-15.9603,1.776
0.00923152,0.00327353,0.00638774,0.00114323,0.0148206,0.00705098,0.0102551,0.000474857,-234,-234,93.1774,93.1774,-15.2969,-15.2969,1.78
0.00929092,0.00330946,0.00642885,0.00114461,0.0148808,0.00769491,0.0102968,0.000431735,-229,-236,93.7994,93.7994,-14.6272,-14.6272,1.784
0.00935056,0.00334988,0.00647012,0.00114634,0.014941,0.00849848,0.0103384,0.000431778,-223,-237,94.3972,94.3972,-13.952,-13.952,1.788
0.00941045,0.0033948,0.00651155,0.00114807,0.0150014,0.00940847,0.0103802,0.000431806,-215,-239,94.9637,94.9637,-13.2732,-13.2732,1.792
0.00947057,0.00344351,0.00655316,0.00115049,0.0150618,0.0103318,0.010422,0.000489407,-207,-240,95.4946,95.4946,-12.5908,-12.5908,1.796
0.00953094,0.00349741,0.00659493,0.00115325,0.0151223,0.0113793,0.0104639,0.000556599,-198,-241,95.9888,95.9888,-11.9072,-11.9072,1.8
0.00959155,0.00355545,0.00663687,0.0011567,0.0151829,0.0124231,0.0105058,0.000658975,-189,-241,96.441,96.441,-11.223,-11.223,1.804
0.00965241,0.00361867,0.00667898,0.00116085,0.0152436,0.0135508,0.0105478,0.000784808,-179,-241,96.851,96.851,-10.5394,-10.5394,1.808
0.0097135,0.00368708,0.00672125,0.00116603,0.0153044,0.0147345,0.0105899,0.000955069,-169,-241,97.2151,97.2151,-9.85779,-9.85779,1.812
0.00977484,0.00376136,0.0067637,0.00117121,0.0153653,0.016013,0.010632,0.00106858,-157,-242,97.5305,97.5305,-9.1796,-9.1796,1.816
0.00983642,0.0038391,0.00680631,0.00117709,0.0154263,0.0171533,0.0106742,0.00120183,-147,-242,97.7936,97.7936,-8.5027,-8.5027,1.82
0.00989825,0.00392063,0.00684909,0.00118331,0.0154873,0.0182302,0.0107164,0.00131946,-137,-242,98.0099,98.0099,-7.82783,-7.82783,1.824
0.00996032,0.00400562,0.00689204,0.00119022,0.0155485,0.019236,0.0107588,0.00145546,-128,-242,98.1819,98.1819,-7.15444,-7.15444,1.828
0.0100226,0.00409614,0.00693516,0.0011992,0.0156097,0.0203672,0.0108011,0.00171887,-117,-241,98.3121,98.3121,-6.48366,-6.48366,1.832
0.0100852,0.00418804,0.00697845,0.00120818,0.0156711,0.0212365,0.0108436,0.00189448,-109,-241,98.3959,98.3959,-5.82035,-5.82035,1.836
0.010148,0.00428029,0.00702191,0.00121717,0.0157325,0.0218449,0.0108861,0.00201155,-104,-241,98.4444,98.4444,-5.16084,-5.16084,1.84
0.0102111,0.00437392,0.00706554,0.00122615,0.015794,0.0223656,0.0109287,0.0020896,-99,-242,98.4684,98.4684,-4.50271,-4.50271,1.844
0.0102744,0.00446996,0.00710934,0.00123306,0.0158556,0.0229143,0.0109713,0.00196888,-94,-245,98.4712,98.4712,-3.8438,-3.8438,1.848
0.0103379,0.00456532,0.00715331,0.00123859,0.0159173,0.0232225,0.011014,0.00177324,-91,-248,98.4523,98.4523,-3.17594,-3.17594,1.852
0.0104017,0.00466137,0.00719745,0.00124239,0.0159791,0.0234855,0.0110567,0.00149886,-89,-252,98.4214,98.4214,-2.49586,-2.49586,1.856
0.0104657,0.00475845,0.00724176,0.00124515,0.016041,0.0237473,0.0110995,0.00122957,-86,-256,98.3803,98.3803,-1.80038,-1.80038,1.86
0.01053,0.00485691,0.00728625,0.00124619,0.0161029,0.0240369,0.0111424,0.000906085,-84,-261,98.3289,98.3289,-1.08948,-1.08948,1.864
0.0105946,0.00495227,0.0073309,0.00124757,0.016165,0.0239709,0.0111854,0.000719221,-85,-265,98.2672,98.2672,-0.361326,-0.361326,1.868
0.0106593,0.00504832,0.00737573,0.00124826,0.0162271,0.0239845,0.0112284,0.000537062,-85,-268,98.2093,98.2093,0.378662,0.378662,1.872
0.0107244,0.00514678,0.00742073,0.0012486,0.0162894,0.0241951,0.0112714,0.000386832,-83,-271,98.1513,98.1513,1.13025,1.13025,1.876
0.0107897,0.00524594,0.0074659,0.00124964,0.0163517,0.024393,0.0113145,0.000344261,-81,-273,98.0854,98.0854,1.89188,1.89188,1.88
0.0108552,0.00534406,0.00751125,0.00125171,0.0164141,0.0244387,0.0113577,0.000402253,-81,-274,98.0124,98.0124,2.65899,2.65899,1.884
0.010921,0.00544529,0.00755676,0.00125344,0.0164766,0.0247282,0.011401,0.000412123,-78,-276,97.9379,97.9379,3.42771,3.42771,1.888
0.010987,0.00554824,0.00760245,0.00125655,0.0165392,0.0250651,0.0114443,0.000533867,-75,-276,97.8517,97.8517,4.19964,4.19964,1.892
0.0110533,0.00565085,0.00764832,0.00125966,0.0166018,0.025261,0.0114876,0.00061503,-73,-277,97.7524,97.7524,4.97042,4.97042,1.896
0.0111198,0.00575346,0.00769435,0.00126346,0.0166646,0.0253916,0.0115311,0.00072672,-72,-278,97.6459,97.6459,5.74158,5.74158,1.9
0.0111866,0.00585849,0.00774057,0.00126692,0.0167274,0.0256802,0.0115745,0.000772389,-69,-279,97.5342,97.5342,6.51209,6.51209,1.904
0.0112536,0.00596214,0.00778695,0.00127003,0.0167904,0.0257574,0.0116181,0.000774044,-69,-281,97.4116,97.4116,7.28472,7.28472,1.908
0.0113209,0.00606682,0.00783351,0.00127175,0.0168534,0.0258952,0.0116617,0.000659984,-67,-283,97.2865,97.2865,8.06158,8.06158,1.912
0.0113885,0.00617393,0.00788024,0.00127313,0.0169165,0.0261887,0.0117054,0.000555153,-65,-286,97.1558,97.1558,8.84727,8.84727,1.916
0.0114563,0.00628103,0.00792715,0.00127452,0.0169797,0.0263843,0.0117491,0.000485266,-63,-288,97.0136,97.0136,9.64136,9.64136,1.92
0.0115243,0.00638571,0.00797424,0.00127555,0.017043,0.0263132,0.0117929,0.000409883,-64,-291,96.8647,96.8647,10.4425,10.4425,1.924
0.0115926,0.00649143,0.0080215,0.00127659,0.0171063,0.0263521,0.0118367,0.000359628,-63,-293,96.7194,96.7194,11.2509,11.2509,1.928
0.0116612,0.00659888,0.00806893,0.00127832,0.0171698,0.0265221,0.0118806,0.000383707,-62,-295,96.5729,96.5729,12.0652,12.0652,1.932
0.01173,0.00670564,0.00811654,0.00128004,0.0172333,0.0265778,0.0119246,0.000399759,-61,-296,96.4203,96.4203,12.8827,12.8827,1.936
0.011799,0.00681136,0.00816433,0.00128177,0.0172969,0.0265285,0.0119686,0.000410461,-62,-298,96.2665,96.2665,13.7035,13.7035,1.94
0.0118683,0.0069195,0.00821229,0.00128384,0.0173606,0.0266973,0.0120127,0.000446386,-60,-299,96.115,96.115,14.528,14.528,1.944
0.0119379,0.00702798,0.00826043,0.00128695,0.0174244,0.0268385,0.0120568,0.000556709,-59,-300,95.9573,95.9573,15.3548,15.3548,1.948
0.0120077,0.00713474,0.00830874,0.00129006,0.0174883,0.0267887,0.012101,0.000630258,-59,-301,95.7949,95.7949,16.1811,16.1811,1.952
0.0120778,0.00724288,0.00835724,0.00129352,0.0175523,0.0268707,0.0121453,0.000708081,-58,-302,95.6352,95.6352,17.0083,17.0083,1.956
0.0121482,0.00735067,0.00840591,0.00129732,0.0176163,0.0268966,0.0121896,0.000788754,-58,-303,95.473,95.473,17.8362,17.8362,1.96
0.0122187,0.00745777,0.00845475,0.00130216,0.0176805,0.0268562,0.012234,0.000928909,-59,-303,95.3108,95.3108,18.6647,18.6647,1.964
0.0122896,0.00756522,0.00850378,0.00130803,0.0177447,0.0268581,0.0122784,0.00110872,-59,-303,95.1512,95.1512,19.491,19.491,1.968
0.0123607,0.00767439,0.00855298,0.00131459,0.017809,0.0270034,0.0123229,0.00128617,-57,-303,94.992,94.992,20.3138,20.3138,1.972
0.0124321,0.0077815,0.00860236,0.0013215,0.0178734,0.0269274,0.0123675,0.00143327,-58,-304,94.8282,94.8282,21.133,21.133,1.976
0.0125037,0.00788963,0.00865192,0.00132807,0.0179378,0.0269632,0.0124121,0.00150254,-58,-305,94.6683,94.6683,21.9502,21.9502,1.98
0.0125756,0.00800054,0.00870166,0.00133394,0.0180024,0.0272173,0.0124567,0.00149114,-56,-307,94.5071,94.5071,22.7687,22.7687,1.984
0.0126477,0.00810971,0.00875158,0.00133912,0.018067,0.0272428,0.0125015,0.00142596,-55,-309,94.3367,94.3367,23.5918,23.5918,1.988
0.0127201,0.00821992,0.00880167,0.00134327,0.0181318,0.0273462,0.0125463,0.00129613,-54,-312,94.1658,94.1658,24.422,24.422,1.992
0.0127928,0.00833117,0.00885195,0.00134569,0.0181966,0.0275015,0.0125911,0.00106562,-53,-316,93.9914,93.9914,25.2621,25.2621,1.996
0.0128657,0.0084438,0.0089024,0.00134776,0.0182615,0.0277202,0.012636,0.00088316,-51,-320,93.8109,93.8109,26.1161,26.1161,2
0.0129389,0.00855471,0.00895303,0.00134845,0.0183264,0.027722,0.012681,0.000646355,-51,-324,93.6226,93.6226,26.9822,26.9822,2.004
0.0130123,0.00866699,0.00900385,0.0013488,0.0183915,0.0278384,0.012726,0.000459695,-50,-327,93.4348,93.4348,27.8626,27.8626,2.008
0.013086,0.00878066,0.00905484,0.0013488,0.0184566,0.0280311,0.012771,0.000306463,-48,-331,93.2427,93.2427,28.7551,28.7551,2.012
0.0131599,0.00889156,0.00910602,0.00134914,0.0185218,0.0279293,0.0128162,0.0002331,-49,-333,93.044,93.044,29.6583,29.6583,2.016
0.0132342,0.00900453,0.00915737,0.00134983,0.0185871,0.0280342,0.0128614,0.000212982,-48,-335,92.8501,92.8501,30.5689,30.5689,2.02
0.0133086,0.0091182,0.00920891,0.00135018,0.0186525,0.0281617,0.0129066,0.000170779,-47,-338,92.6525,92.6525,31.4847,31.4847,2.024
0.0133834,0.00923049,0.00926062,0.00135087,0.018718,0.0281315,0.0129519,0.000171434,-47,-340,92.4508,92.4508,32.4066,32.4066,2.028
0.0134584,0.00934277,0.00931252,0.00135122,0.0187835,0.0281114,0.0129973,0.00014308,-47,-342,92.2513,92.2513,33.3329,33.3329,2.032
0.0135337,0.00945609,0.0093646,0.00135225,0.0188492,0.0281843,0.0130427,0.00018176,-46,-343,92.0534,92.0534,34.2647,34.2647,2.036
0.0136092,0.00956803,0.00941686,0.00135363,0.0189149,0.0281178,0.0130881,0.000236337,-47,-345,91.8538,91.8538,35.1992,35.1992,2.04
0.013685,0.00967893,0.00946931,0.00135571,0.0189807,0.0279871,0.0131337,0.000330303,-48,-346,91.6582,91.6582,36.1357,36.1357,2.044
0.013761,0.00979295,0.00952193,0.00135778,0.0190465,0.0281591,0.0131792,0.000392948,-47,-347,91.4684,91.4684,37.0726,37.0726,2.048
0.0138373,0.00990419,0.00957474,0.00135985,0.0191125,0.0280434,0.0132249,0.000434711,-48,-349,91.2731,91.2731,38.0113,38.0113,2.052
0.0139139,0.0100158,0.00962773,0.00136331,0.0191785,0.0279951,0.0132706,0.000577716,-48,-349,91.0836,91.0836,38.9524,38.9524,2.056
0.0139908,0.0101277,0.00968091,0.00136745,0.0192446,0.0279916,0.0133163,0.000730635,-49,-350,90.8972,90.8972,39.8917,39.8917,2.06
0.0140679,0.0102383,0.00973426,0.00137195,0.0193108,0.0278742,0.0133621,0.000861372,-50,-350,90.7123,90.7123,40.8288,40.8288,2.064
0.0141453,0.0103499,0.0097878,0.00137678,0.0193771,0.0278823,0.013408,0.000977321,-50,-351,90.5334,90.5334,41.7648,41.7648,2.068
0.0142229,0.0104642,0.00984153,0.00138196,0.0194435,0.028118,0.0134539,0.00108341,-48,-352,90.3545,90.3545,42.7003,42.7003,2.072
0.0143008,0.0105769,0.00989543,0.00138749,0.0195099,0.0281312,0.0134999,0.00118293,-47,-353,90.1673,90.1673,43.6355,43.6355,2.076
0.014379,0.0106905,0.00994953,0.00139371,0.0195764,0.0282263,0.0135459,0.00130686,-47,-354,89.9804,89.9804,44.5707,44.5707,2.08
0.0144574,0.0108045,0.0100038,0.00139993,0.019643,0.0283185,0.013592,0.00138947,-46,-355,89.7906,89.7906,45.5051,45.5051,2.084
0.0145361,0.0109203,0.0100583,0.00140684,0.0197097,0.028524,0.0136381,0.00150213,-44,-356,89.5975,89.5975,46.4402,46.4402,2.088
0.0146151,0.0110339,0.0101129,0.00141375,0.0197764,0.0284882,0.0136843,0.00157724,-44,-357,89.3975,89.3975,47.3748,47.3748,2.092
0.0146943,0.0111507,0.0101677,0.001421,0.0198433,0.0287235,0.0137305,0.0016561,-42,-358,89.1993,89.1993,48.3106,48.3106,2.096
0.0147738,0.0112675,0.0102228,0.00142861,0.0199102,0.0288803,0.0137768,0.00173747,-41,-359,88.9924,88.9924,49.2472,49.2472,2.1
0.0148536,0.0113829,0.010278,0.00143655,0.0199772,0.0288697,0.0138232,0.0018205,-41,-360,88.7802,88.7802,50.1847,50.1847,2.104
0.0149337,0.011499,0.0103333,0.00144381,0.0200442,0.0289202,0.0138696,0.00181828,-40,-362,88.5695,88.5695,51.1231,51.1231,2.108
0.015014,0.0116147,0.0103889,0.00145072,0.0201114,0.0289251,0.0139161,0.001788,-40,-364,88.3578,88.3578,52.0661,52.0661,2.112
0.0150945,0.0117287,0.0104447,0.00145521,0.0201786,0.0287844,0.0139626,0.00156628,-42,-368,88.1476,88.1476,53.0152,53.0152,2.116
0.0151754,0.0118438,0.0105006,0.00145935,0.0202459,0.028777,0.0140091,0.00138968,-42,-372,87.9441,87.9441,53.9781,53.9781,2.12
0.0152565,0.0119592,0.0105567,0.00146143,0.0203133,0.0288008,0.0140558,0.0010992,-42,-377,87.7421,87.7421,54.9533,54.9533,2.124
0.0153379,0.0120718,0.0106131,0.00146419,0.0203807,0.0285864,0.0141024,0.000963127,-44,-380,87.5411,87.5411,55.945,55.945,2.128
0.0154196,0.0121851,0.0106696,0.00146592,0.0204483,0.028501,0.0141492,0.000786039,-45,-384,87.3501,87.3501,56.9471,56.9471,2.132
0.0155015,0.0122995,0.0107262,0.00146696,0.0205159,0.0285305,0.014196,0.000610399,-45,-388,87.1638,87.1638,57.9614,57.9614,2.136
0.0155837,0.0124121,0.0107831,0.00146868,0.0205836,0.0284062,0.0142428,0.000550887,-46,-390,86.978,86.978,58.9875,58.9875,2.14
0.0156662,0.0125254,0.0108402,0.00146937,0.0206513,0.0283809,0.0142897,0.00042484,-46,-394,86.7987,86.7987,60.021,60.021,2.144
0.0157489,0.0126408,0.0108974,0.0014711,0.0207192,0.0285367,0.0143366,0.000427181,-45,-396,86.6213,86.6213,61.0641,61.0641,2.148
0.0158319,0.0127545,0.0109549,0.00147248,0.0207871,0.0284967,0.0143836,0.000399951,-45,-398,86.4391,86.4391,62.112,62.112,2.152
0.0159152,0.0128699,0.0110125,0.00147352,0.0208551,0.028614,0.0144307,0.000353007,-44,-401,86.2595,86.2595,63.1657,63.1657,2.156
0.0159988,0.0129839,0.0110703,0.00147559,0.0209232,0.028577,0.0144778,0.000408084,-45,-402,86.0767,86.0767,64.2259,64.2259,2.16
0.0160826,0.0130979,0.0111283,0.0014787,0.0209913,0.0285523,0.0145249,0.000531174,-45,-403,85.8969,85.8969,65.2883,65.2883,2.164
0.0161667,0.0132119,0.0111865,0.0014825,0.0210595,0.0285359,0.0145721,0.000670816,-46,-404,85.7196,85.7196,66.35,66.35,2.168
0.0162511,0.0133273,0.0112449,0.00148699,0.0211278,0.0286401,0.0146194,0.000821493,-45,-405,85.5441,85.5441,67.4104,67.4104,2.172
0.0163357,0.0134413,0.0113035,0.00149252,0.0211962,0.0285944,0.0146667,0.00100832,-45,-405,85.366,85.366,68.469,68.469,2.176
0.0164206,0.013556,0.0113622,0.00149874,0.0212647,0.0286215,0.0147141,0.00119045,-45,-405,85.1911,85.1911,69.5242,69.5242,2.18
0.0165058,0.0136707,0.0114212,0.00150461,0.0213332,0.0286396,0.0147615,0.00128308,-45,-406,85.0165,85.0165,70.5765,70.5765,2.184
0.0165913,0.0137851,0.0114803,0.00151152,0.0214018,0.0286229,0.014809,0.0014312,-46,-407,84.8427,84.8427,71.6293,71.6293,2.188
0.016677,0.0138984,0.0115397,0.00151774,0.0214705,0.0285253,0.0148565,0.00147237,-47,-409,84.6715,84.6715,72.6806,72.6806,2.192
0.0167631,0.0140148,0.0115992,0.00152534,0.0215392,0.0287194,0.0149041,0.00161498,-45,-410,84.5051,84.5051,73.7346,73.7346,2.196
0.0168494,0.0141302,0.0116589,0.00153294,0.0216081,0.0287625,0.0149517,0.00171005,-45,-411,84.3323,84.3323,74.7871,74.7871,2.2
0.0169359,0.0142436,0.0117188,0.00154227,0.021677,0.0286184,0.0149994,0.00191739,-46,-411,84.1598,84.1598,75.8398,75.8398,2.204
0.0170228,0.0143583,0.0117789,0.0015516,0.0217459,0.0286375,0.0150471,0.00205562,-46,-412,83.9946,83.9946,76.8884,76.8884,2.208
0.0171099,0.0144733,0.0118392,0.00156231,0.021815,0.0286791,0.0150949,0.00226293,-46,-412,83.8301,83.8301,77.9355,77.9355,2.212
0.0171973,0.0145873,0.0118997,0.00157337,0.0218841,0.0286204,0.0151427,0.00242993,-47,-412,83.6657,83.6657,78.9782,78.9782,2.216
0.017285,0.0147034,0.0119603,0.00158477,0.0219533,0.028754,0.0151906,0.00257005,-46,-413,83.5049,83.5049,80.0184,80.0184,2.22
0.0173729,0.0148191,0.0120212,0.00159617,0.0220226,0.0288143,0.0152385,0.00266347,-45,-414,83.3401,83.3401,81.0572,81.0572,2.224
0.0174611,0.0149332,0.0120822,0.00160861,0.0220919,0.0287105,0.0152865,0.00281212,-47,-414,83.1749,83.1749,82.0964,82.0964,2.228
0.0175496,0.0150492,0.0121435,0.00162035,0.0221613,0.0288141,0.0153345,0.00285364,-46,-416,83.0152,83.0152,83.1339,83.1339,2.232
0.0176384,0.015165,0.0122049,0.00163348,0.0222308,0.0288544,0.0153826,0.00299648,-46,-417,82.8529,82.8529,84.1738,84.1738,2.236
0.0177275,0.0152797,0.0122665,0.00164661,0.0223004,0.0287948,0.0154307,0.00309171,-46,-418,82.6909,82.6909,85.2121,85.2121,2.24
0.0178168,0.0153965,0.0123284,0.00165905,0.02237,0.0289279,0.0154789,0.00309761,-45,-420,82.5325,82.5325,86.2511,86.2511,2.244
0.0179065,0.0155143,0.0123904,0.00167321,0.0224397,0.029103,0.0155272,0.0032455,-44,-420,82.3699,82.3699,87.2939,87.2939,2.248
0.0179964,0.015629,0.0124526,0.00168738,0.0225095,0.0289606,0.0155754,0.0033441,-46,-422,82.2024,82.2024,88.3348,88.3348,2.252
0.0180865,0.0157458,0.012515,0.0017012,0.0225794,0.0290384,0.0156238,0.00338103,-45,-423,82.0421,82.0421,89.3762,89.3762,2.256
0.018177,0.0158612,0.0125776,0.00171536,0.0226493,0.0289751,0.0156722,0.00343445,-46,-425,81.8806,81.8806,90.4204,90.4204,2.26
0.0182677,0.0159776,0.0126403,0.00172884,0.0227193,0.0290193,0.0157206,0.00341248,-46,-427,81.7232,81.7232,91.4669,91.4669,2.264
0.0183587,0.016095,0.0127033,0.00174162,0.0227893,0.0291351,0.0157691,0.00334025,-45,-430,81.5655,81.5655,92.5189,92.5189,2.268
0.01845,0.0162125,0.0127665,0.00175268,0.0228595,0.0292123,0.0158176,0.00314814,-44,-434,81.4046,81.4046,93.5789,93.5789,2.272
0.0185416,0.0163276,0.0128299,0.00176235,0.0229297,0.0290623,0.0158662,0.00290491,-46,-438,81.2429,81.2429,94.6518,94.6518,2.276
0.0186335,0.0164433,0.0128934,0.00177099,0.023,0.0290198,0.0159148,0.00265638,-47,-443,81.0891,81.0891,95.7397,95.7397,2.28
0.0187256,0.0165597,0.0129572,0.00177893,0.0230703,0.0290491,0.0159635,0.00243311,-47,-447,80.9387,80.9387,96.8427,96.8427,2.284
0.018818,0.0166755,0.0130211,0.00178688,0.0231408,0.029011,0.0160122,0.00228426,-47,-451,80.7891,80.7891,97.9599,97.9599,2.288
0.0189107,0.0167922,0.0130853,0.00179655,0.0232112,0.029072,0.016061,0.00232899,-47,-452,80.6427,80.6427,99.0875,99.0875,2.292
0.0190037,0.0169094,0.0131496,0.00180726,0.0232818,0.0291415,0.0161098,0.00244518,-47,-454,80.4956,80.4956,100.218,100.218,2.296
0.019097,0.0170248,0.0132142,0.00182039,0.0233525,0.0290438,0.0161587,0.00272417,-48,-453,80.3478,80.3478,101.347,101.347,2.3
0.0191906,0.0171412,0.0132789,0.00183387,0.0234232,0.0290651,0.0162076,0.00293896,-48,-453,80.2057,80.2057,102.47,102.47,2.304
0.0192844,0.0172566,0.0133438,0.00184769,0.0234939,0.0289929,0.0162566,0.00311094,-49,-454,80.0649,80.0649,103.588,103.588,2.308
0.0193785,0.0173716,0.0134089,0.00186185,0.0235648,0.028916,0.0163056,0.00325439,-50,-454,79.9293,79.9293,104.703,104.703,2.312
0.0194729,0.0174884,0.0134743,0.00187533,0.0236357,0.0290086,0.0163547,0.00329244,-49,-456,79.7983,79.7983,105.817,105.817,2.316
0.0195676,0.0176062,0.0135398,0.00188776,0.0237067,0.0291568,0.0164038,0.00323143,-48,-459,79.6652,79.6652,106.934,106.934,2.32
0.0196626,0.0177213,0.0136055,0.00190055,0.0237777,0.0290252,0.016453,0.00321955,-50,-461,79.5286,79.5286,108.059,108.059,2.324
0.0197578,0.0178381,0.0136714,0.00191437,0.0238489,0.0290815,0.0165022,0.00329801,-50,-463,79.399,79.399,109.188,109.188,2.328
0.0198533,0.0179572,0.0137375,0.0019306,0.0239201,0.0293205,0.0165515,0.00355184,-48,-462,79.2685,79.2685,110.318,110.318,2.332
0.0199492,0.0180723,0.0138038,0.00194719,0.0239913,0.0291344,0.0166008,0.00374986,-50,-463,79.1309,79.1309,111.442,111.442,2.336
0.0200453,0.018188,0.0138703,0.00196377,0.0240626,0.0290679,0.0166501,0.00388187,-51,-463,79.003,79.003,112.563,112.563,2.34
0.0201417,0.0183065,0.013937,0.00198001,0.024134,0.0292539,0.0166995,0.00394109,-49,-465,78.8793,78.8793,113.682,113.682,2.344
0.0202384,0.0184219,0.0140039,0.00199521,0.0242055,0.0291188,0.016749,0.00389419,-51,-468,78.7506,78.7506,114.804,114.804,2.348
0.0203353,0.0185356,0.014071,0.00201041,0.024277,0.0288847,0.0167985,0.00386293,-54,-470,78.6301,78.6301,115.932,115.932,2.352
0.0204326,0.0186496,0.0141383,0.00202665,0.0243487,0.0287575,0.016848,0.00392846,-55,-472,78.5216,78.5216,117.066,117.066,2.356
0.0205301,0.0187609,0.0142058,0.00204565,0.0244203,0.0284423,0.0168976,0.00420247,-59,-471,78.4213,78.4213,118.201,118.201,2.36
0.0206279,0.0188725,0.0142735,0.00206465,0.0244921,0.028261,0.0169473,0.00438515,-61,-472,78.3365,78.3365,119.33,119.33,2.364
0.020726,0.0189823,0.0143414,0.00208366,0.0245639,0.0279962,0.016997,0.00450693,-64,-473,78.2621,78.2621,120.455,120.455,2.368
0.0208244,0.0190887,0.0144095,0.00210197,0.0246357,0.0275317,0.0170467,0.00453054,-69,-474,78.2021,78.2021,121.58,121.58,2.372
0.0209231,0.0191931,0.0144777,0.00212097,0.0247077,0.0270494,0.0170965,0.00460386,-74,-476,78.1648,78.1648,122.708,122.708,2.376
0.0210221,0.0192971,0.0145462,0.00213963,0.0247797,0.026699,0.0171463,0.00462395,-78,-478,78.1505,78.1505,123.838,123.838,2.38
0.0211214,0.0193976,0.0146149,0.00215932,0.0248518,0.0261775,0.0171962,0.00472372,-84,-479,78.1545,78.1545,124.971,124.971,2.384
0.0212209,0.0194971,0.0146838,0.00217867,0.0249239,0.0257434,0.0172461,0.00476144,-89,-481,78.1836,78.1836,126.104,126.104,2.388
0.0213208,0.0195938,0.0147529,0.00219698,0.0249961,0.0252237,0.0172961,0.00470021,-95,-484,78.2347,78.2347,127.241,127.241,2.392
0.0214209,0.019692,0.0148222,0.00221529,0.0250684,0.0249925,0.0173461,0.00465939,-98,-486,78.3103,78.3103,128.385,128.385,2.396
0.0215213,0.019787,0.0148917,0.00223291,0.0251407,0.0245791,0.0173961,0.0045746,-103,-489,78.3996,78.3996,129.535,129.535,2.4
0.021622,0.0198799,0.0149613,0.00225018,0.0252131,0.0241309,0.0174462,0.00448928,-108,-492,78.51,78.51,130.694,130.694,2.404
0.021723,0.0199715,0.0150312,0.00226608,0.0252856,0.0237168,0.0174964,0.00431724,-113,-496,78.643,78.643,131.861,131.861,2.408
0.0218243,0.020063,0.0151013,0.00228024,0.0253582,0.0234408,0.0175466,0.00405858,-116,-501,78.7969,78.7969,133.041,133.041,2.412
0.0219259,0.0201522,0.0151716,0.00229475,0.0254308,0.0230553,0.0175968,0.00391494,-121,-505,78.9665,78.9665,134.236,134.236,2.416
0.0220277,0.0202413,0.0152421,0.00230754,0.0255034,0.0227982,0.0176471,0.00367523,-125,-509,79.1559,79.1559,135.442,135.442,2.42
0.0221299,0.0203301,0.0153128,0.00231825,0.0255762,0.0225981,0.0176974,0.00334267,-128,-515,79.3598,79.3598,136.664,136.664,2.424
0.0222324,0.0204182,0.0153837,0.00232723,0.025649,0.0224071,0.0177478,0.00297701,-131,-521,79.5761,79.5761,137.904,137.904,2.428
0.0223351,0.0205039,0.0154548,0.0023331,0.0257218,0.0220782,0.0177982,0.00247412,-135,-528,79.8048,79.8048,139.166,139.166,2.432
0.0224381,0.0205889,0.0155261,0.00233621,0.0257948,0.0218014,0.0178487,0.00190853,-139,-536,80.0513,80.0513,140.455,140.455,2.436
0.0225415,0.0206728,0.0155975,0.00233897,0.0258678,0.0215304,0.0178992,0.00150268,-142,-542,80.3137,80.3137,141.773,141.773,2.44
0.0226451,0.0207564,0.0156692,0.0023407,0.0259408,0.021321,0.0179497,0.00114574,-146,-548,80.5915,80.5915,143.113,143.113,2.444
0.022749,0.0208366,0.0157411,0.00234208,0.026014,0.0208935,0.0180003,0.000878992,-151,-553,80.8831,80.8831,144.474,144.474,2.448
0.0228532,0.0209146,0.0158132,0.0023445,0.0260871,0.0204358,0.018051,0.000787531,-157,-557,81.1974,81.1974,145.851,145.851,2.452
0.0229577,0.020992,0.0158856,0.00234658,0.0261604,0.020073,0.0181017,0.000697766,-162,-560,81.5353,81.5353,147.237,147.237,2.456
0.0230625,0.0210698,0.0159581,0.00234934,0.0262337,0.01986,0.0181524,0.000695505,-165,-563,81.8928,81.8928,148.633,148.633,2.46
0.0231675,0.0211468,0.0160308,0.0023521,0.0263071,0.0196604,0.0182032,0.000693997,-168,-566,82.2639,82.2639,150.034,150.034,2.464
0.0232729,0.0212218,0.0161037,0.00235521,0.0263805,0.0193545,0.018254,0.000721783,-173,-568,82.6483,82.6483,151.441,151.441,2.468
0.0233786,0.0212981,0.0161768,0.00235832,0.026454,0.0192658,0.0183049,0.000740307,-175,-571,83.0497,83.0497,152.852,152.852,2.472
0.0234846,0.0213721,0.0162501,0.00236247,0.0265276,0.0190051,0.0183558,0.000839029,-179,-572,83.4601,83.4601,154.268,154.268,2.476
0.0235908,0.0214453,0.0163236,0.002368,0.0266012,0.0187738,0.0184067,0.00102001,-183,-573,83.8862,83.8862,155.685,155.685,2.48
0.0236974,0.0215161,0.0163974,0.00237456,0.0266749,0.018418,0.0184577,0.00122703,-188,-574,84.3274,84.3274,157.099,157.099,2.484
0.0238042,0.0215877,0.0164713,0.00238216,0.0267487,0.0182384,0.0185087,0.00145142,-191,-574,84.7882,84.7882,158.51,158.51,2.488
0.0239114,0.0216595,0.0165454,0.00239045,0.0268225,0.0181474,0.0185598,0.0016586,-194,-575,85.2613,85.2613,159.917,159.917,2.492
0.0240188,0.0217317,0.0166198,0.00239944,0.0268964,0.0181156,0.0186109,0.0018543,-195,-576,85.7429,85.7429,161.32,161.32,2.496
0.0241265,0.0218043,0.0166943,0.00240842,0.0269703,0.0181232,0.0186621,0.00198476,-197,-577,86.2307,86.2307,162.721,162.721,2.5
0.0242346,0.0218758,0.0167691,0.00241844,0.0270443,0.0180418,0.0187133,0.00215811,-199,-578,86.7233,86.7233,164.122,164.122,2.504
0.0243429,0.0219446,0.016844,0.00242777,0.0271184,0.0177573,0.0187646,0.0022161,-204,-580,87.225,87.225,165.52,165.52,2.508
0.0244515,0.0220137,0.0169192,0.00243537,0.0271925,0.0175964,0.0188159,0.0021108,-207,-584,87.7436,87.7436,166.923,166.923,2.512
0.0245604,0.0220828,0.0169946,0.00244366,0.0272667,0.0174891,0.0188672,0.00209818,-210,-587,88.274,88.274,168.334,168.334,2.516
0.0246696,0.0221505,0.0170701,0.00245022,0.027341,0.0173024,0.0189186,0.00194581,-213,-591,88.8144,88.8144,169.752,169.752,2.52
0.0247791,0.0222161,0.0171459,0.00245644,0.0274153,0.0170052,0.01897,0.00181545,-218,-595,89.3683,89.3683,171.183,171.183,2.524
0.024889,0.0222811,0.0172219,0.00246301,0.0274897,0.0167495,0.0190215,0.00175733,-222,-598,89.9401,89.9401,172.624,172.624,2.528
0.0249991,0.0223439,0.0172981,0.00246992,0.0275641,0.0164063,0.019073,0.00174737,-227,-601,90.5285,90.5285,174.072,174.072,2.532
0.0251095,0.0224061,0.0173745,0.00247683,0.0276386,0.0161199,0.0191245,0.00174073,-232,-603,91.1369,91.1369,175.527,175.527,2.536
0.0252202,0.0224669,0.0174511,0.00248546,0.0277132,0.0158138,0.0191761,0.00188026,-237,-605,91.7632,91.7632,176.987,176.987,2.54
0.0253312,0.0225277,0.0175279,0.00249479,0.0277878,0.0156097,0.0192277,0.00203086,-241,-606,92.4079,92.4079,178.447,178.447,2.544
0.0254425,0.0225865,0.0176049,0.00250654,0.0278625,0.0153009,0.0192794,0.0023328,-246,-606,93.0673,93.0673,179.906,179.906,2.548
0.0255541,0.0226424,0.0176821,0.0025207,0.0279372,0.0148648,0.0193311,0.00273563,-252,-605,93.746,93.746,181.356,181.356,2.552
0.025666,0.0226988,0.0177596,0.00253521,0.028012,0.0146028,0.0193829,0.00303297,-256,-604,94.4488,94.4488,182.795,182.795,2.556
0.0257782,0.0227544,0.0178372,0.00255007,0.0280869,0.0143705,0.0194347,0.00325999,-261,-605,95.1687,95.1687,184.227,184.227,2.56
0.0258907,0.0228097,0.017915,0.00256251,0.0281618,0.0141869,0.0194865,0.0032098,-265,-608,95.9043,95.9043,185.655,185.655,2.564
0.0260035,0.0228636,0.0179931,0.00257218,0.0282368,0.0139493,0.0195384,0.00294601,-269,-613,96.6539,96.6539,187.092,187.092,2.568
0.0261166,0.0229171,0.0180713,0.00257875,0.0283118,0.0137621,0.0195903,0.00251104,-273,-620,97.4197,97.4197,188.546,188.546,2.572
0.02623,0.0229689,0.0181498,0.00258324,0.0283869,0.0134934,0.0196423,0.00204831,-278,-627,98.1998,98.1998,190.024,190.024,2.576
0.0263437,0.0230194,0.0182285,0.00258566,0.028462,0.0131991,0.0196943,0.00156707,-283,-635,98.9977,98.9977,191.527,191.527,2.58
0.0264577,0.0230702,0.0183074,0.00258704,0.0285372,0.0130316,0.0197463,0.00115988,-287,-642,99.8141,99.8141,193.057,193.057,2.584
0.026572,0.0231206,0.0183865,0.00258842,0.0286125,0.0128912,0.0197984,0.000888417,-290,-647,100.644,100.644,194.609,194.609,2.588
0.0266866,0.0231714,0.0184657,0.00259049,0.0286879,0.0128264,0.0198505,0.000765023,-293,-651,101.486,101.486,196.179,196.179,2.592
0.0268015,0.0232232,0.0185453,0.00259326,0.0287632,0.0128696,0.0199027,0.000740343,-295,-654,102.337,102.337,197.759,197.759,2.596
0.0269167,0.0232754,0.018625,0.0025974,0.0288387,0.0129272,0.0199549,0.000839053,-297,-656,103.192,103.192,199.346,199.346,2.6
0.0270322,0.0233286,0.0187049,0.00260328,0.0289142,0.0130519,0.0200072,0.00104881,-298,-657,104.051,104.051,200.934,200.934,2.604
0.027148,0.0233849,0.018785,0.00261053,0.0289898,0.0133942,0.0200594,0.00130382,-297,-658,104.91,104.91,202.519,202.519,2.608
0.0272641,0.0234488,0.0188654,0.0026209,0.0290654,0.0142558,0.0201118,0.00173294,-291,-656,105.759,105.759,204.099,204.099,2.612
0.0273805,0.023519,0.0189459,0.00263299,0.029141,0.0153484,0.0201641,0.00216298,-282,-655,106.576,106.576,205.666,205.666,2.616
0.0274972,0.0235995,0.0190267,0.00264715,0.0292168,0.0169406,0.0202165,0.00262241,-269,-653,107.35,107.35,207.22,207.22,2.62
0.0276142,0.0236889,0.0191077,0.00266097,0.0292926,0.0187506,0.020269,0.00289991,-253,-654,108.061,108.061,208.76,208.76,2.624
0.0277316,0.0237926,0.0191888,0.00267376,0.0293684,0.0211376,0.0203215,0.00299854,-231,-655,108.697,108.697,210.295,210.295,2.628
0.0278492,0.0239104,0.0192702,0.00268585,0.0294443,0.0239095,0.020374,0.00300671,-206,-658,109.234,109.234,211.832,211.832,2.632
0.0279671,0.0240407,0.0193518,0.0026969,0.0295203,0.0267938,0.0204265,0.00292578,-179,-662,109.654,109.654,213.374,213.374,2.636
0.0280853,0.0241813,0.0194336,0.00270796,0.0295963,0.0295805,0.0204791,0.00287183,-153,-665,109.955,109.955,214.925,214.925,2.64
0.0282039,0.0243312,0.0195157,0.00272005,0.0296724,0.0322156,0.0205318,0.00292224,-128,-667,110.139,110.139,216.483,216.483,2.644
0.0283227,0.0244884,0.0195979,0.00273318,0.0297485,0.0345769,0.0205845,0.00304221,-105,-669,110.212,110.212,218.045,218.045,2.648
0.0284419,0.0246539,0.0196803,0.00274769,0.0298247,0.0368421,0.0206372,0.00323736,-84,-670,110.186,110.186,219.607,219.607,2.652
0.0285613,0.0248218,0.019763,0.00276393,0.0299009,0.0385538,0.0206899,0.00351141,-67,-670,110.066,110.066,221.167,221.167,2.656
0.0286811,0.0249935,0.0198459,0.00278017,0.0299772,0.0400116,0.0207427,0.00369412,-53,-671,109.875,109.875,222.72,222.72,2.66
0.0288011,0.0251642,0.0199289,0.00279571,0.0300536,0.0408971,0.0207956,0.00375834,-45,-673,109.623,109.623,224.271,224.271,2.664
0.0289215,0.0253369,0.0200122,0.00280988,0.03013,0.0416602,0.0208484,0.00368598,-37,-677,109.335,109.335,225.826,225.826,2.668
0.0290422,0.0255076,0.0200957,0.00282508,0.0302065,0.0419962,0.0209014,0.00372412,-34,-679,109.016,109.016,227.389,227.389,2.672
0.0291632,0.0256752,0.0201794,0.00284097,0.030283,0.0419611,0.0209543,0.00380713,-34,-681,108.685,108.685,228.956,228.956,2.676
0.0292844,0.0258414,0.0202634,0.00285859,0.0303596,0.0418225,0.0210073,0.00400643,-35,-682,108.356,108.356,230.524,230.524,2.68
0.029406,0.0260068,0.0203475,0.00287725,0.0304362,0.0416725,0.0210603,0.00422566,-36,-683,108.035,108.035,232.089,232.089,2.684
0.0295279,0.0261696,0.0204318,0.00289625,0.0305129,0.0413422,0.0211134,0.00440061,-40,-684,107.722,107.722,233.651,233.651,2.688
0.0296501,0.0263306,0.0205164,0.00291353,0.0305896,0.040978,0.0211665,0.00437328,-43,-687,107.424,107.424,235.211,235.211,2.692
0.0297727,0.0264912,0.0206012,0.00292838,0.0306664,0.0407065,0.0212196,0.00415353,-46,-692,107.143,107.143,236.779,236.779,2.696
0.0298955,0.0266495,0.0206862,0.00294047,0.0307433,0.0403239,0.0212728,0.0037767,-50,-699,106.875,106.875,238.361,238.361,2.7
0.0300186,0.0268105,0.0207714,0.00295049,0.0308202,0.0402992,0.021326,0.00335274,-50,-706,106.624,106.624,239.966,239.966,2.704
0.030142,0.026969,0.0208568,0.00295913,0.0308971,0.0400811,0.0213792,0.00295493,-52,-712,106.376,106.376,241.595,241.595,2.708
0.0302658,0.0271342,0.0209424,0.00296742,0.0309741,0.0404828,0.0214325,0.00266094,-48,-718,106.137,106.137,243.246,243.246,2.712
0.0303898,0.027289,0.0210282,0.00297399,0.0310512,0.0398869,0.0214859,0.00232099,-54,-725,105.886,105.886,244.916,244.916,2.716
0.0305142,0.0274486,0.0211143,0.00298055,0.0311283,0.0398927,0.0215392,0.00209435,-54,-730,105.659,105.659,246.606,246.606,2.72
0.0306389,0.0276099,0.0212005,0.00298746,0.0312055,0.0400405,0.0215926,0.00197205,-53,-734,105.434,105.434,248.311,248.311,2.724
0.0307638,0.0277702,0.021287,0.00299403,0.0312827,0.0400526,0.021646,0.00186173,-53,-738,105.204,105.204,250.028,250.028,2.728
0.0308891,0.0279316,0.0213737,0.00300128,0.03136,0.0401471,0.0216995,0.00184576,-52,-741,104.975,104.975,251.755,251.755,2.732
0.0310147,0.0280936,0.0214606,0.00300923,0.0314373,0.0402677,0.021753,0.0018927,-51,-744,104.744,104.744,253.489,253.489,2.736
0.0311406,0.028257,0.0215477,0.00301821,0.0315147,0.0404632,0.0218066,0.00201036,-49,-746,104.509,104.509,255.227,255.227,2.74
0.0312668,0.0284187,0.0216351,0.00302857,0.0315921,0.0404496,0.0218601,0.00220397,-50,-747,104.267,104.267,256.966,256.966,2.744
0.0313933,0.0285825,0.0217226,0.00303998,0.0316696,0.0406133,0.0219138,0.00241941,-48,-748,104.027,104.027,258.702,258.702,2.748
0.0315202,0.0287445,0.0218104,0.00305069,0.0317471,0.0405785,0.0219674,0.00250546,-49,-751,103.782,103.782,260.436,260.436,2.752
0.0316473,0.0289083,0.0218983,0.00306312,0.0318247,0.0406992,0.0220211,0.00270678,-48,-752,103.54,103.54,262.171,262.171,2.756
0.0317748,0.0290713,0.0219865,0.00307763,0.0319024,0.0407221,0.0220748,0.00301374,-47,-752,103.294,103.294,263.904,263.904,2.76
0.0319025,0.0292355,0.0220749,0.00309456,0.0319801,0.0408238,0.0221286,0.00341991,-47,-751,103.049,103.049,265.629,265.629,2.764
0.0320306,0.0293971,0.0221636,0.00311495,0.0320578,0.04069,0.0221824,0.00397861,-48,-749,102.801,102.801,267.342,267.342,2.768
0.032159,0.0295606,0.0222524,0.0031381,0.0321356,0.0407448,0.0222362,0.0045814,-48,-746,102.561,102.561,269.037,269.037,2.772
0.0322877,0.0297236,0.0223415,0.00316193,0.0322134,0.0407525,0.0222901,0.00504084,-48,-744,102.32,102.32,270.713,270.713,2.776
0.0324167,0.0298857,0.0224307,0.00318543,0.0322913,0.0406713,0.022344,0.00531834,-49,-745,102.08,102.08,272.374,272.374,2.78
0.032546,0.0300487,0.0225202,0.00320927,0.0323693,0.0407035,0.0223979,0.00553214,-48,-745,101.846,101.846,274.03,274.03,2.784
0.0326757,0.0302104,0.0226099,0.00323587,0.0324473,0.0406098,0.0224519,0.00590499,-49,-745,101.612,101.612,275.682,275.682,2.788
0.0328056,0.0303759,0.0226998,0.00326627,0.0325253,0.0408641,0.0225059,0.00647026,-47,-742,101.382,101.382,277.322,277.322,2.792
0.0329359,0.0305352,0.02279,0.00329668,0.0326034,0.0405153,0.0225599,0.00684711,-51,-741,101.146,101.146,278.944,278.944,2.796
0.0330664,0.0306986,0.0228803,0.00332915,0.0326816,0.0406283,0.022614,0.00727109,-50,-740,100.924,100.924,280.556,280.556,2.8
0.0331973,0.0308582,0.0229709,0.00336508,0.0327598,0.040387,0.0226681,0.00784165,-52,-737,100.701,100.701,282.154,282.154,2.804
0.0333285,0.0310213,0.0230617,0.00340136,0.032838,0.040514,0.0227223,0.00825081,-51,-736,100.489,100.489,283.733,283.733,2.808
0.03346,0.031183,0.0231526,0.00343625,0.0329163,0.0404835,0.0227764,0.00840842,-52,-737,100.274,100.274,285.301,285.301,2.812
0.0335919,0.0313436,0.0232439,0.00347253,0.0329947,0.0403768,0.0228307,0.00862866,-53,-738,100.062,100.062,286.866,286.866,2.816
0.033724,0.0315064,0.0233353,0.00350812,0.0330731,0.0404784,0.0228849,0.00871791,-52,-740,99.8558,99.8558,288.428,288.428,2.82
0.0338564,0.0316694,0.0234269,0.00354336,0.0331515,0.0405749,0.0229392,0.00874861,-52,-742,99.6473,99.6473,289.991,289.991,2.824
0.0339892,0.0318329,0.0235188,0.00357825,0.03323,0.040668,0.0229935,0.00874029,-51,-745,99.4366,99.4366,291.558,291.558,2.828
0.0341223,0.0319956,0.0236109,0.00361418,0.0333086,0.0406725,0.0230479,0.00882112,-51,-747,99.224,99.224,293.13,293.13,2.832
0.0342557,0.0321618,0.0237032,0.0036508,0.0333872,0.0409635,0.0231022,0.00893258,-48,-748,99.0122,99.0122,294.704,294.704,2.836
0.0343894,0.0323235,0.0237957,0.00368812,0.0334658,0.0407831,0.0231567,0.00906448,-50,-750,98.7912,98.7912,296.278,296.278,2.84
0.0345234,0.0324896,0.0238884,0.00372681,0.0335445,0.0410372,0.0232111,0.00926757,-48,-751,98.5786,98.5786,297.851,297.851,2.844
0.0346577,0.0326531,0.0239814,0.00376654,0.0336233,0.0409762,0.0232656,0.00948933,-49,-751,98.3579,98.3579,299.42,299.42,2.848
0.0347924,0.0328175,0.0240746,0.00380662,0.033702,0.041022,0.0233201,0.00966597,-49,-752,98.1414,98.1414,300.985,300.985,2.852
0.0349273,0.0329813,0.024168,0.00384877,0.0337809,0.0409949,0.0233747,0.00995647,-49,-752,97.925,97.925,302.547,302.547,2.856
0.0350626,0.0331471,0.0242616,0.00389265,0.0338598,0.0411496,0.0234292,0.0102941,-48,-751,97.7113,97.7113,304.101,304.101,2.86
0.0351982,0.0333119,0.0243554,0.00393894,0.0339387,0.0411663,0.0234839,0.0107207,-48,-750,97.4932,97.4932,305.646,305.646,2.864
0.0353341,0.0334774,0.0244494,0.00398869,0.0340177,0.0412351,0.0235385,0.011293,-48,-747,97.2762,97.2762,307.176,307.176,2.868
0.0354704,0.0336401,0.0245437,0.00403706,0.0340967,0.0410506,0.0235932,0.0115594,-50,-747,97.059,97.059,308.688,308.688,2.872
0.0356069,0.0338056,0.0246382,0.00408716,0.0341758,0.0411579,0.0236479,0.011881,-49,-746,96.8508,96.8508,310.193,310.193,2.876
0.0357438,0.0339708,0.0247329,0.00413518,0.0342549,0.0412007,0.0237027,0.0119226,-49,-748,96.6403,96.6403,311.689,311.689,2.88
0.035881,0.0341359,0.0248278,0.0041839,0.0343341,0.0412292,0.0237574,0.0120079,-49,-750,96.4299,96.4299,313.188,313.188,2.884
0.0360184,0.034301,0.0249229,0.0042333,0.0344133,0.0412482,0.0238123,0.0121224,-49,-752,96.2204,96.2204,314.688,314.688,2.888
0.0361563,0.0344658,0.0250183,0.00428305,0.0344926,0.0412321,0.0238671,0.0122275,-49,-753,96.0122,96.0122,316.188,316.188,2.892
0.0362944,0.0346324,0.0251139,0.00433488,0.0345719,0.0413653,0.023922,0.0124703,-48,-753,95.8063,95.8063,317.687,317.687,2.896
0.0364328,0.0347975,0.0252097,0.0043867,0.0346512,0.0413389,0.0239769,0.0126322,-49,-754,95.5972,95.5972,319.181,319.181,2.9
0.0365716,0.034964,0.0253057,0.00443818,0.0347306,0.0414365,0.0240318,0.0127113,-48,-756,95.391,95.391,320.672,320.672,2.904
0.0367107,0.0351264,0.0254019,0.00448931,0.0348101,0.0411561,0.0240868,0.0127353,-51,-758,95.1837,95.1837,322.165,322.165,2.908
0.0368501,0.0352943,0.0254984,0.00454252,0.0348896,0.0414298,0.0241418,0.012924,-48,-759,94.9891,94.9891,323.661,323.661,2.912
0.0369898,0.0354574,0.0255951,0.00459641,0.0349691,0.0412092,0.0241968,0.0131074,-51,-760,94.7862,94.7862,325.153,325.153,2.916
0.0371298,0.0356239,0.025692,0.00464962,0.0350487,0.04135,0.0242519,0.013172,-50,-761,94.5939,94.5939,326.642,326.642,2.92
0.0372702,0.035788,0.0257891,0.00470213,0.0351283,0.0412424,0.024307,0.0131576,-51,-764,94.3985,94.3985,328.134,328.134,2.924
0.0374109,0.0359546,0.0258864,0.00475154,0.035208,0.0413721,0.0243621,0.0128888,-50,-769,94.2092,94.2092,329.631,329.631,2.928
0.0375518,0.036119,0.025984,0.00480129,0.0352877,0.0412859,0.0244173,0.0127384,-51,-773,94.0172,94.0172,331.143,331.143,2.932
0.0376932,0.0362849,0.0260818,0.00484931,0.0353675,0.0413436,0.0244725,0.0124942,-51,-778,93.8306,93.8306,332.668,332.668,2.936
0.0378348,0.0364493,0.0261798,0.00489803,0.0354473,0.0412669,0.0245277,0.012389,-52,-782,93.6443,93.6443,334.206,334.206,2.94
0.0379767,0.0366193,0.026278,0.00494778,0.0355271,0.0416764,0.024583,0.0124052,-49,-784,93.462,93.462,335.754,335.754,2.944
0.038119,0.0367831,0.0263764,0.00499476,0.035607,0.0414312,0.0246383,0.0121857,-51,-789,93.2662,93.2662,337.306,337.306,2.948
0.0382616,0.0369454,0.0264751,0.00504382,0.035687,0.0411525,0.0246936,0.0122121,-54,-791,93.0835,93.0835,338.872,338.872,2.952
0.0384045,0.0371109,0.026574,0.00509461,0.035767,0.0412259,0.0247489,0.0123737,-54,-793,92.914,92.914,340.441,340.441,2.956
0.0385477,0.0372813,0.0266731,0.00514609,0.035847,0.0416778,0.0248043,0.012539,-50,-794,92.7425,92.7425,342.008,342.008,2.96
0.0386913,0.0374481,0.0267724,0.00519619,0.0359271,0.0416912,0.0248597,0.012534,-50,-796,92.5551,92.5551,343.573,343.573,2.964
0.0388351,0.0376133,0.026872,0.00524352,0.0360072,0.0415562,0.0249152,0.0123004,-52,-801,92.3699,92.3699,345.144,345.144,2.968
0.0389793,0.0377808,0.0269717,0.00529154,0.0360874,0.0416677,0.0249706,0.0122022,-51,-805,92.1921,92.1921,346.729,346.729,2.972
