peachynonah/Fire_monitor_KIRO_CDSL/csv_datas/trial12/cdsl_data_t12_8_u.csv
joint1_pos_desired, joint1_pos, joint2_pos_desired, joint2_pos, joint1_vel_desired, joint1_vel_filtered, joint2_vel_desired, joint2_vel_filtered, target_torque_joint1, target_torque_joint2, estimated_disturbance_joint1, saturated_DOB_joint1, estimated_disturbance_joint2, saturated_DOB_joint2, current_time
0.055,0.0563848,0.2282,0.0289345,3.76499e-07,0,0.0500001,0,11,-2215,0,0,23.0466,0.1,0.004
0.055,0.0563848,0.2284,0.0289345,1.50479e-06,0,0.0500006,0,11,-2217,0.0118935,0.0118935,20.7481,0.1,0.008
0.055,0.0563848,0.2286,0.0289459,3.38307e-06,0,0.0500013,0.000950101,11,-2209,0.0237752,0.0237752,18.4587,0.1,0.012
0.055,0.0563848,0.2288,0.0291024,6.00952e-06,0,0.0500023,0.0136757,11,-2088,0.0356374,0.0356374,16.1955,0.1,0.016
0.0550001,0.0563848,0.229,0.0294317,9.38236e-06,0,0.0500036,0.0365549,11,-1867,0.0474724,0.0474724,14.0757,0.1,0.02
0.0550001,0.0563848,0.2292,0.0299095,1.34998e-05,0,0.0500052,0.0641878,11,-1600,0.0592727,0.0592727,12.1973,0.1,0.024
0.0550002,0.0563848,0.2294,0.0305051,1.836e-05,0,0.050007,0.0924274,11,-1326,0.0710304,0.0710304,10.6049,0.1,0.028
0.0550003,0.0563848,0.2296,0.0311816,2.39611e-05,0,0.0500092,0.117991,11,-1077,0.0827379,0.0827379,9.30188,0.1,0.032
0.0550004,0.0563845,0.2298,0.0319064,3.03014e-05,-2.87909e-05,0.0500116,0.139064,11,-870,0.0943671,0.0943671,8.25979,0.1,0.036
0.0550005,0.0563841,0.23,0.0326489,3.73792e-05,-4.79849e-05,0.0500143,0.154581,11,-717,0.105646,0.1,7.43246,0.1,0.04
0.0550007,0.0563838,0.2302,0.0334024,4.51925e-05,-6.07808e-05,0.0500173,0.165847,10,-604,0.116636,0.1,6.76476,0.1,0.044
0.0550009,0.0563838,0.2304,0.0340889,5.37396e-05,-4.05206e-05,0.0500205,0.167772,10,-582,0.127389,0.1,6.21019,0.1,0.048
0.0550011,0.0563838,0.2306,0.0347512,6.30187e-05,-2.70137e-05,0.0500241,0.16704,10,-585,0.138204,0.1,5.67947,0.1,0.052
0.0550014,0.0563838,0.230801,0.0353824,7.3028e-05,-1.80091e-05,0.0500279,0.163961,10,-611,0.149008,0.1,5.14607,0.1,0.056
0.0550017,0.0563838,0.231001,0.0359788,8.37657e-05,-1.20061e-05,0.050032,0.159001,10,-656,0.159748,0.1,4.58672,0.1,0.06
0.055002,0.0563838,0.231201,0.0365464,9.52301e-05,-8.00406e-06,0.0500363,0.153304,10,-707,0.170388,0.1,3.98331,0.1,0.064
0.0550024,0.0563838,0.231401,0.0370823,0.000107419,-5.33604e-06,0.050041,0.146857,10,-766,0.180901,0.1,3.32847,0.1,0.068
0.0550029,0.0563838,0.231601,0.0375998,0.000120332,-3.55736e-06,0.0500459,0.141034,10,-820,0.191268,0.1,2.61565,0.1,0.072
0.0550034,0.0563838,0.231801,0.0380997,0.000133965,-2.37157e-06,0.0500511,0.135683,10,-869,0.201471,0.1,1.85104,0.1,0.076
0.055004,0.0563838,0.232002,0.0385941,0.000148318,-1.58105e-06,0.0500566,0.131655,10,-905,0.2115,0.1,1.04001,0.1,0.08
0.0550046,0.0563838,0.232202,0.0390826,0.000163389,-1.05403e-06,0.0500623,0.12848,10,-933,0.221342,0.1,0.195558,0.1,0.084
0.0550053,0.0563838,0.232402,0.0395736,0.000179176,-7.02689e-07,0.0500683,0.126566,10,-950,0.230988,0.1,-0.673458,-0.1,0.088
0.055006,0.0563838,0.232602,0.0400362,0.000195676,-4.68459e-07,0.0500746,0.122928,9,-983,0.240431,0.1,-1.55735,-0.1,0.092
0.0550068,0.0563838,0.232803,0.0404929,0.00021289,-3.12306e-07,0.0500812,0.120014,9,-1009,0.249661,0.1,-2.47084,-0.1,0.096
0.0550077,0.0563838,0.233003,0.0409341,0.000230814,-2.08204e-07,0.050088,0.116775,9,-1038,0.258671,0.1,-3.40738,-0.1,0.1
0.0550087,0.0563838,0.233203,0.0413632,0.000249446,-1.38803e-07,0.0500951,0.113608,9,-1066,0.267455,0.1,-4.36996,-0.1,0.104
0.0550097,0.0563838,0.233404,0.0417909,0.000268786,-9.25351e-08,0.0501025,0.111382,9,-1086,0.276005,0.1,-5.35724,-0.1,0.108
0.0550108,0.0563838,0.233604,0.0421876,0.000288831,-6.16901e-08,0.0501101,0.107307,8,-1123,0.284315,0.1,-6.36173,-0.1,0.112
0.055012,0.0563838,0.233805,0.0425859,0.00030958,-4.11267e-08,0.050118,0.104734,8,-1146,0.292376,0.1,-7.39967,-0.1,0.116
0.0550133,0.0563838,0.234005,0.0429739,0.00033103,-2.74178e-08,0.0501262,0.102155,8,-1170,0.300183,0.1,-8.457,-0.1,0.12
0.0550147,0.0563838,0.234206,0.0433574,0.00035318,-1.82785e-08,0.0501346,0.100061,8,-1188,0.30773,0.1,-9.53346,-0.1,0.124
0.0550161,0.0563838,0.234406,0.0437419,0.000376029,-1.21857e-08,0.0501433,0.0987517,8,-1200,0.315008,0.1,-10.624,-0.1,0.128
0.0550177,0.0563838,0.234607,0.0441337,0.000399574,-8.1238e-09,0.0501522,0.0984834,7,-1201,0.322013,0.1,-11.7204,-0.1,0.132
0.0550193,0.0563838,0.234807,0.0445297,0.000423814,-5.41586e-09,0.0501615,0.09865,7,-1198,0.328737,0.1,-12.8129,-0.1,0.136
0.0550211,0.0563838,0.235008,0.0449318,0.000448746,-3.61058e-09,0.050171,0.0992793,7,-1190,0.335173,0.1,-13.897,-0.1,0.14
0.0550229,0.0563838,0.235209,0.0453385,0.00047437,-2.40705e-09,0.0501807,0.100073,7,-1181,0.341316,0.1,-14.9683,-0.1,0.144
0.0550249,0.0563838,0.235409,0.0457465,0.000500683,-1.6047e-09,0.0501907,0.100717,6,-1173,0.347158,0.1,-16.0254,-0.1,0.148
0.0550269,0.0563838,0.23561,0.0461559,0.000527684,-1.0698e-09,0.050201,0.101262,6,-1166,0.352694,0.1,-17.0698,-0.1,0.152
0.0550291,0.0563838,0.235811,0.0465684,0.000555371,-7.132e-10,0.0502115,0.101885,6,-1158,0.357916,0.1,-18.1024,-0.1,0.156
0.0550314,0.0563838,0.236012,0.046984,0.000583742,-4.75467e-10,0.0502223,0.102558,5,-1150,0.362819,0.1,-19.1226,-0.1,0.16
0.0550338,0.0563838,0.236213,0.0474028,0.000612796,-3.16978e-10,0.0502333,0.103267,5,-1142,0.367396,0.1,-20.1298,-0.1,0.164
0.0550363,0.0563838,0.236414,0.0478146,0.00064253,-2.11319e-10,0.0502446,0.103163,5,-1141,0.37164,0.1,-21.1243,-0.1,0.168
0.0550389,0.0563838,0.236615,0.048225,0.000672943,-1.40879e-10,0.0502562,0.102979,5,-1141,0.375546,0.1,-22.1138,-0.1,0.172
0.0550417,0.0563838,0.236816,0.0486372,0.000704033,-9.39194e-11,0.050268,0.103,4,-1140,0.379107,0.1,-23.099,-0.1,0.176
0.0550446,0.0563838,0.237017,0.0490501,0.000735798,-6.26129e-11,0.05028,0.103072,4,-1137,0.382317,0.1,-24.0779,-0.1,0.18
0.0550476,0.0563838,0.237218,0.0494671,0.000768238,-4.17419e-11,0.0502924,0.103465,4,-1132,0.38517,0.1,-25.0498,-0.1,0.184
0.0550507,0.0563838,0.237419,0.0498931,0.000801349,-2.7828e-11,0.0503049,0.104476,3,-1120,0.387658,0.1,-26.0114,-0.1,0.188
0.055054,0.0563838,0.237621,0.0503132,0.00083513,-1.8552e-11,0.0503178,0.104661,3,-1117,0.389777,0.1,-26.9574,-0.1,0.192
0.0550574,0.0563838,0.237822,0.0507388,0.00086958,-1.2368e-11,0.0503308,0.105244,2,-1110,0.39152,0.1,-27.8955,-0.1,0.196
0.0550609,0.0563838,0.238023,0.0511662,0.000904697,-8.24532e-12,0.0503442,0.105777,2,-1103,0.39288,0.1,-28.8218,-0.1,0.2
0.0550646,0.0563838,0.238225,0.0515867,0.000940478,-5.49688e-12,0.0503577,0.105557,2,-1103,0.393852,0.1,-29.7374,-0.1,0.204
0.0550685,0.0563838,0.238426,0.0520102,0.000976923,-3.66459e-12,0.0503716,0.105669,1,-1100,0.394429,0.1,-30.6493,-0.1,0.208
0.0550724,0.0563838,0.238628,0.0524269,0.00101403,-2.44306e-12,0.0503857,0.105168,1,-1104,0.394606,0.1,-31.5546,-0.1,0.212
0.0550766,0.0563838,0.238829,0.0528404,0.0010518,-1.62871e-12,0.0504,0.104575,1,-1108,0.394376,0.1,-32.4593,-0.1,0.216
0.0550809,0.0563838,0.239031,0.0532464,0.00109022,-1.0858e-12,0.0504145,0.103546,0,-1116,0.393734,0.1,-33.3646,-0.1,0.22
0.0550853,0.0563838,0.239232,0.0536441,0.0011293,-7.23869e-13,0.0504294,0.102169,0,-1128,0.392672,0.1,-34.2747,-0.1,0.224
0.0550899,0.0563838,0.239434,0.0540438,0.00116904,-4.82579e-13,0.0504444,0.101424,0,-1133,0.391186,0.1,-35.1926,-0.1,0.228
0.0550946,0.0563838,0.239636,0.0544338,0.00120942,-3.2172e-13,0.0504597,0.100121,0,-1145,0.389269,0.1,-36.1126,-0.1,0.232
0.0550996,0.0563838,0.239838,0.054827,0.00125046,-2.1448e-13,0.0504753,0.0995112,-1,-1149,0.386916,0.1,-37.0396,-0.1,0.236
0.0551046,0.0563838,0.24004,0.055225,0.00129215,-1.42986e-13,0.0504911,0.099508,-1,-1147,0.38412,0.1,-37.9666,-0.1,0.24
0.0551099,0.0563838,0.240242,0.0556085,0.00133449,-9.53243e-14,0.0505071,0.0982966,-1,-1158,0.380875,0.1,-38.889,-0.1,0.244
0.0551153,0.0563838,0.240444,0.0559993,0.00137747,-6.35496e-14,0.0505234,0.0980936,-2,-1158,0.377176,0.1,-39.8172,-0.1,0.248
0.0551209,0.0563838,0.240646,0.0563838,0.00142109,-4.23664e-14,0.05054,0.09744,-2,-1163,0.373016,0.1,-40.7421,-0.1,0.252
0.0551267,0.0563838,0.240848,0.056768,0.00146536,-2.82442e-14,0.0505567,0.0969755,-3,-1166,0.36839,0.1,-41.668,-0.1,0.256
0.0551326,0.0563838,0.24105,0.0571598,0.00151027,-1.88295e-14,0.0505737,0.0972993,-3,-1162,0.363292,0.1,-42.5925,-0.1,0.26
0.0551388,0.0563838,0.241253,0.0575274,0.00155582,-1.2553e-14,0.050591,0.0954997,-4,-1178,0.357717,0.1,-43.5096,-0.1,0.264
0.0551451,0.0563838,0.241455,0.0579078,0.00160201,-8.36867e-15,0.0506085,0.0953653,-4,-1178,0.351658,0.1,-44.4383,-0.1,0.268
0.0551516,0.0563838,0.241658,0.0582947,0.00164883,-5.57911e-15,0.0506262,0.0958227,-5,-1172,0.345109,0.1,-45.3624,-0.1,0.272
0.0551583,0.0563841,0.24186,0.0586754,0.00169629,2.87909e-05,0.0506441,0.0956094,-5,-1173,0.338086,0.1,-46.2769,-0.1,0.276
0.0551652,0.0563845,0.242063,0.0590641,0.00174437,4.79849e-05,0.0506623,0.0961294,-5,-1167,0.330846,0.1,-47.1877,-0.1,0.28
0.0551722,0.0563845,0.242266,0.0594511,0.00179309,3.19899e-05,0.0506808,0.0963321,-6,-1163,0.323268,0.1,-48.088,-0.1,0.284
0.0551795,0.0563845,0.242468,0.0598408,0.00184244,2.13266e-05,0.0506994,0.0966976,-7,-1158,0.31502,0.1,-48.9809,-0.1,0.288
0.055187,0.0563845,0.242671,0.0602395,0.00189241,1.42177e-05,0.0507183,0.0976898,-7,-1147,0.306148,0.1,-49.8644,-0.1,0.292
0.0551947,0.0563848,0.242874,0.060642,0.00194301,3.82694e-05,0.0507375,0.0986679,-8,-1137,0.296703,0.1,-50.7326,-0.1,0.296
0.0552025,0.0563848,0.243077,0.0610289,0.00199424,2.55129e-05,0.0507569,0.0980245,-8,-1141,0.286946,0.1,-51.5869,-0.1,0.3
0.0552106,0.0563848,0.24328,0.0614186,0.00204608,1.70086e-05,0.0507765,0.0978258,-9,-1142,0.276528,0.1,-52.4421,-0.1,0.304
0.0552189,0.0563848,0.243483,0.0618142,0.00209855,1.13391e-05,0.0507963,0.0981828,-10,-1137,0.265485,0.1,-53.2937,-0.1,0.308
0.0552274,0.0563848,0.243686,0.0621867,0.00215163,7.55939e-06,0.0508163,0.0964918,-10,-1152,0.253841,0.1,-54.138,-0.1,0.312
0.0552361,0.0563848,0.24389,0.0625653,0.00220534,5.03959e-06,0.0508366,0.0958827,-11,-1157,0.241609,0.1,-54.9933,-0.1,0.316
0.055245,0.0563848,0.244093,0.0629499,0.00225965,3.35973e-06,0.0508572,0.0959661,-11,-1155,0.228794,0.1,-55.8492,-0.1,0.32
0.0552542,0.0563848,0.244297,0.0633327,0.00231458,2.23982e-06,0.0508779,0.0958778,-12,-1154,0.215401,0.1,-56.6992,-0.1,0.324
0.0552636,0.0563848,0.2445,0.0637189,0.00237012,1.49321e-06,0.0508989,0.0961068,-13,-1151,0.201429,0.1,-57.5448,-0.1,0.328
0.0552731,0.0563852,0.244704,0.0640941,0.00242628,2.97864e-05,0.0509201,0.0953381,-13,-1157,0.186897,0.1,-58.3838,-0.1,0.332
0.055283,0.0563852,0.244908,0.0644714,0.00248304,1.98576e-05,0.0509415,0.0949984,-14,-1159,0.172045,0.1,-59.2251,-0.1,0.336
0.055293,0.0563855,0.245111,0.0648521,0.00254041,4.20293e-05,0.0509632,0.0950599,-14,-1157,0.156532,0.1,-60.0645,-0.1,0.34
0.0553033,0.0563855,0.245315,0.0652304,0.00259838,2.80195e-05,0.0509851,0.0948993,-15,-1157,0.140627,0.1,-60.8985,-0.1,0.344
0.0553138,0.0563859,0.245519,0.0656084,0.00265695,4.74706e-05,0.0510072,0.0947635,-15,-1158,0.124009,0.1,-61.7291,-0.1,0.348
0.0553245,0.0563862,0.245723,0.0659867,0.00271613,6.0438e-05,0.0510295,0.0947017,-16,-1157,0.106983,0.1,-62.5561,-0.1,0.352
0.0553355,0.0563862,0.245927,0.0663609,0.00277591,4.0292e-05,0.0510521,0.0943151,-17,-1159,0.0894589,0.0894589,-63.3789,-0.1,0.356
0.0553468,0.0563866,0.246132,0.0667392,0.00283629,5.56523e-05,0.0510749,0.0944028,-17,-1157,0.0710986,0.0710986,-64.2005,-0.1,0.36
0.0553582,0.0563869,0.246336,0.0671172,0.00289726,6.58924e-05,0.0510979,0.0944324,-18,-1156,0.0521925,0.0521925,-65.0163,-0.1,0.364
0.0553699,0.0563876,0.24654,0.0674965,0.00295883,0.00010151,0.0511211,0.0945674,-19,-1153,0.0327029,0.0327029,-65.8269,-0.1,0.368
0.0553819,0.0563883,0.246745,0.0678672,0.00302099,0.000125255,0.0511445,0.0939376,-19,-1158,0.012852,0.012852,-66.6318,-0.1,0.372
0.0553941,0.05639,0.24695,0.0682445,0.00308374,0.000227458,0.0511682,0.0940648,-19,-1156,-0.00742304,-0.00742304,-67.4377,-0.1,0.376
0.0554066,0.0563914,0.247154,0.0686149,0.00314708,0.000266802,0.051192,0.0935737,-19,-1159,-0.0274376,-0.0274376,-68.238,-0.1,0.38
0.0554193,0.0563935,0.247359,0.0689908,0.00321101,0.000350614,0.0512161,0.093707,-19,-1157,-0.0477547,-0.0477547,-69.0381,-0.1,0.384
0.0554323,0.0563962,0.247564,0.0693632,0.00327553,0.00046407,0.0512405,0.0935079,-19,-1158,-0.0679429,-0.0679429,-69.8322,-0.1,0.388
0.0554455,0.0563993,0.247769,0.0697384,0.00334064,0.000568498,0.051265,0.0936056,-19,-1156,-0.0877356,-0.0877356,-70.6235,-0.1,0.392
0.055459,0.0564025,0.247974,0.0701126,0.00340632,0.000638117,0.0512897,0.0935843,-19,-1155,-0.107246,-0.1,-71.4091,-0.1,0.396
0.0554727,0.0564063,0.248179,0.0704916,0.00347259,0.000742112,0.0513147,0.0939732,-19,-1150,-0.12675,-0.1,-72.1901,-0.1,0.4
0.0554868,0.0564097,0.248385,0.070872,0.00353944,0.00078265,0.0513399,0.0943476,-19,-1145,-0.145919,-0.1,-72.9624,-0.1,0.404
0.0555011,0.0564139,0.24859,0.0712562,0.00360686,0.000867258,0.0513653,0.0949139,-19,-1138,-0.165326,-0.1,-73.7263,-0.1,0.408
0.0555156,0.0564173,0.248796,0.0716462,0.00367487,0.000866081,0.0513909,0.0957809,-20,-1129,-0.184621,-0.1,-74.4797,-0.1,0.412
0.0555305,0.0564208,0.249001,0.0720314,0.00374344,0.000865297,0.0514167,0.0959558,-20,-1126,-0.204616,-0.1,-75.2203,-0.1,0.416
0.0555456,0.0564239,0.249207,0.0724163,0.00381259,0.000835983,0.0514427,0.0960436,-21,-1124,-0.225331,-0.1,-75.9546,-0.1,0.42
0.055561,0.0564263,0.249413,0.0728019,0.00388232,0.000758858,0.0514689,0.0961598,-23,-1121,-0.247073,-0.1,-76.6836,-0.1,0.424
0.0555766,0.0564287,0.249619,0.0731902,0.00395261,0.000707442,0.0514954,0.0964675,-24,-1117,-0.270276,-0.1,-77.4067,-0.1,0.428
0.0555926,0.0564304,0.249825,0.073572,0.00402347,0.000615583,0.051522,0.0961256,-26,-1119,-0.294732,-0.1,-78.1228,-0.1,0.432
0.0556088,0.0564318,0.250031,0.0739582,0.0040949,0.000525552,0.0515489,0.096272,-28,-1117,-0.320822,-0.1,-78.8375,-0.1,0.436
0.0556253,0.0564332,0.250237,0.0743511,0.00416689,0.000465532,0.051576,0.0969166,-29,-1109,-0.348513,-0.1,-79.546,-0.1,0.44
0.0556421,0.0564346,0.250444,0.0747384,0.00423945,0.000425518,0.0516032,0.0968857,-30,-1108,-0.377512,-0.1,-80.2442,-0.1,0.444
0.0556593,0.056436,0.25065,0.0751191,0.00431256,0.000398843,0.0516307,0.0963181,-31,-1113,-0.407628,-0.1,-80.9386,-0.1,0.448
0.0556767,0.0564374,0.250857,0.0754981,0.00438624,0.000381059,0.0516584,0.0957957,-32,-1116,-0.438732,-0.1,-81.6343,-0.1,0.452
0.0556943,0.0564387,0.251063,0.0758792,0.00446048,0.000369203,0.0516863,0.0956202,-33,-1117,-0.470742,-0.1,-82.3308,-0.1,0.456
0.0557123,0.0564401,0.25127,0.0762495,0.00453527,0.000361299,0.0517144,0.0946107,-34,-1126,-0.503605,-0.1,-83.0253,-0.1,0.46
0.0557306,0.0564412,0.251477,0.0766216,0.00461062,0.000327239,0.0517427,0.0940816,-35,-1130,-0.537306,-0.1,-83.7253,-0.1,0.464
0.0557492,0.0564425,0.251684,0.0769958,0.00468652,0.000333323,0.0517712,0.0939016,-36,-1130,-0.572067,-0.1,-84.4261,-0.1,0.468
0.0557681,0.0564436,0.251891,0.0773606,0.00476298,0.000308588,0.0518,0.0930043,-37,-1138,-0.607537,-0.1,-85.1249,-0.1,0.472
0.0557873,0.056445,0.252098,0.077732,0.00483998,0.000320889,0.0518289,0.0929531,-38,-1137,-0.643984,-0.1,-85.8279,-0.1,0.476
0.0558068,0.056447,0.252306,0.0780976,0.00491753,0.000386672,0.051858,0.0924295,-38,-1141,-0.681028,-0.1,-86.5276,-0.1,0.48
0.0558267,0.0564498,0.252513,0.0784679,0.00499563,0.000488108,0.0518873,0.0924836,-38,-1140,-0.718148,-0.1,-87.2279,-0.1,0.484
0.0558468,0.0564526,0.252721,0.0788328,0.00507428,0.000555733,0.0519168,0.0920589,-38,-1143,-0.755039,-0.1,-87.9238,-0.1,0.488
0.0558673,0.0564557,0.252929,0.0792007,0.00515347,0.000629607,0.0519465,0.092035,-39,-1142,-0.792018,-0.1,-88.6195,-0.1,0.492
0.055888,0.0564595,0.253136,0.0795718,0.0052332,0.000736438,0.0519765,0.0922781,-38,-1138,-0.82901,-0.1,-89.3112,-0.1,0.496
0.0559091,0.0564636,0.253344,0.0799446,0.00531347,0.00083645,0.0520066,0.0925841,-38,-1134,-0.865716,-0.1,-89.9962,-0.1,0.5
0.0559305,0.0564681,0.253552,0.0803201,0.00539428,0.000931915,0.0520369,0.0930185,-38,-1129,-0.902209,-0.1,-90.6739,-0.1,0.504
0.0559523,0.0564733,0.253761,0.0806946,0.00547563,0.00105314,0.0520674,0.0932217,-38,-1126,-0.938519,-0.1,-91.3434,-0.1,0.508
0.0559743,0.0564795,0.253969,0.0810691,0.00555751,0.00122033,0.0520981,0.0933572,-37,-1124,-0.974377,-0.1,-92.0068,-0.1,0.512
0.0559967,0.0564864,0.254177,0.081445,0.00563993,0.00138937,0.052129,0.0935626,-37,-1121,-1.00936,-0.1,-92.6648,-0.1,0.516
0.0560195,0.056495,0.254386,0.0818189,0.00572288,0.00164602,0.0521601,0.0935269,-35,-1120,-1.04339,-0.1,-93.3169,-0.1,0.52
0.0560425,0.0565054,0.254595,0.0821937,0.00580636,0.00196108,0.0521913,0.0935894,-33,-1118,-1.07562,-0.1,-93.9653,-0.1,0.524
0.0560659,0.0565172,0.254804,0.0825765,0.00589036,0.00228627,0.0522228,0.0942933,-31,-1110,-1.1055,-0.1,-94.6087,-0.1,0.528
0.0560897,0.0565286,0.255013,0.0829462,0.0059749,0.00247428,0.0522545,0.0936685,-30,-1115,-1.13304,-0.1,-95.2419,-0.1,0.532
0.0561137,0.0565403,0.255222,0.08332,0.00605996,0.00262841,0.0522863,0.0935974,-29,-1115,-1.15955,-0.1,-95.8771,-0.1,0.536
0.0561381,0.0565521,0.255431,0.0837035,0.00614555,0.00273117,0.0523184,0.0943562,-29,-1107,-1.18539,-0.1,-96.5086,-0.1,0.54
0.0561629,0.0565631,0.25564,0.0840683,0.00623166,0.00274209,0.0523506,0.0933074,-30,-1116,-1.21112,-0.1,-97.1298,-0.1,0.544
0.056188,0.0565752,0.25585,0.0844456,0.00631829,0.00283574,0.0523831,0.0936446,-30,-1111,-1.23755,-0.1,-97.7568,-0.1,0.548
0.0562134,0.0565866,0.256059,0.0848188,0.00640544,0.00284059,0.0524157,0.0935239,-31,-1112,-1.26396,-0.1,-98.3768,-0.1,0.552
0.0562392,0.0565987,0.256269,0.0852009,0.00649311,0.00290141,0.0524485,0.094192,-32,-1104,-1.29115,-0.1,-98.9937,-0.1,0.556
0.0562654,0.0566122,0.256479,0.0855885,0.00658129,0.00305712,0.0524815,0.0950981,-31,-1094,-1.31853,-0.1,-99.5999,-0.1,0.56
0.0562919,0.0566267,0.256689,0.0859734,0.00666999,0.0032473,0.0525147,0.0954718,-30,-1089,-1.34521,-0.1,-100.194,-0.1,0.564
0.0563187,0.0566422,0.256899,0.0863569,0.0067592,0.00346046,0.052548,0.0956058,-29,-1087,-1.37084,-0.1,-100.78,-0.1,0.568
0.056346,0.0566578,0.257109,0.0867483,0.00684892,0.00360256,0.0525816,0.0963573,-29,-1079,-1.39527,-0.1,-101.361,-0.1,0.572
0.0563735,0.0566723,0.25732,0.0871318,0.00693915,0.00361093,0.0526153,0.0961961,-29,-1079,-1.41926,-0.1,-101.931,-0.1,0.576
0.0564015,0.0566865,0.25753,0.0875129,0.00702989,0.00358771,0.0526493,0.0958872,-31,-1081,-1.44409,-0.1,-102.499,-0.1,0.58
0.0564298,0.0567006,0.257741,0.0878978,0.00712114,0.00357224,0.0526834,0.0959979,-32,-1079,-1.47006,-0.1,-103.067,-0.1,0.584
0.0564584,0.0567155,0.257952,0.0882795,0.00721289,0.0036195,0.0527177,0.0958125,-32,-1080,-1.49704,-0.1,-103.63,-0.1,0.588
0.0564875,0.0567307,0.258163,0.0886703,0.00730515,0.0036798,0.0527521,0.0964376,-33,-1072,-1.52446,-0.1,-104.19,-0.1,0.592
0.0565169,0.0567462,0.258374,0.0890396,0.0073979,0.00374879,0.0527868,0.0950692,-33,-1085,-1.55219,-0.1,-104.742,-0.1,0.596
0.0565467,0.0567625,0.258585,0.0894214,0.00749116,0.00385237,0.0528216,0.0951934,-33,-1082,-1.58012,-0.1,-105.303,-0.1,0.6
0.0565768,0.0567804,0.258796,0.0898007,0.00758492,0.00406537,0.0528566,0.0950747,-32,-1082,-1.60786,-0.1,-105.86,-0.1,0.604
0.0566073,0.0567984,0.259008,0.0901873,0.00767917,0.00420738,0.0528918,0.0956002,-32,-1076,-1.63445,-0.1,-106.414,-0.1,0.608
0.0566382,0.0568174,0.259219,0.0905733,0.00777392,0.00438842,0.0529272,0.0958929,-31,-1072,-1.66052,-0.1,-106.959,-0.1,0.612
0.0566695,0.0568364,0.259431,0.0909688,0.00786916,0.00450911,0.0529627,0.0968942,-31,-1062,-1.68576,-0.1,-107.497,-0.1,0.616
0.0567012,0.0568564,0.259643,0.0913641,0.00796489,0.00467595,0.0529985,0.097533,-30,-1054,-1.7107,-0.1,-108.022,-0.1,0.62
0.0567333,0.0568772,0.259855,0.0917749,0.00806112,0.00484476,0.0530344,0.0992544,-30,-1036,-1.73492,-0.1,-108.536,-0.1,0.624
0.0567657,0.0568962,0.260067,0.0921629,0.00815783,0.00481334,0.0530704,0.0985018,-31,-1043,-1.75855,-0.1,-109.031,-0.1,0.628
0.0567985,0.0569165,0.26028,0.0925609,0.00825503,0.00490756,0.0531067,0.098835,-31,-1038,-1.78337,-0.1,-109.53,-0.1,0.632
0.0568317,0.0569362,0.260492,0.0929578,0.00835272,0.00491279,0.0531431,0.0989708,-32,-1036,-1.80828,-0.1,-110.022,-0.1,0.636
0.0568653,0.0569559,0.260705,0.0933513,0.00845089,0.00491627,0.0531797,0.0987734,-33,-1036,-1.83411,-0.1,-110.509,-0.1,0.64
0.0568993,0.0569763,0.260918,0.0937335,0.00854955,0.00497618,0.0532165,0.0976917,-34,-1046,-1.86084,-0.1,-110.996,-0.1,0.644
0.0569337,0.0569981,0.261131,0.0941145,0.00864868,0.00513128,0.0532535,0.0968842,-33,-1053,-1.88789,-0.1,-111.49,-0.1,0.648
0.0569685,0.0570205,0.261344,0.0944877,0.0087483,0.00529226,0.0532906,0.0956837,-33,-1063,-1.91437,-0.1,-111.989,-0.1,0.652
0.0570037,0.0570437,0.261557,0.0948546,0.00884839,0.00545717,0.0533279,0.0943651,-32,-1075,-1.94022,-0.1,-112.497,-0.1,0.656
0.0570393,0.0570665,0.26177,0.0952205,0.00894896,0.00553831,0.0533653,0.0933996,-32,-1083,-1.96546,-0.1,-113.015,-0.1,0.66
0.0570753,0.0570896,0.261984,0.0955905,0.00905,0.0056212,0.053403,0.0931015,-33,-1085,-1.9909,-0.1,-113.538,-0.1,0.664
0.0571117,0.0571128,0.262197,0.0959591,0.00915152,0.00567646,0.0534408,0.0927876,-33,-1087,-2.01653,-0.1,-114.061,-0.1,0.668
0.0571485,0.0571377,0.262411,0.0963388,0.00925351,0.00585725,0.0534787,0.0934996,-33,-1079,-2.04253,-0.1,-114.584,-0.1,0.672
0.0571857,0.0571612,0.262625,0.0967144,0.00935597,0.00586262,0.0535169,0.0936288,-34,-1077,-2.06786,-0.1,-115.096,-0.1,0.676
0.0572234,0.0571853,0.262839,0.0970992,0.0094589,0.00592378,0.0535552,0.0944923,-34,-1068,-2.09411,-0.1,-115.603,-0.1,0.68
0.0572614,0.0572102,0.263054,0.0974865,0.00956229,0.00602213,0.0535937,0.0952695,-34,-1059,-2.12075,-0.1,-116.099,-0.1,0.684
0.0572999,0.0572368,0.263268,0.0978814,0.00966615,0.00623166,0.0536323,0.096421,-33,-1047,-2.14735,-0.1,-116.583,-0.1,0.688
0.0573387,0.0572631,0.263483,0.098276,0.00977048,0.00634255,0.0536711,0.0971599,-33,-1039,-2.17296,-0.1,-117.053,-0.1,0.692
0.057378,0.0572883,0.263698,0.0986788,0.00987527,0.0063301,0.0537101,0.0983435,-35,-1026,-2.19857,-0.1,-117.512,-0.1,0.696
0.0574177,0.0573146,0.263912,0.099083,0.00998051,0.00640818,0.0537492,0.0992477,-35,-1017,-2.22529,-0.1,-117.956,-0.1,0.7
0.0574579,0.0573418,0.264128,0.0994931,0.0100862,0.0065466,0.0537885,0.10034,-35,-1005,-2.25224,-0.1,-118.388,-0.1,0.704
0.0574984,0.0573695,0.264343,0.0999036,0.0101924,0.00666768,0.053828,0.101097,-35,-996,-2.27886,-0.1,-118.806,-0.1,0.708
0.0575394,0.0573978,0.264558,0.100314,0.010299,0.00680597,0.0538676,0.101602,-35,-990,-2.3053,-0.1,-119.213,-0.1,0.712
0.0575808,0.0574275,0.264774,0.100728,0.0104061,0.00701333,0.0539074,0.102226,-34,-983,-2.33138,-0.1,-119.612,-0.1,0.716
0.0576227,0.0574586,0.264989,0.101141,0.0105136,0.00726674,0.0539473,0.102613,-32,-978,-2.3564,-0.1,-120.003,-0.1,0.72
0.0576649,0.0574901,0.265205,0.10157,0.0106216,0.00746447,0.0539874,0.104081,-32,-963,-2.38,-0.1,-120.385,-0.1,0.724
0.0577076,0.0575208,0.265421,0.101977,0.01073,0.0075387,0.0540277,0.103332,-32,-969,-2.40277,-0.1,-120.752,-0.1,0.728
0.0577508,0.0575519,0.265638,0.102394,0.0108389,0.00761699,0.0540681,0.10361,-32,-965,-2.42588,-0.1,-121.122,-0.1,0.732
0.0577944,0.0575833,0.265854,0.102808,0.0109482,0.00769796,0.0541087,0.103622,-33,-963,-2.44929,-0.1,-121.487,-0.1,0.736
0.0578384,0.0576155,0.26607,0.103219,0.011058,0.00780953,0.0541494,0.103343,-33,-965,-2.47296,-0.1,-121.849,-0.1,0.74
0.0578828,0.057648,0.266287,0.10363,0.0111682,0.0079127,0.0541903,0.103099,-33,-966,-2.49661,-0.1,-122.211,-0.1,0.744
0.0579277,0.0576801,0.266504,0.104042,0.0112789,0.00795269,0.0542314,0.103109,-34,-965,-2.52036,-0.1,-122.572,-0.1,0.748
0.0579731,0.0577126,0.266721,0.104447,0.01139,0.00800814,0.0542726,0.102453,-34,-970,-2.54481,-0.1,-122.931,-0.1,0.752
0.0580188,0.057745,0.266938,0.104849,0.0115015,0.00804511,0.054314,0.101786,-35,-975,-2.56982,-0.1,-123.293,-0.1,0.756
0.0580651,0.0577761,0.267155,0.105242,0.0116135,0.00795459,0.0543555,0.10065,-37,-985,-2.59566,-0.1,-123.66,-0.1,0.76
0.0581117,0.0578083,0.267373,0.105631,0.0117259,0.00798061,0.0543972,0.0995188,-38,-995,-2.62344,-0.1,-124.035,-0.1,0.764
0.0581589,0.0578414,0.267591,0.106018,0.0118387,0.00808434,0.054439,0.0985629,-39,-1003,-2.65202,-0.1,-124.419,-0.1,0.768
0.0582065,0.0578739,0.267808,0.106406,0.011952,0.00809591,0.054481,0.0980696,-40,-1007,-2.68074,-0.1,-124.809,-0.1,0.772
0.0582545,0.0579033,0.268026,0.106779,0.0120657,0.0078445,0.0545231,0.0964451,-43,-1021,-2.71066,-0.1,-125.203,-0.1,0.776
0.058303,0.0579316,0.268245,0.107162,0.0121799,0.00759052,0.0545654,0.0961971,-47,-1023,-2.74422,-0.1,-125.608,-0.1,0.78
0.0583519,0.0579572,0.268463,0.10754,0.0122944,0.00719088,0.0546078,0.0956287,-52,-1027,-2.78155,-0.1,-126.014,-0.1,0.784
0.0584013,0.0579793,0.268682,0.107916,0.0124094,0.00663654,0.0546504,0.095077,-59,-1032,-2.82412,-0.1,-126.422,-0.1,0.788
0.0584512,0.0579983,0.2689,0.108293,0.0125248,0.00600786,0.0546931,0.0948819,-66,-1033,-2.87342,-0.1,-126.833,-0.1,0.792
0.0585015,0.0580149,0.269119,0.10867,0.0126407,0.0053872,0.054736,0.0946655,-73,-1034,-2.93013,-0.1,-127.244,-0.1,0.796
0.0585523,0.0580297,0.269338,0.109046,0.0127569,0.00482948,0.054779,0.0944061,-80,-1036,-2.99413,-0.1,-127.653,-0.1,0.8
0.0586036,0.0580439,0.269557,0.10942,0.0128736,0.00440008,0.0548222,0.0940892,-86,-1038,-3.06473,-0.1,-128.063,-0.1,0.804
0.0586553,0.0580567,0.269777,0.109788,0.0129907,0.00399865,0.0548655,0.093446,-91,-1043,-3.14073,-0.1,-128.473,-0.1,0.808
0.0587075,0.0580681,0.269996,0.110156,0.0131083,0.00361587,0.054909,0.0929597,-96,-1047,-3.22185,-0.1,-128.887,-0.1,0.812
0.0587602,0.0580777,0.270216,0.110522,0.0132262,0.00321672,0.0549526,0.0924339,-101,-1051,-3.30791,-0.1,-129.303,-0.1,0.816
0.0588133,0.0580864,0.270436,0.110882,0.0133446,0.00286426,0.0549963,0.0916228,-106,-1058,-3.39904,-0.1,-129.722,-0.1,0.82
0.0588669,0.058094,0.270656,0.111241,0.0134633,0.0025429,0.0550402,0.0909956,-111,-1064,-3.49479,-0.1,-130.146,-0.1,0.824
0.058921,0.0581002,0.270876,0.111596,0.0135825,0.00221351,0.0550843,0.090232,-115,-1070,-3.59485,-0.1,-130.574,-0.1,0.828
0.0589756,0.0581061,0.271097,0.111951,0.0137021,0.00196512,0.0551285,0.089723,-119,-1074,-3.69927,-0.1,-131.007,-0.1,0.832
0.0590307,0.0581119,0.271317,0.1123,0.0138221,0.00179952,0.0551728,0.0889805,-122,-1081,-3.80721,-0.1,-131.442,-0.1,0.836
0.0590862,0.0581189,0.271538,0.112654,0.0139425,0.0017755,0.0552173,0.0887735,-124,-1082,-3.91781,-0.1,-131.882,-0.1,0.84
0.0591422,0.0581258,0.271759,0.113005,0.0140633,0.00175949,0.0552619,0.0884051,-126,-1085,-4.02976,-0.1,-132.321,-0.1,0.844
0.0591987,0.058133,0.27198,0.113342,0.0141845,0.0017776,0.0553066,0.0870655,-127,-1097,-4.14294,-0.1,-132.762,-0.1,0.848
0.0592557,0.058141,0.272201,0.113681,0.0143061,0.00184726,0.0553515,0.0862875,-128,-1104,-4.25702,-0.1,-133.214,-0.1,0.852
0.0593131,0.05815,0.272423,0.114021,0.0144282,0.00198007,0.0553966,0.0858265,-128,-1108,-4.37147,-0.1,-133.67,-0.1,0.856
0.0593711,0.0581603,0.272645,0.114362,0.0145506,0.00218377,0.0554417,0.0856343,-128,-1109,-4.48566,-0.1,-134.128,-0.1,0.86
0.0594295,0.05817,0.272866,0.114683,0.0146734,0.002262,0.055487,0.0838363,-129,-1126,-4.59903,-0.1,-134.587,-0.1,0.864
0.0594885,0.05818,0.273088,0.115013,0.0147966,0.00234293,0.0555325,0.0833862,-130,-1130,-4.71273,-0.1,-135.06,-0.1,0.868
0.0595479,0.05819,0.273311,0.115344,0.0149202,0.00239689,0.0555781,0.0831725,-131,-1132,-4.82677,-0.1,-135.535,-0.1,0.872
0.0596078,0.0581997,0.273533,0.11568,0.0150442,0.00240407,0.0556238,0.0834619,-132,-1128,-4.94144,-0.1,-136.009,-0.1,0.876
0.0596683,0.058209,0.273756,0.116006,0.0151686,0.00238007,0.0556696,0.0827911,-134,-1135,-5.0572,-0.1,-136.478,-0.1,0.88
0.0597292,0.0582173,0.273978,0.116333,0.0152934,0.0022777,0.0557156,0.0824591,-137,-1137,-5.17439,-0.1,-136.952,-0.1,0.884
0.0597906,0.0582249,0.274201,0.116657,0.0154186,0.00215186,0.0557617,0.0820362,-139,-1141,-5.29377,-0.1,-137.426,-0.1,0.888
0.0598525,0.0582315,0.274425,0.116986,0.0155441,0.0019816,0.055808,0.0820422,-143,-1140,-5.41558,-0.1,-137.901,-0.1,0.892
0.059915,0.058236,0.274648,0.117307,0.0156701,0.00169535,0.0558544,0.0814703,-147,-1146,-5.54031,-0.1,-138.374,-0.1,0.896
0.0599779,0.0582398,0.274871,0.117635,0.0157964,0.00144693,0.0559009,0.0816074,-151,-1144,-5.66903,-0.1,-138.851,-0.1,0.9
0.0600413,0.0582432,0.275095,0.117958,0.0159231,0.00125253,0.0559475,0.0813244,-155,-1146,-5.80134,-0.1,-139.323,-0.1,0.904
0.0601053,0.058247,0.275319,0.118291,0.0160502,0.00115172,0.0559943,0.0820283,-157,-1139,-5.93667,-0.1,-139.795,-0.1,0.908
0.0601697,0.0582495,0.275543,0.118608,0.0161777,0.000969351,0.0560412,0.0811156,-161,-1147,-6.07421,-0.1,-140.259,-0.1,0.912
0.0602347,0.0582526,0.275767,0.118934,0.0163056,0.000905352,0.0560883,0.0812269,-163,-1146,-6.21464,-0.1,-140.728,-0.1,0.916
0.0603002,0.0582557,0.275992,0.119262,0.0164338,0.000862686,0.0561354,0.0814739,-165,-1143,-6.35684,-0.1,-141.194,-0.1,0.92
0.0603662,0.0582591,0.276216,0.119588,0.0165624,0.000863034,0.0561827,0.0814658,-167,-1143,-6.50059,-0.1,-141.655,-0.1,0.924
0.0604327,0.0582633,0.276441,0.119909,0.0166914,0.000920847,0.0562302,0.0810861,-168,-1146,-6.64545,-0.1,-142.115,-0.1,0.928
0.0604997,0.0582678,0.276666,0.120236,0.0168208,0.00098818,0.0562777,0.0812936,-169,-1144,-6.79089,-0.1,-142.575,-0.1,0.932
0.0605673,0.0582723,0.276891,0.120567,0.0169505,0.00103307,0.0563254,0.0818062,-170,-1138,-6.93682,-0.1,-143.03,-0.1,0.936
0.0606353,0.0582767,0.277117,0.1209,0.0170806,0.00106299,0.0563732,0.0822631,-172,-1134,-7.08348,-0.1,-143.478,-0.1,0.94
0.0607039,0.0582816,0.277342,0.121233,0.0172111,0.00111174,0.0564211,0.0825965,-173,-1130,-7.23099,-0.1,-143.919,-0.1,0.944
0.060773,0.0582868,0.277568,0.121567,0.0173419,0.00117302,0.0564692,0.0828476,-174,-1127,-7.37918,-0.1,-144.354,-0.1,0.948
0.0608426,0.0582916,0.277794,0.121899,0.0174731,0.00118509,0.0565174,0.0829574,-176,-1126,-7.52796,-0.1,-144.785,-0.1,0.952
0.0609128,0.0582957,0.27802,0.12223,0.0176047,0.00113555,0.0565657,0.0828578,-178,-1126,-7.67783,-0.1,-145.212,-0.1,0.956
0.0609835,0.0583002,0.278247,0.122562,0.0177366,0.00113131,0.0566141,0.0829354,-180,-1125,-7.82934,-0.1,-145.638,-0.1,0.96
0.0610547,0.0583047,0.278473,0.122899,0.0178689,0.00112849,0.0566627,0.0833327,-182,-1121,-7.98208,-0.1,-146.061,-0.1,0.964
0.0611264,0.0583092,0.2787,0.123236,0.0180015,0.00112661,0.0567113,0.0836838,-184,-1117,-8.13602,-0.1,-146.477,-0.1,0.968
0.0611987,0.0583134,0.278927,0.123577,0.0181345,0.00109656,0.0567601,0.0842059,-186,-1112,-8.29119,-0.1,-146.888,-0.1,0.972
0.0612715,0.0583179,0.279154,0.123919,0.0182679,0.00110532,0.056809,0.0845827,-188,-1107,-8.44781,-0.1,-147.291,-0.1,0.976
0.0613448,0.058322,0.279381,0.12426,0.0184016,0.00108237,0.0568581,0.0848627,-190,-1104,-8.60556,-0.1,-147.688,-0.1,0.98
0.0614187,0.0583262,0.279609,0.124603,0.0185357,0.00106707,0.0569072,0.0851069,-192,-1101,-8.76472,-0.1,-148.08,-0.1,0.984
0.0614931,0.0583303,0.279837,0.124935,0.0186701,0.00105687,0.0569565,0.0844636,-194,-1107,-8.92523,-0.1,-148.468,-0.1,0.988
0.0615681,0.0583351,0.280065,0.125273,0.0188049,0.00110766,0.0570059,0.0844378,-195,-1107,-9.08698,-0.1,-148.86,-0.1,0.992
0.0616436,0.0583396,0.280293,0.125603,0.01894,0.00111272,0.0570554,0.0837872,-197,-1113,-9.24946,-0.1,-149.25,-0.1,0.996
0.0617196,0.0583448,0.280521,0.125934,0.0190755,0.00117368,0.057105,0.0834111,-198,-1116,-9.41305,-0.1,-149.645,-0.1,1
0.0617962,0.058349,0.28075,0.126266,0.0192113,0.00112794,0.0571547,0.083333,-200,-1117,-9.57731,-0.1,-150.041,-0.1,1.004
0.0618733,0.0583541,0.280978,0.126607,0.0193475,0.00118383,0.0572046,0.0839432,-202,-1110,-9.74317,-0.1,-150.435,-0.1,1.008
0.061951,0.0583593,0.281207,0.126932,0.019484,0.00122108,0.0572546,0.0830544,-203,-1118,-9.90968,-0.1,-150.822,-0.1,1.012
0.0620292,0.0583655,0.281436,0.127263,0.0196208,0.00133229,0.0573046,0.0829225,-204,-1119,-10.077,-0.1,-151.215,-0.1,1.016
0.0621079,0.0583718,0.281666,0.127594,0.019758,0.00140643,0.0573548,0.0828634,-205,-1120,-10.2444,-0.1,-151.608,-0.1,1.02
0.0621872,0.0583787,0.281895,0.127928,0.0198956,0.00151344,0.0574051,0.0831407,-206,-1117,-10.4123,-0.1,-151.998,-0.1,1.024
0.0622671,0.0583863,0.282125,0.128267,0.0200334,0.00164236,0.0574556,0.083671,-207,-1111,-10.5803,-0.1,-152.384,-0.1,1.028
0.0623475,0.0583949,0.282355,0.128591,0.0201717,0.00181468,0.0575061,0.0827866,-207,-1119,-10.7483,-0.1,-152.763,-0.1,1.032
0.0624285,0.0584046,0.282585,0.128927,0.0203102,0.00201593,0.0575568,0.083147,-207,-1115,-10.9157,-0.1,-153.148,-0.1,1.036
0.06251,0.0584153,0.282815,0.129265,0.0204491,0.00223647,0.0576075,0.0835889,-207,-1111,-11.0823,-0.1,-153.528,-0.1,1.04
0.0625921,0.0584277,0.283046,0.129599,0.0205883,0.00252746,0.0576584,0.0835955,-206,-1110,-11.2479,-0.1,-153.901,-0.1,1.044
0.0626747,0.0584391,0.283276,0.129936,0.0207278,0.00263507,0.0577093,0.0837727,-207,-1108,-11.412,-0.1,-154.272,-0.1,1.048
0.0627579,0.0584502,0.283507,0.130272,0.0208677,0.00267802,0.0577604,0.0838333,-208,-1107,-11.5763,-0.1,-154.639,-0.1,1.052
0.0628416,0.0584595,0.283739,0.130606,0.0210079,0.0025627,0.0578116,0.0837585,-211,-1108,-11.7416,-0.1,-155.004,-0.1,1.056
0.0629259,0.0584675,0.28397,0.130944,0.0211484,0.00237066,0.0578629,0.0840253,-215,-1105,-11.9093,-0.1,-155.367,-0.1,1.06
0.0630108,0.0584799,0.284201,0.131282,0.0212893,0.00261691,0.0579143,0.0841456,-214,-1103,-12.0798,-0.1,-155.726,-0.1,1.064
0.0630963,0.0584968,0.284433,0.13162,0.0214304,0.00315536,0.0579659,0.0842834,-211,-1101,-12.249,-0.1,-156.082,-0.1,1.068
0.0631823,0.0585182,0.284665,0.131961,0.0215719,0.00388861,0.0580175,0.0845768,-206,-1098,-12.4139,-0.1,-156.434,-0.1,1.072
0.0632688,0.0585438,0.284897,0.132307,0.0217137,0.00472294,0.0580692,0.0852042,-200,-1092,-12.5727,-0.1,-156.781,-0.1,1.076
0.063356,0.0585732,0.28513,0.132648,0.0218559,0.00559585,0.058121,0.0852483,-194,-1091,-12.7244,-0.1,-157.12,-0.1,1.08
0.0634437,0.058606,0.285362,0.132991,0.0219983,0.00646571,0.058173,0.0854216,-187,-1089,-12.8688,-0.1,-157.457,-0.1,1.084
0.063532,0.0586433,0.285595,0.133331,0.0221411,0.00741989,0.058225,0.0853068,-180,-1090,-13.0057,-0.1,-157.79,-0.1,1.088
0.0636208,0.0586834,0.285828,0.133676,0.0222842,0.00828634,0.0582771,0.0855757,-173,-1087,-13.1345,-0.1,-158.122,-0.1,1.092
0.0637102,0.0587248,0.286061,0.134018,0.0224276,0.00897914,0.0583294,0.0855823,-168,-1086,-13.2561,-0.1,-158.45,-0.1,1.096
0.0638002,0.0587687,0.286295,0.134363,0.0225713,0.00964254,0.0583817,0.0857882,-164,-1084,-13.3721,-0.1,-158.776,-0.1,1.1
0.0638908,0.058815,0.286528,0.134708,0.0227153,0.0102863,0.0584342,0.0859543,-159,-1082,-13.483,-0.1,-159.098,-0.1,1.104
0.063982,0.0588634,0.286762,0.135055,0.0228596,0.0108883,0.0584867,0.0862089,-155,-1079,-13.5888,-0.1,-159.416,-0.1,1.108
0.0640737,0.0589121,0.286996,0.135392,0.0230043,0.0113184,0.0585394,0.0856014,-153,-1084,-13.69,-0.1,-159.731,-0.1,1.112
0.064166,0.0589625,0.287231,0.135731,0.0231492,0.0117491,0.0585921,0.0852539,-151,-1087,-13.7884,-0.1,-160.05,-0.1,1.116
0.0642589,0.0590133,0.287465,0.136068,0.0232945,0.012065,0.058645,0.0849647,-149,-1090,-13.8839,-0.1,-160.37,-0.1,1.12
0.0643523,0.0590662,0.2877,0.136405,0.02344,0.0124483,0.0586979,0.084743,-147,-1091,-13.9777,-0.1,-160.691,-0.1,1.124
0.0644464,0.0591197,0.287935,0.136739,0.0235859,0.0127615,0.0587509,0.0843074,-146,-1095,-14.069,-0.1,-161.013,-0.1,1.128
0.064541,0.0591757,0.28817,0.137075,0.023732,0.0131718,0.0588041,0.0842185,-144,-1096,-14.1586,-0.1,-161.338,-0.1,1.132
0.0646362,0.0592338,0.288405,0.137414,0.0238785,0.0136181,0.0588573,0.084332,-141,-1094,-14.2454,-0.1,-161.661,-0.1,1.136
0.0647321,0.0592949,0.288641,0.137752,0.0240253,0.0141747,0.0589107,0.0844364,-138,-1093,-14.3291,-0.1,-161.982,-0.1,1.14
0.0648285,0.0593568,0.288876,0.138091,0.0241723,0.0146034,0.0589641,0.0845348,-135,-1092,-14.4088,-0.1,-162.299,-0.1,1.144
0.0649254,0.05942,0.289112,0.138431,0.0243197,0.0150043,0.0590176,0.0846868,-133,-1090,-14.4857,-0.1,-162.614,-0.1,1.148
0.065023,0.0594849,0.289348,0.138771,0.0244673,0.0154156,0.0590712,0.0847594,-131,-1089,-14.56,-0.1,-162.926,-0.1,1.152
0.0651212,0.0595516,0.289585,0.139109,0.0246152,0.0158337,0.0591249,0.0847214,-129,-1089,-14.6316,-0.1,-163.235,-0.1,1.156
0.0652199,0.0596204,0.289821,0.139446,0.0247635,0.0162852,0.0591787,0.0845808,-126,-1090,-14.7005,-0.1,-163.543,-0.1,1.16
0.0653193,0.0596929,0.290058,0.139791,0.024912,0.0169029,0.0592326,0.0850918,-122,-1085,-14.7662,-0.1,-163.851,-0.1,1.164
0.0654192,0.0597662,0.290295,0.140132,0.0250608,0.0173723,0.0592866,0.0851157,-119,-1084,-14.8274,-0.1,-164.151,-0.1,1.168
0.0655198,0.0598404,0.290533,0.140473,0.0252099,0.0177716,0.0593407,0.085218,-117,-1083,-14.8854,-0.1,-164.45,-0.1,1.172
0.0656209,0.0599175,0.29077,0.140815,0.0253593,0.0182681,0.0593948,0.085315,-114,-1082,-14.9407,-0.1,-164.746,-0.1,1.176
0.0657226,0.0599963,0.291008,0.141152,0.0255089,0.0187431,0.0594491,0.0849478,-111,-1085,-14.9927,-0.1,-165.04,-0.1,1.18
0.065825,0.0600757,0.291246,0.141487,0.0256589,0.0191173,0.0595035,0.0845303,-109,-1089,-15.0415,-0.1,-165.336,-0.1,1.184
0.0659279,0.0601552,0.291484,0.141823,0.0258091,0.0193668,0.0595579,0.0843383,-108,-1090,-15.0881,-0.1,-165.635,-0.1,1.188
0.0660315,0.0602364,0.291722,0.142155,0.0259596,0.019677,0.0596124,0.0839224,-107,-1094,-15.1336,-0.1,-165.933,-0.1,1.192
0.0661356,0.060321,0.291961,0.14249,0.0261104,0.0201718,0.059667,0.0838179,-104,-1095,-15.1775,-0.1,-166.235,-0.1,1.196
0.0662403,0.0604077,0.292199,0.142822,0.0262615,0.0206744,0.0597217,0.0835755,-100,-1097,-15.2179,-0.1,-166.535,-0.1,1.2
0.0663457,0.0604945,0.292438,0.143155,0.0264128,0.0210095,0.0597765,0.0834426,-99,-1098,-15.255,-0.1,-166.837,-0.1,1.204
0.0664516,0.0605853,0.292678,0.143493,0.0265644,0.0215783,0.0598314,0.0838147,-95,-1094,-15.29,-0.1,-167.138,-0.1,1.208
0.0665582,0.0606748,0.292917,0.143813,0.0267163,0.0218424,0.0598863,0.0825657,-94,-1106,-15.3212,-0.1,-167.434,-0.1,1.212
0.0666654,0.0607688,0.293157,0.144139,0.0268685,0.0223927,0.0599414,0.0821936,-90,-1109,-15.351,-0.1,-167.741,-0.1,1.216
0.0667731,0.0608624,0.293397,0.144463,0.0270209,0.0227308,0.0599965,0.0818016,-89,-1113,-15.3771,-0.1,-168.05,-0.1,1.22
0.0668815,0.0609574,0.293637,0.144788,0.0271736,0.0230714,0.0600517,0.0815979,-87,-1114,-15.4013,-0.1,-168.362,-0.1,1.224
0.0669905,0.0610535,0.293877,0.145105,0.0273266,0.0233848,0.060107,0.0808287,-86,-1122,-15.4236,-0.1,-168.674,-0.1,1.228
0.0671001,0.0611516,0.294118,0.145429,0.0274798,0.0237665,0.0601624,0.0809205,-83,-1121,-15.4444,-0.1,-168.992,-0.1,1.232
0.0672104,0.0612504,0.294358,0.145751,0.0276333,0.0240785,0.0602179,0.0807513,-82,-1122,-15.463,-0.1,-169.307,-0.1,1.236
0.0673212,0.0613527,0.294599,0.146076,0.0277871,0.0245745,0.0602734,0.0808977,-79,-1121,-15.4798,-0.1,-169.623,-0.1,1.24
0.0674327,0.0614546,0.294841,0.146393,0.0279411,0.0248763,0.060329,0.0803331,-78,-1126,-15.4935,-0.1,-169.935,-0.1,1.244
0.0675447,0.0615568,0.295082,0.146712,0.0280954,0.0251063,0.0603847,0.080187,-77,-1127,-15.5057,-0.1,-170.252,-0.1,1.248
0.0676574,0.0616612,0.295324,0.147032,0.0282499,0.0254324,0.0604405,0.0801472,-75,-1127,-15.5172,-0.1,-170.569,-0.1,1.252
0.0677707,0.0617669,0.295565,0.14735,0.0284047,0.025765,0.0604964,0.0799191,-74,-1130,-15.527,-0.1,-170.884,-0.1,1.256
0.0678847,0.0618712,0.295808,0.147663,0.0285598,0.0258715,0.0605523,0.0793352,-74,-1135,-15.5352,-0.1,-171.201,-0.1,1.26
0.0679992,0.0619745,0.29605,0.147976,0.0287151,0.0258562,0.0606083,0.0789459,-76,-1139,-15.544,-0.1,-171.522,-0.1,1.264
0.0681144,0.0620806,0.296292,0.148293,0.0288707,0.0260762,0.0606644,0.0790895,-75,-1137,-15.5544,-0.1,-171.845,-0.1,1.268
0.0682302,0.0621908,0.296535,0.148616,0.0290265,0.0265685,0.0607206,0.0796458,-72,-1132,-15.564,-0.1,-172.165,-0.1,1.272
0.0683466,0.0622969,0.296778,0.148934,0.0291826,0.0265511,0.0607768,0.0795561,-74,-1133,-15.5706,-0.1,-172.478,-0.1,1.276
0.0684637,0.0624064,0.297021,0.149257,0.0293389,0.0268275,0.0608332,0.0799857,-73,-1128,-15.5788,-0.1,-172.79,-0.1,1.28
0.0685813,0.062517,0.297265,0.149579,0.0294955,0.0270981,0.0608896,0.0801281,-72,-1127,-15.5858,-0.1,-173.097,-0.1,1.284
0.0686996,0.0626275,0.297509,0.149901,0.0296523,0.0272785,0.060946,0.0802807,-72,-1125,-15.5918,-0.1,-173.4,-0.1,1.288
0.0688185,0.0627412,0.297752,0.150224,0.0298094,0.0276579,0.0610026,0.08044,-70,-1124,-15.5974,-0.1,-173.701,-0.1,1.292
0.0689381,0.0628569,0.297997,0.150546,0.0299667,0.0280835,0.0610592,0.0804886,-67,-1123,-15.6009,-0.1,-173.999,-0.1,1.296
0.0690583,0.0629706,0.298241,0.150865,0.0301242,0.0281946,0.0611159,0.0801755,-68,-1126,-15.6019,-0.1,-174.295,-0.1,1.3
0.0691791,0.063086,0.298485,0.151183,0.030282,0.0284126,0.0611727,0.0799668,-67,-1128,-15.6034,-0.1,-174.593,-0.1,1.304
0.0693005,0.0632035,0.29873,0.151501,0.0304401,0.0287306,0.0612295,0.0798276,-66,-1129,-15.6042,-0.1,-174.891,-0.1,1.308
0.0694226,0.0633213,0.298975,0.151817,0.0305984,0.0289714,0.0612864,0.0795333,-65,-1132,-15.6036,-0.1,-175.19,-0.1,1.312
0.0695453,0.0634408,0.299221,0.152138,0.0307569,0.029276,0.0613434,0.0797978,-63,-1129,-15.6021,-0.1,-175.489,-0.1,1.316
0.0696687,0.0635607,0.299466,0.152453,0.0309156,0.0295078,0.0614004,0.079427,-63,-1133,-15.5993,-0.1,-175.786,-0.1,1.32
0.0697926,0.0636816,0.299712,0.152771,0.0310746,0.0297487,0.0614576,0.079439,-62,-1133,-15.5957,-0.1,-176.084,-0.1,1.324
0.0699173,0.0638029,0.299958,0.153092,0.0312339,0.0299381,0.0615148,0.0797349,-62,-1130,-15.5915,-0.1,-176.38,-0.1,1.328
0.0700425,0.0639266,0.300204,0.153417,0.0313933,0.0302659,0.061572,0.0802777,-60,-1125,-15.5869,-0.1,-176.672,-0.1,1.332
0.0701684,0.0640492,0.30045,0.153744,0.031553,0.030398,0.0616293,0.0806971,-60,-1120,-15.5808,-0.1,-176.958,-0.1,1.336
0.0702949,0.0641739,0.300697,0.154073,0.0317129,0.0306589,0.0616867,0.0812646,-60,-1115,-15.575,-0.1,-177.238,-0.1,1.34
0.0704221,0.0643028,0.300944,0.154415,0.0318731,0.0311783,0.0617442,0.0826506,-56,-1101,-15.568,-0.1,-177.51,-0.1,1.344
0.0705499,0.0644258,0.301191,0.154744,0.0320335,0.0310351,0.0618017,0.082567,-59,-1102,-15.558,-0.1,-177.768,-0.1,1.348
0.0706784,0.0645522,0.301438,0.155083,0.0321941,0.0312275,0.0618593,0.0832885,-59,-1095,-15.5507,-0.1,-178.025,-0.1,1.352
0.0708075,0.0646784,0.301686,0.155417,0.0323549,0.031327,0.061917,0.0833089,-59,-1095,-15.5433,-0.1,-178.274,-0.1,1.356
0.0709372,0.0648045,0.301934,0.155755,0.0325159,0.0313934,0.0619747,0.0837256,-60,-1090,-15.5366,-0.1,-178.521,-0.1,1.36
0.0710676,0.0649326,0.302182,0.15609,0.0326772,0.0316104,0.0620325,0.0837731,-60,-1090,-15.5307,-0.1,-178.763,-0.1,1.364
0.0711986,0.0650622,0.30243,0.156425,0.0328387,0.0318702,0.0620903,0.0837471,-59,-1090,-15.5243,-0.1,-179.003,-0.1,1.368
0.0713303,0.0651938,0.302678,0.15677,0.0330004,0.0322161,0.0621482,0.084536,-57,-1082,-15.5169,-0.1,-179.242,-0.1,1.372
0.0714626,0.065322,0.302927,0.157098,0.0331623,0.0321588,0.0622062,0.0836799,-59,-1090,-15.508,-0.1,-179.473,-0.1,1.376
0.0715956,0.0654523,0.303176,0.157427,0.0333245,0.0322934,0.0622643,0.0832243,-59,-1094,-15.5012,-0.1,-179.711,-0.1,1.38
0.0717292,0.0655842,0.303425,0.157749,0.0334869,0.0325271,0.0623224,0.0823448,-59,-1103,-15.4946,-0.1,-179.952,-0.1,1.384
0.0718635,0.065719,0.303675,0.158071,0.0336494,0.0329132,0.0623805,0.0817297,-57,-1109,-15.4873,-0.1,-180.201,-0.1,1.388
0.0719984,0.0658516,0.303924,0.15839,0.0338122,0.0329978,0.0624387,0.0810317,-57,-1115,-15.478,-0.1,-180.455,-0.1,1.392
0.072134,0.065985,0.304174,0.158708,0.0339752,0.0331119,0.062497,0.0805376,-58,-1120,-15.4695,-0.1,-180.715,-0.1,1.396
0.0722702,0.0661208,0.304424,0.159028,0.0341385,0.0333894,0.0625554,0.0803521,-57,-1122,-15.4615,-0.1,-180.979,-0.1,1.4
0.0724071,0.0662545,0.304674,0.159348,0.0343019,0.0334017,0.0626138,0.0802861,-58,-1122,-15.4525,-0.1,-181.242,-0.1,1.404
0.0725446,0.066391,0.304925,0.159668,0.0344655,0.0336402,0.0626722,0.0801844,-58,-1123,-15.4449,-0.1,-181.506,-0.1,1.408
0.0726828,0.0665253,0.305176,0.159989,0.0346294,0.0336265,0.0627307,0.0801455,-59,-1124,-15.4368,-0.1,-181.769,-0.1,1.412
0.0728217,0.0666594,0.305427,0.160307,0.0347934,0.0335885,0.0627893,0.0799755,-61,-1125,-15.4305,-0.1,-182.031,-0.1,1.416
0.0729612,0.0667917,0.305678,0.160624,0.0349576,0.0334193,0.0628479,0.0796895,-64,-1128,-15.4263,-0.1,-182.294,-0.1,1.42
0.0731013,0.0669272,0.30593,0.160953,0.0351221,0.0335656,0.0629066,0.0805353,-65,-1120,-15.4253,-0.1,-182.559,-0.1,1.424
0.0732422,0.0670557,0.306181,0.161265,0.0352867,0.0330873,0.0629654,0.0797172,-71,-1128,-15.4248,-0.1,-182.814,-0.1,1.428
0.0733836,0.0671859,0.306433,0.161587,0.0354516,0.0329124,0.0630242,0.0800067,-74,-1125,-15.4306,-0.1,-183.076,-0.1,1.432
0.0735258,0.0673127,0.306686,0.16191,0.0356167,0.0325078,0.063083,0.0802285,-80,-1123,-15.4399,-0.1,-183.334,-0.1,1.436
0.0736686,0.0674409,0.306938,0.162234,0.0357819,0.0323533,0.0631419,0.0805204,-83,-1120,-15.4547,-0.1,-183.588,-0.1,1.44
0.073812,0.0675653,0.307191,0.162556,0.0359473,0.0319336,0.0632009,0.0805134,-88,-1120,-15.4728,-0.1,-183.839,-0.1,1.444
0.0739561,0.0676879,0.307444,0.16288,0.036113,0.0315099,0.0632599,0.0806239,-94,-1119,-15.4967,-0.1,-184.088,-0.1,1.448
0.0741009,0.067813,0.307697,0.1632,0.0362788,0.0314289,0.0633189,0.0804672,-96,-1121,-15.5263,-0.1,-184.336,-0.1,1.452
0.0742464,0.0679391,0.30795,0.163532,0.0364448,0.0314613,0.0633781,0.0812553,-98,-1113,-15.5581,-0.1,-184.583,-0.1,1.456
0.0743925,0.0680583,0.308204,0.163849,0.0366111,0.0309071,0.0634372,0.0806291,-105,-1119,-15.5917,-0.1,-184.822,-0.1,1.46
0.0745393,0.068183,0.308458,0.164173,0.0367775,0.0309982,0.0634964,0.0807586,-106,-1118,-15.632,-0.1,-185.066,-0.1,1.464
0.0746867,0.0683074,0.308712,0.164497,0.0369441,0.0310302,0.0635557,0.0808162,-107,-1117,-15.673,-0.1,-185.307,-0.1,1.468
0.0748348,0.0684369,0.308966,0.164823,0.0371109,0.0314834,0.063615,0.0810273,-105,-1115,-15.715,-0.1,-185.547,-0.1,1.472
0.0749836,0.0685696,0.309221,0.165143,0.0372778,0.0320447,0.0636744,0.0807362,-101,-1118,-15.7542,-0.1,-185.784,-0.1,1.476
0.075133,0.0686968,0.309476,0.165446,0.037445,0.0319582,0.0637338,0.0790162,-104,-1135,-15.7898,-0.1,-186.024,-0.1,1.48
0.0752832,0.0688312,0.309731,0.165753,0.0376123,0.0325051,0.0637933,0.0783014,-100,-1142,-15.8276,-0.1,-186.28,-0.1,1.484
0.0754339,0.0689711,0.309986,0.166067,0.0377798,0.0333304,0.0638528,0.0783431,-94,-1141,-15.8614,-0.1,-186.541,-0.1,1.488
0.0755854,0.0691069,0.310241,0.166367,0.0379475,0.0335351,0.0639123,0.077248,-94,-1152,-15.8891,-0.1,-186.801,-0.1,1.492
0.0757375,0.0692485,0.310497,0.166671,0.0381154,0.034161,0.0639719,0.0768635,-90,-1156,-15.9162,-0.1,-187.071,-0.1,1.496
0.0758903,0.0693905,0.310753,0.166979,0.0382835,0.0346071,0.0640316,0.076895,-87,-1156,-15.9388,-0.1,-187.343,-0.1,1.5
0.0760438,0.0695356,0.311009,0.167292,0.0384517,0.0351636,0.0640913,0.0773191,-83,-1152,-15.9587,-0.1,-187.613,-0.1,1.504
0.0761979,0.0696873,0.311266,0.16762,0.0386201,0.0360816,0.064151,0.0788687,-76,-1137,-15.9746,-0.1,-187.878,-0.1,1.508
0.0763528,0.0698324,0.311523,0.167936,0.0387887,0.0361466,0.0642108,0.0789516,-77,-1136,-15.9836,-0.1,-188.127,-0.1,1.512
0.0765082,0.0699809,0.31178,0.168258,0.0389575,0.0364778,0.0642706,0.0794675,-76,-1131,-15.9935,-0.1,-188.374,-0.1,1.516
0.0766644,0.0701278,0.312037,0.168585,0.0391264,0.0365547,0.0643305,0.0802434,-77,-1124,-16.002,-0.1,-188.614,-0.1,1.52
0.0768213,0.0702822,0.312294,0.168922,0.0392955,0.0372393,0.0643904,0.0815092,-72,-1112,-16.011,-0.1,-188.846,-0.1,1.524
0.0769788,0.0704266,0.312552,0.169238,0.0394648,0.0368608,0.0644503,0.0807407,-77,-1119,-16.0157,-0.1,-189.065,-0.1,1.528
0.077137,0.0705783,0.31281,0.169564,0.0396342,0.0372131,0.0645103,0.0809482,-76,-1117,-16.0253,-0.1,-189.29,-0.1,1.532
0.0772959,0.070732,0.313068,0.169888,0.0398038,0.0376207,0.0645704,0.0809426,-73,-1117,-16.0331,-0.1,-189.512,-0.1,1.536
0.0774554,0.0708868,0.313326,0.170216,0.0399736,0.0379788,0.0646304,0.0812843,-72,-1114,-16.0386,-0.1,-189.734,-0.1,1.54
0.0776156,0.0710447,0.313585,0.170544,0.0401435,0.0384767,0.0646906,0.0815409,-69,-1111,-16.0422,-0.1,-189.951,-0.1,1.544
0.0777766,0.0712023,0.313844,0.170868,0.0403136,0.0387798,0.0647507,0.0814241,-67,-1112,-16.0427,-0.1,-190.164,-0.1,1.548
0.0779381,0.0713639,0.314103,0.171192,0.0404839,0.0393273,0.0648109,0.0812022,-64,-1115,-16.0417,-0.1,-190.378,-0.1,1.552
0.0781004,0.0715239,0.314362,0.171514,0.0406543,0.0395484,0.0648711,0.0810255,-63,-1116,-16.0373,-0.1,-190.593,-0.1,1.556
0.0782634,0.0716891,0.314622,0.171839,0.0408249,0.0401277,0.0649314,0.0810517,-60,-1116,-16.0322,-0.1,-190.809,-0.1,1.56
0.078427,0.0718532,0.314882,0.172168,0.0409956,0.0404275,0.0649917,0.0814434,-58,-1112,-16.0233,-0.1,-191.024,-0.1,1.564
0.0785913,0.0720135,0.315142,0.172487,0.0411665,0.0403106,0.0650521,0.080956,-61,-1117,-16.0135,-0.1,-191.234,-0.1,1.568
0.0787564,0.0721807,0.315402,0.172825,0.0413376,0.0408086,0.0651125,0.0821282,-58,-1106,-16.0061,-0.1,-191.448,-0.1,1.572
0.0789221,0.0723386,0.315663,0.173147,0.0415088,0.0403632,0.0651729,0.0815565,-64,-1111,-15.9962,-0.1,-191.649,-0.1,1.576
0.0790884,0.072501,0.315924,0.173477,0.0416801,0.0404405,0.0652333,0.0818951,-65,-1108,-15.992,-0.1,-191.855,-0.1,1.58
0.0792555,0.072663,0.316185,0.173805,0.0418517,0.0404633,0.0652938,0.0818905,-66,-1108,-15.9888,-0.1,-192.057,-0.1,1.584
0.0794232,0.0728271,0.316446,0.174128,0.0420233,0.0406512,0.0653544,0.0815132,-66,-1112,-15.987,-0.1,-192.259,-0.1,1.588
0.0795917,0.0729898,0.316708,0.17445,0.0421951,0.0406613,0.0654149,0.0812041,-68,-1115,-15.9852,-0.1,-192.463,-0.1,1.592
0.0797608,0.073157,0.316969,0.174775,0.0423671,0.0410424,0.0654755,0.0811995,-66,-1115,-15.9848,-0.1,-192.669,-0.1,1.596
0.0799306,0.0733225,0.317231,0.175104,0.0425392,0.0411524,0.0655361,0.0815132,-66,-1112,-15.9826,-0.1,-192.875,-0.1,1.6
0.0801011,0.0734911,0.317494,0.17543,0.0427115,0.0414849,0.0655968,0.0815783,-65,-1112,-15.9808,-0.1,-193.076,-0.1,1.604
0.0802723,0.0736608,0.317756,0.175764,0.0428839,0.041793,0.0656575,0.0821976,-63,-1106,-15.9775,-0.1,-193.276,-0.1,1.608
0.0804442,0.0738297,0.318019,0.176094,0.0430564,0.0419407,0.0657182,0.0823225,-64,-1104,-15.973,-0.1,-193.469,-0.1,1.612
0.0806168,0.0739994,0.318282,0.176426,0.0432291,0.0420968,0.0657789,0.082521,-64,-1103,-15.9688,-0.1,-193.66,-0.1,1.616
0.08079,0.0741704,0.318545,0.176752,0.0434019,0.0423161,0.0658397,0.0821926,-63,-1106,-15.9647,-0.1,-193.848,-0.1,1.62
0.080964,0.0743445,0.318809,0.177087,0.0435749,0.0427213,0.0659005,0.0827223,-61,-1101,-15.9601,-0.1,-194.038,-0.1,1.624
0.0811386,0.0745107,0.319072,0.1774,0.043748,0.0423293,0.0659614,0.0812328,-67,-1115,-15.9538,-0.1,-194.224,-0.1,1.628
0.081314,0.0746793,0.319336,0.17772,0.0439212,0.0422695,0.0660223,0.0807868,-69,-1120,-15.9528,-0.1,-194.423,-0.1,1.632
0.08149,0.0748486,0.319601,0.178039,0.0440946,0.0422872,0.0660832,0.0804607,-70,-1123,-15.9541,-0.1,-194.626,-0.1,1.636
0.0816667,0.0750179,0.319865,0.178363,0.0442681,0.042299,0.0661441,0.0806175,-72,-1121,-15.957,-0.1,-194.83,-0.1,1.64
0.0818441,0.0751799,0.32013,0.178679,0.0444418,0.0417023,0.066205,0.0800887,-79,-1127,-15.9618,-0.1,-195.033,-0.1,1.644
0.0820222,0.0753416,0.320395,0.179,0.0446156,0.0412757,0.066266,0.0801105,-85,-1126,-15.9742,-0.1,-195.24,-0.1,1.648
0.0822011,0.0755002,0.32066,0.17932,0.0447895,0.0407322,0.066327,0.0800674,-92,-1127,-15.9925,-0.1,-195.446,-0.1,1.652
0.0823806,0.0756577,0.320925,0.179638,0.0449635,0.0402834,0.066388,0.0799523,-98,-1128,-16.0179,-0.1,-195.652,-0.1,1.656
0.0825608,0.0758135,0.321191,0.179967,0.0451377,0.0398403,0.0664491,0.0807105,-104,-1121,-16.0493,-0.1,-195.858,-0.1,1.66
0.0827417,0.0759673,0.321457,0.180292,0.045312,0.0393722,0.0665102,0.0808705,-110,-1120,-16.0868,-0.1,-196.055,-0.1,1.664
0.0829233,0.0761176,0.321723,0.18062,0.0454864,0.0387722,0.0665713,0.0812362,-118,-1116,-16.1307,-0.1,-196.251,-0.1,1.668
0.0831056,0.0762692,0.321989,0.180946,0.0456609,0.0384873,0.0666324,0.0813073,-122,-1116,-16.1819,-0.1,-196.442,-0.1,1.672
0.0832886,0.0764212,0.322256,0.181276,0.0458356,0.0383262,0.0666936,0.081729,-125,-1112,-16.2375,-0.1,-196.631,-0.1,1.676
0.0834722,0.0765688,0.322523,0.181599,0.0460104,0.0378445,0.0667548,0.0814055,-132,-1115,-16.2966,-0.1,-196.816,-0.1,1.68
0.0836566,0.0767173,0.32279,0.181924,0.0461853,0.0376098,0.066816,0.0813338,-136,-1116,-16.3619,-0.1,-197.003,-0.1,1.684
0.0838417,0.0768638,0.323057,0.182246,0.0463604,0.0372805,0.0668772,0.0810845,-141,-1118,-16.4313,-0.1,-197.19,-0.1,1.688
0.0840275,0.077011,0.323325,0.182566,0.0465355,0.0371186,0.0669384,0.0806879,-144,-1122,-16.5054,-0.1,-197.379,-0.1,1.692
0.084214,0.0771571,0.323593,0.182892,0.0467108,0.0369243,0.0669997,0.0809418,-148,-1120,-16.5828,-0.1,-197.571,-0.1,1.696
0.0844012,0.0772988,0.323861,0.183207,0.0468862,0.0364205,0.067061,0.0802761,-155,-1126,-16.664,-0.1,-197.761,-0.1,1.7
0.0845891,0.0774408,0.324129,0.183531,0.0470617,0.0361134,0.0671223,0.0804657,-160,-1125,-16.7516,-0.1,-197.955,-0.1,1.704
0.0847777,0.077579,0.324398,0.183854,0.0472373,0.035592,0.0671836,0.0805921,-167,-1124,-16.8441,-0.1,-198.147,-0.1,1.708
0.084967,0.0777175,0.324667,0.184184,0.0474131,0.0352731,0.0672449,0.0811946,-172,-1118,-16.9431,-0.1,-198.337,-0.1,1.712
0.085157,0.0778537,0.324936,0.184515,0.0475889,0.0348591,0.0673063,0.0817114,-178,-1113,-17.047,-0.1,-198.521,-0.1,1.716
0.0853477,0.0779863,0.325205,0.184843,0.0477649,0.0342951,0.0673677,0.0818545,-185,-1112,-17.1567,-0.1,-198.698,-0.1,1.72
0.0855391,0.078118,0.325475,0.185169,0.0479409,0.0338327,0.0674291,0.0816907,-191,-1113,-17.2734,-0.1,-198.874,-0.1,1.724
0.0857312,0.0782472,0.325745,0.185495,0.0481171,0.033323,0.0674905,0.0816391,-198,-1114,-17.3963,-0.1,-199.051,-0.1,1.728
0.0859241,0.0783753,0.326015,0.185815,0.0482934,0.0328967,0.0675519,0.0811153,-204,-1119,-17.5258,-0.1,-199.228,-0.1,1.732
0.0861176,0.0785015,0.326285,0.186133,0.0484698,0.0324398,0.0676134,0.0805645,-211,-1125,-17.661,-0.1,-199.409,-0.1,1.736
0.0863118,0.0786255,0.326556,0.18646,0.0486463,0.0319625,0.0676748,0.0809747,-217,-1121,-17.8024,-0.1,-199.595,-0.1,1.74
0.0865068,0.0787471,0.326827,0.186777,0.0488229,0.0314427,0.0677363,0.0803556,-224,-1127,-17.95,-0.1,-199.776,-0.1,1.744
0.0867024,0.0788673,0.327098,0.1871,0.0489996,0.0309811,0.0677978,0.0805187,-231,-1126,-18.1043,-0.1,-199.963,-0.1,1.748
0.0868988,0.0789862,0.327369,0.187421,0.0491764,0.0305581,0.0678593,0.0804547,-237,-1126,-18.2647,-0.1,-200.148,-0.1,1.752
0.0870958,0.0791068,0.327641,0.187741,0.0493533,0.0304201,0.0679208,0.0802681,-241,-1128,-18.4305,-0.1,-200.332,-0.1,1.756
0.0872936,0.0792263,0.327912,0.188058,0.0495303,0.0302417,0.0679823,0.0799421,-245,-1132,-18.5994,-0.1,-200.518,-0.1,1.76
0.0874921,0.0793441,0.328184,0.188376,0.0497074,0.0299789,0.0680439,0.0798112,-249,-1133,-18.7716,-0.1,-200.707,-0.1,1.764
0.0876912,0.079463,0.328457,0.188695,0.0498846,0.02989,0.0681054,0.0797815,-252,-1134,-18.9478,-0.1,-200.896,-0.1,1.768
0.0878911,0.0795815,0.328729,0.189016,0.0500619,0.0298019,0.068167,0.0799056,-256,-1133,-19.1264,-0.1,-201.084,-0.1,1.772
0.0880917,0.079702,0.329002,0.189342,0.0502392,0.029916,0.0682286,0.0804491,-257,-1128,-19.3074,-0.1,-201.271,-0.1,1.776
0.088293,0.0798264,0.329275,0.189668,0.0504167,0.0303087,0.0682902,0.0808401,-255,-1124,-19.4886,-0.1,-201.452,-0.1,1.78
0.0884951,0.0799542,0.329548,0.189996,0.0505943,0.0308585,0.0683518,0.0811584,-252,-1121,-19.6674,-0.1,-201.628,-0.1,1.784
0.0886978,0.0800904,0.329822,0.19032,0.0507719,0.0319159,0.0684134,0.0811115,-245,-1122,-19.842,-0.1,-201.8,-0.1,1.788
0.0889012,0.0802375,0.330096,0.190644,0.0509497,0.0335422,0.068475,0.0810802,-232,-1122,-20.0075,-0.1,-201.973,-0.1,1.792
0.0891054,0.080393,0.33037,0.190964,0.0511275,0.0353174,0.0685366,0.0807427,-217,-1126,-20.1586,-0.1,-202.145,-0.1,1.796
0.0893103,0.0805623,0.330644,0.191286,0.0513055,0.0376525,0.0685982,0.0806616,-197,-1127,-20.2936,-0.1,-202.32,-0.1,1.8
0.0895158,0.0807399,0.330919,0.191608,0.0514835,0.0399002,0.0686599,0.0806075,-178,-1127,-20.4075,-0.1,-202.495,-0.1,1.804
0.0897221,0.0809278,0.331193,0.191931,0.0516616,0.0422624,0.0687215,0.0806867,-158,-1127,-20.5009,-0.1,-202.67,-0.1,1.808
0.0899291,0.0811234,0.331468,0.192255,0.0518398,0.0444706,0.0687832,0.0807682,-139,-1126,-20.5731,-0.1,-202.844,-0.1,1.812
0.0901368,0.0813293,0.331744,0.19258,0.052018,0.0468065,0.0688449,0.0809377,-119,-1125,-20.6253,-0.1,-203.016,-0.1,1.816
0.0903453,0.081539,0.332019,0.192903,0.0521964,0.0486804,0.0689065,0.0808204,-103,-1126,-20.6567,-0.1,-203.186,-0.1,1.82
0.0905544,0.0817522,0.332295,0.19322,0.0523748,0.0502176,0.0689682,0.0803103,-90,-1131,-20.6717,-0.1,-203.358,-0.1,1.824
0.0907643,0.0819729,0.332571,0.19354,0.0525533,0.0518758,0.0690299,0.0802006,-77,-1132,-20.6735,-0.1,-203.533,-0.1,1.828
0.0909748,0.0821913,0.332847,0.19385,0.0527319,0.0527797,0.0690916,0.0793213,-70,-1141,-20.6613,-0.1,-203.709,-0.1,1.832
0.0911861,0.0824128,0.333124,0.194161,0.0529105,0.0536415,0.0691532,0.0788215,-63,-1146,-20.6422,-0.1,-203.894,-0.1,1.836
0.0913981,0.0826384,0.3334,0.194472,0.0530893,0.0545615,0.0692149,0.0784883,-56,-1150,-20.6164,-0.1,-204.083,-0.1,1.84
0.0916108,0.0828605,0.333677,0.19478,0.0532681,0.0548869,0.0692766,0.0779495,-55,-1155,-20.5838,-0.1,-204.275,-0.1,1.844
0.0918243,0.083084,0.333954,0.195087,0.053447,0.055219,0.0693383,0.0775902,-53,-1159,-20.5499,-0.1,-204.471,-0.1,1.848
0.0920384,0.0833076,0.334232,0.1954,0.0536259,0.0554404,0.0694,0.0778114,-53,-1157,-20.5146,-0.1,-204.67,-0.1,1.852
0.0922533,0.0835339,0.33451,0.195719,0.053805,0.0558183,0.0694617,0.0784195,-51,-1152,-20.4789,-0.1,-204.867,-0.1,1.856
0.0924689,0.0837591,0.334788,0.196037,0.0539841,0.0559839,0.0695234,0.0787961,-51,-1148,-20.4415,-0.1,-205.056,-0.1,1.86
0.0926852,0.0839782,0.335066,0.196353,0.0541632,0.055576,0.0695851,0.0788169,-56,-1148,-20.4047,-0.1,-205.242,-0.1,1.864
0.0929022,0.0842007,0.335344,0.196671,0.0543425,0.055592,0.0696468,0.0790898,-58,-1146,-20.3734,-0.1,-205.427,-0.1,1.868
0.0931199,0.0844256,0.335623,0.196996,0.0545218,0.0558043,0.0697085,0.07979,-57,-1139,-20.3436,-0.1,-205.608,-0.1,1.872
0.0933383,0.0846453,0.335902,0.197319,0.0547011,0.0555139,0.0697702,0.0801128,-62,-1137,-20.3139,-0.1,-205.782,-0.1,1.876
0.0935575,0.0848685,0.336181,0.197645,0.0548806,0.0556082,0.0698319,0.0805872,-63,-1132,-20.2886,-0.1,-205.952,-0.1,1.88
0.0937774,0.08509,0.336461,0.197974,0.0550601,0.0555271,0.0698936,0.081105,-65,-1127,-20.2642,-0.1,-206.117,-0.1,1.884
0.093998,0.0853118,0.33674,0.198304,0.0552396,0.0555018,0.0699553,0.0815941,-67,-1123,-20.2425,-0.1,-206.276,-0.1,1.888
0.0942193,0.0855391,0.33702,0.198636,0.0554193,0.0559457,0.070017,0.0820641,-64,-1119,-20.2225,-0.1,-206.43,-0.1,1.892
0.0944413,0.0857595,0.3373,0.198958,0.0555989,0.0556657,0.0700787,0.0815138,-69,-1124,-20.2005,-0.1,-206.579,-0.1,1.896
0.0946641,0.0859841,0.337581,0.199281,0.0557787,0.0558246,0.0701404,0.0813196,-69,-1126,-20.1826,-0.1,-206.733,-0.1,1.9
0.0948876,0.0862121,0.337862,0.199608,0.0559585,0.0562184,0.0702021,0.0814205,-67,-1125,-20.1649,-0.1,-206.889,-0.1,1.904
0.0951118,0.0864343,0.338143,0.199928,0.0561383,0.0559915,0.0702637,0.0809695,-71,-1130,-20.1456,-0.1,-207.043,-0.1,1.908
0.0953367,0.086662,0.338424,0.200255,0.0563182,0.0563009,0.0703254,0.0812159,-69,-1128,-20.13,-0.1,-207.201,-0.1,1.912
0.0955623,0.0868914,0.338705,0.200586,0.0564982,0.0566511,0.0703871,0.0816968,-68,-1123,-20.1131,-0.1,-207.356,-0.1,1.916
0.0957887,0.087119,0.338987,0.200913,0.0566782,0.0567406,0.0704487,0.0817584,-68,-1123,-20.0947,-0.1,-207.506,-0.1,1.92
0.0960157,0.0873502,0.339269,0.201242,0.0568583,0.0570882,0.0705104,0.0818857,-67,-1122,-20.0772,-0.1,-207.655,-0.1,1.924
0.0962435,0.0875806,0.339551,0.201568,0.0570384,0.0572624,0.070572,0.0817979,-67,-1123,-20.0581,-0.1,-207.802,-0.1,1.928
0.096472,0.0878138,0.339833,0.201895,0.0572186,0.0576088,0.0706337,0.081797,-65,-1123,-20.0391,-0.1,-207.95,-0.1,1.932
0.0967013,0.0880477,0.340116,0.202219,0.0573988,0.0578973,0.0706953,0.0815084,-64,-1126,-20.0185,-0.1,-208.097,-0.1,1.936
0.0969312,0.0882851,0.340399,0.202549,0.057579,0.0583776,0.0707569,0.0818631,-61,-1123,-19.9968,-0.1,-208.246,-0.1,1.94
0.0971619,0.0885203,0.340682,0.202876,0.0577594,0.058525,0.0708185,0.0817828,-62,-1124,-19.9725,-0.1,-208.392,-0.1,1.944
0.0973933,0.088758,0.340965,0.203204,0.0579397,0.0588248,0.0708801,0.0818445,-61,-1124,-19.9484,-0.1,-208.538,-0.1,1.948
0.0976254,0.0889933,0.341249,0.20353,0.0581201,0.0588232,0.0709417,0.0817704,-62,-1125,-19.9235,-0.1,-208.683,-0.1,1.952
0.0978583,0.089231,0.341533,0.203857,0.0583006,0.0590236,0.0710033,0.081721,-62,-1125,-19.9002,-0.1,-208.829,-0.1,1.956
0.0980918,0.0894711,0.341817,0.204184,0.058481,0.0593588,0.0710649,0.0817745,-60,-1125,-19.8767,-0.1,-208.974,-0.1,1.96
0.0983261,0.0897106,0.342101,0.204508,0.0586616,0.0595246,0.0711265,0.0814934,-61,-1128,-19.8518,-0.1,-209.119,-0.1,1.964
0.0985611,0.0899496,0.342386,0.204834,0.0588421,0.0596064,0.071188,0.0814788,-61,-1129,-19.8273,-0.1,-209.266,-0.1,1.968
0.0987969,0.0901946,0.342671,0.205164,0.0590228,0.0601504,0.0712496,0.0818433,-58,-1125,-19.8034,-0.1,-209.413,-0.1,1.972
0.0990333,0.0904357,0.342956,0.205492,0.0592034,0.0601963,0.0713111,0.0818848,-59,-1125,-19.7764,-0.1,-209.556,-0.1,1.976
0.0992705,0.0906724,0.343241,0.205814,0.0593841,0.0598527,0.0713726,0.081423,-64,-1130,-19.751,-0.1,-209.698,-0.1,1.98
0.0995084,0.0909156,0.343527,0.206148,0.0595648,0.0601706,0.0714341,0.0821228,-63,-1123,-19.7304,-0.1,-209.844,-0.1,1.984
0.099747,0.0911571,0.343813,0.206477,0.0597455,0.0602386,0.0714956,0.0821863,-64,-1123,-19.7086,-0.1,-209.982,-0.1,1.988
0.0999863,0.0913986,0.344099,0.206812,0.0599263,0.0602839,0.0715571,0.0826893,-65,-1118,-19.688,-0.1,-210.12,-0.1,1.992
0.100226,0.0916405,0.344385,0.207145,0.0601072,0.0603429,0.0716186,0.0829094,-66,-1116,-19.6687,-0.1,-210.252,-0.1,1.996
0.100467,0.0918851,0.344672,0.207482,0.060288,0.0606126,0.07168,0.0833153,-65,-1113,-19.6505,-0.1,-210.382,-0.1,2
0.100709,0.0921359,0.344959,0.207826,0.0604689,0.0613106,0.0717414,0.0841905,-60,-1104,-19.6313,-0.1,-210.507,-0.1,2.004
0.100951,0.0923826,0.345246,0.208164,0.0606498,0.0614305,0.0718028,0.0843133,-61,-1103,-19.6074,-0.1,-210.623,-0.1,2.008
0.101194,0.0926255,0.345533,0.20849,0.0608307,0.0611937,0.0718642,0.0834163,-65,-1112,-19.5844,-0.1,-210.738,-0.1,2.012
0.101438,0.0928704,0.345821,0.20882,0.0610117,0.0612085,0.0719256,0.0830486,-66,-1116,-19.5654,-0.1,-210.862,-0.1,2.016
0.101682,0.0931157,0.346109,0.209147,0.0611927,0.0612472,0.071987,0.0826308,-68,-1120,-19.548,-0.1,-210.989,-0.1,2.02
0.101927,0.0933672,0.346397,0.209475,0.0613737,0.0617913,0.0720483,0.0824385,-64,-1122,-19.5317,-0.1,-211.12,-0.1,2.024
0.102173,0.0936184,0.346685,0.209801,0.0615547,0.0621252,0.0721097,0.0821377,-63,-1125,-19.512,-0.1,-211.252,-0.1,2.028
0.10242,0.0938634,0.346974,0.210116,0.0617358,0.0618296,0.072171,0.080987,-67,-1137,-19.4914,-0.1,-211.388,-0.1,2.032
0.102667,0.0941152,0.347262,0.210436,0.0619169,0.0622083,0.0722323,0.0806229,-65,-1141,-19.4749,-0.1,-211.535,-0.1,2.036
0.102915,0.0943667,0.347551,0.210747,0.062098,0.062432,0.0722936,0.0797468,-65,-1149,-19.4567,-0.1,-211.685,-0.1,2.04
0.103164,0.0946248,0.347841,0.21107,0.0622791,0.0631281,0.0723548,0.0800553,-60,-1147,-19.4379,-0.1,-211.842,-0.1,2.044
0.103413,0.0948719,0.34813,0.211375,0.0624602,0.0626709,0.072416,0.0787638,-66,-1160,-19.4148,-0.1,-211.998,-0.1,2.048
0.103663,0.0951251,0.34842,0.211687,0.0626414,0.0628844,0.0724773,0.0785074,-65,-1162,-19.3975,-0.1,-212.165,-0.1,2.052
0.103914,0.0953787,0.34871,0.211999,0.0628226,0.0630555,0.0725385,0.0783653,-66,-1164,-19.38,-0.1,-212.335,-0.1,2.056
0.104166,0.0956337,0.349,0.212315,0.0630037,0.0632847,0.0725996,0.0785296,-65,-1163,-19.3626,-0.1,-212.505,-0.1,2.06
0.104418,0.0958897,0.349291,0.212629,0.0631849,0.0635239,0.0726608,0.0785528,-64,-1163,-19.3448,-0.1,-212.673,-0.1,2.064
0.104671,0.0961443,0.349582,0.212939,0.0633662,0.0635681,0.0727219,0.0782228,-66,-1167,-19.3266,-0.1,-212.841,-0.1,2.068
0.104925,0.0963993,0.349873,0.213251,0.0635474,0.0636265,0.072783,0.0780892,-67,-1168,-19.3097,-0.1,-213.012,-0.1,2.072
0.10518,0.0966553,0.350164,0.213564,0.0637286,0.0637517,0.0728441,0.078144,-67,-1168,-19.2941,-0.1,-213.184,-0.1,2.076
0.105435,0.0969141,0.350455,0.213883,0.0639099,0.0640656,0.0729051,0.0786988,-66,-1163,-19.2789,-0.1,-213.355,-0.1,2.08
0.105691,0.0971718,0.350747,0.214207,0.0640911,0.0641884,0.0729662,0.0795006,-67,-1156,-19.2626,-0.1,-213.52,-0.1,2.084
0.105948,0.0974275,0.351039,0.214534,0.0642724,0.0640975,0.0730272,0.0802366,-69,-1149,-19.2471,-0.1,-213.676,-0.1,2.088
0.106205,0.0976914,0.351331,0.214869,0.0644537,0.064728,0.0730882,0.0813895,-65,-1138,-19.2337,-0.1,-213.824,-0.1,2.092
0.106463,0.0979474,0.351624,0.215196,0.0646349,0.0644861,0.0731491,0.0814959,-69,-1138,-19.2166,-0.1,-213.961,-0.1,2.096
0.106722,0.0982072,0.351917,0.215524,0.0648162,0.0646415,0.0732101,0.0817107,-69,-1136,-19.2034,-0.1,-214.097,-0.1,2.1
0.106982,0.098467,0.35221,0.215853,0.0649975,0.0647451,0.073271,0.081854,-70,-1135,-19.1905,-0.1,-214.23,-0.1,2.104
0.107242,0.0987289,0.352503,0.216182,0.0651788,0.0649869,0.0733318,0.0820359,-69,-1133,-19.1783,-0.1,-214.362,-0.1,2.108
0.107503,0.0989925,0.352796,0.216507,0.0653601,0.0652921,0.0733927,0.0817253,-68,-1137,-19.1655,-0.1,-214.492,-0.1,2.112
0.107765,0.0992551,0.35309,0.216833,0.0655414,0.0654092,0.0734535,0.0816909,-69,-1137,-19.1517,-0.1,-214.624,-0.1,2.116
0.108028,0.0995187,0.353384,0.217157,0.0657227,0.0655736,0.0735143,0.0814377,-69,-1140,-19.1385,-0.1,-214.757,-0.1,2.12
0.108291,0.0997844,0.353678,0.217478,0.0659039,0.0658559,0.0735751,0.0810386,-68,-1144,-19.1254,-0.1,-214.892,-0.1,2.124
0.108555,0.100052,0.353972,0.217794,0.0660852,0.0661881,0.0736358,0.0803406,-66,-1151,-19.1113,-0.1,-215.031,-0.1,2.128
0.10882,0.100319,0.354267,0.218111,0.0662665,0.0663808,0.0736965,0.0799617,-66,-1155,-19.096,-0.1,-215.177,-0.1,2.132
0.109085,0.100587,0.354562,0.218427,0.0664478,0.0665668,0.0737572,0.0796515,-66,-1159,-19.0805,-0.1,-215.326,-0.1,2.136
0.109351,0.100862,0.354857,0.218756,0.066629,0.0672955,0.0738178,0.08051,-61,-1151,-19.0647,-0.1,-215.477,-0.1,2.14
0.109618,0.101123,0.355153,0.219068,0.0668103,0.0666584,0.0738785,0.0797003,-69,-1159,-19.0446,-0.1,-215.62,-0.1,2.144
0.109886,0.101393,0.355448,0.219393,0.0669916,0.0669246,0.0739391,0.080197,-68,-1155,-19.0318,-0.1,-215.771,-0.1,2.148
0.110154,0.10166,0.355744,0.219718,0.0671728,0.0668718,0.0739996,0.0805569,-70,-1151,-19.0184,-0.1,-215.916,-0.1,2.152
0.110423,0.101931,0.35604,0.220044,0.067354,0.0671245,0.0740601,0.0808545,-69,-1149,-19.0071,-0.1,-216.057,-0.1,2.156
0.110693,0.102209,0.356337,0.220382,0.0675353,0.0679552,0.0741206,0.0820605,-63,-1138,-18.9949,-0.1,-216.195,-0.1,2.16
0.110963,0.102473,0.356633,0.220697,0.0677165,0.0672997,0.0741811,0.0810219,-71,-1148,-18.9773,-0.1,-216.322,-0.1,2.164
0.111235,0.102744,0.35693,0.221024,0.0678977,0.0674098,0.0742415,0.0812796,-72,-1146,-18.9673,-0.1,-216.458,-0.1,2.168
0.111507,0.103014,0.357227,0.22135,0.0680788,0.0675119,0.0743019,0.0813075,-72,-1146,-18.9581,-0.1,-216.591,-0.1,2.172
0.111779,0.103289,0.357524,0.221677,0.06826,0.0678679,0.0743623,0.0814412,-71,-1145,-18.9495,-0.1,-216.724,-0.1,2.176
0.112053,0.103564,0.357822,0.222004,0.0684412,0.0682205,0.0744226,0.0815591,-69,-1144,-18.9392,-0.1,-216.855,-0.1,2.18
0.112327,0.103836,0.35812,0.222325,0.0686223,0.06811,0.0744829,0.0811195,-72,-1149,-18.9277,-0.1,-216.985,-0.1,2.184
0.112602,0.104109,0.358418,0.222647,0.0688034,0.0681803,0.0745431,0.080884,-73,-1151,-18.9188,-0.1,-217.12,-0.1,2.188
0.112877,0.104385,0.358716,0.222967,0.0689845,0.0683999,0.0746034,0.0806407,-72,-1154,-18.911,-0.1,-217.256,-0.1,2.192
0.113153,0.104661,0.359015,0.22329,0.0691656,0.0686614,0.0746635,0.0806224,-72,-1155,-18.9027,-0.1,-217.395,-0.1,2.196
0.113431,0.104935,0.359313,0.22361,0.0693466,0.0686055,0.0747237,0.080495,-74,-1156,-18.894,-0.1,-217.533,-0.1,2.2
0.113708,0.10521,0.359612,0.223934,0.0695277,0.0686546,0.0747838,0.0805829,-75,-1156,-18.8875,-0.1,-217.673,-0.1,2.204
0.113987,0.105486,0.359912,0.224259,0.0697087,0.0687737,0.0748439,0.080843,-76,-1154,-18.8822,-0.1,-217.811,-0.1,2.208
0.114266,0.105763,0.360211,0.224586,0.0698897,0.0689394,0.0749039,0.0811315,-76,-1151,-18.8776,-0.1,-217.946,-0.1,2.212
0.114546,0.106041,0.360511,0.224912,0.0700706,0.0690787,0.0749639,0.0812663,-76,-1150,-18.8731,-0.1,-218.079,-0.1,2.216
0.114826,0.106317,0.360811,0.22524,0.0702516,0.0690852,0.0750239,0.0815001,-78,-1148,-18.8692,-0.1,-218.21,-0.1,2.22
0.115108,0.106592,0.361111,0.225568,0.0704325,0.0689744,0.0750838,0.081656,-81,-1147,-18.867,-0.1,-218.338,-0.1,2.224
0.11539,0.106867,0.361412,0.225895,0.0706134,0.0689005,0.0751437,0.0817023,-83,-1147,-18.8676,-0.1,-218.465,-0.1,2.228
0.115673,0.107143,0.361712,0.226219,0.0707942,0.0689376,0.0752035,0.0814453,-84,-1150,-18.8706,-0.1,-218.591,-0.1,2.232
0.115956,0.107416,0.362013,0.226541,0.070975,0.0686745,0.0752633,0.08113,-88,-1153,-18.8752,-0.1,-218.72,-0.1,2.236
0.116241,0.107687,0.362314,0.226859,0.0711558,0.0683551,0.0753231,0.0806607,-93,-1158,-18.8842,-0.1,-218.851,-0.1,2.24
0.116526,0.107963,0.362616,0.227185,0.0713366,0.0685452,0.0753828,0.0809236,-93,-1156,-18.8976,-0.1,-218.987,-0.1,2.244
0.116811,0.108223,0.362917,0.227498,0.0715173,0.0674052,0.0754425,0.0800337,-105,-1165,-18.9118,-0.1,-219.121,-0.1,2.248
0.117098,0.108485,0.363219,0.227821,0.071698,0.0667603,0.0755021,0.0802753,-113,-1163,-18.9384,-0.1,-219.262,-0.1,2.252
0.117385,0.108743,0.363521,0.228153,0.0718786,0.0660425,0.0755617,0.0811562,-122,-1155,-18.973,-0.1,-219.401,-0.1,2.256
0.117673,0.108999,0.363824,0.228487,0.0720592,0.0653336,0.0756212,0.0819449,-130,-1148,-19.0163,-0.1,-219.531,-0.1,2.26
0.117961,0.109252,0.364126,0.228825,0.0722398,0.0646307,0.0756808,0.0827875,-138,-1140,-19.068,-0.1,-219.652,-0.1,2.264
0.118251,0.109499,0.364429,0.22916,0.0724204,0.0636726,0.0757402,0.0830901,-149,-1137,-19.1283,-0.1,-219.766,-0.1,2.268
0.118541,0.10975,0.364732,0.229509,0.0726009,0.0634082,0.0757996,0.084501,-154,-1124,-19.1991,-0.1,-219.875,-0.1,2.272
0.118831,0.109993,0.365036,0.229852,0.0727813,0.0624546,0.075859,0.0849234,-164,-1120,-19.2746,-0.1,-219.971,-0.1,2.276
0.119123,0.110223,0.365339,0.23019,0.0729617,0.0608687,0.0759183,0.0847731,-181,-1122,-19.3612,-0.1,-220.063,-0.1,2.28
0.119415,0.110457,0.365643,0.230541,0.0731421,0.0600418,0.0759776,0.085767,-191,-1113,-19.4643,-0.1,-220.155,-0.1,2.284
0.119708,0.110685,0.365947,0.230893,0.0733225,0.0590587,0.0760369,0.0865447,-202,-1105,-19.5771,-0.1,-220.238,-0.1,2.288
0.120002,0.110913,0.366251,0.231255,0.0735027,0.0583745,0.0760961,0.0878406,-210,-1093,-19.7007,-0.1,-220.312,-0.1,2.292
0.120296,0.111131,0.366556,0.231608,0.073683,0.0570258,0.0761552,0.0879559,-225,-1092,-19.8329,-0.1,-220.374,-0.1,2.296
0.120591,0.111335,0.366861,0.231944,0.0738632,0.0550614,0.0762143,0.0866509,-245,-1105,-19.98,-0.1,-220.436,-0.1,2.3
0.120887,0.111541,0.367166,0.232298,0.0740433,0.053867,0.0762734,0.0872491,-258,-1099,-20.1471,-0.1,-220.509,-0.1,2.304
0.121184,0.111741,0.367471,0.232647,0.0742234,0.0526101,0.0763324,0.0872737,-272,-1099,-20.3273,-0.1,-220.577,-0.1,2.308
0.121481,0.111939,0.367776,0.233004,0.0744035,0.051513,0.0763914,0.0879235,-285,-1093,-20.5209,-0.1,-220.644,-0.1,2.312
0.121779,0.112135,0.368082,0.233362,0.0745835,0.0506665,0.0764503,0.0884431,-295,-1088,-20.7265,-0.1,-220.704,-0.1,2.316
0.122077,0.112329,0.368388,0.23372,0.0747634,0.0499869,0.0765091,0.0888182,-303,-1085,-20.9415,-0.1,-220.759,-0.1,2.32
0.122377,0.112524,0.368694,0.234076,0.0749433,0.0495915,0.076568,0.0888956,-309,-1084,-21.1643,-0.1,-220.811,-0.1,2.324
0.122677,0.11272,0.369,0.234429,0.0751232,0.0493279,0.0766267,0.0886305,-314,-1087,-21.3924,-0.1,-220.862,-0.1,2.328
0.122978,0.112912,0.369307,0.234775,0.075303,0.0489506,0.0766854,0.0879643,-320,-1094,-21.6245,-0.1,-220.916,-0.1,2.332
0.123279,0.113109,0.369614,0.235123,0.0754827,0.048987,0.0767441,0.0876353,-322,-1097,-21.8614,-0.1,-220.976,-0.1,2.336
0.123582,0.113304,0.369921,0.235469,0.0756624,0.0489824,0.0768027,0.0872433,-325,-1101,-22.0995,-0.1,-221.039,-0.1,2.34
0.123885,0.1135,0.370228,0.235809,0.075842,0.0489506,0.0768613,0.0864924,-327,-1108,-22.3391,-0.1,-221.107,-0.1,2.344
0.124188,0.113697,0.370536,0.236147,0.0760216,0.0490158,0.0769198,0.0857904,-329,-1115,-22.5804,-0.1,-221.182,-0.1,2.348
0.124493,0.113893,0.370844,0.236481,0.0762011,0.0490592,0.0769783,0.0850632,-331,-1123,-22.8225,-0.1,-221.264,-0.1,2.352
0.124798,0.114093,0.371152,0.236824,0.0763806,0.0493761,0.0770367,0.085327,-331,-1120,-23.0655,-0.1,-221.353,-0.1,2.356
0.125104,0.11428,0.37146,0.237146,0.0765599,0.0484645,0.077095,0.083689,-342,-1137,-23.3077,-0.1,-221.44,-0.1,2.36
0.125411,0.114471,0.371768,0.237479,0.0767393,0.048231,0.0771533,0.0835183,-346,-1139,-23.5597,-0.1,-221.542,-0.1,2.364
0.125718,0.114657,0.372077,0.237809,0.0769185,0.0476723,0.0772116,0.083203,-354,-1142,-23.8156,-0.1,-221.647,-0.1,2.368
0.126026,0.11484,0.372386,0.238143,0.0770977,0.0470407,0.0772698,0.0832807,-362,-1142,-24.0783,-0.1,-221.754,-0.1,2.372
0.126335,0.115026,0.372695,0.238489,0.0772769,0.0468212,0.0773279,0.0843978,-367,-1131,-24.3482,-0.1,-221.859,-0.1,2.376
0.126644,0.115203,0.373005,0.238828,0.0774559,0.0459551,0.077386,0.0844515,-377,-1131,-24.6221,-0.1,-221.954,-0.1,2.38
0.126954,0.115382,0.373314,0.239178,0.077635,0.0455792,0.0774441,0.0855238,-383,-1121,-24.9054,-0.1,-222.048,-0.1,2.384
0.127265,0.115563,0.373624,0.239531,0.0778139,0.0454438,0.077502,0.0864114,-387,-1113,-25.1935,-0.1,-222.13,-0.1,2.388
0.127577,0.115745,0.373934,0.23989,0.0779928,0.0454975,0.07756,0.0875502,-389,-1102,-25.4842,-0.1,-222.204,-0.1,2.392
0.127889,0.115931,0.374245,0.240251,0.0781716,0.04585,0.0776178,0.0884533,-389,-1093,-25.7755,-0.1,-222.267,-0.1,2.396
0.128202,0.11612,0.374555,0.240612,0.0783503,0.0463153,0.0776756,0.0890554,-387,-1088,-26.0648,-0.1,-222.32,-0.1,2.4
0.128516,0.116315,0.374866,0.240978,0.0785289,0.0471149,0.0777334,0.0898598,-382,-1080,-26.3509,-0.1,-222.367,-0.1,2.404
0.12883,0.116515,0.375177,0.241349,0.0787075,0.0481087,0.0777911,0.0907704,-375,-1071,-26.6305,-0.1,-222.407,-0.1,2.408
0.129146,0.116723,0.375488,0.241723,0.078886,0.0493758,0.0778487,0.0916654,-366,-1063,-26.9019,-0.1,-222.437,-0.1,2.412
0.129461,0.116936,0.3758,0.242101,0.0790645,0.0506236,0.0779063,0.0926651,-357,-1053,-27.1626,-0.1,-222.458,-0.1,2.416
0.129778,0.117153,0.376112,0.24248,0.0792428,0.0518586,0.0779639,0.0933316,-348,-1047,-27.4128,-0.1,-222.469,-0.1,2.42
0.130095,0.117375,0.376424,0.242858,0.0794211,0.0531137,0.0780213,0.0937471,-339,-1043,-27.6526,-0.1,-222.474,-0.1,2.424
0.130413,0.1176,0.376736,0.243236,0.0795993,0.0541233,0.0780787,0.0940241,-332,-1040,-27.882,-0.1,-222.474,-0.1,2.428
0.130732,0.117824,0.377048,0.243616,0.0797775,0.0547675,0.0781361,0.094324,-329,-1037,-28.1035,-0.1,-222.472,-0.1,2.432
0.131052,0.11805,0.377361,0.243998,0.0799555,0.0553409,0.0781934,0.0946678,-326,-1034,-28.3204,-0.1,-222.467,-0.1,2.436
0.131372,0.118273,0.377674,0.244383,0.0801335,0.0554929,0.0782506,0.0952426,-327,-1028,-28.5335,-0.1,-222.458,-0.1,2.44
0.131693,0.118502,0.377987,0.244779,0.0803114,0.0560548,0.0783078,0.0965182,-324,-1016,-28.7464,-0.1,-222.443,-0.1,2.444
0.132014,0.118713,0.3783,0.245151,0.0804892,0.0549324,0.0783649,0.0953245,-337,-1027,-28.9565,-0.1,-222.418,-0.1,2.448
0.132337,0.118927,0.378614,0.245534,0.0806669,0.0545007,0.0784219,0.0954212,-343,-1026,-29.1783,-0.1,-222.403,-0.1,2.452
0.13266,0.119141,0.378928,0.245925,0.0808446,0.0541554,0.0784789,0.0962055,-348,-1019,-29.4056,-0.1,-222.387,-0.1,2.456
0.132983,0.119343,0.379242,0.246303,0.0810222,0.0529175,0.0785358,0.0956631,-362,-1024,-29.6383,-0.1,-222.364,-0.1,2.46
0.133308,0.119547,0.379556,0.246691,0.0811996,0.052265,0.0785927,0.0961076,-371,-1020,-29.8838,-0.1,-222.345,-0.1,2.464
0.133633,0.119745,0.379871,0.247082,0.081377,0.0513981,0.0786495,0.096663,-381,-1014,-30.1371,-0.1,-222.323,-0.1,2.468
0.133959,0.119942,0.380185,0.247474,0.0815543,0.0506186,0.0787062,0.0971197,-391,-1010,-30.4001,-0.1,-222.295,-0.1,2.472
0.134285,0.120141,0.3805,0.247873,0.0817316,0.0503869,0.0787629,0.0979712,-395,-1002,-30.6715,-0.1,-222.262,-0.1,2.476
0.134613,0.120332,0.380815,0.248253,0.0819087,0.0494839,0.0788195,0.097013,-406,-1011,-30.947,-0.1,-222.222,-0.1,2.48
0.134941,0.120522,0.381131,0.248629,0.0820857,0.048853,0.078876,0.095971,-414,-1021,-31.2322,-0.1,-222.191,-0.1,2.484
0.135269,0.120716,0.381446,0.249003,0.0822627,0.0486916,0.0789325,0.0951901,-419,-1028,-31.5246,-0.1,-222.171,-0.1,2.488
0.135599,0.120922,0.381762,0.249385,0.0824395,0.0495917,0.0789889,0.095274,-413,-1027,-31.8192,-0.1,-222.159,-0.1,2.492
0.135929,0.121114,0.382078,0.249732,0.0826163,0.0490689,0.0790453,0.0924509,-420,-1055,-32.1074,-0.1,-222.147,-0.1,2.496
0.13626,0.121316,0.382395,0.250082,0.082793,0.0496129,0.0791016,0.0907415,-418,-1071,-32.4014,-0.1,-222.163,-0.1,2.5
0.136591,0.121519,0.382711,0.250419,0.0829695,0.0499755,0.0791578,0.0885655,-417,-1093,-32.6916,-0.1,-222.197,-0.1,2.504
0.136924,0.121822,0.383028,0.250906,0.083146,0.0585666,0.0792139,0.0996389,-341,-986,-32.9747,-0.1,-222.244,-0.1,2.508
0.137256,0.121933,0.383345,0.251082,0.0833224,0.0483151,0.07927,0.0811093,-437,-1165,-33.1891,-0.1,-222.199,-0.1,2.512
0.13759,0.122139,0.383662,0.251411,0.0834987,0.0493695,0.079326,0.0814818,-430,-1162,-33.4955,-0.1,-222.327,-0.1,2.516
0.137924,0.122347,0.383979,0.251742,0.0836749,0.0501875,0.079382,0.0819029,-425,-1158,-33.7934,-0.1,-222.452,-0.1,2.52
0.13826,0.122556,0.384297,0.252089,0.083851,0.0508769,0.0794379,0.0835656,-421,-1143,-34.085,-0.1,-222.572,-0.1,2.524
0.138595,0.122761,0.384615,0.252439,0.084027,0.0510485,0.0794937,0.0848756,-422,-1130,-34.3717,-0.1,-222.675,-0.1,2.528
0.138932,0.122971,0.384933,0.252807,0.0842029,0.0514796,0.0795494,0.0871885,-421,-1108,-34.658,-0.1,-222.764,-0.1,2.532
0.139269,0.12318,0.385251,0.253177,0.0843787,0.0517383,0.0796051,0.0889895,-421,-1091,-34.9417,-0.1,-222.831,-0.1,2.536
0.139607,0.123391,0.38557,0.253557,0.0845544,0.0520834,0.0796607,0.0910252,-420,-1072,-35.2243,-0.1,-222.879,-0.1,2.54
0.139945,0.123604,0.385889,0.253943,0.0847299,0.0525151,0.0797162,0.0927853,-419,-1055,-35.5049,-0.1,-222.907,-0.1,2.544
0.140285,0.12382,0.386208,0.254332,0.0849054,0.0529756,0.0797717,0.0943043,-417,-1040,-35.7827,-0.1,-222.918,-0.1,2.548
0.140625,0.124038,0.386527,0.254724,0.0850808,0.0535129,0.0798271,0.0955472,-415,-1028,-36.0575,-0.1,-222.914,-0.1,2.552
0.140965,0.124259,0.386846,0.255123,0.0852561,0.0540439,0.0798824,0.0969229,-413,-1015,-36.3286,-0.1,-222.897,-0.1,2.556
0.141307,0.124484,0.387166,0.255525,0.0854312,0.0548009,0.0799377,0.0980991,-408,-1003,-36.5959,-0.1,-222.866,-0.1,2.56
0.141649,0.124711,0.387486,0.255933,0.0856063,0.0554784,0.0799929,0.0994015,-404,-991,-36.8574,-0.1,-222.824,-0.1,2.564
0.141991,0.124935,0.387806,0.25634,0.0857812,0.0556709,0.080048,0.100212,-405,-983,-37.1142,-0.1,-222.769,-0.1,2.568
0.142335,0.12517,0.388126,0.256761,0.0859561,0.056663,0.080103,0.101875,-398,-966,-37.37,-0.1,-222.706,-0.1,2.572
0.142679,0.12539,0.388447,0.257163,0.0861308,0.0561151,0.080158,0.101458,-406,-970,-37.6188,-0.1,-222.627,-0.1,2.576
0.143024,0.125613,0.388767,0.25757,0.0863054,0.056009,0.0802129,0.101526,-409,-969,-37.8739,-0.1,-222.553,-0.1,2.58
0.14337,0.125839,0.389088,0.25798,0.0864799,0.0561686,0.0802677,0.10183,-410,-966,-38.1312,-0.1,-222.478,-0.1,2.584
0.143716,0.126066,0.389409,0.25839,0.0866543,0.0563038,0.0803224,0.102061,-411,-964,-38.3884,-0.1,-222.4,-0.1,2.588
0.144063,0.126295,0.389731,0.258794,0.0868286,0.0566242,0.0803771,0.101755,-411,-967,-38.6456,-0.1,-222.32,-0.1,2.592
0.14441,0.126529,0.390052,0.259197,0.0870028,0.0572985,0.0804317,0.101407,-407,-970,-38.9009,-0.1,-222.243,-0.1,2.596
0.144759,0.126765,0.390374,0.259593,0.0871768,0.0578632,0.0804862,0.100599,-404,-977,-39.1513,-0.1,-222.17,-0.1,2.6
0.145108,0.127008,0.390696,0.259988,0.0873508,0.0587867,0.0805407,0.0999453,-398,-984,-39.3974,-0.1,-222.106,-0.1,2.604
0.145458,0.127255,0.391019,0.260375,0.0875246,0.0598342,0.0805951,0.0989048,-391,-994,-39.6362,-0.1,-222.048,-0.1,2.608
0.145808,0.127509,0.391341,0.260761,0.0876983,0.0609932,0.0806494,0.098096,-383,-1001,-39.8664,-0.1,-222.001,-0.1,2.612
0.146159,0.127767,0.391664,0.261143,0.0878718,0.0621978,0.0807036,0.0972401,-374,-1009,-40.087,-0.1,-221.962,-0.1,2.616
0.146511,0.128041,0.391987,0.261534,0.0880453,0.0643252,0.0807577,0.0974181,-357,-1008,-40.297,-0.1,-221.931,-0.1,2.62
0.146864,0.128312,0.39231,0.261911,0.0882186,0.0654555,0.0808118,0.0963275,-349,-1018,-40.489,-0.1,-221.9,-0.1,2.624
0.147217,0.128576,0.392633,0.262271,0.0883919,0.0656333,0.0808658,0.0942185,-350,-1039,-40.6723,-0.1,-221.88,-0.1,2.628
0.147571,0.128853,0.392957,0.262639,0.088565,0.0668458,0.0809197,0.0935322,-341,-1045,-40.8548,-0.1,-221.88,-0.1,2.632
0.147925,0.12914,0.393281,0.263019,0.0887379,0.0684604,0.0809736,0.0940248,-328,-1041,-41.0271,-0.1,-221.887,-0.1,2.636
0.148281,0.129422,0.393605,0.263391,0.0889108,0.0691624,0.0810273,0.093691,-324,-1044,-41.1861,-0.1,-221.889,-0.1,2.64
0.148637,0.129704,0.393929,0.263764,0.0890835,0.0696017,0.081081,0.0935261,-322,-1046,-41.3402,-0.1,-221.894,-0.1,2.644
0.148993,0.129975,0.394253,0.264125,0.0892561,0.069002,0.0811346,0.0924085,-330,-1057,-41.4923,-0.1,-221.902,-0.1,2.648
0.149351,0.130255,0.394578,0.264492,0.0894286,0.0692932,0.0811881,0.0922392,-329,-1058,-41.651,-0.1,-221.921,-0.1,2.652
0.149709,0.13054,0.394903,0.264868,0.0896009,0.069948,0.0812416,0.0927885,-325,-1053,-41.8082,-0.1,-221.941,-0.1,2.656
0.150067,0.130813,0.395228,0.265225,0.0897731,0.0693768,0.0812949,0.0916,-333,-1065,-41.9615,-0.1,-221.956,-0.1,2.66
0.150427,0.131086,0.395553,0.265582,0.0899452,0.0690248,0.0813482,0.0908365,-338,-1072,-42.1215,-0.1,-221.984,-0.1,2.664
0.150787,0.13136,0.395879,0.265938,0.0901172,0.0688478,0.0814014,0.0902411,-342,-1078,-42.2863,-0.1,-222.019,-0.1,2.668
0.151148,0.131636,0.396204,0.266296,0.090289,0.0689025,0.0814546,0.0899306,-343,-1082,-42.4541,-0.1,-222.059,-0.1,2.672
0.151509,0.131922,0.39653,0.266664,0.0904607,0.0697451,0.0815076,0.090616,-338,-1075,-42.6223,-0.1,-222.103,-0.1,2.676
0.151871,0.132194,0.396856,0.267011,0.0906322,0.0691264,0.0815606,0.0893456,-346,-1088,-42.785,-0.1,-222.14,-0.1,2.68
0.152234,0.132474,0.397183,0.267366,0.0908037,0.0694337,0.0816134,0.089132,-345,-1090,-42.9544,-0.1,-222.19,-0.1,2.684
0.152598,0.132756,0.397509,0.267721,0.0909749,0.0697825,0.0816662,0.089076,-344,-1091,-43.1223,-0.1,-222.242,-0.1,2.688
0.152962,0.133043,0.397836,0.26808,0.0911461,0.0705045,0.0817189,0.0892402,-339,-1090,-43.2883,-0.1,-222.294,-0.1,2.692
0.153327,0.133327,0.398163,0.268433,0.0913171,0.0706116,0.0817716,0.0889754,-341,-1092,-43.4492,-0.1,-222.345,-0.1,2.696
0.153693,0.133614,0.39849,0.26879,0.091488,0.0710284,0.0818241,0.0890003,-339,-1092,-43.6105,-0.1,-222.399,-0.1,2.7
0.154059,0.133903,0.398818,0.269148,0.0916588,0.0713927,0.0818766,0.0892185,-338,-1090,-43.7693,-0.1,-222.452,-0.1,2.704
0.154426,0.13419,0.399145,0.269504,0.0918294,0.0715204,0.081929,0.0891049,-339,-1092,-43.9263,-0.1,-222.504,-0.1,2.708
0.154794,0.134477,0.399473,0.269857,0.0919998,0.0716343,0.0819813,0.0888276,-340,-1095,-44.0836,-0.1,-222.556,-0.1,2.712
0.155162,0.134765,0.399801,0.270208,0.0921702,0.0717103,0.0820335,0.08847,-341,-1099,-44.2413,-0.1,-222.612,-0.1,2.716
0.155531,0.135052,0.400129,0.270558,0.0923403,0.0717321,0.0820856,0.088174,-343,-1102,-44.3998,-0.1,-222.671,-0.1,2.72
0.155901,0.135343,0.400458,0.270915,0.0925104,0.0721209,0.0821377,0.0884949,-342,-1099,-44.5594,-0.1,-222.732,-0.1,2.724
0.156271,0.13563,0.400786,0.271269,0.0926803,0.0720059,0.0821896,0.0884785,-345,-1099,-44.7171,-0.1,-222.791,-0.1,2.728
0.156642,0.135908,0.401115,0.271609,0.09285,0.0711518,0.0822415,0.0873159,-354,-1111,-44.8778,-0.1,-222.851,-0.1,2.732
0.157014,0.136193,0.401444,0.271957,0.0930197,0.0711295,0.0822933,0.0872607,-357,-1112,-45.0475,-0.1,-222.921,-0.1,2.736
0.157386,0.136478,0.401774,0.272303,0.0931891,0.071201,0.082345,0.0869935,-358,-1115,-45.2188,-0.1,-222.993,-0.1,2.74
0.157759,0.136764,0.402103,0.272648,0.0933585,0.0712774,0.0823966,0.086729,-360,-1117,-45.3908,-0.1,-223.067,-0.1,2.744
0.158133,0.137052,0.402433,0.272989,0.0935276,0.0715299,0.0824481,0.086236,-360,-1123,-45.5635,-0.1,-223.144,-0.1,2.748
0.158508,0.137343,0.402763,0.273328,0.0936967,0.0719286,0.0824996,0.0857633,-358,-1128,-45.7352,-0.1,-223.226,-0.1,2.752
0.158883,0.137635,0.403093,0.273667,0.0938655,0.0722807,0.0825509,0.0853907,-357,-1132,-45.9045,-0.1,-223.312,-0.1,2.756
0.159259,0.13793,0.403423,0.274006,0.0940343,0.0728034,0.0826022,0.085171,-354,-1134,-46.072,-0.1,-223.402,-0.1,2.76
0.159635,0.138228,0.403754,0.274347,0.0942029,0.0733534,0.0826533,0.0852261,-352,-1134,-46.2359,-0.1,-223.495,-0.1,2.764
0.160012,0.138524,0.404084,0.274692,0.0943713,0.0735473,0.0827044,0.0855507,-352,-1131,-46.3964,-0.1,-223.586,-0.1,2.768
0.16039,0.138821,0.404415,0.275039,0.0945396,0.0738493,0.0827554,0.0859399,-351,-1128,-46.5564,-0.1,-223.674,-0.1,2.772
0.160768,0.139129,0.404746,0.275398,0.0947077,0.074828,0.0828063,0.0872358,-344,-1116,-46.7146,-0.1,-223.758,-0.1,2.776
0.161148,0.139422,0.405078,0.27574,0.0948757,0.0743288,0.0828572,0.0866602,-351,-1122,-46.866,-0.1,-223.83,-0.1,2.78
0.161527,0.139723,0.405409,0.276094,0.0950435,0.0746294,0.0829079,0.0872842,-350,-1116,-47.0231,-0.1,-223.907,-0.1,2.784
0.161908,0.140025,0.405741,0.276449,0.0952112,0.0749738,0.0829585,0.0877865,-349,-1111,-47.1787,-0.1,-223.978,-0.1,2.788
0.162289,0.140335,0.406073,0.276815,0.0953787,0.075808,0.0830091,0.0890139,-344,-1100,-47.3323,-0.1,-224.044,-0.1,2.792
0.162671,0.140631,0.406405,0.277163,0.095546,0.0751549,0.0830595,0.0883351,-352,-1107,-47.4804,-0.1,-224.098,-0.1,2.796
0.163054,0.140936,0.406737,0.277521,0.0957132,0.0755544,0.0831099,0.0887462,-350,-1103,-47.6354,-0.1,-224.159,-0.1,2.8
0.163437,0.141242,0.40707,0.277878,0.0958803,0.0758784,0.0831602,0.0889052,-349,-1102,-47.7882,-0.1,-224.216,-0.1,2.804
0.163821,0.141558,0.407403,0.278241,0.0960471,0.0768717,0.0832103,0.0895294,-342,-1096,-47.939,-0.1,-224.27,-0.1,2.808
0.164205,0.141856,0.407736,0.278583,0.0962139,0.0760656,0.0832604,0.0881893,-352,-1109,-48.083,-0.1,-224.32,-0.1,2.812
0.16459,0.142163,0.408069,0.278939,0.0963804,0.0763343,0.0833104,0.0884763,-351,-1107,-48.2353,-0.1,-224.383,-0.1,2.816
0.164976,0.142469,0.408402,0.279297,0.0965468,0.0764271,0.0833603,0.0887828,-352,-1104,-48.3867,-0.1,-224.442,-0.1,2.82
0.165363,0.142777,0.408736,0.279661,0.0967131,0.0765753,0.0834101,0.0894766,-353,-1098,-48.5387,-0.1,-224.499,-0.1,2.824
0.16575,0.143085,0.409069,0.280027,0.0968791,0.0767605,0.0834599,0.0901982,-353,-1091,-48.6907,-0.1,-224.548,-0.1,2.828
0.166138,0.143394,0.409403,0.280398,0.0970451,0.0768552,0.0835095,0.0910536,-355,-1083,-48.8424,-0.1,-224.59,-0.1,2.832
0.166526,0.143707,0.409737,0.280772,0.0972108,0.0773789,0.083559,0.091883,-352,-1075,-48.9944,-0.1,-224.624,-0.1,2.836
0.166915,0.144021,0.410072,0.281145,0.0973764,0.0777281,0.0836085,0.0922919,-351,-1071,-49.143,-0.1,-224.65,-0.1,2.84
0.167305,0.144347,0.410406,0.281525,0.0975418,0.0789398,0.0836578,0.093198,-342,-1063,-49.2893,-0.1,-224.671,-0.1,2.844
0.167696,0.144654,0.410741,0.281883,0.097707,0.0782217,0.083707,0.0919594,-350,-1075,-49.4268,-0.1,-224.685,-0.1,2.848
0.168087,0.144971,0.411076,0.282247,0.0978721,0.0786066,0.0837562,0.0916807,-349,-1078,-49.5718,-0.1,-224.711,-0.1,2.852
0.168479,0.1453,0.411411,0.282624,0.098037,0.0798134,0.0838052,0.0925026,-340,-1070,-49.7141,-0.1,-224.739,-0.1,2.856
0.168871,0.14562,0.411746,0.282988,0.0982018,0.0798981,0.0838542,0.0920428,-341,-1074,-49.8473,-0.1,-224.759,-0.1,2.86
0.169264,0.145934,0.412082,0.283344,0.0983664,0.0793788,0.0839031,0.0909877,-348,-1085,-49.9815,-0.1,-224.785,-0.1,2.864
0.169658,0.146254,0.412418,0.283705,0.0985308,0.0796084,0.0839518,0.0907162,-348,-1088,-50.1215,-0.1,-224.821,-0.1,2.868
0.170053,0.146576,0.412754,0.284066,0.098695,0.0799054,0.0840005,0.0906216,-347,-1089,-50.2607,-0.1,-224.859,-0.1,2.872
0.170448,0.1469,0.41309,0.284427,0.0988591,0.0802474,0.0840491,0.0904721,-346,-1091,-50.3986,-0.1,-224.899,-0.1,2.876
0.170843,0.147227,0.413426,0.284792,0.099023,0.0807345,0.0840975,0.0907467,-343,-1088,-50.5347,-0.1,-224.94,-0.1,2.88
0.17124,0.147552,0.413762,0.285157,0.0991867,0.0809728,0.0841459,0.090901,-343,-1087,-50.6678,-0.1,-224.978,-0.1,2.884
0.171637,0.147879,0.414099,0.285525,0.0993502,0.0811893,0.0841942,0.091263,-343,-1084,-50.8001,-0.1,-225.015,-0.1,2.888
0.172035,0.148216,0.414436,0.285905,0.0995136,0.0822261,0.0842424,0.0924832,-336,-1072,-50.9313,-0.1,-225.047,-0.1,2.892
0.172433,0.148538,0.414773,0.286268,0.0996768,0.0816506,0.0842905,0.0919148,-343,-1078,-51.0552,-0.1,-225.069,-0.1,2.896
0.172832,0.148863,0.41511,0.286636,0.0998398,0.081526,0.0843385,0.0919964,-346,-1077,-51.1857,-0.1,-225.096,-0.1,2.9
0.173232,0.14919,0.415448,0.287005,0.100003,0.0815869,0.0843863,0.0920797,-347,-1077,-51.3187,-0.1,-225.123,-0.1,2.904
0.173632,0.149515,0.415785,0.287375,0.100165,0.0815123,0.0844341,0.0922215,-350,-1075,-51.4526,-0.1,-225.148,-0.1,2.908
0.174033,0.149854,0.416123,0.287762,0.100328,0.0825854,0.0844818,0.0936981,-342,-1061,-51.5879,-0.1,-225.171,-0.1,2.912
0.174435,0.150168,0.416461,0.288121,0.10049,0.0812279,0.0845294,0.0923791,-356,-1074,-51.716,-0.1,-225.182,-0.1,2.916
0.174837,0.150496,0.416799,0.288496,0.100652,0.0814745,0.0845769,0.092853,-356,-1070,-51.8573,-0.1,-225.205,-0.1,2.92
0.17524,0.150826,0.417138,0.288872,0.100814,0.0817829,0.0846243,0.0932553,-355,-1066,-51.9977,-0.1,-225.223,-0.1,2.924
0.175644,0.15117,0.417476,0.289264,0.100976,0.0831689,0.0846715,0.0947903,-345,-1051,-52.1359,-0.1,-225.236,-0.1,2.928
0.176048,0.15149,0.417815,0.289629,0.101137,0.0821639,0.0847187,0.0935968,-356,-1063,-52.264,-0.1,-225.236,-0.1,2.932
0.176453,0.151822,0.418154,0.290007,0.101299,0.0824152,0.0847658,0.0939239,-355,-1060,-52.4022,-0.1,-225.247,-0.1,2.936
0.176858,0.152154,0.418493,0.290388,0.10146,0.0826404,0.0848128,0.0943435,-355,-1056,-52.5395,-0.1,-225.255,-0.1,2.94
0.177264,0.152489,0.418833,0.290772,0.101621,0.0830208,0.0848596,0.0949112,-354,-1051,-52.6759,-0.1,-225.259,-0.1,2.944
0.177671,0.152825,0.419172,0.291158,0.101782,0.0833032,0.0849064,0.0954336,-353,-1046,-52.8103,-0.1,-225.257,-0.1,2.948
0.178079,0.15316,0.419512,0.291542,0.101943,0.0834626,0.0849531,0.0956091,-354,-1044,-52.9435,-0.1,-225.25,-0.1,2.952
0.178487,0.153497,0.419852,0.291924,0.102103,0.0836841,0.0849997,0.0956398,-354,-1044,-53.0765,-0.1,-225.242,-0.1,2.956
0.178895,0.153834,0.420192,0.292303,0.102263,0.0838894,0.0850461,0.0953147,-354,-1047,-53.2089,-0.1,-225.233,-0.1,2.96
0.179305,0.154175,0.420532,0.292682,0.102423,0.0843717,0.0850925,0.0951268,-351,-1049,-53.3406,-0.1,-225.228,-0.1,2.964
0.179715,0.154516,0.420873,0.293057,0.102583,0.0846644,0.0851387,0.094656,-351,-1054,-53.4693,-0.1,-225.226,-0.1,2.968
0.180125,0.154874,0.421213,0.293445,0.102743,0.0862703,0.0851849,0.0954074,-338,-1047,-53.5959,-0.1,-225.227,-0.1,2.972
0.180537,0.15521,0.421554,0.293805,0.102902,0.0855559,0.0852309,0.0936339,-346,-1064,-53.7104,-0.1,-225.223,-0.1,2.976
0.180949,0.155561,0.421895,0.294177,0.103062,0.0862313,0.0852769,0.0934592,-342,-1066,-53.832,-0.1,-225.235,-0.1,2.98
0.181361,0.15591,0.422236,0.294552,0.103221,0.0866239,0.0853227,0.0934867,-340,-1066,-53.949,-0.1,-225.249,-0.1,2.984
0.181774,0.156261,0.422578,0.294925,0.10338,0.0870009,0.0853684,0.0934763,-339,-1066,-54.0637,-0.1,-225.263,-0.1,2.988
0.182188,0.156622,0.422919,0.295312,0.103539,0.0880295,0.0854141,0.0945633,-332,-1055,-54.176,-0.1,-225.277,-0.1,2.992
0.182603,0.156966,0.423261,0.295681,0.103697,0.0873333,0.0854596,0.0937621,-340,-1063,-54.2811,-0.1,-225.281,-0.1,2.996
0.183018,0.157316,0.423603,0.296061,0.103856,0.087445,0.085505,0.0942069,-340,-1059,-54.3937,-0.1,-225.292,-0.1,3
0.183434,0.157668,0.423945,0.296446,0.104014,0.0876346,0.0855503,0.0948489,-341,-1053,-54.5065,-0.1,-225.299,-0.1,3.004
0.18385,0.158019,0.424287,0.296832,0.104172,0.0876459,0.0855955,0.0954496,-342,-1047,-54.6191,-0.1,-225.3,-0.1,3.008
0.184267,0.15837,0.42463,0.29722,0.104329,0.0876534,0.0856406,0.0959653,-344,-1043,-54.733,-0.1,-225.295,-0.1,3.012
0.184685,0.15872,0.424973,0.297606,0.104487,0.0876296,0.0856856,0.0961075,-346,-1041,-54.8481,-0.1,-225.285,-0.1,3.016
0.185103,0.159072,0.425315,0.297992,0.104644,0.0877865,0.0857305,0.0962312,-346,-1040,-54.9648,-0.1,-225.273,-0.1,3.02
0.185522,0.159427,0.425658,0.298378,0.104801,0.088035,0.0857752,0.0963136,-346,-1039,-55.0814,-0.1,-225.261,-0.1,3.024
0.185941,0.15978,0.426002,0.298762,0.104958,0.0881143,0.0858199,0.0962533,-347,-1040,-55.1971,-0.1,-225.248,-0.1,3.028
0.186361,0.160136,0.426345,0.299149,0.105115,0.0884551,0.0858644,0.0963859,-346,-1039,-55.3133,-0.1,-225.236,-0.1,3.032
0.186782,0.160493,0.426688,0.299538,0.105272,0.0887111,0.0859089,0.0966471,-345,-1036,-55.4277,-0.1,-225.222,-0.1,3.036
0.187204,0.160849,0.427032,0.299926,0.105428,0.0887954,0.0859532,0.0967636,-346,-1035,-55.5413,-0.1,-225.206,-0.1,3.04
0.187626,0.161205,0.427376,0.300315,0.105584,0.0888804,0.0859975,0.0969852,-348,-1033,-55.6554,-0.1,-225.189,-0.1,3.044
0.188048,0.161562,0.42772,0.300706,0.10574,0.0889658,0.0860416,0.0972481,-349,-1031,-55.7702,-0.1,-225.17,-0.1,3.048
0.188471,0.161916,0.428064,0.301098,0.105896,0.08885,0.0860856,0.097481,-351,-1028,-55.8856,-0.1,-225.148,-0.1,3.052
0.188895,0.162271,0.428409,0.301492,0.106052,0.0887728,0.0861295,0.097809,-354,-1025,-56.0034,-0.1,-225.125,-0.1,3.056
0.18932,0.162626,0.428753,0.301889,0.106207,0.088779,0.0861733,0.0983156,-356,-1020,-56.1233,-0.1,-225.097,-0.1,3.06
0.189745,0.162982,0.429098,0.302285,0.106362,0.0888694,0.0862169,0.0985093,-357,-1019,-56.2444,-0.1,-225.066,-0.1,3.064
0.190171,0.163341,0.429443,0.302679,0.106517,0.0891601,0.0862605,0.0984657,-356,-1019,-56.3658,-0.1,-225.032,-0.1,3.068
0.190597,0.163703,0.429788,0.303071,0.106672,0.0896417,0.0863039,0.0983791,-353,-1020,-56.4858,-0.1,-224.999,-0.1,3.072
0.191024,0.16407,0.430134,0.30346,0.106826,0.0903371,0.0863473,0.0979759,-349,-1024,-56.6025,-0.1,-224.968,-0.1,3.076
0.191452,0.164441,0.430479,0.30385,0.10698,0.0910886,0.0863905,0.0977934,-344,-1026,-56.7142,-0.1,-224.94,-0.1,3.08
0.19188,0.164815,0.430825,0.304234,0.107135,0.0919063,0.0864336,0.0972399,-339,-1031,-56.8202,-0.1,-224.915,-0.1,3.084
0.192309,0.165195,0.431171,0.304622,0.107288,0.0929409,0.0864766,0.09713,-331,-1032,-56.9198,-0.1,-224.895,-0.1,3.088
0.192738,0.165569,0.431517,0.305,0.107442,0.0931412,0.0865195,0.0962218,-331,-1041,-57.0118,-0.1,-224.877,-0.1,3.092
0.193168,0.165951,0.431863,0.305383,0.107596,0.0939369,0.0865623,0.0961058,-326,-1042,-57.103,-0.1,-224.868,-0.1,3.096
0.193599,0.166333,0.432209,0.305764,0.107749,0.0944673,0.086605,0.0957981,-323,-1045,-57.1883,-0.1,-224.86,-0.1,3.1
0.19403,0.166714,0.432556,0.306143,0.107902,0.0947058,0.0866475,0.0955067,-322,-1048,-57.2703,-0.1,-224.855,-0.1,3.104
0.194462,0.167097,0.432902,0.306527,0.108055,0.0950664,0.08669,0.0956578,-321,-1047,-57.3514,-0.1,-224.853,-0.1,3.108
0.194895,0.167476,0.433249,0.306905,0.108207,0.0949324,0.0867323,0.0952404,-323,-1051,-57.4308,-0.1,-224.85,-0.1,3.112
0.195328,0.16786,0.433596,0.307287,0.10836,0.0953038,0.0867745,0.0953651,-322,-1050,-57.5125,-0.1,-224.851,-0.1,3.116
0.195762,0.16824,0.433943,0.307664,0.108512,0.0952347,0.0868166,0.0949589,-324,-1054,-57.5925,-0.1,-224.851,-0.1,3.12
0.196196,0.168626,0.434291,0.308041,0.108664,0.0955917,0.0868586,0.0947168,-323,-1056,-57.6742,-0.1,-224.856,-0.1,3.124
0.196631,0.169011,0.434638,0.308415,0.108815,0.0958297,0.0869004,0.0943539,-322,-1060,-57.754,-0.1,-224.863,-0.1,3.128
0.197067,0.169393,0.434986,0.308787,0.108967,0.095758,0.0869422,0.0938816,-324,-1065,-57.8332,-0.1,-224.874,-0.1,3.132
0.197503,0.169778,0.435334,0.309161,0.109118,0.0959118,0.0869838,0.0937107,-325,-1067,-57.9143,-0.1,-224.889,-0.1,3.136
0.19794,0.170166,0.435682,0.309543,0.109269,0.0962734,0.0870253,0.0943454,-323,-1061,-57.9952,-0.1,-224.906,-0.1,3.14
0.198377,0.170542,0.43603,0.309913,0.10942,0.0955068,0.0870667,0.0937608,-332,-1066,-58.0748,-0.1,-224.917,-0.1,3.144
0.198815,0.170927,0.436378,0.310296,0.109571,0.0957155,0.087108,0.0943787,-331,-1061,-58.1622,-0.1,-224.934,-0.1,3.148
0.199253,0.171308,0.436727,0.310681,0.109721,0.0955667,0.0871492,0.0949923,-334,-1055,-58.2493,-0.1,-224.944,-0.1,3.152
0.199693,0.17169,0.437075,0.311069,0.109871,0.0955539,0.0871903,0.0956892,-336,-1048,-58.339,-0.1,-224.948,-0.1,3.156
0.200132,0.172066,0.437424,0.311457,0.110021,0.0950559,0.0872312,0.0960962,-342,-1044,-58.4304,-0.1,-224.946,-0.1,3.16
0.200573,0.172443,0.437773,0.311846,0.110171,0.0948103,0.087272,0.0965403,-346,-1040,-58.5276,-0.1,-224.94,-0.1,3.164
0.201014,0.172818,0.438122,0.312236,0.110321,0.094445,0.0873127,0.0967788,-351,-1038,-58.6284,-0.1,-224.929,-0.1,3.168
0.201455,0.173194,0.438472,0.312626,0.11047,0.0943167,0.0873533,0.0970529,-354,-1035,-58.7337,-0.1,-224.917,-0.1,3.172
0.201898,0.173571,0.438821,0.313019,0.110619,0.0942599,0.0873938,0.0974372,-356,-1032,-58.8415,-0.1,-224.901,-0.1,3.176
0.20234,0.173953,0.439171,0.313414,0.110768,0.0947115,0.0874341,0.097895,-354,-1027,-58.9508,-0.1,-224.882,-0.1,3.18
0.202784,0.174334,0.439521,0.313806,0.110917,0.0948974,0.0874743,0.0979122,-354,-1027,-59.0573,-0.1,-224.859,-0.1,3.184
0.203228,0.174719,0.439871,0.314191,0.111065,0.095338,0.0875144,0.0974055,-352,-1032,-59.1633,-0.1,-224.836,-0.1,3.188
0.203672,0.175105,0.440221,0.314572,0.111213,0.0957181,0.0875544,0.0966358,-350,-1039,-59.2665,-0.1,-224.818,-0.1,3.192
0.204117,0.175494,0.440571,0.31495,0.111361,0.0962019,0.0875943,0.0959211,-347,-1046,-59.3675,-0.1,-224.808,-0.1,3.196
0.204563,0.175883,0.440922,0.315327,0.111509,0.0965244,0.087634,0.0953583,-346,-1052,-59.4654,-0.1,-224.805,-0.1,3.2
0.205009,0.176287,0.441272,0.315715,0.111656,0.098035,0.0876737,0.095962,-334,-1046,-59.561,-0.1,-224.808,-0.1,3.204
0.205456,0.176683,0.441623,0.316094,0.111803,0.0983798,0.0877132,0.0955007,-333,-1051,-59.6447,-0.1,-224.805,-0.1,3.208
0.205904,0.17707,0.441974,0.316459,0.11195,0.0978036,0.0877526,0.0941567,-340,-1064,-59.7271,-0.1,-224.807,-0.1,3.212
0.206352,0.177469,0.442325,0.316834,0.112097,0.0985135,0.0877918,0.0939805,-335,-1066,-59.8153,-0.1,-224.823,-0.1,3.216
0.206801,0.17787,0.442676,0.31721,0.112244,0.0990156,0.087831,0.0939494,-332,-1066,-59.8985,-0.1,-224.84,-0.1,3.22
0.20725,0.17828,0.443028,0.317596,0.11239,0.100243,0.08787,0.09485,-323,-1058,-59.9779,-0.1,-224.857,-0.1,3.224
0.2077,0.17867,0.443379,0.317969,0.112536,0.0993047,0.0879089,0.0942699,-333,-1063,-60.0487,-0.1,-224.866,-0.1,3.228
0.20815,0.179074,0.443731,0.318352,0.112682,0.0998597,0.0879477,0.0948333,-330,-1058,-60.1285,-0.1,-224.88,-0.1,3.232
0.208601,0.179474,0.444083,0.318736,0.112828,0.0998842,0.0879864,0.0951802,-331,-1055,-60.2049,-0.1,-224.888,-0.1,3.236
0.209053,0.179884,0.444435,0.319127,0.112973,0.100822,0.0880249,0.0960448,-324,-1047,-60.2818,-0.1,-224.893,-0.1,3.24
0.209505,0.180272,0.444787,0.319496,0.113118,0.0995468,0.0880633,0.0948073,-337,-1059,-60.3526,-0.1,-224.891,-0.1,3.244
0.209958,0.18067,0.445139,0.319874,0.113263,0.0995317,0.0881016,0.0946734,-339,-1060,-60.4357,-0.1,-224.901,-0.1,3.248
0.210411,0.181066,0.445492,0.320251,0.113408,0.0993201,0.0881398,0.0944977,-342,-1062,-60.5203,-0.1,-224.912,-0.1,3.252
0.210865,0.181459,0.445844,0.320625,0.113552,0.0989487,0.0881778,0.0942366,-347,-1065,-60.6083,-0.1,-224.925,-0.1,3.256
0.21132,0.181868,0.446197,0.321015,0.113696,0.100054,0.0882158,0.0952718,-339,-1055,-60.7,-0.1,-224.94,-0.1,3.26
0.211775,0.182255,0.44655,0.32138,0.11384,0.0989487,0.0882536,0.0939465,-350,-1068,-60.7842,-0.1,-224.946,-0.1,3.264
0.21223,0.18265,0.446903,0.321748,0.113984,0.0988738,0.0882912,0.0932646,-353,-1075,-60.8791,-0.1,-224.966,-0.1,3.268
0.212686,0.183047,0.447257,0.322114,0.114127,0.0990254,0.0883288,0.0927523,-353,-1080,-60.9758,-0.1,-224.992,-0.1,3.272
0.213143,0.183443,0.44761,0.322476,0.11427,0.0990401,0.0883662,0.0919502,-354,-1088,-61.0725,-0.1,-225.023,-0.1,3.276
0.213601,0.183842,0.447963,0.322842,0.114413,0.0992803,0.0884035,0.0918185,-354,-1089,-61.1701,-0.1,-225.062,-0.1,3.28
0.214059,0.18425,0.448317,0.323216,0.114556,0.100189,0.0884407,0.0923353,-347,-1084,-61.2665,-0.1,-225.102,-0.1,3.284
0.214517,0.184651,0.448671,0.323584,0.114699,0.10019,0.0884778,0.0922192,-349,-1086,-61.3563,-0.1,-225.138,-0.1,3.288
0.214976,0.185054,0.449025,0.323957,0.114841,0.100392,0.0885147,0.0925737,-349,-1083,-61.4472,-0.1,-225.174,-0.1,3.292
0.215436,0.185444,0.449379,0.324321,0.114983,0.0993756,0.0885515,0.092119,-359,-1087,-61.5383,-0.1,-225.208,-0.1,3.296
