peachynonah/Fire_monitor_KIRO_CDSL/csv_datas/trial12/cdsl_data_t12_11_u.csv
joint1_pos_desired, joint1_pos, joint2_pos_desired, joint2_pos, joint1_vel_desired, joint1_vel_filtered, joint2_vel_desired, joint2_vel_filtered, target_torque_joint1, target_torque_joint2, estimated_disturbance_joint1, saturated_DOB_joint1, estimated_disturbance_joint2, saturated_DOB_joint2, current_time
0.036394,0.0372892,0.218861,0.0187007,3.76499e-07,0,0.0500001,0,9,-2500,0,0,23.0522,1,0.004
0.036394,0.0372892,0.219061,0.0187007,1.50479e-06,0,0.0500006,0,9,-2500,0.0102555,0.0102555,20.181,1,0.008
0.036394,0.0372892,0.219261,0.0187135,3.38307e-06,0,0.0500013,0.00106526,9,-2500,0.020499,0.020499,17.3209,1,0.012
0.036394,0.0372892,0.219461,0.0188901,6.00952e-06,0,0.0500023,0.0154223,9,-2500,0.0307231,0.0307231,14.4914,1,0.016
0.0363941,0.0372892,0.219661,0.0192449,9.38236e-06,0,0.0500036,0.0398498,9,-2388,0.04092,0.04092,11.824,1,0.02
0.0363941,0.0372889,0.219861,0.0197459,1.34998e-05,-2.87909e-05,0.0500052,0.0683134,9,-2112,0.0510615,0.0510615,9.41603,1,0.024
0.0363942,0.0372885,0.220061,0.0203567,1.836e-05,-4.79849e-05,0.050007,0.0964446,9,-1837,0.0608747,0.0608747,7.30504,1,0.028
0.0363943,0.0372878,0.220261,0.0210387,2.39611e-05,-8.95718e-05,0.0500092,0.12113,9,-1595,0.0704253,0.0704253,5.48547,1,0.032
0.0363944,0.0372871,0.220461,0.0217649,3.03014e-05,-0.000117296,0.0500116,0.141272,8,-1396,0.0795029,0.0795029,3.92176,1,0.036
0.0363945,0.0372864,0.220661,0.0224973,3.73792e-05,-0.000135779,0.0500143,0.155218,8,-1257,0.0882357,0.0882357,2.56692,1,0.04
0.0363947,0.0372864,0.220861,0.0232191,4.51925e-05,-9.05196e-05,0.0500173,0.163623,8,-1170,0.0967471,0.0967471,1.35893,1,0.044
0.0363949,0.0372861,0.221061,0.0239094,5.37396e-05,-8.91373e-05,0.0500205,0.166606,8,-1140,0.1056,0.1056,0.24197,0.24197,0.048
0.0363951,0.0372861,0.221261,0.0245817,6.30187e-05,-5.94249e-05,0.0500241,0.167098,9,-1135,0.114394,0.114394,-0.839947,-0.839947,0.052
0.0363954,0.0372861,0.221462,0.0252126,7.3028e-05,-3.96166e-05,0.0500279,0.163971,9,-1161,0.123383,0.123383,-1.9142,-1,0.056
0.0363957,0.0372861,0.221662,0.0258448,8.37657e-05,-2.64111e-05,0.050032,0.162001,9,-1175,0.132461,0.132461,-3.00984,-1,0.06
0.036396,0.0372861,0.221862,0.0264753,9.52301e-05,-1.76074e-05,0.0500363,0.160544,9,-1184,0.141557,0.141557,-4.11501,-1,0.064
0.0363964,0.0372861,0.222062,0.0271027,0.000107419,-1.17382e-05,0.050041,0.159314,9,-1191,0.150618,0.150618,-5.22477,-1,0.068
0.0363969,0.0372861,0.222262,0.027744,0.000120332,-7.8255e-06,0.0500459,0.159645,9,-1183,0.15961,0.15961,-6.33597,-1,0.072
0.0363974,0.0372861,0.222462,0.0283697,0.000133965,-5.217e-06,0.0500511,0.15857,9,-1189,0.168504,0.168504,-7.43498,-1,0.076
0.036398,0.0372861,0.222663,0.0289984,0.000148318,-3.478e-06,0.0500566,0.158113,9,-1189,0.177281,0.177281,-8.53462,-1,0.08
0.0363986,0.0372861,0.222863,0.0296314,0.000163389,-2.31867e-06,0.0500623,0.158154,8,-1184,0.185923,0.185923,-9.62877,-1,0.084
0.0363993,0.0372861,0.223063,0.0302916,0.000179176,-1.54578e-06,0.0500683,0.160455,8,-1156,0.194418,0.194418,-10.7112,-1,0.088
0.0364,0.0372861,0.223263,0.0308938,0.000195676,-1.03052e-06,0.0500746,0.157153,8,-1184,0.202754,0.202754,-11.7648,-1,0.092
0.0364008,0.0372861,0.223464,0.0315053,0.00021289,-6.87012e-07,0.0500812,0.155728,8,-1193,0.210919,0.210919,-12.8407,-1,0.096
0.0364017,0.0372861,0.223664,0.0321075,0.000230814,-4.58008e-07,0.050088,0.154002,8,-1205,0.218906,0.218906,-13.9217,-1,0.1
0.0364027,0.0372861,0.223864,0.0327028,0.000249446,-3.05339e-07,0.0500951,0.152274,8,-1218,0.226704,0.226704,-15.0105,-1,0.104
0.0364037,0.0372861,0.224065,0.0332863,0.000268786,-2.03559e-07,0.0501025,0.150144,8,-1234,0.234305,0.234305,-16.1076,-1,0.108
0.0364048,0.0372861,0.224265,0.0338619,0.000288831,-1.35706e-07,0.0501101,0.148062,7,-1250,0.2417,0.2417,-17.2167,-1,0.112
0.036406,0.0372861,0.224466,0.0344289,0.00030958,-9.04708e-08,0.050118,0.145954,7,-1266,0.248882,0.248882,-18.3375,-1,0.116
0.0364073,0.0372861,0.224666,0.0349865,0.00033103,-6.03138e-08,0.0501262,0.143771,7,-1283,0.255842,0.255842,-19.4702,-1,0.12
0.0364087,0.0372861,0.224867,0.0355459,0.00035318,-4.02092e-08,0.0501346,0.14246,7,-1292,0.262571,0.262571,-20.615,-1,0.124
0.0364101,0.0372861,0.225067,0.0360955,0.000376029,-2.68062e-08,0.0501433,0.14078,7,-1304,0.269063,0.269063,-21.7641,-1,0.128
0.0364117,0.0372861,0.225268,0.0366466,0.000399574,-1.78708e-08,0.0501522,0.139775,6,-1310,0.275308,0.275308,-22.9205,-1,0.132
0.0364133,0.0372861,0.225468,0.0372063,0.000423814,-1.19138e-08,0.0501615,0.139824,6,-1306,0.281299,0.281299,-24.0771,-1,0.136
0.0364151,0.0372861,0.225669,0.0377712,0.000448746,-7.94256e-09,0.050171,0.140289,6,-1297,0.287028,0.287028,-25.2239,-1,0.14
0.0364169,0.0372861,0.22587,0.0383388,0.00047437,-5.29504e-09,0.0501807,0.14083,6,-1288,0.292486,0.292486,-26.3568,-1,0.144
0.0364189,0.0372861,0.22607,0.0389044,0.000500683,-3.53003e-09,0.0501907,0.141017,5,-1283,0.297666,0.297666,-27.4755,-1,0.148
0.0364209,0.0372861,0.226271,0.0394703,0.000527684,-2.35335e-09,0.050201,0.141171,5,-1277,0.302559,0.302559,-28.5834,-1,0.152
0.0364231,0.0372861,0.226472,0.0400348,0.000555371,-1.5689e-09,0.0502115,0.141158,5,-1273,0.307158,0.307158,-29.681,-1,0.156
0.0364254,0.0372861,0.226673,0.0405969,0.000583742,-1.04593e-09,0.0502223,0.140948,5,-1272,0.311453,0.311453,-30.7699,-1,0.16
0.0364278,0.0372861,0.226874,0.0411518,0.000612796,-6.9729e-10,0.0502333,0.140204,4,-1275,0.315438,0.315438,-31.8525,-1,0.164
0.0364303,0.0372861,0.227075,0.041699,0.00064253,-4.6486e-10,0.0502446,0.139074,4,-1282,0.319104,0.319104,-32.934,-1,0.168
0.0364329,0.0372861,0.227276,0.0422456,0.000672943,-3.09906e-10,0.0502562,0.138263,4,-1286,0.322442,0.322442,-34.018,-1,0.172
0.0364357,0.0372861,0.227477,0.0427829,0.000704033,-2.06604e-10,0.050268,0.136945,3,-1295,0.325446,0.325446,-35.1018,-1,0.176
0.0364386,0.0372861,0.227678,0.0433235,0.000735798,-1.37736e-10,0.05028,0.136355,3,-1297,0.328106,0.328106,-36.1897,-1,0.18
0.0364416,0.0372861,0.227879,0.0438587,0.000768238,-9.18241e-11,0.0502924,0.1355,3,-1302,0.330414,0.330414,-37.2751,-1,0.184
0.0364447,0.0372861,0.22808,0.0444042,0.000801349,-6.12161e-11,0.0503049,0.135794,2,-1296,0.332362,0.332362,-38.3597,-1,0.188
0.036448,0.0372861,0.228282,0.0449512,0.00083513,-4.08107e-11,0.0503178,0.136106,2,-1289,0.333943,0.333943,-39.4328,-1,0.192
0.0364514,0.0372861,0.228483,0.0455026,0.00086958,-2.72072e-11,0.0503308,0.136687,2,-1280,0.335147,0.335147,-40.4941,-1,0.196
0.0364549,0.0372861,0.228684,0.046056,0.000904697,-1.81381e-11,0.0503442,0.137248,1,-1270,0.335967,0.335967,-41.541,-1,0.2
0.0364586,0.0372864,0.228886,0.0466182,0.000940478,2.87909e-05,0.0503577,0.138342,1,-1256,0.336414,0.336414,-42.5735,-1,0.204
0.0364625,0.0372861,0.229087,0.0471872,0.000976923,-9.59698e-06,0.0503716,0.139646,0,-1240,0.336705,0.336705,-43.5865,-1,0.208
0.0364664,0.0372864,0.229289,0.0477572,0.00101403,2.23929e-05,0.0503857,0.140603,0,-1227,0.336249,0.336249,-44.5782,-1,0.212
0.0364706,0.0372864,0.22949,0.0483321,0.0010518,1.49286e-05,0.0504,0.141643,0,-1213,0.335672,0.335672,-45.5519,-1,0.216
0.0364749,0.0372864,0.229692,0.0489067,0.00109022,9.95242e-06,0.0504145,0.142308,0,-1202,0.334595,0.334595,-46.5072,-1,0.22
0.0364793,0.0372864,0.229893,0.0494871,0.0011293,6.63494e-06,0.0504294,0.143241,0,-1189,0.333037,0.333037,-47.4473,-1,0.224
0.0364839,0.0372864,0.230095,0.0500724,0.00116904,4.4233e-06,0.0504444,0.144266,-1,-1176,0.331003,0.331003,-48.3697,-1,0.228
0.0364886,0.0372864,0.230297,0.0506604,0.00120942,2.94886e-06,0.0504597,0.145179,-1,-1163,0.328498,0.328498,-49.2738,-1,0.232
0.0364936,0.0372864,0.230499,0.0512336,0.00125046,1.96591e-06,0.0504753,0.14455,-1,-1165,0.325519,0.325519,-50.1616,-1,0.236
0.0364986,0.0372864,0.230701,0.0518171,0.00129215,1.31061e-06,0.0504911,0.144995,-2,-1157,0.322064,0.322064,-51.0469,-1,0.24
0.0365039,0.0372864,0.230903,0.0523937,0.00133449,8.73737e-07,0.0505071,0.144715,-2,-1155,0.318126,0.318126,-51.9202,-1,0.244
0.0365093,0.0372864,0.231105,0.0529676,0.00137747,5.82492e-07,0.0505234,0.144299,-3,-1155,0.313701,0.313701,-52.7885,-1,0.248
0.0365149,0.0372871,0.231307,0.0535366,0.00142109,5.79702e-05,0.05054,0.143618,-3,-1158,0.308821,0.308821,-53.6532,-1,0.252
0.0365207,0.0372861,0.231509,0.0540994,0.00146536,-4.7726e-05,0.0505567,0.142646,-4,-1164,0.303907,0.303907,-54.517,-1,0.256
0.0365266,0.0372868,0.231711,0.0546581,0.00151027,2.57645e-05,0.0505737,0.141652,-4,-1169,0.297542,0.297542,-55.3827,-1,0.26
0.0365328,0.0372868,0.231914,0.0552105,0.00155582,1.71763e-05,0.050591,0.140471,-5,-1177,0.291344,0.291344,-56.2508,-1,0.264
0.0365391,0.0372868,0.232116,0.0557581,0.00160201,1.14509e-05,0.0506085,0.139281,-5,-1185,0.284537,0.284537,-57.1229,-1,0.268
0.0365456,0.0372868,0.232319,0.0563005,0.00164883,7.63393e-06,0.0506262,0.138056,-6,-1193,0.27714,0.27714,-57.9994,-1,0.272
0.0365523,0.0372868,0.232521,0.0568416,0.00169629,5.08929e-06,0.0506441,0.137124,-7,-1198,0.269163,0.269163,-58.8802,-1,0.276
0.0365592,0.0372868,0.232724,0.0573778,0.00174437,3.39286e-06,0.0506623,0.136099,-7,-1205,0.260611,0.260611,-59.7628,-1,0.28
0.0365662,0.0372868,0.232927,0.0579157,0.00179309,2.26191e-06,0.0506808,0.13556,-8,-1206,0.251482,0.251482,-60.6478,-1,0.284
0.0365735,0.0372868,0.233129,0.0584723,0.00184244,1.50794e-06,0.0506994,0.136756,-8,-1191,0.241774,0.241774,-61.5293,-1,0.288
0.036581,0.0372868,0.233332,0.0590023,0.00189241,1.00529e-06,0.0507183,0.135336,-9,-1201,0.231483,0.231483,-62.3931,-1,0.292
0.0365887,0.0372868,0.233535,0.0595457,0.00194301,6.70194e-07,0.0507375,0.135512,-10,-1196,0.220602,0.220602,-63.2625,-1,0.296
0.0365965,0.0372868,0.233738,0.060085,0.00199424,4.46796e-07,0.0507569,0.135284,-10,-1195,0.209125,0.209125,-64.123,-1,0.3
0.0366046,0.0372875,0.233941,0.0606282,0.00204608,5.78797e-05,0.0507765,0.135449,-10,-1190,0.197084,0.197084,-64.978,-1,0.304
0.0366129,0.0372868,0.234144,0.0611657,0.00209855,-1.89954e-05,0.0507963,0.135098,-12,-1190,0.184921,0.184921,-65.8243,-1,0.308
0.0366214,0.0372868,0.234347,0.0616995,0.00215163,-1.26636e-05,0.0508163,0.134547,-12,-1191,0.171421,0.171421,-66.6668,-1,0.312
0.0366301,0.0372868,0.234551,0.0622271,0.00220534,-8.44239e-06,0.0508366,0.133662,-13,-1197,0.157356,0.157356,-67.5078,-1,0.316
0.036639,0.0372868,0.234754,0.0627526,0.00225965,-5.62826e-06,0.0508572,0.132899,-14,-1201,0.142696,0.142696,-68.3503,-1,0.32
0.0366482,0.0372868,0.234958,0.0632846,0.00231458,-3.75217e-06,0.0508779,0.132937,-14,-1197,0.12742,0.12742,-69.1927,-1,0.324
0.0366576,0.0372868,0.235161,0.0637994,0.00237012,-2.50145e-06,0.0508989,0.131523,-15,-1207,0.111509,0.111509,-70.0284,-1,0.328
0.0366671,0.0372868,0.235365,0.0643149,0.00242628,-1.66763e-06,0.0509201,0.130638,-16,-1212,0.0949487,0.0949487,-70.8708,-1,0.332
0.036677,0.0372868,0.235569,0.0648342,0.00248304,-1.11175e-06,0.0509415,0.130365,-16,-1212,0.077727,0.077727,-71.7145,-1,0.336
0.036687,0.0372871,0.235772,0.0653521,0.00254041,2.80498e-05,0.0509632,0.130068,-17,-1211,0.0598524,0.0598524,-72.5539,-1,0.34
0.0366973,0.0372875,0.235976,0.0658724,0.00259838,4.74908e-05,0.0509851,0.130071,-17,-1208,0.0415793,0.0415793,-73.3889,-1,0.344
0.0367078,0.0372889,0.23618,0.066391,0.00265695,0.000146824,0.0510072,0.129929,-17,-1206,0.0228649,0.0228649,-74.2169,-1,0.348
0.0367185,0.0372899,0.236384,0.066912,0.00271613,0.000184256,0.0510295,0.130036,-18,-1202,0.00441068,0.00441068,-75.0392,-1,0.352
0.0367295,0.0372906,0.236588,0.0674319,0.00277591,0.000180419,0.0510521,0.130021,-18,-1199,-0.0143997,-0.0143997,-75.8535,-1,0.356
0.0367408,0.0372916,0.236793,0.0679495,0.00283629,0.000206652,0.0510749,0.12981,-19,-1198,-0.0339408,-0.0339408,-76.6611,-1,0.36
0.0367522,0.0372909,0.236997,0.0684656,0.00289726,8.01862e-05,0.0510979,0.129553,-21,-1197,-0.0540454,-0.0540454,-77.4639,-1,0.364
0.0367639,0.0372909,0.237201,0.0689804,0.00295883,5.34575e-05,0.0511211,0.129267,-22,-1196,-0.0760894,-0.0760894,-78.2624,-1,0.368
0.0367759,0.0372909,0.237406,0.0694959,0.00302099,3.56383e-05,0.0511445,0.129134,-23,-1195,-0.0991412,-0.0991412,-79.0569,-1,0.372
0.0367881,0.0372916,0.237611,0.0700072,0.00308374,8.13407e-05,0.0511682,0.1287,-23,-1196,-0.123082,-0.123082,-79.846,-1,0.376
0.0368006,0.0372916,0.237815,0.0705213,0.00314708,5.42271e-05,0.051192,0.128641,-25,-1193,-0.147375,-0.147375,-80.6325,-1,0.38
0.0368133,0.0372913,0.23802,0.0710326,0.00321101,7.36051e-06,0.0512161,0.128371,-26,-1192,-0.172725,-0.172725,-81.413,-1,0.384
0.0368263,0.0372916,0.238225,0.071555,0.00327553,3.36979e-05,0.0512405,0.129113,-26,-1182,-0.199277,-0.199277,-82.1887,-1,0.388
0.0368395,0.037292,0.23843,0.0720632,0.00334064,5.12562e-05,0.051265,0.128427,-27,-1186,-0.226359,-0.226359,-82.9513,-1,0.392
0.036853,0.0372927,0.238635,0.0725773,0.00340632,9.17527e-05,0.0512897,0.128459,-28,-1182,-0.254045,-0.254045,-83.7136,-1,0.396
0.0368667,0.037294,0.23884,0.0730904,0.00347259,0.000176332,0.0513147,0.128394,-28,-1180,-0.282096,-0.282096,-84.469,-1,0.4
0.0368808,0.0372954,0.239046,0.0736055,0.00353944,0.000232718,0.0513399,0.128523,-28,-1175,-0.310123,-0.310123,-85.2184,-1,0.404
0.0368951,0.0372968,0.239251,0.0741255,0.00360686,0.000270309,0.0513653,0.129012,-29,-1167,-0.33841,-0.33841,-85.9596,-1,0.408
0.0369096,0.0372978,0.239457,0.0746451,0.00367487,0.000266579,0.0513909,0.12931,-30,-1161,-0.36717,-0.36717,-86.6895,-1,0.412
0.0369245,0.0372992,0.239662,0.075164,0.00374344,0.000292883,0.0514167,0.12945,-30,-1157,-0.396776,-0.396776,-87.4101,-1,0.416
0.0369396,0.0373009,0.239868,0.0756954,0.00381259,0.00033921,0.0514427,0.130581,-31,-1142,-0.426942,-0.426942,-88.122,-1,0.42
0.036955,0.0373037,0.240074,0.0761946,0.00388232,0.000456467,0.0514689,0.128657,-31,-1158,-0.457436,-0.457436,-88.8183,-1,0.424
0.0369706,0.0373068,0.24028,0.0767094,0.00395261,0.00056343,0.0514954,0.12867,-31,-1155,-0.487605,-0.487605,-89.5261,-1,0.428
0.0369866,0.0373106,0.240486,0.0772228,0.00402347,0.00069232,0.051522,0.128563,-30,-1153,-0.517535,-0.517535,-90.2276,-1,0.432
0.0370028,0.0373148,0.240692,0.07775,0.0040949,0.000807038,0.0515489,0.129644,-30,-1139,-0.547032,-0.547032,-90.923,-1,0.436
0.0370193,0.0373182,0.240898,0.0782513,0.00416689,0.000825934,0.051576,0.128205,-31,-1150,-0.576301,-0.576301,-91.6029,-1,0.44
0.0370361,0.0373224,0.241105,0.0787519,0.00423945,0.000896114,0.0516032,0.127188,-31,-1157,-0.60621,-0.60621,-92.2907,-1,0.444
0.0370533,0.0373262,0.241311,0.0792536,0.00431256,0.00091411,0.0516307,0.126596,-32,-1159,-0.636321,-0.636321,-92.9823,-1,0.448
0.0370707,0.0373296,0.241518,0.0797642,0.00438624,0.000897316,0.0516584,0.126951,-33,-1153,-0.667156,-0.667156,-93.6729,-1,0.452
0.0370883,0.0373334,0.241724,0.0802524,0.00446048,0.000914911,0.0516863,0.125315,-34,-1166,-0.699026,-0.699026,-94.3551,-1,0.456
0.0371063,0.0373369,0.241931,0.0807499,0.00453527,0.00089785,0.0517144,0.125002,-35,-1166,-0.731641,-0.731641,-95.0468,-1,0.46
0.0371246,0.0373403,0.242138,0.0812398,0.00461062,0.000886476,0.0517427,0.12416,-36,-1171,-0.76533,-0.76533,-95.7359,-1,0.464
0.0371432,0.0373441,0.242345,0.0817342,0.00468652,0.000907684,0.0517712,0.123973,-37,-1170,-0.800028,-0.800028,-96.4269,-1,0.468
0.0371621,0.0373486,0.242552,0.0822293,0.00476298,0.000979405,0.0518,0.123906,-37,-1168,-0.835402,-0.835402,-97.1136,-1,0.472
0.0371813,0.0373538,0.242759,0.0827251,0.00483998,0.0010848,0.0518289,0.123919,-37,-1165,-0.870961,-0.870961,-97.7949,-1,0.476
0.0372008,0.0373604,0.242967,0.0832264,0.00491753,0.00127023,0.051858,0.124388,-37,-1157,-0.906339,-0.906339,-98.4698,-1,0.48
0.0372207,0.037368,0.243174,0.0837291,0.00499563,0.00148022,0.0518873,0.124816,-36,-1150,-0.940769,-0.940769,-99.134,-1,0.484
0.0372408,0.0373763,0.243382,0.0842356,0.00507428,0.00167779,0.0519168,0.125418,-35,-1141,-0.974031,-0.974031,-99.7879,-1,0.488
0.0372613,0.0373863,0.24359,0.0847469,0.00515347,0.00195347,0.0519465,0.126223,-33,-1131,-1.00619,-1,-100.43,-1,0.492
0.037282,0.0373984,0.243797,0.085261,0.0052332,0.00230999,0.0519765,0.126989,-31,-1120,-1.03642,-1,-101.057,-1,0.496
0.0373031,0.0374112,0.244005,0.0857837,0.00531347,0.00260526,0.0520066,0.12822,-29,-1105,-1.0639,-1,-101.671,-1,0.5
0.0373245,0.037425,0.244213,0.086303,0.00539428,0.00288848,0.0520369,0.128753,-27,-1097,-1.08922,-1,-102.267,-1,0.504
0.0373463,0.0374391,0.244422,0.0868288,0.00547563,0.00310608,0.0520674,0.129655,-26,-1085,-1.11254,-1,-102.852,-1,0.508
0.0373683,0.037453,0.24463,0.0873529,0.00555751,0.00322236,0.0520981,0.130113,-25,-1078,-1.13455,-1,-103.422,-1,0.512
0.0373907,0.0374647,0.244838,0.0878746,0.00563993,0.00312713,0.052129,0.130216,-27,-1073,-1.15637,-1,-103.982,-1,0.516
0.0374135,0.0374758,0.245047,0.0883932,0.00572288,0.00300606,0.0521601,0.130026,-29,-1072,-1.18,-1,-104.536,-1,0.52
0.0374365,0.0374854,0.245256,0.0889146,0.00580636,0.00281019,0.0521913,0.130129,-32,-1068,-1.20573,-1,-105.085,-1,0.524
0.0374599,0.0374951,0.245465,0.0894286,0.00589036,0.0026796,0.0522228,0.129594,-34,-1070,-1.23424,-1,-105.628,-1,0.528
0.0374837,0.0375055,0.245674,0.0899479,0.0059749,0.00265013,0.0522545,0.129669,-35,-1066,-1.26483,-1,-106.171,-1,0.532
0.0375077,0.0375165,0.245883,0.0904648,0.00605996,0.00268806,0.0522863,0.129517,-36,-1065,-1.29654,-1,-106.708,-1,0.536
0.0375321,0.0375269,0.246092,0.0909872,0.00614555,0.00265577,0.0523184,0.129877,-37,-1058,-1.32876,-1,-107.24,-1,0.54
0.0375569,0.0375386,0.246301,0.0915102,0.00623166,0.0027494,0.0523506,0.130174,-37,-1052,-1.36208,-1,-107.762,-1,0.544
0.037582,0.0375511,0.246511,0.0920319,0.00631829,0.00286941,0.0523831,0.130257,-37,-1048,-1.39531,-1,-108.277,-1,0.548
0.0376074,0.0375639,0.24672,0.0925546,0.00640544,0.0029782,0.0524157,0.130399,-37,-1044,-1.42821,-1,-108.785,-1,0.552
0.0376332,0.0375798,0.24693,0.0930729,0.00649311,0.00330985,0.0524485,0.130119,-35,-1043,-1.46073,-1,-109.287,-1,0.556
0.0376594,0.0375957,0.24714,0.0935846,0.00658129,0.00353095,0.0524815,0.129385,-34,-1047,-1.49087,-1,-109.786,-1,0.56
0.0376859,0.0376129,0.24735,0.0940841,0.00666999,0.00379351,0.0525147,0.127888,-32,-1059,-1.51963,-1,-110.288,-1,0.564
0.0377127,0.0376316,0.24756,0.0945744,0.0067592,0.00408372,0.052548,0.126113,-30,-1073,-1.54663,-1,-110.799,-1,0.568
0.03774,0.0376516,0.24777,0.0950557,0.00684892,0.00439235,0.0525816,0.124181,-28,-1089,-1.57158,-1,-111.324,-1,0.572
0.0377675,0.0376703,0.247981,0.0955335,0.00693915,0.00448295,0.0526153,0.122605,-28,-1102,-1.59448,-1,-111.862,-1,0.576
0.0377955,0.0376889,0.248191,0.0960116,0.00702989,0.00454334,0.0526493,0.121584,-29,-1109,-1.6174,-1,-112.41,-1,0.58
0.0378238,0.0377069,0.248402,0.0964915,0.00712114,0.00452602,0.0526834,0.121046,-30,-1111,-1.64067,-1,-112.964,-1,0.584
0.0378524,0.0377245,0.248613,0.0969749,0.00721289,0.00448568,0.0527177,0.120976,-31,-1109,-1.66505,-1,-113.516,-1,0.588
0.0378815,0.0377414,0.248824,0.0974637,0.00730515,0.00440121,0.0527521,0.12139,-33,-1103,-1.69079,-1,-114.065,-1,0.592
0.0379109,0.037758,0.249035,0.0979574,0.0073979,0.00431611,0.0527868,0.122069,-35,-1093,-1.71831,-1,-114.603,-1,0.596
0.0379407,0.0377774,0.249246,0.0984587,0.00749116,0.0044897,0.0528216,0.123155,-34,-1080,-1.74743,-1,-115.13,-1,0.6
0.0379708,0.0377971,0.249457,0.0989632,0.00758492,0.00463421,0.0528566,0.124138,-34,-1068,-1.77577,-1,-115.64,-1,0.604
0.0380013,0.0378178,0.249669,0.0994755,0.00767917,0.00481693,0.0528918,0.125456,-33,-1052,-1.80356,-1,-116.135,-1,0.608
0.0380322,0.0378399,0.24988,0.0999913,0.00777392,0.00505391,0.0529272,0.126622,-32,-1038,-1.83043,-1,-116.612,-1,0.612
0.0380635,0.0378613,0.250092,0.100509,0.00786916,0.00515431,0.0529627,0.127515,-32,-1026,-1.85595,-1,-117.072,-1,0.616
0.0380952,0.0378831,0.250304,0.101029,0.00796489,0.00525003,0.0529985,0.128398,-32,-1015,-1.88143,-1,-117.518,-1,0.62
0.0381273,0.0379052,0.250516,0.101549,0.00806112,0.00534264,0.0530344,0.1289,-32,-1007,-1.9069,-1,-117.951,-1,0.624
0.0381597,0.0379266,0.250728,0.10207,0.00815783,0.0053468,0.0530704,0.12935,-33,-1000,-1.93247,-1,-118.373,-1,0.628
0.0381925,0.0379477,0.250941,0.102583,0.00825503,0.00532078,0.0531067,0.129017,-35,-1000,-1.95898,-1,-118.787,-1,0.632
0.0382257,0.0379705,0.251153,0.103105,0.00835272,0.00544739,0.0531431,0.129485,-34,-992,-1.98663,-1,-119.199,-1,0.636
0.0382593,0.037994,0.251366,0.103606,0.00845089,0.00558937,0.0531797,0.12807,-34,-1003,-2.01397,-1,-119.602,-1,0.64
0.0382933,0.0380189,0.251579,0.104115,0.00854955,0.0057992,0.0532165,0.127789,-33,-1003,-2.04082,-1,-120.013,-1,0.644
0.0383277,0.0380451,0.251792,0.104617,0.00864868,0.00605424,0.0532535,0.127026,-32,-1007,-2.06651,-1,-120.424,-1,0.648
0.0383625,0.038071,0.252005,0.105119,0.0087483,0.00619548,0.0532906,0.126546,-31,-1009,-2.09072,-1,-120.836,-1,0.652
0.0383977,0.0380956,0.252218,0.105602,0.00884839,0.00617448,0.0533279,0.124614,-33,-1025,-2.11461,-1,-121.25,-1,0.656
0.0384333,0.0381205,0.252431,0.106083,0.00894896,0.00618926,0.0533653,0.123182,-34,-1036,-2.13969,-1,-121.678,-1,0.66
0.0384693,0.0381457,0.252645,0.106559,0.00905,0.00622791,0.053403,0.121737,-34,-1048,-2.16562,-1,-122.116,-1,0.664
0.0385057,0.0381705,0.252858,0.10703,0.00915152,0.00622489,0.0534408,0.120429,-35,-1058,-2.1922,-1,-122.563,-1,0.668
0.0385425,0.0381961,0.253072,0.107499,0.00925351,0.00628045,0.0534787,0.119355,-36,-1066,-2.21978,-1,-123.019,-1,0.672
0.0385797,0.0382224,0.253286,0.107958,0.00935597,0.00637508,0.0535169,0.117862,-36,-1078,-2.2478,-1,-123.481,-1,0.676
0.0386174,0.0382507,0.2535,0.108417,0.0094589,0.00661091,0.0535552,0.116809,-35,-1085,-2.2758,-1,-123.954,-1,0.68
0.0386554,0.038278,0.253715,0.108871,0.00956229,0.00668176,0.0535937,0.115704,-35,-1094,-2.30257,-1,-124.432,-1,0.684
0.0386939,0.038306,0.253929,0.109327,0.00966615,0.00678657,0.0536323,0.115111,-36,-1097,-2.32964,-1,-124.917,-1,0.688
0.0387327,0.0383347,0.254144,0.109783,0.00977048,0.00691403,0.0536711,0.114774,-35,-1098,-2.35669,-1,-125.402,-1,0.692
0.038772,0.038363,0.254359,0.110236,0.00987527,0.00697021,0.0537101,0.114232,-36,-1101,-2.38354,-1,-125.887,-1,0.696
0.0388117,0.0383924,0.254573,0.110685,0.00998051,0.00709403,0.0537492,0.113554,-36,-1105,-2.41084,-1,-126.373,-1,0.7
0.0388519,0.0384228,0.254789,0.111137,0.0100862,0.00726296,0.0537885,0.113419,-35,-1104,-2.43791,-1,-126.861,-1,0.704
0.0388924,0.0384535,0.255004,0.111588,0.0101924,0.00740436,0.053828,0.113156,-35,-1105,-2.46436,-1,-127.345,-1,0.708
0.0389334,0.0384839,0.255219,0.112035,0.010299,0.00746984,0.0538676,0.112693,-36,-1107,-2.49051,-1,-127.828,-1,0.712
0.0389748,0.038516,0.255435,0.112479,0.0104061,0.00765745,0.0539074,0.112154,-35,-1110,-2.51698,-1,-128.312,-1,0.716
0.0390167,0.0385471,0.25565,0.11293,0.0105136,0.00769615,0.0539473,0.112312,-36,-1106,-2.54274,-1,-128.795,-1,0.72
0.0390589,0.0385775,0.255866,0.113361,0.0106216,0.00766437,0.0539874,0.110806,-37,-1119,-2.56923,-1,-129.274,-1,0.724
0.0391016,0.0386097,0.256082,0.113793,0.01073,0.00778714,0.0540277,0.109917,-37,-1125,-2.59702,-1,-129.764,-1,0.728
0.0391448,0.0386428,0.256299,0.114222,0.0108389,0.00795535,0.0540681,0.109007,-37,-1132,-2.62463,-1,-130.258,-1,0.732
0.0391884,0.0386746,0.256515,0.114648,0.0109482,0.00795233,0.0541087,0.1082,-38,-1138,-2.65175,-1,-130.756,-1,0.736
0.0392324,0.0387078,0.256731,0.115083,0.011058,0.00806548,0.0541494,0.108381,-38,-1134,-2.67992,-1,-131.258,-1,0.74
0.0392768,0.0387389,0.256948,0.115505,0.0111682,0.00796817,0.0541903,0.10735,-40,-1142,-2.7082,-1,-131.755,-1,0.744
0.0393217,0.0387696,0.257165,0.115928,0.0112789,0.00787451,0.0542314,0.106864,-42,-1145,-2.73855,-1,-132.258,-1,0.748
0.0393671,0.0387983,0.257382,0.11635,0.01139,0.00763932,0.0542726,0.106425,-46,-1147,-2.77104,-1,-132.761,-1,0.752
0.0394128,0.0388259,0.257599,0.116777,0.0115015,0.00739615,0.054314,0.106478,-49,-1145,-2.807,-1,-133.264,-1,0.756
0.0394591,0.0388512,0.257816,0.117186,0.0116135,0.00703251,0.0543555,0.105074,-54,-1157,-2.84661,-1,-133.763,-1,0.76
0.0395057,0.0388715,0.258034,0.1176,0.0117259,0.006387,0.0543972,0.104541,-62,-1160,-2.89117,-1,-134.271,-1,0.764
0.0395529,0.0388892,0.258252,0.118017,0.0118387,0.00572634,0.054439,0.104445,-69,-1159,-2.94334,-1,-134.781,-1,0.768
0.0396005,0.0389026,0.258469,0.118422,0.011952,0.00494041,0.054481,0.10343,-78,-1167,-3.00334,-1,-135.288,-1,0.772
0.0396485,0.0389147,0.258687,0.118832,0.0120657,0.00430129,0.0545231,0.1031,-86,-1169,-3.07225,-1,-135.801,-1,0.776
0.039697,0.0389251,0.258906,0.119239,0.0121799,0.00373125,0.0545654,0.102649,-93,-1171,-3.14866,-1,-136.313,-1,0.78
0.0397459,0.0389348,0.259124,0.119652,0.0122944,0.00329365,0.0546078,0.102866,-98,-1168,-3.23182,-1,-136.825,-1,0.784
0.0397953,0.0389444,0.259343,0.120052,0.0124094,0.00300191,0.0546504,0.101889,-103,-1175,-3.32041,-1,-137.331,-1,0.788
0.0398452,0.0389541,0.259561,0.120463,0.0125248,0.00280742,0.0546931,0.102187,-106,-1171,-3.41301,-1,-137.843,-1,0.792
0.0398955,0.0389641,0.25978,0.120871,0.0126407,0.00270655,0.054736,0.102098,-109,-1170,-3.50864,-1,-138.348,-1,0.796
0.0399463,0.0389745,0.259999,0.121281,0.0127569,0.00266809,0.054779,0.10224,-111,-1167,-3.60639,-1,-138.85,-1,0.8
0.0399976,0.0389859,0.260218,0.121705,0.0128736,0.00272883,0.0548222,0.103515,-112,-1153,-3.70562,-1,-139.345,-1,0.804
0.0400493,0.038997,0.260438,0.122106,0.0129907,0.00274053,0.0548655,0.102408,-113,-1162,-3.80544,-1,-139.826,-1,0.808
0.0401015,0.0390087,0.260657,0.122521,0.0131083,0.00280591,0.054909,0.10285,-114,-1156,-3.90626,-1,-140.312,-1,0.812
0.0401542,0.0390208,0.260877,0.122935,0.0132262,0.00287829,0.0549526,0.103116,-115,-1152,-4.0076,-1,-140.791,-1,0.816
0.0402073,0.0390332,0.261097,0.123354,0.0133446,0.00295533,0.0549963,0.10361,-116,-1145,-4.10938,-1,-141.262,-1,0.82
0.0402609,0.039045,0.261317,0.123775,0.0134633,0.00294911,0.0550402,0.104169,-117,-1138,-4.21163,-1,-141.725,-1,0.824
0.040315,0.039056,0.261537,0.124202,0.0135825,0.00288739,0.0550843,0.105032,-119,-1128,-4.31516,-1,-142.178,-1,0.828
0.0403696,0.039065,0.261758,0.124632,0.0137021,0.00267349,0.0551285,0.105895,-123,-1118,-4.42059,-1,-142.619,-1,0.832
0.0404247,0.0390723,0.261978,0.125047,0.0138221,0.00238693,0.0551728,0.105117,-127,-1123,-4.5294,-1,-143.048,-1,0.836
0.0404802,0.0390782,0.262199,0.125469,0.0139425,0.00208074,0.0552173,0.10526,-132,-1120,-4.64229,-1,-143.481,-1,0.84
0.0405362,0.039083,0.26242,0.125887,0.0140633,0.00179023,0.0552619,0.105039,-136,-1121,-4.75943,-1,-143.909,-1,0.844
0.0405927,0.0390868,0.262641,0.126305,0.0141845,0.00151019,0.0553066,0.104863,-141,-1121,-4.88067,-1,-144.335,-1,0.848
0.0406497,0.0390899,0.262862,0.126729,0.0143061,0.00126591,0.0553515,0.105178,-145,-1116,-5.00589,-1,-144.76,-1,0.852
0.0407071,0.039093,0.263084,0.12714,0.0144282,0.00110306,0.0553966,0.104408,-148,-1122,-5.13471,-1,-145.177,-1,0.856
0.0407651,0.0390961,0.263306,0.127553,0.0145506,0.00099449,0.0554417,0.103982,-151,-1124,-5.26633,-1,-145.599,-1,0.86
0.0408235,0.0390996,0.263527,0.127962,0.0146734,0.000950903,0.055487,0.103439,-153,-1128,-5.4002,-1,-146.022,-1,0.864
0.0408825,0.0391034,0.263749,0.128375,0.0147966,0.000950635,0.0555325,0.103364,-155,-1127,-5.5357,-1,-146.446,-1,0.868
0.0409419,0.0391079,0.263972,0.128785,0.0149202,0.00100804,0.0555781,0.103084,-156,-1128,-5.67239,-1,-146.867,-1,0.872
0.0410018,0.0391134,0.264194,0.129198,0.0150442,0.00113268,0.0556238,0.103157,-157,-1125,-5.80968,-1,-147.288,-1,0.876
0.0410623,0.03912,0.264417,0.129609,0.0151686,0.00130215,0.0556696,0.103032,-157,-1125,-5.94692,-1,-147.704,-1,0.88
0.0411232,0.0391269,0.264639,0.130021,0.0152934,0.00144392,0.0557156,0.102978,-157,-1124,-6.08372,-1,-148.118,-1,0.884
0.0411846,0.0391352,0.264862,0.130431,0.0154186,0.00165359,0.0557617,0.102827,-157,-1124,-6.22029,-1,-148.529,-1,0.888
0.0412465,0.0391445,0.265086,0.130842,0.0155441,0.00187975,0.055808,0.102841,-157,-1122,-6.356,-1,-148.938,-1,0.892
0.041309,0.0391555,0.265309,0.131253,0.0156701,0.00217448,0.0558544,0.102765,-156,-1121,-6.49064,-1,-149.343,-1,0.896
0.0413719,0.0391683,0.265532,0.131664,0.0157964,0.00251492,0.0559009,0.102742,-154,-1120,-6.62356,-1,-149.745,-1,0.9
0.0414353,0.0391835,0.265756,0.132082,0.0159231,0.00294341,0.0559475,0.103389,-152,-1112,-6.75426,-1,-150.144,-1,0.904
0.0414993,0.0391998,0.26598,0.132493,0.0160502,0.00331545,0.0559943,0.103159,-150,-1112,-6.88198,-1,-150.534,-1,0.908
0.0415637,0.0392195,0.266204,0.132905,0.0161777,0.00385138,0.0560412,0.103062,-146,-1112,-7.00712,-1,-150.922,-1,0.912
0.0416287,0.0392416,0.266428,0.133316,0.0163056,0.00441021,0.0560883,0.103027,-143,-1110,-7.12816,-1,-151.308,-1,0.916
0.0416942,0.0392664,0.266653,0.133738,0.0164338,0.00501308,0.0561354,0.10381,-139,-1101,-7.24485,-1,-151.691,-1,0.92
0.0417602,0.0392934,0.266877,0.134151,0.0165624,0.00558775,0.0561827,0.10364,-135,-1101,-7.3568,-1,-152.062,-1,0.924
0.0418267,0.0393241,0.267102,0.134575,0.0166914,0.00628756,0.0562302,0.104391,-130,-1092,-7.46421,-1,-152.432,-1,0.928
0.0418937,0.039358,0.267327,0.134998,0.0168208,0.00701322,0.0562777,0.104834,-125,-1086,-7.56588,-1,-152.791,-1,0.932
0.0419613,0.0393943,0.267552,0.135419,0.0169505,0.00769852,0.0563254,0.105043,-120,-1082,-7.66162,-1,-153.142,-1,0.936
0.0420293,0.0394357,0.267778,0.135841,0.0170806,0.00858726,0.0563732,0.105125,-113,-1080,-7.75166,-1,-153.488,-1,0.94
0.0420979,0.0394803,0.268003,0.136259,0.0172111,0.00943887,0.0564211,0.104949,-106,-1080,-7.83414,-1,-153.83,-1,0.944
0.042167,0.0395266,0.268229,0.136676,0.0173419,0.0101506,0.0564692,0.104688,-101,-1081,-7.90951,-1,-154.17,-1,0.948
0.0422366,0.0395746,0.268455,0.137094,0.0174731,0.010769,0.0565174,0.104658,-96,-1080,-7.97914,-1,-154.51,-1,0.952
0.0423068,0.0396233,0.268681,0.137504,0.0176047,0.0112388,0.0565657,0.103975,-93,-1084,-8.04399,-1,-154.847,-1,0.956
0.0423775,0.0396748,0.268908,0.137919,0.0177366,0.0117824,0.0566141,0.103895,-90,-1084,-8.1054,-1,-155.188,-1,0.96
0.0424487,0.0397277,0.269134,0.138335,0.0178689,0.01226,0.0566627,0.103899,-87,-1082,-8.16275,-1,-155.526,-1,0.964
0.0425204,0.0397826,0.269361,0.138751,0.0180015,0.0127511,0.0567113,0.10393,-83,-1080,-8.21663,-1,-155.861,-1,0.968
0.0425927,0.0398393,0.269588,0.139167,0.0181345,0.0132224,0.0567601,0.10398,-80,-1078,-8.26693,-1,-156.193,-1,0.972
0.0426655,0.0398977,0.269815,0.139587,0.0182679,0.0136806,0.056809,0.104301,-77,-1073,-8.31386,-1,-156.52,-1,0.976
0.0427388,0.0399571,0.270042,0.140003,0.0184016,0.0140724,0.0568581,0.104198,-75,-1073,-8.35759,-1,-156.842,-1,0.98
0.0428127,0.0400196,0.27027,0.140431,0.0185357,0.0145928,0.0569072,0.105109,-72,-1062,-8.39864,-1,-157.161,-1,0.984
0.0428871,0.0400818,0.270498,0.14084,0.0186701,0.0149109,0.0569565,0.10419,-70,-1069,-8.43596,-1,-157.469,-1,0.988
0.0429621,0.0401457,0.270726,0.141249,0.0188049,0.0152669,0.0570059,0.103519,-68,-1074,-8.47142,-1,-157.783,-1,0.992
0.0430376,0.0402117,0.270954,0.141658,0.01894,0.015677,0.0570554,0.103073,-65,-1077,-8.50463,-1,-158.1,-1,0.996
0.0431136,0.040278,0.271182,0.142063,0.0190755,0.0159792,0.057105,0.102487,-64,-1081,-8.53515,-1,-158.419,-1,1
0.0431902,0.0403444,0.271411,0.142467,0.0192113,0.0161807,0.0571547,0.102039,-63,-1084,-8.56408,-1,-158.741,-1,1.004
0.0432673,0.0404121,0.271639,0.142868,0.0193475,0.0164301,0.0572046,0.101395,-62,-1089,-8.5923,-1,-159.065,-1,1.008
0.043345,0.0404819,0.271868,0.14327,0.019484,0.0167692,0.0572546,0.101109,-61,-1090,-8.61932,-1,-159.392,-1,1.012
0.0434232,0.0405527,0.272097,0.143669,0.0196208,0.0170816,0.0573046,0.100659,-59,-1093,-8.64434,-1,-159.718,-1,1.016
0.0435019,0.0406242,0.272327,0.144067,0.019758,0.0173475,0.0573548,0.100302,-58,-1095,-8.66762,-1,-160.047,-1,1.02
0.0435812,0.0406975,0.272556,0.144471,0.0198956,0.0176686,0.0574051,0.100525,-56,-1092,-8.68958,-1,-160.375,-1,1.024
0.0436611,0.0407697,0.272786,0.144865,0.0200334,0.0177964,0.0574556,0.0998094,-56,-1097,-8.70983,-1,-160.7,-1,1.028
0.0437415,0.0408429,0.273016,0.145252,0.0201717,0.0179679,0.0575061,0.0987854,-56,-1106,-8.73014,-1,-161.028,-1,1.032
0.0438225,0.04092,0.273246,0.145641,0.0203102,0.018399,0.0575568,0.0982755,-53,-1109,-8.74992,-1,-161.364,-1,1.036
0.043904,0.0409967,0.273476,0.146028,0.0204491,0.0186576,0.0576075,0.0977916,-52,-1113,-8.76691,-1,-161.702,-1,1.04
0.0439861,0.0410727,0.273707,0.146413,0.0205883,0.0187724,0.0576584,0.0972963,-53,-1116,-8.78279,-1,-162.042,-1,1.044
0.0440687,0.0411508,0.273937,0.146795,0.0207278,0.0190217,0.0577093,0.0966494,-52,-1121,-8.7988,-1,-162.384,-1,1.048
0.0441519,0.0412306,0.274168,0.147178,0.0208677,0.0193318,0.0577604,0.0963909,-50,-1123,-8.81368,-1,-162.73,-1,1.052
0.0442356,0.04131,0.2744,0.147552,0.0210079,0.0195098,0.0578116,0.0954123,-50,-1131,-8.82694,-1,-163.076,-1,1.056
0.0443199,0.0413902,0.274631,0.147929,0.0211484,0.019686,0.0578629,0.0949903,-49,-1134,-8.83981,-1,-163.429,-1,1.06
0.0444048,0.0414717,0.274862,0.148309,0.0212893,0.0199187,0.0579143,0.0950257,-49,-1132,-8.85228,-1,-163.783,-1,1.064
0.0444903,0.041555,0.275094,0.14869,0.0214304,0.0202177,0.0579659,0.0951356,-47,-1130,-8.86379,-1,-164.134,-1,1.068
0.0445763,0.0416407,0.275326,0.149081,0.0215719,0.0206186,0.0580175,0.0959863,-45,-1121,-8.87364,-1,-164.48,-1,1.072
0.0446628,0.0417225,0.275558,0.149458,0.0217137,0.0205692,0.0580692,0.095373,-46,-1126,-8.88121,-1,-164.817,-1,1.076
0.04475,0.0418058,0.275791,0.149843,0.0218559,0.0206514,0.058121,0.0956551,-47,-1122,-8.89058,-1,-165.156,-1,1.08
0.0448377,0.0418908,0.276023,0.150227,0.0219983,0.0208502,0.058173,0.0957856,-47,-1119,-8.90046,-1,-165.489,-1,1.084
0.044926,0.0419775,0.276256,0.150611,0.0221411,0.0211266,0.058225,0.0959013,-45,-1117,-8.90971,-1,-165.819,-1,1.088
0.0450148,0.0420635,0.276489,0.150994,0.0222842,0.0212534,0.0582771,0.0958634,-45,-1116,-8.91773,-1,-166.145,-1,1.092
0.0451042,0.0421496,0.276722,0.151375,0.0224276,0.0213379,0.0583294,0.0955789,-46,-1118,-8.92592,-1,-166.469,-1,1.096
0.0451942,0.042237,0.276956,0.151752,0.0225713,0.0215093,0.0583817,0.095159,-46,-1121,-8.93463,-1,-166.793,-1,1.1
0.0452848,0.0423278,0.277189,0.152138,0.0227153,0.0219116,0.0584342,0.0956564,-43,-1115,-8.9429,-1,-167.118,-1,1.104
0.045376,0.0424153,0.277423,0.15251,0.0228596,0.0218918,0.0584867,0.0947787,-45,-1122,-8.94888,-1,-167.437,-1,1.108
0.0454677,0.0425034,0.277657,0.152889,0.0230043,0.0219362,0.0585394,0.0947407,-46,-1122,-8.95643,-1,-167.761,-1,1.112
0.04556,0.0425925,0.277892,0.15327,0.0231492,0.0220522,0.0585921,0.0948593,-46,-1119,-8.96492,-1,-168.083,-1,1.116
0.0456529,0.042683,0.278126,0.153652,0.0232945,0.0222447,0.058645,0.0951399,-46,-1115,-8.97364,-1,-168.402,-1,1.12
0.0457463,0.0427732,0.278361,0.15404,0.02344,0.0223442,0.0586979,0.09573,-46,-1109,-8.98194,-1,-168.714,-1,1.124
0.0458404,0.0428637,0.278596,0.154432,0.0235859,0.0224394,0.0587509,0.0965265,-47,-1100,-8.99069,-1,-169.018,-1,1.128
0.045935,0.0429946,0.278831,0.154986,0.023732,0.0258713,0.0588041,0.110474,-15,-963,-8.99774,-1,-169.303,-1,1.132
0.0460302,0.0430499,0.279066,0.155222,0.0238785,0.0218541,0.0588573,0.0932848,-55,-1128,-8.97706,-1,-169.465,-1,1.136
0.0461261,0.0431418,0.279302,0.155616,0.0240253,0.0222278,0.0589107,0.0950691,-53,-1110,-8.99481,-1,-169.786,-1,1.14
0.0462225,0.0432334,0.279537,0.15601,0.0241723,0.0224481,0.0589641,0.0961723,-52,-1098,-9.01039,-1,-170.086,-1,1.144
0.0463194,0.0433273,0.279773,0.156405,0.0243197,0.0227965,0.0590176,0.0970804,-51,-1088,-9.02515,-1,-170.374,-1,1.148
0.046417,0.043423,0.280009,0.156804,0.0244673,0.0231728,0.0590712,0.0979738,-48,-1078,-9.03789,-1,-170.649,-1,1.152
0.0465152,0.0435208,0.280246,0.157214,0.0246152,0.0235964,0.0591249,0.0994907,-46,-1062,-9.04832,-1,-170.913,-1,1.156
0.0466139,0.0436138,0.280482,0.157595,0.0247635,0.0234757,0.0591787,0.0980835,-48,-1075,-9.05635,-1,-171.161,-1,1.16
0.0467133,0.0437119,0.280719,0.15798,0.024912,0.0238271,0.0592326,0.0974621,-46,-1080,-9.06673,-1,-171.42,-1,1.164
0.0468132,0.0438107,0.280956,0.158361,0.0250608,0.0241189,0.0592866,0.0967311,-45,-1086,-9.07512,-1,-171.683,-1,1.168
0.0469138,0.0439081,0.281194,0.158742,0.0252099,0.0241983,0.0593407,0.0962438,-46,-1089,-9.08223,-1,-171.951,-1,1.172
0.0470149,0.0440066,0.281431,0.159125,0.0253593,0.0243376,0.0593948,0.0960629,-46,-1090,-9.08998,-1,-172.222,-1,1.176
0.0471166,0.0441057,0.281669,0.159505,0.0255089,0.0244881,0.0594491,0.0956831,-46,-1093,-9.09782,-1,-172.492,-1,1.18
0.047219,0.0442045,0.281907,0.159884,0.0256589,0.0245596,0.0595035,0.0953436,-47,-1095,-9.10568,-1,-172.763,-1,1.184
0.0473219,0.0443044,0.282145,0.160261,0.0258091,0.0246936,0.0595579,0.0950309,-47,-1097,-9.11427,-1,-173.036,-1,1.188
0.0474255,0.0444067,0.282383,0.160638,0.0259596,0.0249845,0.0596124,0.094736,-46,-1099,-9.12291,-1,-173.309,-1,1.192
0.0475296,0.0445082,0.282622,0.161015,0.0261104,0.0251209,0.059667,0.0946258,-46,-1099,-9.13024,-1,-173.584,-1,1.196
0.0476343,0.0446091,0.28286,0.161393,0.0262615,0.0251542,0.0597217,0.0945524,-47,-1098,-9.13778,-1,-173.856,-1,1.2
0.0477397,0.0447121,0.283099,0.161775,0.0264128,0.0253492,0.0597765,0.0948489,-46,-1094,-9.14637,-1,-174.127,-1,1.204
0.0478456,0.0448164,0.283339,0.162156,0.0265644,0.0255943,0.0598314,0.094989,-46,-1092,-9.15448,-1,-174.393,-1,1.208
0.0479522,0.0449176,0.283578,0.162525,0.0267163,0.0254986,0.0598863,0.0941035,-48,-1100,-9.16188,-1,-174.657,-1,1.212
0.0480594,0.0450203,0.283818,0.162899,0.0268685,0.02555,0.0599414,0.0938874,-49,-1101,-9.17163,-1,-174.926,-1,1.216
0.0481671,0.0451256,0.284058,0.163271,0.0270209,0.0258146,0.0599965,0.0936282,-48,-1102,-9.18221,-1,-175.195,-1,1.22
0.0482755,0.0452317,0.284298,0.163646,0.0271736,0.0260485,0.0600517,0.093657,-47,-1101,-9.1917,-1,-175.465,-1,1.224
0.0483845,0.045336,0.284538,0.164022,0.0273266,0.0260605,0.060107,0.0937337,-49,-1099,-9.20052,-1,-175.732,-1,1.228
0.0484941,0.0454421,0.284779,0.164397,0.0274798,0.0262125,0.0601624,0.0937849,-49,-1098,-9.21063,-1,-175.996,-1,1.232
0.0486044,0.0455485,0.285019,0.164772,0.0276333,0.0263426,0.0602179,0.0937038,-49,-1098,-9.22076,-1,-176.257,-1,1.236
0.0487152,0.0456549,0.28526,0.165143,0.0277871,0.0264293,0.0602734,0.0933907,-50,-1100,-9.23114,-1,-176.518,-1,1.24
0.0488267,0.0457634,0.285502,0.165509,0.0279411,0.0266599,0.060329,0.0928076,-49,-1105,-9.24207,-1,-176.779,-1,1.244
0.0489387,0.0458726,0.285743,0.165874,0.0280954,0.0268712,0.0603847,0.0922462,-48,-1109,-9.25224,-1,-177.045,-1,1.248
0.0490514,0.0459814,0.285985,0.166236,0.0282499,0.0269833,0.0604405,0.0917279,-49,-1113,-9.26191,-1,-177.314,-1,1.252
0.0491647,0.0460913,0.286226,0.166605,0.0284047,0.0271444,0.0604964,0.0918431,-49,-1111,-9.27196,-1,-177.585,-1,1.256
0.0492787,0.0462005,0.286469,0.166959,0.0285598,0.0271942,0.0605523,0.0907682,-50,-1121,-9.282,-1,-177.855,-1,1.26
0.0493932,0.0463114,0.286711,0.167323,0.0287151,0.0273713,0.0606083,0.0908578,-50,-1119,-9.293,-1,-178.132,-1,1.264
0.0495084,0.0464219,0.286953,0.167692,0.0288707,0.0274607,0.0606644,0.0912918,-50,-1114,-9.30383,-1,-178.406,-1,1.268
0.0496242,0.0465359,0.287196,0.168069,0.0290265,0.0278081,0.0607206,0.0923009,-49,-1104,-9.31513,-1,-178.673,-1,1.272
0.0497406,0.0466489,0.287439,0.168441,0.0291826,0.0279534,0.0607768,0.0924842,-49,-1101,-9.32466,-1,-178.929,-1,1.276
0.0498577,0.0467615,0.287682,0.168818,0.0293389,0.0280214,0.0608332,0.0931246,-50,-1094,-9.33434,-1,-179.18,-1,1.28
0.0499753,0.0468759,0.287926,0.169196,0.0294955,0.0282107,0.0608896,0.0935227,-49,-1089,-9.34479,-1,-179.423,-1,1.284
0.0500936,0.0469916,0.28817,0.169575,0.0296523,0.0284521,0.060946,0.0939321,-48,-1084,-9.35488,-1,-179.66,-1,1.288
0.0502125,0.047106,0.288413,0.169952,0.0298094,0.0284979,0.0610026,0.0940899,-50,-1082,-9.36426,-1,-179.892,-1,1.292
0.0503321,0.0472221,0.288658,0.170331,0.0299667,0.0286723,0.0610592,0.0942815,-49,-1079,-9.37463,-1,-180.119,-1,1.296
0.0504523,0.0473399,0.288902,0.17071,0.0301242,0.0289326,0.0611159,0.0944092,-48,-1077,-9.38477,-1,-180.343,-1,1.3
0.0505731,0.047456,0.289146,0.171085,0.030282,0.0289621,0.0611727,0.0942352,-50,-1078,-9.39403,-1,-180.564,-1,1.304
0.0506945,0.0475738,0.289391,0.171459,0.0304401,0.0291258,0.0612295,0.0939752,-50,-1079,-9.40446,-1,-180.785,-1,1.308
0.0508166,0.047693,0.289636,0.171831,0.0305984,0.0293501,0.0612864,0.093658,-49,-1082,-9.41478,-1,-181.006,-1,1.312
0.0509393,0.0478104,0.289882,0.172203,0.0307569,0.0293556,0.0613434,0.0934465,-51,-1083,-9.42459,-1,-181.229,-1,1.316
0.0510627,0.0479307,0.290127,0.172575,0.0309156,0.0295897,0.0614004,0.0933055,-50,-1083,-9.43574,-1,-181.452,-1,1.32
0.0511866,0.0480526,0.290373,0.172951,0.0310746,0.0298896,0.0614576,0.0935282,-49,-1080,-9.4461,-1,-181.674,-1,1.324
0.0513113,0.0481725,0.290619,0.173328,0.0312339,0.0299169,0.0615148,0.093763,-50,-1077,-9.45524,-1,-181.892,-1,1.328
0.0514365,0.0482941,0.290865,0.173705,0.0313933,0.030079,0.061572,0.0939196,-50,-1075,-9.46558,-1,-182.106,-1,1.332
0.0515624,0.0484154,0.291111,0.174076,0.031553,0.0301583,0.0616293,0.0935633,-51,-1077,-9.47593,-1,-182.317,-1,1.336
0.0516889,0.0485377,0.291358,0.174448,0.0317129,0.0302975,0.0616867,0.0933546,-51,-1079,-9.48703,-1,-182.53,-1,1.34
0.0518161,0.0486617,0.291605,0.174818,0.0318731,0.0305343,0.0617442,0.0930715,-50,-1080,-9.49825,-1,-182.742,-1,1.344
0.0519439,0.0487861,0.291852,0.175189,0.0320335,0.0307209,0.0618017,0.0929691,-50,-1081,-9.50874,-1,-182.956,-1,1.348
0.0520724,0.0489115,0.292099,0.175566,0.0321941,0.0309317,0.0618593,0.0934191,-50,-1075,-9.51895,-1,-183.169,-1,1.352
0.0522015,0.0490387,0.292347,0.175941,0.0323549,0.0312162,0.061917,0.09346,-48,-1074,-9.5286,-1,-183.375,-1,1.356
0.0523312,0.0491599,0.292595,0.176299,0.0325159,0.0309164,0.0619747,0.0921916,-53,-1086,-9.53741,-1,-183.581,-1,1.36
0.0524616,0.0492847,0.292843,0.176661,0.0326772,0.0310045,0.0620325,0.091634,-54,-1090,-9.55049,-1,-183.796,-1,1.364
0.0525926,0.0494121,0.293091,0.177022,0.0328387,0.0312935,0.0620903,0.091147,-52,-1094,-9.56415,-1,-184.016,-1,1.368
0.0527243,0.0495386,0.293339,0.17738,0.0330004,0.0313998,0.0621482,0.0905633,-53,-1099,-9.57666,-1,-184.239,-1,1.372
0.0528566,0.0496654,0.293588,0.177737,0.0331623,0.0314995,0.0622062,0.0901166,-54,-1103,-9.58971,-1,-184.466,-1,1.376
0.0529896,0.0497936,0.293837,0.178092,0.0333245,0.0316811,0.0622643,0.0897036,-53,-1106,-9.60331,-1,-184.696,-1,1.38
0.0531232,0.049921,0.294086,0.17845,0.0334869,0.0317446,0.0623224,0.089601,-54,-1107,-9.61679,-1,-184.928,-1,1.384
0.0532575,0.0500509,0.294336,0.178805,0.0336494,0.0319884,0.0623805,0.0893311,-54,-1109,-9.63111,-1,-185.159,-1,1.388
0.0533924,0.0501812,0.294585,0.17916,0.0338122,0.0321798,0.0624387,0.0891223,-54,-1110,-9.64465,-1,-185.391,-1,1.392
0.053528,0.0503097,0.294835,0.179511,0.0339752,0.0321634,0.062497,0.088724,-55,-1113,-9.65804,-1,-185.624,-1,1.396
0.0536642,0.0504414,0.295085,0.179866,0.0341385,0.0324116,0.0625554,0.0887464,-55,-1112,-9.67301,-1,-185.859,-1,1.4
0.0538011,0.0505726,0.295335,0.180221,0.0343019,0.0325483,0.0626138,0.0887326,-55,-1112,-9.68721,-1,-186.092,-1,1.404
0.0539386,0.0507036,0.295586,0.180579,0.0344655,0.0326106,0.0626722,0.0889249,-56,-1110,-9.70172,-1,-186.324,-1,1.408
0.0540768,0.050838,0.295837,0.180934,0.0346294,0.0329401,0.0627307,0.0888803,-54,-1109,-9.71702,-1,-186.552,-1,1.412
0.0542157,0.0509713,0.296088,0.18129,0.0347934,0.0330734,0.0627893,0.0889082,-55,-1108,-9.73082,-1,-186.779,-1,1.416
0.0543552,0.051105,0.296339,0.181645,0.0349576,0.033191,0.0628479,0.088898,-55,-1108,-9.74492,-1,-187.004,-1,1.42
0.0544953,0.0512398,0.296591,0.182002,0.0351221,0.0333558,0.0629066,0.0890064,-55,-1106,-9.75944,-1,-187.228,-1,1.424
0.0546362,0.0513752,0.296842,0.182356,0.0352867,0.0335232,0.0629654,0.0888195,-55,-1108,-9.77394,-1,-187.449,-1,1.428
0.0547776,0.0515131,0.297094,0.182712,0.0354516,0.0338364,0.0630242,0.0888964,-54,-1106,-9.78831,-1,-187.67,-1,1.432
0.0549198,0.0516513,0.297347,0.18307,0.0356167,0.034074,0.063083,0.0890629,-53,-1104,-9.80125,-1,-187.888,-1,1.436
0.0550626,0.0517877,0.297599,0.183421,0.0357819,0.0340884,0.0631419,0.0886268,-55,-1108,-9.81362,-1,-188.104,-1,1.44
0.055206,0.0519266,0.297852,0.183778,0.0359473,0.0342995,0.0632009,0.0888544,-54,-1105,-9.82734,-1,-188.323,-1,1.444
0.0553501,0.0520645,0.298105,0.184138,0.036113,0.0343539,0.0632599,0.0892652,-55,-1100,-9.8407,-1,-188.537,-1,1.448
0.0554949,0.0522051,0.298358,0.184498,0.0362788,0.0346205,0.0633189,0.0895103,-55,-1097,-9.855,-1,-188.746,-1,1.452
0.0556404,0.0523457,0.298611,0.18486,0.0364448,0.0347983,0.0633781,0.0898176,-54,-1094,-9.86836,-1,-188.951,-1,1.456
0.0557865,0.0524867,0.298865,0.185221,0.0366111,0.0349455,0.0634372,0.0899937,-55,-1092,-9.88161,-1,-189.151,-1,1.46
0.0559333,0.052629,0.299119,0.18558,0.0367775,0.0351589,0.0634964,0.0898808,-54,-1092,-9.89499,-1,-189.348,-1,1.464
0.0560807,0.052771,0.299373,0.185936,0.0369441,0.0352723,0.0635557,0.0896328,-55,-1094,-9.90796,-1,-189.545,-1,1.468
0.0562288,0.0529154,0.299627,0.186292,0.0371109,0.0355495,0.063615,0.0894098,-54,-1095,-9.92134,-1,-189.743,-1,1.472
0.0563776,0.0530605,0.299882,0.186651,0.0372778,0.0357918,0.0636744,0.0894627,-53,-1094,-9.93365,-1,-189.941,-1,1.476
0.056527,0.0532046,0.300137,0.18701,0.037445,0.035867,0.0637338,0.0895844,-54,-1093,-9.94532,-1,-190.138,-1,1.48
0.0566772,0.0533511,0.300392,0.187366,0.0376123,0.0361187,0.0637933,0.0893776,-53,-1094,-9.95776,-1,-190.332,-1,1.484
0.0568279,0.0534952,0.300647,0.187721,0.0377798,0.036085,0.0638528,0.0891821,-55,-1095,-9.96955,-1,-190.527,-1,1.488
0.0569794,0.0536434,0.300902,0.188075,0.0379475,0.0364079,0.0639123,0.0889367,-54,-1097,-9.98307,-1,-190.722,-1,1.492
0.0571315,0.0537902,0.301158,0.188428,0.0381154,0.0365081,0.0639719,0.0887154,-55,-1099,-9.9952,-1,-190.918,-1,1.496
0.0572843,0.0539408,0.301414,0.18879,0.0382835,0.0368916,0.0640316,0.0893453,-53,-1092,-10.0078,-1,-191.115,-1,1.5
0.0574378,0.0540887,0.30167,0.189148,0.0384517,0.0369169,0.0640913,0.0893621,-54,-1092,-10.0185,-1,-191.304,-1,1.504
0.0575919,0.0542359,0.301927,0.189504,0.0386201,0.0368762,0.064151,0.0892582,-56,-1092,-10.0307,-1,-191.492,-1,1.508
0.0577468,0.0543869,0.302184,0.189867,0.0387887,0.0371658,0.0642108,0.0897647,-55,-1087,-10.0446,-1,-191.679,-1,1.512
0.0579022,0.0545372,0.302441,0.190229,0.0389575,0.0373012,0.0642706,0.090016,-55,-1084,-10.0575,-1,-191.859,-1,1.516
0.0580584,0.0546916,0.302698,0.190596,0.0391264,0.037737,0.0643305,0.0905867,-53,-1077,-10.0705,-1,-192.036,-1,1.52
0.0582153,0.0548426,0.302955,0.190952,0.0392955,0.0377397,0.0643904,0.0900745,-54,-1082,-10.0812,-1,-192.206,-1,1.524
0.0583728,0.0549953,0.303213,0.191314,0.0394648,0.0378854,0.0644503,0.090165,-55,-1080,-10.0933,-1,-192.38,-1,1.528
0.058531,0.0551518,0.303471,0.191674,0.0396342,0.0382992,0.0645103,0.0901389,-52,-1080,-10.1056,-1,-192.551,-1,1.532
0.0586899,0.0553055,0.303729,0.192035,0.0398038,0.0383448,0.0645704,0.0901791,-54,-1079,-10.1156,-1,-192.721,-1,1.536
0.0588494,0.0554613,0.303987,0.192394,0.0399736,0.0385479,0.0646304,0.0900044,-53,-1080,-10.1268,-1,-192.89,-1,1.54
0.0590096,0.0556172,0.304246,0.192751,0.0401435,0.0386833,0.0646906,0.0897728,-54,-1082,-10.1376,-1,-193.059,-1,1.544
0.0591706,0.0557754,0.304505,0.193104,0.0403136,0.0389751,0.0647507,0.0893016,-53,-1086,-10.1487,-1,-193.23,-1,1.548
0.0593321,0.0559385,0.304764,0.193469,0.0404839,0.0395727,0.0648109,0.0899664,-48,-1079,-10.1584,-1,-193.403,-1,1.552
0.0594944,0.0560908,0.305023,0.193801,0.0406543,0.0390786,0.0648711,0.0875881,-55,-1102,-10.1646,-1,-193.57,-1,1.556
0.0596574,0.0562487,0.305283,0.194146,0.0408249,0.0392099,0.0649314,0.087183,-55,-1105,-10.1769,-1,-193.759,-1,1.56
0.059821,0.0564069,0.305543,0.194487,0.0409956,0.0393262,0.0649917,0.0865099,-56,-1111,-10.1896,-1,-193.95,-1,1.564
0.0599853,0.0565669,0.305803,0.194824,0.0411665,0.0395476,0.0650521,0.0857732,-55,-1118,-10.2027,-1,-194.147,-1,1.568
0.0601504,0.0567307,0.306063,0.195172,0.0413376,0.040012,0.0651125,0.0861746,-53,-1114,-10.2151,-1,-194.35,-1,1.572
0.0603161,0.0568865,0.306324,0.195504,0.0415088,0.0396594,0.0651729,0.0851466,-58,-1124,-10.2253,-1,-194.548,-1,1.576
0.0604824,0.0570461,0.306585,0.195845,0.0416801,0.039741,0.0652333,0.0851235,-58,-1123,-10.2402,-1,-194.755,-1,1.58
0.0606495,0.0572116,0.306846,0.196195,0.0418517,0.0402848,0.0652938,0.0859718,-55,-1115,-10.2557,-1,-194.96,-1,1.584
0.0608172,0.0573702,0.307107,0.196534,0.0420233,0.0400716,0.0653544,0.0855008,-59,-1119,-10.2681,-1,-195.156,-1,1.588
0.0609857,0.0575319,0.307369,0.196877,0.0421951,0.0401885,0.0654149,0.0855899,-59,-1118,-10.284,-1,-195.355,-1,1.592
0.0611548,0.0576929,0.30763,0.197223,0.0423671,0.0402089,0.0654755,0.0858797,-61,-1115,-10.3005,-1,-195.552,-1,1.596
0.0613246,0.0578559,0.307892,0.197572,0.0425392,0.0403953,0.0655361,0.0863895,-61,-1110,-10.3183,-1,-195.745,-1,1.6
0.0614951,0.0580204,0.308155,0.197925,0.0427115,0.0406347,0.0655968,0.0870173,-60,-1103,-10.336,-1,-195.932,-1,1.604
0.0616663,0.0581855,0.308417,0.198282,0.0428839,0.0408518,0.0656575,0.0877526,-60,-1096,-10.353,-1,-196.111,-1,1.608
0.0618382,0.0583503,0.30868,0.198634,0.0430564,0.0409678,0.0657182,0.0878397,-60,-1094,-10.3697,-1,-196.281,-1,1.612
0.0620108,0.0585169,0.308943,0.198987,0.0432291,0.0411891,0.0657789,0.0879553,-60,-1093,-10.3868,-1,-196.45,-1,1.616
0.062184,0.0586837,0.309206,0.199335,0.0434019,0.0413654,0.0658397,0.0876006,-60,-1096,-10.4034,-1,-196.617,-1,1.62
0.062358,0.058851,0.30947,0.199685,0.0435749,0.0415118,0.0659005,0.0875944,-60,-1096,-10.42,-1,-196.786,-1,1.624
0.0625326,0.0590202,0.309733,0.200034,0.043748,0.0417821,0.0659614,0.0874751,-59,-1096,-10.4368,-1,-196.954,-1,1.628
0.062708,0.0591875,0.309997,0.200384,0.0439212,0.0417895,0.0660223,0.0875107,-61,-1096,-10.4528,-1,-197.122,-1,1.632
0.062884,0.0593585,0.310262,0.200736,0.0440946,0.0421112,0.0660832,0.0876496,-60,-1094,-10.4702,-1,-197.288,-1,1.636
0.0630607,0.0595271,0.310526,0.201087,0.0442681,0.0421241,0.0661441,0.0877135,-61,-1093,-10.4864,-1,-197.452,-1,1.64
0.0632381,0.0596981,0.310791,0.201437,0.0444418,0.0423342,0.066205,0.0876121,-61,-1094,-10.504,-1,-197.615,-1,1.644
0.0634162,0.0598681,0.311056,0.201781,0.0446156,0.042388,0.066266,0.0871126,-62,-1098,-10.5213,-1,-197.777,-1,1.648
0.0635951,0.0600453,0.311321,0.202133,0.0447895,0.0430284,0.066327,0.0873842,-58,-1095,-10.5393,-1,-197.943,-1,1.652
0.0637746,0.0602136,0.311586,0.202473,0.0449635,0.0427068,0.066388,0.0865576,-63,-1103,-10.5535,-1,-198.106,-1,1.656
0.0639548,0.0603891,0.311852,0.202822,0.0451377,0.043097,0.0664491,0.0868127,-61,-1100,-10.572,-1,-198.276,-1,1.66
0.0641357,0.0605618,0.312118,0.20317,0.045312,0.0431268,0.0665102,0.0868676,-62,-1099,-10.5886,-1,-198.441,-1,1.664
0.0643173,0.0607387,0.312384,0.203519,0.0454864,0.0434921,0.0665713,0.0869906,-60,-1098,-10.6065,-1,-198.606,-1,1.668
0.0644996,0.060917,0.31265,0.203873,0.0456609,0.0438509,0.0666324,0.0874756,-59,-1093,-10.6224,-1,-198.768,-1,1.672
0.0646826,0.0610922,0.312917,0.204216,0.0458356,0.0438309,0.0666936,0.0869353,-61,-1098,-10.6368,-1,-198.924,-1,1.676
0.0648662,0.0612687,0.313184,0.204561,0.0460104,0.0439328,0.0667548,0.0867478,-61,-1099,-10.653,-1,-199.085,-1,1.68
0.0650506,0.0614477,0.313451,0.204906,0.0461853,0.0442022,0.066816,0.0865652,-60,-1101,-10.6697,-1,-199.246,-1,1.684
0.0652357,0.0616259,0.313718,0.205252,0.0463604,0.0443243,0.0668772,0.086501,-61,-1101,-10.6857,-1,-199.409,-1,1.688
0.0654215,0.0618063,0.313986,0.205598,0.0465355,0.0445784,0.0669384,0.0865159,-60,-1101,-10.7021,-1,-199.571,-1,1.692
0.065608,0.0619856,0.314254,0.205947,0.0467108,0.0446614,0.0669997,0.0867273,-61,-1098,-10.7178,-1,-199.731,-1,1.696
0.0657952,0.0621684,0.314522,0.206297,0.0468862,0.0450047,0.067061,0.087041,-60,-1095,-10.7342,-1,-199.889,-1,1.7
0.0659831,0.0623491,0.31479,0.206648,0.0470617,0.0450608,0.0671223,0.0872789,-61,-1092,-10.7491,-1,-200.042,-1,1.704
0.0661717,0.0625325,0.315059,0.207005,0.0472373,0.0453285,0.0671836,0.087927,-60,-1086,-10.7651,-1,-200.192,-1,1.708
0.066361,0.0627149,0.315328,0.207361,0.0474131,0.0454206,0.0672449,0.0882438,-61,-1082,-10.7803,-1,-200.334,-1,1.712
0.066551,0.0629011,0.315597,0.207719,0.0475889,0.0457987,0.0673063,0.0886566,-59,-1078,-10.7961,-1,-200.473,-1,1.716
0.0667417,0.0630846,0.315866,0.208074,0.0477649,0.0458205,0.0673677,0.0887591,-61,-1077,-10.8101,-1,-200.606,-1,1.72
0.0669331,0.0632712,0.316136,0.208431,0.0479409,0.0460941,0.0674291,0.0888849,-60,-1075,-10.8255,-1,-200.737,-1,1.724
0.0671252,0.063455,0.316406,0.208785,0.0481171,0.0460462,0.0674905,0.0887385,-62,-1076,-10.8401,-1,-200.867,-1,1.728
0.0673181,0.0636419,0.316676,0.209135,0.0482934,0.0462733,0.0675519,0.0883818,-61,-1079,-10.8567,-1,-200.997,-1,1.732
0.0675116,0.0638333,0.316946,0.209495,0.0484698,0.0467991,0.0676134,0.0888926,-58,-1074,-10.8726,-1,-201.129,-1,1.736
0.0677058,0.0640143,0.317217,0.209832,0.0486463,0.0462858,0.0676748,0.0873617,-65,-1088,-10.8858,-1,-201.256,-1,1.74
0.0679008,0.0641992,0.317488,0.210171,0.0488229,0.0462604,0.0677363,0.0864562,-67,-1097,-10.9054,-1,-201.398,-1,1.744
0.0680964,0.064385,0.317759,0.210511,0.0489996,0.0463298,0.0677978,0.0859677,-68,-1101,-10.9268,-1,-201.547,-1,1.748
0.0682928,0.0645716,0.31803,0.210846,0.0491764,0.0464336,0.0678593,0.0852678,-69,-1108,-10.9493,-1,-201.701,-1,1.752
0.0684898,0.0647578,0.318302,0.211182,0.0493533,0.046474,0.0679208,0.0848012,-70,-1112,-10.9724,-1,-201.86,-1,1.756
0.0686876,0.0649447,0.318573,0.211517,0.0495303,0.0465586,0.0679823,0.0844901,-71,-1115,-10.9969,-1,-202.023,-1,1.76
0.0688861,0.065132,0.318845,0.211855,0.0497074,0.0466437,0.0680439,0.0844843,-72,-1115,-11.0223,-1,-202.189,-1,1.764
0.0690852,0.0653185,0.319118,0.212191,0.0498846,0.0466429,0.0681054,0.0843076,-74,-1117,-11.0486,-1,-202.353,-1,1.768
0.0692851,0.0655055,0.31939,0.212528,0.0500619,0.0466712,0.068167,0.0842762,-75,-1117,-11.0766,-1,-202.519,-1,1.772
0.0694857,0.0656972,0.319663,0.212867,0.0502392,0.0470931,0.0682286,0.0844281,-73,-1115,-11.1058,-1,-202.684,-1,1.776
0.069687,0.065881,0.319936,0.213193,0.0504167,0.0467122,0.0682902,0.0834352,-78,-1125,-11.1332,-1,-202.847,-1,1.78
0.0698891,0.0660696,0.320209,0.21352,0.0505943,0.0468613,0.0683518,0.0829173,-79,-1130,-11.1656,-1,-203.019,-1,1.784
0.0700918,0.0662586,0.320483,0.213858,0.0507719,0.0469895,0.0684134,0.0834357,-79,-1125,-11.1982,-1,-203.195,-1,1.788
0.0702952,0.0664469,0.320757,0.214192,0.0509497,0.0470174,0.068475,0.0834646,-81,-1124,-11.2315,-1,-203.365,-1,1.792
0.0704994,0.0666345,0.321031,0.214534,0.0511275,0.0469784,0.0685366,0.0841173,-83,-1118,-11.2662,-1,-203.533,-1,1.796
0.0707043,0.0668228,0.321305,0.214875,0.0513055,0.04701,0.0685982,0.0845236,-85,-1114,-11.3029,-1,-203.694,-1,1.8
0.0709098,0.0670132,0.32158,0.215223,0.0514835,0.0472038,0.0686599,0.0853128,-85,-1106,-11.341,-1,-203.851,-1,1.804
0.0711161,0.0672001,0.321854,0.215557,0.0516616,0.0470451,0.0687215,0.0847736,-88,-1111,-11.3791,-1,-203.999,-1,1.808
0.0713231,0.0673877,0.322129,0.215896,0.0518398,0.0469969,0.0687832,0.084702,-90,-1112,-11.4204,-1,-204.151,-1,1.812
0.0715308,0.0675749,0.322405,0.21623,0.052018,0.0469359,0.0688449,0.0843664,-93,-1115,-11.4639,-1,-204.304,-1,1.816
0.0717393,0.0677619,0.32268,0.216566,0.0521964,0.0468665,0.0689065,0.0841715,-95,-1117,-11.5097,-1,-204.459,-1,1.82
0.0719484,0.0679481,0.322956,0.216899,0.0523748,0.0467626,0.0689682,0.0838976,-98,-1119,-11.5579,-1,-204.616,-1,1.824
0.0721583,0.0681333,0.323232,0.217229,0.0525533,0.046607,0.0690299,0.083427,-101,-1124,-11.6089,-1,-204.774,-1,1.828
0.0723688,0.0683216,0.323508,0.217564,0.0527319,0.0467624,0.0690916,0.083574,-102,-1122,-11.6629,-1,-204.936,-1,1.832
0.0725801,0.0685071,0.323785,0.217886,0.0529105,0.0466357,0.0691532,0.0824916,-105,-1133,-11.7173,-1,-205.097,-1,1.836
0.0727921,0.0686888,0.324061,0.218204,0.0530893,0.0462345,0.0692149,0.0815108,-110,-1142,-11.7748,-1,-205.268,-1,1.84
0.0730048,0.0688757,0.324338,0.21853,0.0532681,0.0463989,0.0692766,0.081548,-111,-1142,-11.8376,-1,-205.447,-1,1.844
0.0732183,0.0690602,0.324615,0.218859,0.053447,0.0463069,0.0693383,0.0817743,-114,-1140,-11.9006,-1,-205.625,-1,1.848
0.0734324,0.0692492,0.324893,0.219192,0.0536259,0.0466199,0.0694,0.0822706,-113,-1135,-11.9661,-1,-205.8,-1,1.852
0.0736473,0.0694368,0.325171,0.21953,0.053805,0.0467134,0.0694617,0.082947,-114,-1129,-12.0303,-1,-205.969,-1,1.856
0.0738629,0.0696261,0.325449,0.219868,0.0539841,0.0469197,0.0695234,0.0834843,-114,-1123,-12.0953,-1,-206.13,-1,1.86
0.0740792,0.0698148,0.325727,0.220205,0.0541632,0.0469997,0.0695851,0.0837274,-115,-1121,-12.1601,-1,-206.286,-1,1.864
0.0742962,0.0700055,0.326005,0.220541,0.0543425,0.0472257,0.0696468,0.0838318,-115,-1120,-12.2257,-1,-206.439,-1,1.868
0.0745139,0.0701952,0.326284,0.22088,0.0545218,0.04729,0.0697085,0.0841606,-116,-1117,-12.291,-1,-206.589,-1,1.872
0.0747323,0.0703831,0.326563,0.221217,0.0547011,0.0471889,0.0697702,0.0841494,-119,-1117,-12.3575,-1,-206.736,-1,1.876
0.0749515,0.0705776,0.326842,0.221564,0.0548806,0.0476686,0.0698319,0.0850921,-116,-1107,-12.4263,-1,-206.882,-1,1.88
0.0751714,0.0707586,0.327122,0.221885,0.0550601,0.0468655,0.0698936,0.083446,-126,-1123,-12.493,-1,-207.019,-1,1.884
0.075392,0.0709456,0.327401,0.22222,0.0552396,0.0468196,0.0699553,0.0835003,-128,-1123,-12.5687,-1,-207.171,-1,1.888
0.0756133,0.0711249,0.327681,0.222541,0.0554193,0.0461555,0.070017,0.0824424,-136,-1133,-12.647,-1,-207.323,-1,1.892
0.0758353,0.0713049,0.327961,0.222862,0.0555989,0.0457704,0.0700787,0.081766,-142,-1140,-12.7333,-1,-207.484,-1,1.896
0.0760581,0.0714811,0.328242,0.223184,0.0557787,0.045197,0.0701404,0.0813438,-149,-1144,-12.8251,-1,-207.651,-1,1.9
0.0762816,0.0716524,0.328523,0.223506,0.0559585,0.0444116,0.0702021,0.0810048,-159,-1147,-12.9243,-1,-207.822,-1,1.904
0.0765058,0.0718203,0.328804,0.223832,0.0561383,0.0436001,0.0702637,0.0812106,-168,-1145,-13.0329,-1,-207.995,-1,1.908
0.0767307,0.0719803,0.329085,0.224158,0.0563182,0.042397,0.0703254,0.0812902,-182,-1145,-13.1513,-1,-208.165,-1,1.912
0.0769563,0.0721361,0.329366,0.224487,0.0564982,0.0412493,0.0703871,0.0816025,-195,-1142,-13.283,-1,-208.334,-1,1.916
0.0771827,0.0722874,0.329648,0.224822,0.0566782,0.04011,0.0704487,0.0823576,-208,-1135,-13.4275,-1,-208.499,-1,1.92
0.0774097,0.0724353,0.32993,0.225149,0.0568583,0.0390625,0.0705104,0.0821413,-220,-1137,-13.5847,-1,-208.656,-1,1.924
0.0776375,0.072588,0.330212,0.225482,0.0570384,0.0387673,0.070572,0.0824865,-225,-1133,-13.7533,-1,-208.815,-1,1.928
0.077866,0.0727483,0.330494,0.225816,0.0572186,0.0392038,0.0706337,0.082803,-223,-1130,-13.9259,-1,-208.969,-1,1.932
0.0780953,0.0729183,0.330777,0.226153,0.0573988,0.040301,0.0706953,0.083302,-215,-1126,-14.0956,-1,-209.12,-1,1.936
0.0783252,0.0730935,0.33106,0.226478,0.057579,0.0414643,0.0707569,0.0825981,-207,-1133,-14.2564,-1,-209.265,-1,1.94
0.0785559,0.07328,0.331343,0.226805,0.0577594,0.04319,0.0708185,0.0823592,-193,-1135,-14.4073,-1,-209.417,-1,1.944
0.0787873,0.0734797,0.331626,0.227129,0.0579397,0.0454345,0.0708801,0.081912,-174,-1139,-14.5429,-1,-209.571,-1,1.948
0.0790194,0.0736877,0.33191,0.227457,0.0581201,0.0476218,0.0709417,0.0819018,-156,-1140,-14.6586,-1,-209.728,-1,1.952
0.0792523,0.0739043,0.332194,0.227785,0.0583006,0.0497998,0.0710033,0.0819238,-138,-1139,-14.7549,-1,-209.885,-1,1.956
0.0794858,0.0741279,0.332478,0.228121,0.058481,0.0518276,0.0710649,0.0826006,-121,-1133,-14.832,-1,-210.041,-1,1.96
0.0797201,0.0743569,0.332762,0.228459,0.0586616,0.0536401,0.0711265,0.0832822,-106,-1126,-14.8914,-1,-210.189,-1,1.964
0.0799551,0.0745898,0.333047,0.228798,0.0588421,0.0551652,0.071188,0.0837654,-94,-1122,-14.9353,-1,-210.33,-1,1.968
0.0801909,0.0748237,0.333332,0.229136,0.0590228,0.0562682,0.0712496,0.0839723,-85,-1120,-14.9664,-1,-210.466,-1,1.972
0.0804273,0.07506,0.333617,0.229475,0.0592034,0.0572051,0.0713111,0.084283,-78,-1117,-14.9887,-1,-210.599,-1,1.976
0.0806645,0.0752967,0.333902,0.229817,0.0593841,0.0578585,0.0713726,0.0846917,-74,-1113,-15.0039,-1,-210.728,-1,1.98
0.0809024,0.075534,0.334188,0.230163,0.0595648,0.0583517,0.0714341,0.0853096,-71,-1107,-15.0147,-1,-210.853,-1,1.984
0.081141,0.0757741,0.334474,0.230519,0.0597455,0.0589108,0.0714956,0.086499,-68,-1095,-15.0223,-1,-210.97,-1,1.988
0.0813803,0.0760105,0.33476,0.230868,0.0599263,0.0589669,0.0715571,0.0867448,-69,-1093,-15.0267,-1,-211.076,-1,1.992
0.0816204,0.0762461,0.335046,0.231219,0.0601072,0.0589467,0.0716186,0.0870527,-71,-1090,-15.0322,-1,-211.178,-1,1.996
0.0818612,0.0764831,0.335333,0.231568,0.060288,0.0590484,0.07168,0.0871715,-72,-1088,-15.0397,-1,-211.277,-1,2
0.0821027,0.0767287,0.33562,0.231928,0.0604689,0.0598359,0.0717414,0.0880857,-66,-1079,-15.0474,-1,-211.374,-1,2.004
0.082345,0.0769585,0.335907,0.232266,0.0606498,0.0590366,0.0718028,0.0869101,-75,-1091,-15.0503,-1,-211.462,-1,2.008
0.0825879,0.0771958,0.336194,0.232618,0.0608307,0.0591371,0.0718642,0.0872492,-76,-1087,-15.062,-1,-211.561,-1,2.012
0.0828316,0.0774342,0.336482,0.232971,0.0610117,0.0592905,0.0719256,0.0875617,-76,-1084,-15.0745,-1,-211.655,-1,2.016
0.083076,0.0776785,0.33677,0.233334,0.0611927,0.0598822,0.071987,0.0886625,-72,-1073,-15.0869,-1,-211.746,-1,2.02
0.0833211,0.0779107,0.337058,0.233678,0.0613737,0.0592689,0.0720483,0.0877841,-80,-1082,-15.0962,-1,-211.826,-1,2.024
0.083567,0.0781511,0.337346,0.234031,0.0615547,0.0595511,0.0721097,0.0879471,-79,-1080,-15.1125,-1,-211.914,-1,2.028
0.0838136,0.078393,0.337635,0.234381,0.0617358,0.0598544,0.072171,0.0877966,-78,-1082,-15.1277,-1,-212,-1,2.032
0.0840609,0.0786338,0.337923,0.234726,0.0619169,0.0599702,0.0722323,0.0872932,-78,-1086,-15.142,-1,-212.088,-1,2.036
0.0843089,0.078878,0.338212,0.235074,0.062098,0.0603353,0.0722936,0.0871303,-77,-1088,-15.1566,-1,-212.179,-1,2.04
0.0845577,0.0791226,0.338502,0.235417,0.0622791,0.0606075,0.0723548,0.0866763,-76,-1092,-15.1696,-1,-212.272,-1,2.044
0.0848071,0.079369,0.338791,0.235759,0.0624602,0.0609329,0.072416,0.0862872,-75,-1096,-15.1816,-1,-212.369,-1,2.048
0.0850573,0.0796181,0.339081,0.236098,0.0626414,0.0613802,0.0724773,0.0857975,-72,-1101,-15.1922,-1,-212.47,-1,2.052
0.0853083,0.0798686,0.339371,0.236433,0.0628226,0.0617936,0.0725385,0.0850967,-70,-1107,-15.2001,-1,-212.575,-1,2.056
0.0855599,0.0801145,0.339661,0.23676,0.0630037,0.0616948,0.0725996,0.084025,-73,-1118,-15.2062,-1,-212.687,-1,2.06
0.0858123,0.080364,0.339952,0.237091,0.0631849,0.0619169,0.0726608,0.0835695,-72,-1122,-15.2148,-1,-212.809,-1,2.064
0.0860654,0.0806169,0.340243,0.237423,0.0633662,0.0623529,0.0727219,0.0833523,-70,-1125,-15.2228,-1,-212.935,-1,2.068
0.0863192,0.0808698,0.340534,0.237757,0.0635474,0.0626436,0.072783,0.0834378,-69,-1124,-15.2284,-1,-213.062,-1,2.072
0.0865738,0.0811172,0.340825,0.238088,0.0637286,0.0623767,0.0728441,0.0832357,-73,-1126,-15.2334,-1,-213.189,-1,2.076
0.0868291,0.081368,0.341116,0.238426,0.0639099,0.0624867,0.0729051,0.083648,-74,-1122,-15.2424,-1,-213.316,-1,2.08
0.0870851,0.0816164,0.341408,0.238772,0.0640911,0.0623585,0.0729662,0.0845851,-77,-1113,-15.2522,-1,-213.439,-1,2.084
0.0873418,0.081861,0.3417,0.23912,0.0642724,0.0619563,0.0730272,0.0853537,-82,-1106,-15.2652,-1,-213.552,-1,2.088
0.0875992,0.082106,0.341992,0.239471,0.0644537,0.0617169,0.0730882,0.086154,-86,-1098,-15.2837,-1,-213.657,-1,2.092
0.0878574,0.0823475,0.342285,0.239825,0.0646349,0.0612695,0.0731491,0.0869755,-92,-1090,-15.3063,-1,-213.753,-1,2.096
0.0881163,0.0825903,0.342578,0.240185,0.0648162,0.0610863,0.0732101,0.0880126,-96,-1080,-15.3348,-1,-213.841,-1,2.1
0.088376,0.0828284,0.342871,0.240543,0.0649975,0.0605612,0.073271,0.0884737,-102,-1075,-15.3669,-1,-213.918,-1,2.104
0.0886363,0.0830637,0.343164,0.2409,0.0651788,0.0599807,0.0733318,0.0887235,-109,-1073,-15.4059,-1,-213.99,-1,2.108
0.0888974,0.0832982,0.343457,0.241266,0.0653601,0.0595362,0.0733927,0.0896386,-115,-1064,-15.4521,-1,-214.058,-1,2.112
0.0891592,0.0835353,0.343751,0.241639,0.0655414,0.0594414,0.0734535,0.090882,-118,-1052,-15.504,-1,-214.117,-1,2.116
0.0894217,0.0837709,0.344045,0.242021,0.0657227,0.059263,0.0735143,0.0923732,-122,-1037,-15.5586,-1,-214.163,-1,2.12
0.089685,0.0840003,0.344339,0.242397,0.0659039,0.0586258,0.0735751,0.0929067,-129,-1031,-15.617,-1,-214.194,-1,2.124
0.0899489,0.0842311,0.344633,0.242778,0.0660852,0.0583162,0.0736358,0.093723,-134,-1023,-15.6829,-1,-214.219,-1,2.128
0.0902136,0.0844626,0.344928,0.243159,0.0662665,0.0581674,0.0736965,0.0942672,-138,-1018,-15.7535,-1,-214.236,-1,2.132
0.0904791,0.0846889,0.345223,0.243542,0.0664478,0.0576363,0.0737572,0.0946875,-144,-1013,-15.8274,-1,-214.247,-1,2.136
0.0907452,0.0849165,0.345518,0.243924,0.066629,0.0573974,0.0738178,0.0949678,-149,-1010,-15.9079,-1,-214.253,-1,2.14
0.0910121,0.0851439,0.345814,0.24431,0.0668103,0.0572094,0.0738785,0.0954713,-152,-1005,-15.9924,-1,-214.257,-1,2.144
0.0912797,0.0853688,0.346109,0.244691,0.0669916,0.0568825,0.0739391,0.0954327,-157,-1005,-16.0805,-1,-214.255,-1,2.148
0.091548,0.0855951,0.346405,0.245072,0.0671728,0.0567797,0.0739996,0.095407,-160,-1005,-16.1733,-1,-214.253,-1,2.152
0.0918171,0.085821,0.346701,0.245456,0.067354,0.0566824,0.0740601,0.0955338,-163,-1003,-16.2688,-1,-214.25,-1,2.156
0.0920869,0.0860414,0.346998,0.245832,0.0675353,0.0561569,0.0741206,0.0951001,-170,-1007,-16.3672,-1,-214.247,-1,2.16
0.0923574,0.0862657,0.347294,0.246211,0.0677165,0.0561232,0.0741811,0.0949837,-173,-1008,-16.472,-1,-214.247,-1,2.164
0.0926286,0.0864868,0.347591,0.246594,0.0678977,0.0558417,0.0742415,0.0952228,-177,-1005,-16.5791,-1,-214.248,-1,2.168
0.0929006,0.0867089,0.347888,0.24698,0.0680788,0.0557404,0.0743019,0.0956413,-181,-1001,-16.6904,-1,-214.246,-1,2.172
0.0931732,0.0869342,0.348185,0.247369,0.06826,0.0559319,0.0743623,0.0961219,-181,-996,-16.8042,-1,-214.24,-1,2.176
0.0934466,0.0871577,0.348483,0.247754,0.0684412,0.0559157,0.0744226,0.0962119,-183,-994,-16.918,-1,-214.228,-1,2.18
0.0937208,0.0873854,0.348781,0.248136,0.0686223,0.0562503,0.0744829,0.0959841,-182,-996,-17.0334,-1,-214.216,-1,2.184
0.0939956,0.0876145,0.349079,0.248512,0.0688034,0.0565886,0.0745431,0.0953139,-181,-1002,-17.1473,-1,-214.206,-1,2.188
0.0942712,0.0878456,0.349377,0.248884,0.0689845,0.0569869,0.0746034,0.0945504,-180,-1009,-17.2597,-1,-214.202,-1,2.192
0.0945475,0.0880764,0.349676,0.249248,0.0691656,0.0572236,0.0746635,0.0933792,-180,-1021,-17.3701,-1,-214.206,-1,2.196
0.0948245,0.0883082,0.349974,0.249602,0.0693466,0.0574678,0.0747237,0.0917635,-179,-1036,-17.4798,-1,-214.221,-1,2.2
0.0951023,0.0885421,0.350273,0.249954,0.0695277,0.0578033,0.0747838,0.0904848,-178,-1048,-17.589,-1,-214.253,-1,2.204
0.0953807,0.0887701,0.350573,0.250286,0.0697087,0.0575375,0.0748439,0.0879625,-183,-1073,-17.6969,-1,-214.297,-1,2.208
0.0956599,0.0889971,0.350872,0.250617,0.0698897,0.057274,0.0749039,0.0862522,-188,-1089,-17.8092,-1,-214.367,-1,2.212
0.0959399,0.0892265,0.351172,0.250947,0.0700706,0.0572998,0.0749639,0.0849968,-189,-1102,-17.9254,-1,-214.452,-1,2.216
0.0962205,0.0894463,0.351472,0.251266,0.0702516,0.0565109,0.0750239,0.0832098,-199,-1119,-18.0437,-1,-214.551,-1,2.22
0.0965019,0.0896681,0.351772,0.251594,0.0704325,0.0561577,0.0750838,0.0828245,-204,-1123,-18.1709,-1,-214.666,-1,2.224
0.096784,0.0898878,0.352073,0.251929,0.0706134,0.0557495,0.0751437,0.0831148,-210,-1120,-18.3033,-1,-214.785,-1,2.228
0.0970668,0.0901072,0.352373,0.252273,0.0707942,0.0554486,0.0752035,0.0840856,-215,-1111,-18.4411,-1,-214.9,-1,2.232
0.0973503,0.0903224,0.352674,0.252626,0.070975,0.0549025,0.0752633,0.0854814,-223,-1098,-18.5838,-1,-215.004,-1,2.236
0.0976346,0.0905422,0.352975,0.252989,0.0711558,0.0549127,0.0753231,0.0872469,-225,-1081,-18.7329,-1,-215.094,-1,2.24
0.0979196,0.0907595,0.353277,0.253356,0.0713366,0.0547179,0.0753828,0.0887405,-229,-1066,-18.8838,-1,-215.166,-1,2.244
0.0982053,0.0909764,0.353578,0.253727,0.0715173,0.0545593,0.0754425,0.090053,-233,-1053,-19.0383,-1,-215.223,-1,2.248
0.0984917,0.0911962,0.35388,0.254103,0.071698,0.0546839,0.0755021,0.0914175,-234,-1040,-19.1957,-1,-215.267,-1,2.252
0.0987789,0.0914169,0.354182,0.254488,0.0718786,0.0548533,0.0755617,0.0930181,-234,-1024,-19.3536,-1,-215.296,-1,2.256
0.0990667,0.0916343,0.354485,0.254871,0.0720592,0.0546784,0.0756212,0.0939124,-238,-1016,-19.5118,-1,-215.31,-1,2.26
0.0993553,0.091853,0.354787,0.255263,0.0722398,0.0546769,0.0756808,0.0952572,-241,-1002,-19.6732,-1,-215.313,-1,2.264
0.0996446,0.0920692,0.35509,0.255657,0.0724204,0.0544744,0.0757402,0.0963264,-245,-992,-19.8365,-1,-215.304,-1,2.268
0.0999347,0.0922848,0.355393,0.256055,0.0726009,0.0542818,0.0757996,0.0974423,-249,-980,-20.0034,-1,-215.283,-1,2.272
0.100225,0.0924994,0.355697,0.25646,0.0727813,0.054067,0.075859,0.0987045,-253,-968,-20.1738,-1,-215.251,-1,2.276
0.100517,0.0927105,0.356,0.256865,0.0729617,0.0536359,0.0759183,0.099546,-260,-959,-20.3481,-1,-215.205,-1,2.28
0.100809,0.0929195,0.356304,0.257273,0.0731421,0.0531758,0.0759776,0.100366,-266,-951,-20.5281,-1,-215.152,-1,2.284
0.101102,0.0931244,0.356608,0.257682,0.0733225,0.0525236,0.0760369,0.10097,-275,-944,-20.7143,-1,-215.09,-1,2.288
0.101396,0.0933303,0.356912,0.25809,0.0735027,0.0521751,0.0760961,0.101316,-280,-940,-20.9082,-1,-215.021,-1,2.292
0.10169,0.093532,0.357217,0.258494,0.073683,0.0515973,0.0761552,0.101258,-288,-940,-21.1073,-1,-214.95,-1,2.296
0.101985,0.0937321,0.357522,0.258894,0.0738632,0.0510681,0.0762143,0.100845,-295,-944,-21.3134,-1,-214.879,-1,2.3
0.102281,0.0939314,0.357827,0.259291,0.0740433,0.0506578,0.0762734,0.100282,-302,-949,-21.5262,-1,-214.812,-1,2.304
0.102578,0.0941349,0.358132,0.259696,0.0742234,0.0507297,0.0763324,0.100626,-303,-945,-21.7442,-1,-214.749,-1,2.308
0.102875,0.094326,0.358437,0.260075,0.0744035,0.0497412,0.0763914,0.0986392,-315,-964,-21.9639,-1,-214.685,-1,2.312
0.103173,0.0945184,0.358743,0.260459,0.0745835,0.0491973,0.0764503,0.097775,-323,-972,-22.1944,-1,-214.639,-1,2.316
0.103471,0.0947115,0.359049,0.260839,0.0747634,0.0488924,0.0765091,0.0968245,-328,-981,-22.4315,-1,-214.603,-1,2.32
0.103771,0.0949016,0.359355,0.261216,0.0749433,0.0484299,0.076568,0.0960182,-335,-988,-22.6733,-1,-214.575,-1,2.324
0.104071,0.0950906,0.359661,0.26159,0.0751232,0.0480352,0.0766267,0.0951063,-341,-997,-22.9211,-1,-214.555,-1,2.328
0.104372,0.0952771,0.359968,0.26196,0.075303,0.0475706,0.0766854,0.0942969,-348,-1004,-23.1743,-1,-214.545,-1,2.332
0.104673,0.0954658,0.360275,0.262328,0.0754827,0.0474336,0.0767441,0.0934693,-352,-1012,-23.4335,-1,-214.542,-1,2.336
0.104976,0.0956506,0.360582,0.262693,0.0756624,0.0470255,0.0768027,0.0927737,-358,-1019,-23.6957,-1,-214.547,-1,2.34
0.105279,0.0958382,0.360889,0.263058,0.075842,0.0469838,0.0768613,0.0922523,-362,-1024,-23.9632,-1,-214.559,-1,2.344
0.105582,0.0960244,0.361197,0.263426,0.0760216,0.0468409,0.0769198,0.0921351,-366,-1025,-24.2329,-1,-214.576,-1,2.348
0.105887,0.0962127,0.361505,0.26379,0.0762011,0.0469183,0.0769783,0.0918266,-368,-1028,-24.5054,-1,-214.594,-1,2.352
0.106192,0.0963996,0.361813,0.264155,0.0763806,0.0468548,0.0770367,0.0915922,-371,-1030,-24.779,-1,-214.614,-1,2.356
0.106498,0.0965858,0.362121,0.264515,0.0765599,0.0467548,0.077095,0.0910328,-375,-1035,-25.0548,-1,-214.637,-1,2.36
0.106805,0.0967731,0.362429,0.264871,0.0767393,0.0467746,0.0771533,0.0904296,-377,-1041,-25.3331,-1,-214.666,-1,2.364
0.107112,0.0969628,0.362738,0.265233,0.0769185,0.0469893,0.0772116,0.0904017,-378,-1041,-25.6128,-1,-214.7,-1,2.368
0.10742,0.0971459,0.363047,0.26558,0.0770977,0.0465854,0.0772698,0.0891739,-385,-1053,-25.8924,-1,-214.735,-1,2.372
0.107729,0.0973269,0.363356,0.265925,0.0772769,0.0461434,0.0773279,0.0882402,-391,-1062,-26.1776,-1,-214.782,-1,2.376
0.108038,0.0975104,0.363666,0.266273,0.0774559,0.0460502,0.077386,0.0877905,-395,-1067,-26.4684,-1,-214.838,-1,2.38
0.108348,0.0976945,0.363975,0.266622,0.077635,0.0460457,0.0774441,0.0876058,-398,-1068,-26.7617,-1,-214.898,-1,2.384
0.108659,0.0978804,0.364285,0.266973,0.0778139,0.0461867,0.077502,0.0876842,-400,-1068,-27.0565,-1,-214.96,-1,2.388
0.108971,0.0980687,0.364595,0.267326,0.0779928,0.0464822,0.07756,0.0879093,-400,-1066,-27.3516,-1,-215.02,-1,2.392
0.109283,0.0982604,0.364906,0.267679,0.0781716,0.0469671,0.0776178,0.0879729,-398,-1065,-27.6454,-1,-215.079,-1,2.396
0.109596,0.0984532,0.365216,0.268032,0.0783503,0.0473767,0.0776756,0.0881017,-397,-1064,-27.9362,-1,-215.136,-1,2.4
0.10991,0.0986533,0.365527,0.268387,0.0785289,0.0482544,0.0777334,0.0883028,-392,-1062,-28.2246,-1,-215.192,-1,2.404
0.110224,0.0988564,0.365838,0.268741,0.0787075,0.0490987,0.0777911,0.0883792,-387,-1061,-28.5063,-1,-215.246,-1,2.408
0.11054,0.0990658,0.366149,0.269095,0.078886,0.0501798,0.0778487,0.0883726,-380,-1062,-28.7815,-1,-215.299,-1,2.412
0.110855,0.0992789,0.366461,0.269445,0.0790645,0.0512172,0.0779063,0.0880803,-373,-1065,-29.0481,-1,-215.352,-1,2.416
0.111172,0.0994952,0.366773,0.269793,0.0792428,0.0521679,0.0779639,0.0877126,-367,-1068,-29.3066,-1,-215.408,-1,2.42
0.111489,0.0997177,0.367085,0.270137,0.0794211,0.05332,0.0780213,0.0871796,-359,-1074,-29.5577,-1,-215.467,-1,2.424
0.111807,0.0999399,0.367397,0.270481,0.0795993,0.0540592,0.0780787,0.0867667,-355,-1078,-29.7997,-1,-215.532,-1,2.428
0.112126,0.100161,0.367709,0.270821,0.0797775,0.0544944,0.0781361,0.0862323,-354,-1083,-30.0366,-1,-215.601,-1,2.432
0.112446,0.100385,0.368022,0.271162,0.0799555,0.0549862,0.0781934,0.0858473,-352,-1087,-30.271,-1,-215.675,-1,2.436
0.112766,0.100607,0.368335,0.271502,0.0801335,0.0551412,0.0782506,0.0855906,-353,-1090,-30.5026,-1,-215.753,-1,2.44
0.113087,0.100828,0.368648,0.271845,0.0803114,0.0551582,0.0783078,0.0856498,-356,-1089,-30.7345,-1,-215.833,-1,2.444
0.113408,0.101049,0.368961,0.272187,0.0804892,0.0551695,0.0783649,0.0856029,-358,-1090,-30.9678,-1,-215.912,-1,2.448
0.113731,0.101264,0.369275,0.272527,0.0806669,0.0547452,0.0784219,0.0853701,-364,-1092,-31.2029,-1,-215.992,-1,2.452
0.114054,0.101481,0.369589,0.272865,0.0808446,0.0545487,0.0784789,0.0851285,-369,-1095,-31.4435,-1,-216.074,-1,2.456
0.114377,0.101695,0.369903,0.273204,0.0810222,0.054245,0.0785358,0.0849674,-374,-1097,-31.6877,-1,-216.159,-1,2.46
0.114702,0.10191,0.370217,0.27354,0.0811996,0.0540137,0.0785927,0.0846297,-379,-1100,-31.9363,-1,-216.244,-1,2.464
0.115027,0.102122,0.370532,0.273876,0.081377,0.0537443,0.0786495,0.0844622,-384,-1102,-32.1887,-1,-216.334,-1,2.468
0.115353,0.102341,0.370846,0.274228,0.0815543,0.0540542,0.0787062,0.0855885,-384,-1092,-32.445,-1,-216.424,-1,2.472
0.115679,0.102548,0.371161,0.274556,0.0817316,0.0532531,0.0787629,0.0844392,-394,-1103,-32.7006,-1,-216.504,-1,2.476
0.116007,0.102758,0.371476,0.274898,0.0819087,0.053007,0.0788195,0.084767,-399,-1100,-32.965,-1,-216.594,-1,2.48
0.116335,0.102968,0.371792,0.275242,0.0820857,0.0529004,0.078876,0.0851583,-402,-1097,-33.2333,-1,-216.681,-1,2.484
0.116663,0.103184,0.372107,0.275594,0.0822627,0.0532613,0.0789325,0.0861677,-402,-1087,-33.504,-1,-216.764,-1,2.488
0.116993,0.103394,0.372423,0.275934,0.0824395,0.0529548,0.0789889,0.0857754,-407,-1091,-33.7732,-1,-216.837,-1,2.492
0.117323,0.103607,0.372739,0.276281,0.0826163,0.0530384,0.0790453,0.0860609,-409,-1089,-34.0467,-1,-216.914,-1,2.496
0.117654,0.10382,0.373056,0.276628,0.082793,0.0531805,0.0791016,0.0863088,-411,-1086,-34.321,-1,-216.987,-1,2.5
0.117985,0.104037,0.373372,0.276978,0.0829695,0.0535056,0.0791578,0.0867332,-410,-1082,-34.5954,-1,-217.058,-1,2.504
0.118318,0.104257,0.373689,0.277332,0.083146,0.0539814,0.0792139,0.0872753,-409,-1077,-34.8683,-1,-217.125,-1,2.508
0.11865,0.10447,0.374006,0.277676,0.0833224,0.0537516,0.07927,0.0868593,-414,-1082,-35.1387,-1,-217.187,-1,2.512
0.118984,0.104688,0.374323,0.278022,0.0834987,0.0540303,0.079326,0.0867547,-414,-1083,-35.4126,-1,-217.252,-1,2.516
0.119318,0.10491,0.37464,0.278377,0.0836749,0.0544752,0.079382,0.0873759,-412,-1077,-35.6854,-1,-217.319,-1,2.52
0.119654,0.105123,0.374958,0.278716,0.083851,0.054052,0.0794379,0.0864945,-419,-1086,-35.9561,-1,-217.379,-1,2.524
0.119989,0.105341,0.375276,0.279065,0.084027,0.0542305,0.0794937,0.0867706,-420,-1083,-36.232,-1,-217.448,-1,2.528
0.120326,0.105556,0.375594,0.279417,0.0842029,0.0540616,0.0795494,0.0872138,-424,-1079,-36.5081,-1,-217.514,-1,2.532
0.120663,0.105775,0.375912,0.27978,0.0843787,0.0542945,0.0796051,0.0884018,-425,-1068,-36.7871,-1,-217.575,-1,2.536
0.121001,0.105993,0.376231,0.280143,0.0845544,0.0543346,0.0796607,0.089165,-427,-1061,-37.0656,-1,-217.624,-1,2.54
0.121339,0.106207,0.37655,0.280504,0.0847299,0.0540735,0.0797162,0.0894723,-432,-1058,-37.3455,-1,-217.666,-1,2.544
0.121679,0.106426,0.376869,0.280869,0.0849054,0.0543312,0.0797717,0.0900802,-433,-1052,-37.6291,-1,-217.704,-1,2.548
0.122019,0.106649,0.377188,0.281236,0.0850808,0.0548197,0.0798271,0.0906294,-431,-1047,-37.9117,-1,-217.736,-1,2.552
0.122359,0.106875,0.377507,0.281597,0.0852561,0.0553758,0.0798824,0.0905637,-429,-1047,-38.1913,-1,-217.763,-1,2.556
0.122701,0.107107,0.377827,0.281959,0.0854312,0.0562071,0.0799377,0.0904911,-424,-1048,-38.467,-1,-217.791,-1,2.56
0.123043,0.10734,0.378147,0.282318,0.0856063,0.0569341,0.0799929,0.09027,-420,-1050,-38.7366,-1,-217.819,-1,2.564
0.123385,0.107581,0.378467,0.28268,0.0857812,0.0579945,0.080048,0.0903241,-413,-1050,-39.0008,-1,-217.85,-1,2.568
0.123729,0.107823,0.378787,0.283038,0.0859561,0.0588742,0.080103,0.090101,-408,-1052,-39.2566,-1,-217.88,-1,2.572
0.124073,0.10807,0.379108,0.283399,0.0861308,0.0598062,0.080158,0.0900963,-402,-1052,-39.5058,-1,-217.912,-1,2.576
0.124418,0.108319,0.379428,0.283756,0.0863054,0.0606291,0.0802129,0.0898628,-397,-1054,-39.7479,-1,-217.944,-1,2.58
0.124764,0.108572,0.379749,0.284113,0.0864799,0.0614943,0.0802677,0.0896208,-392,-1057,-39.9837,-1,-217.979,-1,2.584
0.12511,0.108825,0.38007,0.284467,0.0866543,0.0621,0.0803224,0.0892867,-389,-1060,-40.2133,-1,-218.015,-1,2.588
0.125457,0.10908,0.380392,0.284823,0.0868286,0.0626477,0.0803771,0.0891791,-386,-1061,-40.4387,-1,-218.056,-1,2.592
0.125804,0.109336,0.380713,0.285179,0.0870028,0.0630704,0.0804317,0.0891362,-385,-1062,-40.6607,-1,-218.097,-1,2.596
0.126153,0.109594,0.381035,0.285536,0.0871768,0.0635825,0.0804862,0.0891364,-383,-1062,-40.8802,-1,-218.138,-1,2.6
0.126502,0.109854,0.381357,0.285892,0.0873508,0.0640391,0.0805407,0.0891077,-381,-1063,-41.0966,-1,-218.18,-1,2.604
0.126852,0.110116,0.38168,0.286248,0.0875246,0.0645451,0.0805951,0.0890886,-379,-1063,-41.3102,-1,-218.221,-1,2.608
0.127202,0.110385,0.382002,0.286603,0.0876983,0.0654582,0.0806494,0.0889607,-373,-1064,-41.5203,-1,-218.263,-1,2.612
0.127553,0.110656,0.382325,0.286956,0.0878718,0.0661821,0.0807036,0.0886738,-369,-1067,-41.7237,-1,-218.307,-1,2.616
0.127905,0.110932,0.382648,0.287309,0.0880453,0.0671253,0.0807577,0.0885978,-363,-1068,-41.9216,-1,-218.353,-1,2.62
0.128258,0.111209,0.382971,0.287663,0.0882186,0.0678405,0.0808118,0.0885471,-359,-1069,-42.1125,-1,-218.4,-1,2.624
0.128611,0.111491,0.383294,0.288022,0.0883919,0.0687492,0.0808658,0.088974,-353,-1065,-42.2981,-1,-218.446,-1,2.628
0.128965,0.111777,0.383618,0.288385,0.088565,0.0696141,0.0809197,0.0894889,-347,-1060,-42.4768,-1,-218.489,-1,2.632
0.129319,0.112064,0.383942,0.288749,0.0887379,0.0703347,0.0809736,0.0900625,-343,-1054,-42.649,-1,-218.526,-1,2.636
0.129675,0.112353,0.384266,0.289116,0.0889108,0.070959,0.0810273,0.0905888,-339,-1049,-42.8162,-1,-218.558,-1,2.64
0.130031,0.112642,0.38459,0.289486,0.0890835,0.0714328,0.081081,0.0911988,-337,-1044,-42.9791,-1,-218.584,-1,2.644
0.130387,0.112932,0.384914,0.289856,0.0892561,0.0717774,0.0811346,0.0916343,-336,-1039,-43.1393,-1,-218.604,-1,2.648
0.130745,0.113225,0.385239,0.290232,0.0894286,0.0722375,0.0811881,0.0924141,-335,-1032,-43.2977,-1,-218.62,-1,2.652
0.131103,0.113514,0.385564,0.290607,0.0896009,0.0722852,0.0812416,0.0928763,-336,-1027,-43.4537,-1,-218.628,-1,2.656
0.131461,0.113804,0.385889,0.290986,0.0897731,0.0723745,0.0812949,0.0935012,-338,-1021,-43.6107,-1,-218.631,-1,2.66
0.131821,0.11409,0.386214,0.291363,0.0899452,0.0720885,0.0813482,0.0937738,-342,-1019,-43.7687,-1,-218.628,-1,2.664
0.132181,0.114374,0.38654,0.291741,0.0901172,0.0716676,0.0814014,0.0939844,-348,-1017,-43.9309,-1,-218.623,-1,2.668
0.132542,0.114657,0.386865,0.292115,0.090289,0.0714157,0.0814546,0.0938368,-353,-1018,-44.0985,-1,-218.615,-1,2.672
0.132903,0.114938,0.387191,0.292487,0.0904607,0.0709887,0.0815076,0.0935945,-359,-1020,-44.2701,-1,-218.609,-1,2.676
0.133265,0.11522,0.387517,0.292856,0.0906322,0.0708192,0.0815606,0.0931162,-363,-1025,-44.4471,-1,-218.606,-1,2.68
0.133628,0.115501,0.387844,0.293223,0.0908037,0.0706774,0.0816134,0.0926535,-366,-1029,-44.6272,-1,-218.607,-1,2.684
0.133992,0.115789,0.38817,0.293594,0.0909749,0.0711011,0.0816662,0.0926904,-365,-1029,-44.8098,-1,-218.613,-1,2.688
0.134356,0.116075,0.388497,0.293955,0.0911461,0.071182,0.0817189,0.0919089,-366,-1037,-44.9901,-1,-218.619,-1,2.692
0.134721,0.116364,0.388824,0.294318,0.0913171,0.0715527,0.0817716,0.0914743,-365,-1041,-45.1711,-1,-218.633,-1,2.696
0.135087,0.116659,0.389151,0.294682,0.091488,0.0722893,0.0818241,0.0913573,-361,-1042,-45.3499,-1,-218.65,-1,2.7
0.135453,0.11696,0.389479,0.295052,0.0916588,0.0732985,0.0818766,0.0917111,-354,-1039,-45.5233,-1,-218.669,-1,2.704
0.13582,0.117255,0.389806,0.295413,0.0918294,0.0734531,0.081929,0.0912561,-355,-1043,-45.6892,-1,-218.684,-1,2.708
0.136188,0.117557,0.390134,0.295777,0.0919998,0.0741608,0.0819813,0.091183,-350,-1044,-45.855,-1,-218.704,-1,2.712
0.136556,0.117863,0.390462,0.296147,0.0921702,0.0748629,0.0820335,0.0915662,-346,-1040,-46.0157,-1,-218.725,-1,2.716
0.136925,0.118171,0.39079,0.296519,0.0923403,0.0755901,0.0820856,0.0920519,-342,-1036,-46.1713,-1,-218.741,-1,2.72
0.137295,0.11848,0.391119,0.296893,0.0925104,0.0761901,0.0821377,0.0925197,-339,-1031,-46.3218,-1,-218.753,-1,2.724
0.137665,0.118792,0.391447,0.297266,0.0926803,0.076734,0.0821896,0.0928316,-336,-1028,-46.4683,-1,-218.76,-1,2.728
0.138036,0.119102,0.391776,0.29764,0.09285,0.077039,0.0822415,0.0929819,-335,-1027,-46.6114,-1,-218.764,-1,2.732
0.138408,0.119416,0.392105,0.298019,0.0930197,0.0775303,0.0822933,0.0936004,-333,-1021,-46.753,-1,-218.766,-1,2.736
0.13878,0.119724,0.392435,0.298395,0.0931891,0.0773396,0.082345,0.0937536,-337,-1019,-46.892,-1,-218.762,-1,2.74
0.139153,0.120018,0.392764,0.298763,0.0933585,0.0760896,0.0823966,0.0931647,-350,-1025,-47.035,-1,-218.758,-1,2.744
0.139527,0.120318,0.393094,0.29914,0.0935276,0.0756593,0.0824481,0.0934919,-356,-1022,-47.1905,-1,-218.758,-1,2.748
0.139902,0.120613,0.393424,0.299521,0.0936967,0.0750846,0.0824996,0.0940843,-363,-1016,-47.3517,-1,-218.755,-1,2.752
0.140277,0.120912,0.393754,0.299905,0.0938655,0.074903,0.0825509,0.0947672,-367,-1009,-47.5195,-1,-218.747,-1,2.756
0.140653,0.121208,0.394084,0.300291,0.0940343,0.0746379,0.0826022,0.0953088,-371,-1004,-47.6905,-1,-218.731,-1,2.76
0.141029,0.121503,0.394415,0.300673,0.0942029,0.0743749,0.0826533,0.095382,-376,-1003,-47.8655,-1,-218.71,-1,2.764
0.141406,0.121803,0.394745,0.301059,0.0943713,0.0745738,0.0827044,0.0957474,-376,-1000,-48.0441,-1,-218.689,-1,2.768
0.141784,0.122105,0.395076,0.301445,0.0945396,0.0748503,0.0827554,0.0959911,-376,-997,-48.2223,-1,-218.664,-1,2.772
0.142162,0.122411,0.395407,0.301834,0.0947077,0.0754378,0.0828063,0.0964126,-373,-993,-48.3993,-1,-218.636,-1,2.776
0.142542,0.122721,0.395739,0.302221,0.0948757,0.0760597,0.0828572,0.0965497,-370,-992,-48.5722,-1,-218.604,-1,2.78
0.142921,0.123034,0.39607,0.302608,0.0950435,0.0768486,0.0829079,0.0965835,-365,-991,-48.7408,-1,-218.571,-1,2.784
0.143302,0.123357,0.396402,0.302998,0.0952112,0.0781519,0.0829585,0.0969516,-355,-987,-48.9033,-1,-218.538,-1,2.788
0.143683,0.123674,0.396734,0.303372,0.0953787,0.0785026,0.0830091,0.0957574,-354,-999,-49.0557,-1,-218.502,-1,2.792
0.144065,0.123999,0.397066,0.303748,0.095546,0.0794273,0.0830595,0.0951628,-348,-1005,-49.206,-1,-218.477,-1,2.796
0.144448,0.12433,0.397398,0.304124,0.0957132,0.0805045,0.0831099,0.094824,-340,-1008,-49.3491,-1,-218.458,-1,2.8
0.144831,0.124658,0.397731,0.304496,0.0958803,0.081021,0.0831602,0.0941662,-338,-1014,-49.4841,-1,-218.443,-1,2.804
0.145215,0.124979,0.398064,0.304861,0.0960471,0.080732,0.0832103,0.0932383,-342,-1023,-49.6162,-1,-218.435,-1,2.808
0.145599,0.1253,0.398397,0.305229,0.0962139,0.0805969,0.0832604,0.0928212,-346,-1027,-49.7525,-1,-218.436,-1,2.812
0.145984,0.125619,0.39873,0.305596,0.0963804,0.0803053,0.0833104,0.0924568,-350,-1031,-49.8916,-1,-218.441,-1,2.816
0.14637,0.125938,0.399063,0.305968,0.0965468,0.0801685,0.0833603,0.0925881,-353,-1030,-50.0348,-1,-218.45,-1,2.82
0.146757,0.126248,0.399397,0.306333,0.0967131,0.0792711,0.0834101,0.0921862,-364,-1034,-50.1811,-1,-218.457,-1,2.824
0.147144,0.126561,0.39973,0.306702,0.0968791,0.0788744,0.0834599,0.092235,-369,-1033,-50.337,-1,-218.468,-1,2.828
0.147532,0.126874,0.400064,0.30707,0.0970451,0.0787251,0.0835095,0.0921235,-373,-1034,-50.4978,-1,-218.479,-1,2.832
0.14792,0.12719,0.400398,0.307439,0.0972108,0.0787983,0.083559,0.0921932,-374,-1034,-50.6614,-1,-218.491,-1,2.836
0.148309,0.127505,0.400733,0.307797,0.0973764,0.0787319,0.0836085,0.0912895,-377,-1043,-50.8258,-1,-218.503,-1,2.84
0.148699,0.127824,0.401067,0.308159,0.0975418,0.0791196,0.0836578,0.0910326,-375,-1045,-50.992,-1,-218.524,-1,2.844
0.14909,0.128146,0.401402,0.308517,0.097707,0.0796083,0.083707,0.0905158,-373,-1050,-51.156,-1,-218.548,-1,2.848
0.149481,0.12847,0.401737,0.308876,0.0978721,0.0800493,0.0837562,0.0902,-371,-1054,-51.317,-1,-218.576,-1,2.852
0.149873,0.128797,0.402072,0.309237,0.098037,0.0805736,0.0838052,0.0902199,-369,-1054,-51.4754,-1,-218.608,-1,2.856
0.150265,0.129122,0.402407,0.309601,0.0982018,0.0808368,0.0838542,0.0905498,-368,-1051,-51.6305,-1,-218.639,-1,2.86
0.150658,0.129448,0.402743,0.309968,0.0983664,0.081041,0.0839031,0.0908849,-369,-1048,-51.7848,-1,-218.667,-1,2.864
0.151052,0.129773,0.403079,0.310339,0.0985308,0.0811484,0.0839518,0.0915402,-370,-1041,-51.9386,-1,-218.692,-1,2.868
0.151447,0.130102,0.403415,0.310721,0.098695,0.0814503,0.0840005,0.092812,-369,-1029,-52.0928,-1,-218.71,-1,2.872
0.151842,0.130419,0.403751,0.311095,0.0988591,0.0807879,0.0840491,0.0931128,-377,-1026,-52.2463,-1,-218.715,-1,2.876
0.152237,0.130738,0.404087,0.311475,0.099023,0.0804326,0.0840975,0.0936876,-382,-1021,-52.4071,-1,-218.718,-1,2.88
0.152634,0.13106,0.404423,0.311854,0.0991867,0.0804549,0.0841459,0.0940709,-384,-1017,-52.5724,-1,-218.715,-1,2.884
0.153031,0.131383,0.40476,0.312233,0.0993502,0.0805273,0.0841942,0.0942976,-386,-1015,-52.7389,-1,-218.708,-1,2.888
0.153429,0.131711,0.405097,0.312611,0.0995136,0.0810362,0.0842424,0.0943335,-383,-1014,-52.9058,-1,-218.699,-1,2.892
0.153827,0.132046,0.405434,0.312996,0.0996768,0.0819226,0.0842905,0.0949621,-378,-1008,-53.0694,-1,-218.689,-1,2.896
0.154226,0.132377,0.405771,0.313368,0.0998398,0.0821968,0.0843385,0.0943447,-377,-1014,-53.2265,-1,-218.674,-1,2.9
0.154626,0.132719,0.406109,0.313749,0.100003,0.0833296,0.0843863,0.0946816,-369,-1011,-53.382,-1,-218.664,-1,2.904
0.155026,0.133057,0.406446,0.314116,0.100165,0.083653,0.0844341,0.0936395,-368,-1021,-53.529,-1,-218.652,-1,2.908
0.155427,0.133397,0.406784,0.31448,0.100328,0.0841565,0.0844818,0.0928007,-366,-1029,-53.6743,-1,-218.651,-1,2.912
0.155829,0.133738,0.407122,0.314842,0.10049,0.0844634,0.0845294,0.0920113,-365,-1037,-53.8166,-1,-218.658,-1,2.916
0.156231,0.134078,0.40746,0.315204,0.100652,0.084668,0.0845769,0.0915137,-365,-1042,-53.9575,-1,-218.673,-1,2.92
0.156634,0.134419,0.407799,0.315568,0.100814,0.084862,0.0846243,0.091326,-365,-1044,-54.098,-1,-218.692,-1,2.924
0.157038,0.134758,0.408137,0.315933,0.100976,0.0848186,0.0846715,0.0913448,-368,-1044,-54.2383,-1,-218.714,-1,2.928
0.157442,0.135098,0.408476,0.316299,0.101137,0.0849336,0.0847187,0.0913573,-369,-1044,-54.3803,-1,-218.735,-1,2.932
0.157847,0.13544,0.408815,0.316664,0.101299,0.0850678,0.0847658,0.0913081,-370,-1045,-54.5227,-1,-218.757,-1,2.936
0.158252,0.13578,0.409154,0.317027,0.10146,0.0850709,0.0848128,0.0911313,-372,-1047,-54.6653,-1,-218.779,-1,2.94
0.158658,0.136121,0.409494,0.317393,0.101621,0.0851306,0.0848596,0.0912726,-373,-1045,-54.8093,-1,-218.803,-1,2.944
0.159065,0.136463,0.409833,0.31776,0.101782,0.085228,0.0849064,0.0914532,-374,-1044,-54.9542,-1,-218.825,-1,2.948
0.159473,0.136806,0.410173,0.318131,0.101943,0.085408,0.0849531,0.0918326,-374,-1040,-55.0995,-1,-218.845,-1,2.952
0.159881,0.137163,0.410513,0.318515,0.102103,0.0867085,0.0849997,0.0932373,-365,-1027,-55.2439,-1,-218.861,-1,2.956
0.160289,0.137495,0.410853,0.31887,0.102263,0.0855025,0.0850461,0.0917265,-378,-1041,-55.3792,-1,-218.865,-1,2.96
0.160699,0.137843,0.411193,0.319237,0.102423,0.0859942,0.0850925,0.0917845,-375,-1041,-55.526,-1,-218.883,-1,2.964
0.161109,0.138198,0.411534,0.319606,0.102583,0.0868689,0.0851387,0.0919096,-369,-1040,-55.6694,-1,-218.901,-1,2.968
0.161519,0.138548,0.411874,0.319972,0.102743,0.0871066,0.0851849,0.0917914,-369,-1041,-55.8067,-1,-218.918,-1,2.972
0.161931,0.138893,0.412215,0.320334,0.102902,0.0868332,0.0852309,0.0913672,-374,-1046,-55.9434,-1,-218.936,-1,2.976
0.162343,0.139243,0.412556,0.320703,0.103062,0.087054,0.0852769,0.0916314,-374,-1043,-56.0838,-1,-218.958,-1,2.98
0.162755,0.139591,0.412897,0.321069,0.103221,0.0870285,0.0853227,0.0915772,-376,-1044,-56.2237,-1,-218.977,-1,2.984
0.163168,0.139946,0.413239,0.321444,0.10338,0.0875873,0.0853684,0.0923472,-373,-1036,-56.3648,-1,-218.997,-1,2.988
0.163582,0.14029,0.41358,0.321801,0.103539,0.0870961,0.0854141,0.0913058,-379,-1047,-56.5029,-1,-219.01,-1,2.992
0.163997,0.140641,0.413922,0.322162,0.103697,0.0872868,0.0854596,0.0909571,-379,-1050,-56.6464,-1,-219.034,-1,2.996
0.164412,0.140993,0.414264,0.322516,0.103856,0.0875292,0.085505,0.0901487,-379,-1058,-56.7895,-1,-219.061,-1,3
0.164828,0.141346,0.414606,0.322872,0.104014,0.0877195,0.0855503,0.0897538,-379,-1062,-56.9318,-1,-219.096,-1,3.004
0.165244,0.1417,0.414948,0.323229,0.104172,0.0880192,0.0855955,0.0895481,-379,-1065,-57.0737,-1,-219.135,-1,3.008
0.165661,0.142053,0.415291,0.323584,0.104329,0.0881038,0.0856406,0.0892958,-380,-1067,-57.2144,-1,-219.176,-1,3.012
0.166079,0.142409,0.415634,0.323943,0.104487,0.0884193,0.0856856,0.0894731,-379,-1066,-57.3555,-1,-219.22,-1,3.016
0.166497,0.142775,0.415976,0.324317,0.104644,0.089407,0.0857305,0.0907717,-372,-1053,-57.4948,-1,-219.261,-1,3.02
0.166916,0.143131,0.416319,0.324681,0.104801,0.0892881,0.0857752,0.0908889,-375,-1053,-57.6271,-1,-219.29,-1,3.024
0.167335,0.143487,0.416663,0.325048,0.104958,0.0891801,0.0858199,0.0911686,-378,-1050,-57.7618,-1,-219.318,-1,3.028
0.167755,0.143851,0.417006,0.325419,0.105115,0.0897702,0.0858644,0.0917293,-375,-1045,-57.8984,-1,-219.343,-1,3.032
0.168176,0.144232,0.417349,0.325809,0.105272,0.0916032,0.0859089,0.093629,-360,-1026,-58.0303,-1,-219.361,-1,3.036
0.168598,0.144578,0.417693,0.326164,0.105428,0.0898885,0.0859532,0.0920164,-377,-1042,-58.1489,-1,-219.363,-1,3.04
0.16902,0.144941,0.418037,0.32654,0.105584,0.0902425,0.0859975,0.09264,-376,-1036,-58.2833,-1,-219.38,-1,3.044
0.169442,0.145305,0.418381,0.326915,0.10574,0.0904785,0.0860416,0.093027,-376,-1033,-58.4159,-1,-219.39,-1,3.048
0.169865,0.145668,0.418725,0.327291,0.105896,0.0905207,0.0860856,0.0933137,-377,-1030,-58.5478,-1,-219.397,-1,3.052
0.170289,0.146037,0.41907,0.327673,0.106052,0.0911246,0.0861295,0.0941095,-374,-1022,-58.6803,-1,-219.401,-1,3.056
0.170714,0.146392,0.419414,0.32804,0.106207,0.090318,0.0861733,0.0932868,-383,-1030,-58.8095,-1,-219.398,-1,3.06
0.171139,0.146756,0.419759,0.328416,0.106362,0.0905289,0.0862169,0.093487,-383,-1029,-58.9468,-1,-219.403,-1,3.064
0.171565,0.147119,0.420104,0.32879,0.106517,0.0906406,0.0862605,0.0935052,-384,-1028,-59.0836,-1,-219.405,-1,3.068
0.171991,0.147478,0.420449,0.329162,0.106672,0.0903696,0.0863039,0.0933446,-388,-1030,-59.221,-1,-219.408,-1,3.072
0.172418,0.147842,0.420795,0.329538,0.106826,0.0905633,0.0863473,0.0935831,-388,-1028,-59.3618,-1,-219.413,-1,3.076
0.172846,0.148204,0.42114,0.329912,0.10698,0.0905196,0.0863905,0.0935117,-390,-1029,-59.5024,-1,-219.415,-1,3.08
0.173274,0.148566,0.421486,0.330283,0.107135,0.0905193,0.0864336,0.0932626,-392,-1031,-59.6447,-1,-219.418,-1,3.084
0.173703,0.148927,0.421832,0.330654,0.107288,0.0904615,0.0864766,0.0930965,-395,-1033,-59.7884,-1,-219.423,-1,3.088
0.174132,0.14929,0.422178,0.331025,0.107442,0.0905094,0.0865195,0.0929858,-396,-1034,-59.9338,-1,-219.431,-1,3.092
0.174562,0.149651,0.422524,0.331397,0.107596,0.0904261,0.0865623,0.0930559,-399,-1033,-60.0803,-1,-219.439,-1,3.096
0.174993,0.150014,0.42287,0.331772,0.107749,0.0905721,0.086605,0.0932467,-400,-1032,-60.2286,-1,-219.447,-1,3.1
0.175424,0.150377,0.423217,0.332148,0.107902,0.0906119,0.0866475,0.0935178,-401,-1029,-60.3771,-1,-219.453,-1,3.104
0.175856,0.150742,0.423563,0.332523,0.108055,0.0908399,0.08669,0.0936121,-401,-1028,-60.5264,-1,-219.456,-1,3.108
0.176289,0.151108,0.42391,0.332896,0.108207,0.0910207,0.0867323,0.0934735,-401,-1030,-60.6749,-1,-219.459,-1,3.112
0.176722,0.151474,0.424257,0.333266,0.10836,0.0912277,0.0867745,0.0931219,-401,-1033,-60.8231,-1,-219.463,-1,3.116
0.177156,0.151842,0.424604,0.333633,0.108512,0.091452,0.0868166,0.0927148,-401,-1037,-60.9707,-1,-219.471,-1,3.12
0.17759,0.152211,0.424952,0.333997,0.108664,0.0917455,0.0868586,0.0920979,-401,-1044,-61.1175,-1,-219.484,-1,3.124
0.178025,0.15258,0.425299,0.334357,0.108815,0.0918548,0.0869004,0.0913988,-402,-1051,-61.2631,-1,-219.502,-1,3.128
0.178461,0.152947,0.425647,0.334718,0.108967,0.0918701,0.0869422,0.091019,-403,-1054,-61.4091,-1,-219.528,-1,3.132
0.178897,0.153314,0.425995,0.335082,0.109118,0.0917939,0.0869838,0.0910538,-406,-1054,-61.5563,-1,-219.557,-1,3.136
0.179334,0.153679,0.426343,0.335451,0.109269,0.0915991,0.0870253,0.0914224,-409,-1051,-61.7056,-1,-219.586,-1,3.14
0.179771,0.154041,0.426691,0.33582,0.10942,0.0912966,0.0870667,0.091697,-414,-1048,-61.858,-1,-219.611,-1,3.144
0.180209,0.154406,0.427039,0.33619,0.109571,0.0912388,0.087108,0.0919664,-416,-1046,-62.0143,-1,-219.634,-1,3.148
0.180647,0.154777,0.427388,0.336566,0.109721,0.0917473,0.0871492,0.0926355,-414,-1040,-62.1721,-1,-219.654,-1,3.152
0.181087,0.155139,0.427736,0.336932,0.109871,0.091309,0.0871903,0.0922754,-420,-1043,-62.3271,-1,-219.668,-1,3.156
0.181526,0.155507,0.428085,0.337302,0.110021,0.0915638,0.0872312,0.092352,-419,-1043,-62.487,-1,-219.685,-1,3.16
0.181967,0.155876,0.428434,0.337673,0.110171,0.0917912,0.087272,0.0924319,-419,-1042,-62.6458,-1,-219.701,-1,3.164
0.182408,0.15625,0.428783,0.338047,0.110321,0.0923747,0.0873127,0.0928594,-416,-1038,-62.8037,-1,-219.717,-1,3.168
0.182849,0.156617,0.429133,0.338413,0.11047,0.0921879,0.0873533,0.0923959,-420,-1043,-62.958,-1,-219.729,-1,3.172
0.183292,0.156989,0.429482,0.33878,0.110619,0.0924664,0.0873938,0.0921444,-419,-1045,-63.115,-1,-219.746,-1,3.176
0.183734,0.157363,0.429832,0.339142,0.110768,0.0927385,0.0874341,0.0916025,-419,-1051,-63.2707,-1,-219.765,-1,3.18
0.184178,0.157744,0.430182,0.339504,0.110917,0.093582,0.0874743,0.09127,-413,-1054,-63.4249,-1,-219.79,-1,3.184
0.184622,0.158114,0.430532,0.339855,0.111065,0.0932231,0.0875144,0.0900983,-418,-1066,-63.5735,-1,-219.819,-1,3.188
0.185066,0.158488,0.430882,0.340212,0.111213,0.0933581,0.0875544,0.0897777,-419,-1069,-63.7263,-1,-219.859,-1,3.192
0.185511,0.158862,0.431232,0.34057,0.111361,0.0934193,0.0875943,0.089708,-420,-1070,-63.8792,-1,-219.902,-1,3.196
0.185957,0.159245,0.431583,0.340935,0.111509,0.0942087,0.087634,0.0902086,-415,-1066,-64.0324,-1,-219.946,-1,3.2
0.186403,0.159616,0.431933,0.341288,0.111656,0.0936984,0.0876737,0.0895346,-421,-1072,-64.1805,-1,-219.986,-1,3.204
0.18685,0.159996,0.432284,0.341644,0.111803,0.0941069,0.0877132,0.0893732,-420,-1074,-64.3339,-1,-220.032,-1,3.208
0.187298,0.160375,0.432635,0.341999,0.11195,0.0942928,0.0877526,0.0891792,-420,-1076,-64.485,-1,-220.08,-1,3.212
0.187746,0.160761,0.432986,0.342359,0.112097,0.0951077,0.0877918,0.0894529,-415,-1074,-64.6353,-1,-220.13,-1,3.216
0.188195,0.161134,0.433337,0.342712,0.112244,0.0944417,0.087831,0.0890308,-422,-1078,-64.7804,-1,-220.177,-1,3.22
0.188644,0.161514,0.433689,0.343073,0.11239,0.09466,0.08787,0.0894404,-422,-1075,-64.9323,-1,-220.228,-1,3.224
0.189094,0.161896,0.43404,0.343439,0.112536,0.0948918,0.0879089,0.0901165,-422,-1068,-65.0834,-1,-220.276,-1,3.228
0.189544,0.162278,0.434392,0.343804,0.112682,0.095104,0.0879477,0.0904809,-422,-1065,-65.2337,-1,-220.316,-1,3.232
0.189995,0.162674,0.434744,0.344182,0.112828,0.0963971,0.0879864,0.0918755,-413,-1052,-65.3827,-1,-220.353,-1,3.236
0.190447,0.163046,0.435096,0.34454,0.112973,0.0953013,0.0880249,0.0910777,-424,-1060,-65.5226,-1,-220.377,-1,3.24
0.190899,0.16343,0.435448,0.344911,0.113118,0.0955497,0.0880633,0.0915823,-424,-1055,-65.6729,-1,-220.408,-1,3.244
0.191352,0.163815,0.4358,0.34528,0.113263,0.0957729,0.0881016,0.0918036,-424,-1053,-65.8222,-1,-220.434,-1,3.248
0.191805,0.164201,0.436153,0.345649,0.113408,0.0959793,0.0881398,0.0920087,-424,-1051,-65.9707,-1,-220.459,-1,3.252
0.192259,0.164596,0.436505,0.346028,0.113552,0.0968942,0.0881778,0.092894,-417,-1043,-66.1182,-1,-220.481,-1,3.256
0.192714,0.164989,0.436858,0.346404,0.113696,0.097389,0.0882158,0.0932538,-415,-1040,-66.2589,-1,-220.494,-1,3.26
0.193169,0.165375,0.437211,0.346768,0.11384,0.0970567,0.0882536,0.0925149,-420,-1047,-66.3968,-1,-220.505,-1,3.264
0.193624,0.165771,0.437564,0.347142,0.113984,0.0977564,0.0882912,0.0928284,-415,-1044,-66.5383,-1,-220.522,-1,3.268
0.19408,0.166167,0.437918,0.347515,0.114127,0.0981654,0.0883288,0.0930086,-413,-1042,-66.675,-1,-220.537,-1,3.272
0.194537,0.166566,0.438271,0.347891,0.11427,0.0986395,0.0883662,0.0933014,-411,-1040,-66.8091,-1,-220.55,-1,3.276
0.194995,0.16696,0.438624,0.348263,0.114413,0.0985813,0.0884035,0.0932088,-413,-1041,-66.9405,-1,-220.56,-1,3.28
0.195453,0.167353,0.438978,0.348634,0.114556,0.0985137,0.0884407,0.0930606,-416,-1042,-67.0736,-1,-220.571,-1,3.284
0.195911,0.167749,0.439332,0.349006,0.114699,0.098699,0.0884778,0.0930195,-416,-1043,-67.2084,-1,-220.584,-1,3.288
0.19637,0.16815,0.439686,0.34938,0.114841,0.0991968,0.0885147,0.0931935,-413,-1041,-67.3426,-1,-220.597,-1,3.292
0.19683,0.168546,0.44004,0.349749,0.114983,0.0990968,0.0885515,0.0928777,-416,-1045,-67.4738,-1,-220.609,-1,3.296
0.19729,0.16894,0.440394,0.350113,0.115125,0.0988862,0.0885882,0.0922641,-419,-1051,-67.6072,-1,-220.624,-1,3.3
0.197751,0.169345,0.440749,0.350486,0.115266,0.0996671,0.0886247,0.092546,-414,-1048,-67.7431,-1,-220.645,-1,3.304
0.198212,0.169734,0.441103,0.350841,0.115407,0.0988921,0.0886611,0.091352,-423,-1060,-67.8741,-1,-220.665,-1,3.308
0.198674,0.170128,0.441458,0.351204,0.115548,0.0988073,0.0886974,0.091103,-425,-1062,-68.0128,-1,-220.695,-1,3.312
0.199137,0.170523,0.441813,0.351566,0.115689,0.0987508,0.0887336,0.090937,-427,-1064,-68.1535,-1,-220.729,-1,3.316
0.1996,0.170924,0.442168,0.351936,0.11583,0.0992313,0.0887697,0.0914022,-425,-1060,-68.2956,-1,-220.763,-1,3.32
0.200063,0.171314,0.442523,0.352294,0.11597,0.098688,0.0888056,0.090791,-431,-1066,-68.4351,-1,-220.794,-1,3.324
0.200527,0.171707,0.442878,0.352658,0.11611,0.098556,0.0888414,0.0908442,-434,-1066,-68.5805,-1,-220.831,-1,3.328
0.200992,0.172099,0.443234,0.353021,0.11625,0.0983241,0.088877,0.0908796,-438,-1066,-68.7283,-1,-220.867,-1,3.332
0.201457,0.172496,0.443589,0.353395,0.116389,0.0986878,0.0889126,0.0917382,-437,-1058,-68.879,-1,-220.903,-1,3.336
0.201923,0.172877,0.443945,0.353757,0.116529,0.0974907,0.088948,0.0912741,-449,-1062,-69.0285,-1,-220.93,-1,3.34
0.20239,0.173267,0.444301,0.354132,0.116668,0.0975275,0.0889832,0.0921451,-450,-1054,-69.1892,-1,-220.962,-1,3.344
0.202857,0.173656,0.444657,0.354509,0.116806,0.0974081,0.0890184,0.0928698,-453,-1047,-69.3509,-1,-220.985,-1,3.348
0.203324,0.174045,0.445013,0.354888,0.116945,0.0973861,0.0890534,0.093468,-455,-1042,-69.5147,-1,-221.001,-1,3.352
0.203792,0.174441,0.445369,0.35527,0.117083,0.0979185,0.0890883,0.0941548,-452,-1035,-69.6795,-1,-221.011,-1,3.356
0.204261,0.174827,0.445726,0.355639,0.117221,0.0974672,0.0891231,0.0934898,-458,-1042,-69.8413,-1,-221.015,-1,3.36
0.20473,0.17522,0.446082,0.356011,0.117359,0.0976559,0.0891577,0.0933631,-458,-1043,-70.0078,-1,-221.026,-1,3.364
0.2052,0.175621,0.446439,0.356391,0.117496,0.0985878,0.0891922,0.0938545,-452,-1038,-70.1735,-1,-221.038,-1,3.368
0.20567,0.176017,0.446796,0.356765,0.117634,0.098662,0.0892266,0.0937503,-453,-1040,-70.3324,-1,-221.045,-1,3.372
0.206141,0.176415,0.447153,0.357138,0.11777,0.0989706,0.0892608,0.0935656,-452,-1041,-70.4916,-1,-221.053,-1,3.376
0.206612,0.176819,0.44751,0.357512,0.117907,0.0996082,0.0892949,0.0936152,-449,-1041,-70.6491,-1,-221.063,-1,3.38
0.207084,0.177222,0.447867,0.357886,0.118044,0.100033,0.0893289,0.0935331,-447,-1042,-70.8021,-1,-221.073,-1,3.384
0.207556,0.177625,0.448225,0.358258,0.11818,0.100288,0.0893628,0.093392,-446,-1044,-70.9526,-1,-221.084,-1,3.388
