peachynonah/Fire_monitor_KIRO_CDSL/csv_datas/trial12/cdsl_data_t12_15_d.csv
joint1_pos_desired, joint1_pos, joint2_pos_desired, joint2_pos, joint1_vel_desired, joint1_vel_filtered, joint2_vel_desired, joint2_vel_filtered, target_torque_joint1, target_torque_joint2, estimated_disturbance_joint1, saturated_DOB_joint1, estimated_disturbance_joint2, saturated_DOB_joint2, current_time
0.78,0.778927,0.598,0.595892,-3.74101e-07,0,-2.8681e-07,0,-8,-23,-0,-0,-81.3987,-81.3987,0.004
0.78,0.778926,0.598,0.59579,-1.4952e-06,-2.87909e-05,-1.14632e-06,-0.00846453,-8,-105,0.0361416,0.0361416,-81.2764,-81.2764,0.008
0.78,0.778926,0.598,0.595717,-3.36152e-06,-4.79849e-05,-2.57716e-06,-0.0117179,-8,-138,0.0730923,0.0730923,-80.8042,-80.8042,0.012
0.78,0.778926,0.598,0.595659,-5.97125e-06,-3.19899e-05,-4.57796e-06,-0.01262,-8,-147,0.110491,0.110491,-80.1967,-80.1967,0.016
0.78,0.778926,0.598,0.595617,-9.3226e-06,-2.13266e-05,-7.14732e-06,-0.0119546,-8,-142,0.147354,0.147354,-79.5521,-79.5521,0.02
0.78,0.778926,0.598,0.595592,-1.34138e-05,1.45732e-05,-1.02839e-05,-0.0100715,-8,-125,0.183751,0.183751,-78.9365,-78.9365,0.024
0.78,0.778926,0.598,0.595584,-1.8243e-05,9.71546e-06,-1.39863e-05,-0.00737652,-8,-100,0.219044,0.219044,-78.4013,-78.4013,0.028
0.78,0.778926,0.598,0.595588,-2.38085e-05,6.47697e-06,-1.82532e-05,-0.00460098,-8,-73,0.25433,0.25433,-77.9798,-77.9798,0.032
0.78,0.778927,0.598,0.595602,-3.01084e-05,3.31089e-05,-2.30831e-05,-0.00188689,-8,-47,0.289481,0.289481,-77.6757,-77.6757,0.036
0.78,0.778927,0.598,0.595622,-3.71411e-05,5.08635e-05,-2.84748e-05,0.000411946,-7,-25,0.323664,0.323664,-77.4862,-77.4862,0.04
0.779999,0.778927,0.597999,0.595644,-4.49046e-05,3.3909e-05,-3.44269e-05,0.00211725,-7,-9,0.357172,0.357172,-77.3935,-77.3935,0.044
0.779999,0.778927,0.597999,0.595666,-5.33973e-05,5.13969e-05,-4.09379e-05,0.00328291,-7,2,0.39087,0.39087,-77.3729,-77.3729,0.048
0.779999,0.778927,0.597999,0.595688,-6.26173e-05,3.42646e-05,-4.80066e-05,0.00397364,-7,9,0.423855,0.423855,-77.4017,-77.4017,0.052
0.779999,0.778928,0.597999,0.595706,-7.25628e-05,5.1634e-05,-5.56315e-05,0.00420381,-7,11,0.456991,0.456991,-77.46,-77.46,0.056
0.779998,0.778928,0.597999,0.595722,-8.32322e-05,3.44227e-05,-6.38113e-05,0.00412692,-7,11,0.489371,0.489371,-77.5285,-77.5285,0.06
0.779998,0.778928,0.597998,0.595735,-9.46235e-05,5.17394e-05,-7.25447e-05,0.00381654,-7,8,0.52186,0.52186,-77.5943,-77.5943,0.064
0.779998,0.778928,0.597998,0.595744,-0.000106735,3.44929e-05,-8.18302e-05,0.00329293,-7,3,0.55355,0.55355,-77.6475,-77.6475,0.068
0.779997,0.778928,0.597998,0.59575,-0.000119565,2.29953e-05,-9.16666e-05,0.00271352,-7,-1,0.585364,0.585364,-77.6794,-77.6794,0.072
0.779997,0.778928,0.597997,0.595753,-0.000133112,1.53302e-05,-0.000102052,0.00201055,-7,-8,0.617114,0.617114,-77.6872,-77.6872,0.076
0.779996,0.778928,0.597997,0.595753,-0.000147373,1.02201e-05,-0.000112986,0.00136916,-7,-14,0.648666,0.648666,-77.666,-77.666,0.08
0.779995,0.778928,0.597997,0.595752,-0.000162348,6.81342e-06,-0.000124467,0.00085519,-7,-18,0.679926,0.679926,-77.6186,-77.6186,0.084
0.779995,0.778928,0.597996,0.595752,-0.000178034,4.54228e-06,-0.000136493,0.000541336,-7,-21,0.71082,0.71082,-77.5504,-77.5504,0.088
0.779994,0.778928,0.597995,0.595753,-0.00019443,3.02818e-06,-0.000149063,0.000418472,-7,-23,0.741293,0.741293,-77.47,-77.47,0.092
0.779993,0.778928,0.597995,0.595754,-0.000211534,2.01879e-06,-0.000162176,0.000394145,-7,-23,0.771302,0.771302,-77.3852,-77.3852,0.096
0.779992,0.778929,0.597994,0.595755,-0.000229343,5.89277e-05,-0.00017583,0.000320345,-6,-23,0.800685,0.800685,-77.2999,-77.2999,0.1
0.779991,0.778929,0.597993,0.595755,-0.000247857,3.92851e-05,-0.000190024,0.000213564,-6,-24,0.827977,0.827977,-77.212,-77.212,0.104
0.77999,0.778928,0.597993,0.595756,-0.000267074,-3.13918e-05,-0.000204757,0.000199958,-7,-24,0.855375,0.855375,-77.1206,-77.1206,0.108
0.779989,0.778928,0.597992,0.595756,-0.000286991,7.86309e-06,-0.000220027,0.000190887,-6,-24,0.884044,0.884044,-77.0292,-77.0292,0.112
0.779988,0.778928,0.597991,0.595757,-0.000307608,-5.23398e-05,-0.000235833,0.000213631,-7,-24,0.911131,0.911131,-76.9383,-76.9383,0.116
0.779987,0.778928,0.59799,0.595757,-0.000328921,2.26887e-05,-0.000252173,0.00014242,-6,-25,0.939079,0.939079,-76.8488,-76.8488,0.12
0.779985,0.778928,0.597989,0.595758,-0.000350931,-1.36652e-05,-0.000269047,0.000152529,-6,-25,0.96436,0.96436,-76.7573,-76.7573,0.124
0.779984,0.778928,0.597988,0.595759,-0.000373634,1.96808e-05,-0.000286453,0.000159268,-6,-24,0.98988,0.98988,-76.667,-76.667,0.128
0.779982,0.778928,0.597987,0.595759,-0.000397029,1.31205e-05,-0.000304389,0.00016376,-6,-24,1.01377,1.01377,-76.5779,-76.5779,0.132
0.779981,0.778928,0.597985,0.59576,-0.000421114,8.74703e-06,-0.000322854,0.000195546,-6,-24,1.03711,1.03711,-76.4898,-76.4898,0.136
0.779979,0.778928,0.597984,0.59576,-0.000445888,5.83135e-06,-0.000341847,0.000130364,-6,-24,1.05981,1.05981,-76.4037,-76.4037,0.14
0.779977,0.778929,0.597983,0.595762,-0.000471349,3.26785e-05,-0.000361367,0.000202073,-5,-24,1.08175,1.08175,-76.3161,-76.3161,0.144
0.779975,0.778928,0.597981,0.595762,-0.000497494,-7.00526e-06,-0.000381412,0.000163506,-5,-24,1.10221,1.10221,-76.2322,-76.2322,0.148
0.779973,0.778928,0.597979,0.595762,-0.000524323,-3.34611e-05,-0.000401981,0.000137795,-5,-24,1.12298,1.12298,-76.1477,-76.1477,0.152
0.779971,0.778928,0.597978,0.595762,-0.000551834,6.48353e-06,-0.000423073,9.18635e-05,-5,-24,1.14355,1.14355,-76.063,-76.063,0.156
0.779969,0.778928,0.597976,0.595763,-0.000580024,4.32235e-06,-0.000444685,9.00332e-05,-5,-24,1.16213,1.16213,-75.9774,-75.9774,0.16
0.779966,0.778928,0.597974,0.595763,-0.000608892,-5.47003e-05,-0.000466818,6.00222e-05,-5,-24,1.18,1.18,-75.8927,-75.8927,0.164
0.779964,0.778928,0.597972,0.595763,-0.000638437,2.1115e-05,-0.000489468,6.88057e-05,-4,-24,1.1984,1.1984,-75.8079,-75.8079,0.168
0.779961,0.778929,0.59797,0.595763,-0.000668656,4.28676e-05,-0.000512637,4.58705e-05,-4,-24,1.21371,1.21371,-75.7244,-75.7244,0.172
0.779959,0.778928,0.597968,0.595763,-0.000699549,-2.90035e-05,-0.000536321,3.05803e-05,-4,-24,1.22759,1.22759,-75.6411,-75.6411,0.176
0.779956,0.778928,0.597966,0.595764,-0.000731112,-4.81266e-05,-0.000560519,7.79687e-05,-4,-23,1.24249,1.24249,-75.5583,-75.5583,0.18
0.779953,0.778929,0.597964,0.595764,-0.000763345,5.42884e-05,-0.000585231,5.19791e-05,-3,-23,1.25669,1.25669,-75.4786,-75.4786,0.184
0.77995,0.778928,0.597961,0.595763,-0.000796245,-2.13896e-05,-0.000610454,-2.29291e-05,-3,-24,1.26716,1.26716,-75.3988,-75.3988,0.188
0.779946,0.778928,0.597959,0.595763,-0.000829811,1.45312e-05,-0.000636188,1.35049e-05,-3,-23,1.27857,1.27857,-75.3173,-75.3173,0.192
0.779943,0.778928,0.597956,0.595763,-0.000864042,-1.91035e-05,-0.000662432,9.00325e-06,-3,-23,1.28796,1.28796,-75.2385,-75.2385,0.196
0.779939,0.778929,0.597954,0.595763,-0.000898934,4.48462e-05,-0.000689183,6.00216e-06,-2,-23,1.29702,1.29702,-75.1607,-75.1607,0.2
0.779936,0.778928,0.597951,0.595763,-0.000934488,-2.76844e-05,-0.000716441,-2.47895e-05,-2,-23,1.30332,1.30332,-75.0839,-75.0839,0.204
0.779932,0.778928,0.597948,0.595763,-0.000970701,-4.72472e-05,-0.000744204,1.22646e-05,-2,-23,1.3105,1.3105,-75.0074,-75.0074,0.208
0.779928,0.778928,0.597945,0.595763,-0.00100757,-2.70719e-06,-0.000772471,-4.94054e-05,-2,-23,1.31693,1.31693,-74.9334,-74.9334,0.212
0.779924,0.778929,0.597942,0.595763,-0.0010451,5.57771e-05,-0.00080124,2.46449e-05,-1,-22,1.32079,1.32079,-74.8586,-74.8586,0.216
0.77992,0.778928,0.597938,0.595763,-0.00108328,-2.03971e-05,-0.000830511,1.64299e-05,-1,-22,1.32195,1.32195,-74.788,-74.788,0.22
0.779915,0.778928,0.597935,0.595763,-0.00112211,-1.35981e-05,-0.000860282,1.09533e-05,-1,-22,1.32393,1.32393,-74.7185,-74.7185,0.224
0.779911,0.778928,0.597932,0.595763,-0.00116159,-9.0654e-06,-0.000890552,7.30219e-06,-1,-21,1.32442,1.32442,-74.6503,-74.6503,0.228
0.779906,0.778928,0.597928,0.595763,-0.00120172,-6.0436e-06,-0.000921318,4.86813e-06,0,-21,1.32346,1.32346,-74.5833,-74.5833,0.232
0.779901,0.778928,0.597924,0.595763,-0.0012425,-4.02907e-06,-0.000952581,3.24542e-06,0,-21,1.32107,1.32107,-74.5177,-74.5177,0.236
0.779896,0.778928,0.59792,0.595763,-0.00128392,-2.68604e-06,-0.000984339,2.16361e-06,0,-21,1.31727,1.31727,-74.4535,-74.4535,0.24
0.779891,0.778928,0.597916,0.595763,-0.00132599,-1.7907e-06,-0.00101659,1.44241e-06,0,-20,1.31203,1.31203,-74.3909,-74.3909,0.244
0.779885,0.778928,0.597912,0.595763,-0.00136869,-1.1938e-06,-0.00104933,9.61605e-07,0,-20,1.30535,1.30535,-74.3298,-74.3298,0.248
0.77988,0.778928,0.597908,0.595763,-0.00141204,-7.95865e-07,-0.00108257,-5.69408e-05,0,-20,1.29722,1.29722,-74.2701,-74.2701,0.252
0.779874,0.778928,0.597903,0.595763,-0.00145603,-5.30577e-07,-0.00111629,-3.79605e-05,1,-20,1.28761,1.28761,-74.2097,-74.2097,0.256
0.779868,0.778928,0.597899,0.595763,-0.00150065,-3.53718e-07,-0.0011505,-2.5307e-05,1,-19,1.2765,1.2765,-74.1518,-74.1518,0.26
0.779862,0.778928,0.597894,0.595763,-0.00154591,-2.35812e-07,-0.0011852,4.07105e-05,1,-18,1.26388,1.26388,-74.0962,-74.0962,0.264
0.779856,0.778928,0.597889,0.595763,-0.0015918,-1.57208e-07,-0.00122038,-3.04415e-05,2,-19,1.24971,1.24971,-74.0448,-74.0448,0.268
0.779849,0.778928,0.597885,0.595763,-0.00163833,-1.04805e-07,-0.00125605,-2.02943e-05,2,-18,1.23398,1.23398,-73.9923,-73.9923,0.272
0.779843,0.778928,0.597879,0.595763,-0.00168548,-6.98702e-08,-0.0012922,-1.35296e-05,3,-18,1.21666,1.21666,-73.9419,-73.9419,0.276
0.779836,0.778928,0.597874,0.595763,-0.00173326,-4.65801e-08,-0.00132883,1.97712e-05,3,-17,1.19773,1.19773,-73.8937,-73.8937,0.28
0.779829,0.778928,0.597869,0.595763,-0.00178167,-3.10534e-08,-0.00136595,1.31808e-05,3,-17,1.17716,1.17716,-73.8487,-73.8487,0.284
0.779822,0.778928,0.597863,0.595763,-0.0018307,-2.07023e-08,-0.00140354,8.78721e-06,4,-17,1.15493,1.15493,-73.8052,-73.8052,0.288
0.779814,0.778928,0.597858,0.595763,-0.00188036,-1.38015e-08,-0.00144161,5.85814e-06,4,-16,1.131,1.131,-73.7633,-73.7633,0.292
0.779807,0.778928,0.597852,0.595763,-0.00193064,-9.20101e-09,-0.00148016,3.90543e-06,5,-16,1.10537,1.10537,-73.7233,-73.7233,0.296
0.779799,0.778928,0.597846,0.595763,-0.00198154,-6.13401e-09,-0.00151918,2.60362e-06,5,-15,1.078,1.078,-73.6851,-73.6851,0.3
0.779791,0.778928,0.59784,0.595763,-0.00203305,-4.08934e-09,-0.00155867,1.73574e-06,5,-15,1.04887,1.04887,-73.6488,-73.6488,0.304
0.779782,0.778928,0.597833,0.595763,-0.00208518,-2.72623e-09,-0.00159864,-2.76338e-05,6,-15,1.01795,1.01795,-73.6143,-73.6143,0.308
0.779774,0.778928,0.597827,0.595763,-0.00213793,-2.87927e-05,-0.00163908,1.03684e-05,6,-14,0.985273,0.985273,-73.5808,-73.5808,0.312
0.779765,0.778927,0.59782,0.595763,-0.00219129,-4.79861e-05,-0.00167999,-2.18786e-05,6,-14,0.951602,0.951602,-73.5507,-73.5507,0.316
0.779757,0.778927,0.597813,0.595763,-0.00224526,-3.19907e-05,-0.00172137,-1.45858e-05,7,-13,0.91657,0.91657,-73.5215,-73.5215,0.32
0.779747,0.778927,0.597806,0.595762,-0.00229984,-2.13271e-05,-0.00176321,-3.85148e-05,8,-13,0.879191,0.879191,-73.4945,-73.4945,0.324
0.779738,0.778927,0.597799,0.595763,-0.00235503,-1.42181e-05,-0.00180552,3.11441e-06,8,-12,0.839593,0.839593,-73.4688,-73.4688,0.328
0.779729,0.778927,0.597792,0.595763,-0.00241082,-9.47873e-06,-0.0018483,2.07628e-06,9,-12,0.797852,0.797852,-73.4469,-73.4469,0.332
0.779719,0.778927,0.597784,0.595763,-0.00246722,-6.31916e-06,-0.00189154,3.01751e-05,9,-11,0.754011,0.754011,-73.4272,-73.4272,0.336
0.779709,0.778927,0.597777,0.595762,-0.00252422,-4.21277e-06,-0.00193524,-6.6256e-05,10,-12,0.70809,0.70809,-73.4106,-73.4106,0.34
0.779699,0.778927,0.597769,0.595762,-0.00258183,-2.80851e-06,-0.0019794,-1.53798e-05,10,-11,0.660094,0.660094,-73.3925,-73.3925,0.344
0.779688,0.778927,0.597761,0.595763,-0.00264003,-1.87234e-06,-0.00202402,1.85377e-05,11,-10,0.610018,0.610018,-73.3787,-73.3787,0.348
0.779678,0.778927,0.597753,0.595762,-0.00269883,-1.24823e-06,-0.0020691,-1.64324e-05,11,-10,0.557851,0.557851,-73.3686,-73.3686,0.352
0.779667,0.778927,0.597744,0.595762,-0.00275823,-8.32152e-07,-0.00211464,-1.0955e-05,12,-9,0.503574,0.503574,-73.3593,-73.3593,0.356
0.779655,0.778927,0.597736,0.595762,-0.00281822,-5.54768e-07,-0.00216064,-7.3033e-06,12,-9,0.447169,0.447169,-73.3526,-73.3526,0.36
0.779644,0.778927,0.597727,0.595763,-0.0028788,-3.69845e-07,-0.00220708,5.2713e-05,13,-7,0.388615,0.388615,-73.3486,-73.3486,0.364
0.779632,0.778927,0.597718,0.595762,-0.00293998,-5.78284e-05,-0.00225399,-2.24399e-05,13,-8,0.328009,0.328009,-73.3491,-73.3491,0.368
0.779621,0.778927,0.597709,0.595762,-0.00300175,-9.76135e-06,-0.00230134,-1.49599e-05,14,-7,0.266703,0.266703,-73.3492,-73.3492,0.372
0.779608,0.778927,0.5977,0.595762,-0.0030641,-6.50757e-06,-0.00234914,-9.97327e-06,14,-6,0.201846,0.201846,-73.3519,-73.3519,0.376
0.779596,0.778927,0.59769,0.595762,-0.00312704,-3.31293e-05,-0.0023974,-6.64885e-06,15,-6,0.134712,0.134712,-73.3574,-73.3574,0.38
0.779583,0.778927,0.597681,0.595762,-0.00319056,-2.20862e-05,-0.0024461,-3.32235e-05,16,-5,0.0660242,0.0660242,-73.3654,-73.3654,0.384
0.77957,0.778926,0.597671,0.595762,-0.00325467,-4.35151e-05,-0.00249525,-2.2149e-05,16,-5,-0.00521588,-0.00521588,-73.375,-73.375,0.388
0.779557,0.778926,0.597661,0.595762,-0.00331936,-2.901e-05,-0.00254484,-1.4766e-05,17,-4,-0.0782105,-0.0782105,-73.3875,-73.3875,0.392
0.779544,0.778926,0.59765,0.595762,-0.00338462,-1.934e-05,-0.00259488,-9.844e-06,17,-3,-0.153969,-0.153969,-73.403,-73.403,0.396
0.77953,0.778926,0.59764,0.595762,-0.00345047,-1.28934e-05,-0.00264536,-6.56266e-06,18,-3,-0.232377,-0.232377,-73.4213,-73.4213,0.4
0.779516,0.778926,0.597629,0.595762,-0.00351689,-8.59557e-06,-0.00269628,-3.3166e-05,19,-2,-0.31337,-0.31337,-73.4423,-73.4423,0.404
0.779502,0.778926,0.597618,0.595762,-0.00358389,-5.73038e-06,-0.00274765,-2.21107e-05,19,-2,-0.396911,-0.396911,-73.4649,-73.4649,0.408
0.779488,0.778926,0.597607,0.595762,-0.00365146,-6.14021e-05,-0.00279945,-1.47405e-05,20,-1,-0.482863,-0.482863,-73.4907,-73.4907,0.412
0.779473,0.778926,0.597596,0.595762,-0.0037196,-1.21438e-05,-0.00285169,-9.82697e-06,21,0,-0.56985,-0.56985,-73.5196,-73.5196,0.416
0.779458,0.778926,0.597584,0.595762,-0.00378831,-8.09587e-06,-0.00290437,-6.55132e-06,21,0,-0.660706,-0.660706,-73.5514,-73.5514,0.42
0.779443,0.778926,0.597573,0.595761,-0.00385759,-3.41882e-05,-0.00295748,-3.31585e-05,22,0,-0.754146,-0.754146,-73.5861,-73.5861,0.424
0.779427,0.778925,0.597561,0.595761,-0.00392743,-8.0374e-05,-0.00301103,-2.21056e-05,22,1,-0.849318,-0.849318,-73.6225,-73.6225,0.428
0.779411,0.778925,0.597549,0.595761,-0.00399784,-2.47917e-05,-0.00306501,-1.47371e-05,23,1,-0.945902,-0.945902,-73.6623,-73.6623,0.432
0.779395,0.778925,0.597536,0.595761,-0.00406882,-4.53187e-05,-0.00311943,-9.82473e-06,24,2,-1.04658,-1.04658,-73.7052,-73.7052,0.436
0.779379,0.778924,0.597524,0.595761,-0.00414035,-8.77943e-05,-0.00317427,-3.53407e-05,24,3,-1.14923,-1.14923,-73.7512,-73.7512,0.44
0.779362,0.778925,0.597511,0.595761,-0.00421244,-2.97386e-05,-0.00322954,-2.35605e-05,25,4,-1.25347,-1.25347,-73.7992,-73.7992,0.444
0.779345,0.778924,0.597498,0.595761,-0.0042851,-4.86167e-05,-0.00328524,-1.5707e-05,26,4,-1.36196,-1.36196,-73.8506,-73.8506,0.448
0.779328,0.778924,0.597485,0.595761,-0.0043583,-6.1202e-05,-0.00334137,-1.04713e-05,27,5,-1.4726,-1.4726,-73.9053,-73.9053,0.452
0.77931,0.778924,0.597471,0.595761,-0.00443207,-4.08014e-05,-0.00339792,-6.98089e-06,27,6,-1.58567,-1.58567,-73.9632,-73.9632,0.456
0.779292,0.778923,0.597457,0.595761,-0.00450638,-8.47828e-05,-0.00345489,-4.65393e-06,28,7,-1.70197,-1.70197,-74.0244,-74.0244,0.46
0.779274,0.778923,0.597443,0.595761,-0.00458125,-8.53128e-05,-0.00351229,-3.10262e-06,29,7,-1.81983,-1.81983,-74.0887,-74.0887,0.464
0.779256,0.778922,0.597429,0.595761,-0.00465667,-0.000114457,-0.00357012,-2.06841e-06,29,8,-1.94041,-1.94041,-74.1562,-74.1562,0.468
0.779237,0.778922,0.597415,0.595761,-0.00473264,-0.000105096,-0.00362836,-1.37894e-06,30,9,-2.06304,-2.06304,-74.2269,-74.2269,0.472
0.779218,0.778921,0.5974,0.595761,-0.00480915,-9.88547e-05,-0.00368702,-9.19294e-07,31,10,-2.1888,-2.1888,-74.3008,-74.3008,0.476
0.779198,0.778922,0.597385,0.595761,-0.00488621,-3.71122e-05,-0.0037461,-6.12863e-07,32,11,-2.31774,-2.31774,-74.378,-74.378,0.48
0.779179,0.778921,0.59737,0.59576,-0.00496381,-8.23233e-05,-0.00380559,-5.79904e-05,32,11,-2.4512,-2.4512,-74.4582,-74.4582,0.484
0.779159,0.778921,0.597355,0.59576,-0.00504196,-8.36731e-05,-0.0038655,-9.62421e-05,33,11,-2.58635,-2.58635,-74.5393,-74.5393,0.488
0.779138,0.77892,0.597339,0.595758,-0.00512064,-8.4573e-05,-0.00392583,-0.000179325,34,11,-2.72442,-2.72442,-74.6219,-74.6219,0.492
0.779118,0.77892,0.597324,0.595757,-0.00519986,-8.51729e-05,-0.00398656,-0.000205923,35,12,-2.86546,-2.86546,-74.7043,-74.7043,0.496
0.779097,0.77892,0.597307,0.595757,-0.00527963,-8.55729e-05,-0.00404771,-0.000194864,36,13,-3.00949,-3.00949,-74.7891,-74.7891,0.5
0.779075,0.778919,0.597291,0.595756,-0.00535992,-0.00011463,-0.00410927,-0.0001587,36,14,-3.15649,-3.15649,-74.8777,-74.8777,0.504
0.779054,0.778919,0.597275,0.595756,-0.00544075,-0.000105211,-0.00417124,-0.0001058,37,15,-3.30578,-3.30578,-74.9713,-74.9713,0.508
0.779032,0.778918,0.597258,0.595756,-0.00552211,-9.89317e-05,-0.00423362,-7.05334e-05,38,17,-3.45843,-3.45843,-75.0705,-75.0705,0.512
0.77901,0.778918,0.597241,0.595756,-0.005604,-9.47454e-05,-0.0042964,-7.58132e-05,39,18,-3.61438,-3.61438,-75.1745,-75.1745,0.516
0.778987,0.778917,0.597223,0.595756,-0.00568642,-0.000149536,-0.00435959,-7.9333e-05,40,18,-3.77348,-3.77348,-75.2818,-75.2818,0.52
0.778964,0.778916,0.597206,0.595755,-0.00576937,-0.000214855,-0.00442319,-0.000110471,40,19,-3.93409,-3.93409,-75.3924,-75.3924,0.524
0.778941,0.778914,0.597188,0.595754,-0.00585285,-0.0002584,-0.00448718,-0.000131229,41,20,-4.096,-4.096,-75.5053,-75.5053,0.528
0.778917,0.778912,0.59717,0.595753,-0.00593684,-0.000345012,-0.00455158,-0.00020265,41,20,-4.25972,-4.25972,-75.6207,-75.6207,0.532
0.778893,0.77891,0.597152,0.595751,-0.00602136,-0.000431545,-0.00461638,-0.000250263,41,20,-4.4241,-4.4241,-75.7366,-75.7366,0.536
0.778869,0.778907,0.597133,0.59575,-0.00610641,-0.000518024,-0.00468158,-0.000253215,42,21,-4.58914,-4.58914,-75.8543,-75.8543,0.54
0.778845,0.778903,0.597114,0.59575,-0.00619197,-0.000633258,-0.00474717,-0.000226392,42,23,-4.7548,-4.7548,-75.9755,-75.9755,0.544
0.77882,0.778899,0.597095,0.595749,-0.00627804,-0.000825245,-0.00481317,-0.000237301,41,23,-4.92014,-4.92014,-76.1014,-76.1014,0.548
0.778794,0.778893,0.597076,0.595748,-0.00636464,-0.000982027,-0.00487956,-0.000215782,41,25,-5.08311,-5.08311,-76.2306,-76.2306,0.552
0.778769,0.778887,0.597056,0.595747,-0.00645175,-0.0012305,-0.00494634,-0.000201437,40,26,-5.2445,-5.2445,-76.3644,-76.3644,0.556
0.778743,0.778878,0.597036,0.595746,-0.00653937,-0.00151132,-0.00501352,-0.000220664,39,26,-5.40171,-5.40171,-76.5025,-76.5025,0.56
0.778716,0.778869,0.597016,0.595745,-0.0066275,-0.00181369,-0.00508109,-0.000233482,38,27,-5.55378,-5.55378,-76.6436,-76.6436,0.564
0.77869,0.778857,0.596995,0.595744,-0.00671615,-0.00218802,-0.00514905,-0.000270818,37,28,-5.69996,-5.69996,-76.7879,-76.7879,0.568
0.778663,0.778844,0.596975,0.595742,-0.0068053,-0.00249515,-0.00521739,-0.000295709,35,29,-5.83838,-5.83838,-76.9344,-76.9344,0.572
0.778635,0.778831,0.596954,0.595741,-0.00689495,-0.00275749,-0.00528613,-0.000341094,35,29,-5.97096,-5.97096,-77.0837,-77.0837,0.576
0.778607,0.778817,0.596932,0.595739,-0.00698512,-0.00301875,-0.00535526,-0.000400142,34,30,-6.09895,-6.09895,-77.2349,-77.2349,0.58
0.778579,0.778803,0.596911,0.595737,-0.00707578,-0.00319293,-0.00542477,-0.000410716,33,31,-6.22255,-6.22255,-77.3876,-77.3876,0.584
0.778551,0.778787,0.596889,0.595735,-0.00716695,-0.003453,-0.00549466,-0.000446556,32,31,-6.34398,-6.34398,-77.5437,-77.5437,0.588
0.778522,0.77877,0.596867,0.595732,-0.00725862,-0.00368397,-0.00556494,-0.000528031,32,32,-6.46092,-6.46092,-77.7021,-77.7021,0.592
0.778493,0.778752,0.596844,0.595729,-0.00735078,-0.00395311,-0.0056356,-0.000582348,31,32,-6.5741,-6.5741,-77.861,-77.861,0.596
0.778463,0.778733,0.596822,0.595726,-0.00744345,-0.0042189,-0.00570664,-0.000676141,30,32,-6.68246,-6.68246,-78.0215,-78.0215,0.6
0.778433,0.778714,0.596799,0.595722,-0.0075366,-0.00445369,-0.00577806,-0.00073867,29,33,-6.78614,-6.78614,-78.1821,-78.1821,0.604
0.778403,0.778695,0.596776,0.595719,-0.00763026,-0.00452383,-0.00584986,-0.000780356,29,34,-6.88635,-6.88635,-78.3441,-78.3441,0.608
0.778372,0.778677,0.596752,0.595715,-0.0077244,-0.00451302,-0.00592204,-0.000808147,30,34,-6.98782,-6.98782,-78.5083,-78.5083,0.612
0.778341,0.77866,0.596728,0.595711,-0.00781904,-0.00447702,-0.0059946,-0.000884256,31,35,-7.09286,-7.09286,-78.6753,-78.6753,0.616
0.77831,0.778642,0.596704,0.595707,-0.00791416,-0.0044818,-0.00606752,-0.000934995,32,35,-7.20211,-7.20211,-78.8432,-78.8432,0.62
0.778278,0.778624,0.59668,0.595703,-0.00800977,-0.004485,-0.00614083,-0.000997612,33,36,-7.31448,-7.31448,-79.0129,-79.0129,0.624
0.778246,0.778606,0.596655,0.595698,-0.00810587,-0.00445834,-0.0062145,-0.00106815,34,36,-7.4301,-7.4301,-79.1841,-79.1841,0.628
0.778213,0.778587,0.59663,0.595693,-0.00820245,-0.00458452,-0.00628855,-0.00108638,34,37,-7.5495,-7.5495,-79.3565,-79.3565,0.632
0.77818,0.778568,0.596605,0.59569,-0.00829952,-0.00463984,-0.00636296,-0.00104095,35,39,-7.66863,-7.66863,-79.5325,-79.5325,0.636
0.778147,0.778547,0.596579,0.595685,-0.00839706,-0.00484948,-0.00643775,-0.00106825,34,40,-7.78914,-7.78914,-79.7144,-79.7144,0.64
0.778113,0.778525,0.596553,0.595681,-0.00849509,-0.00501802,-0.0065129,-0.00105766,34,41,-7.90685,-7.90685,-79.8994,-79.8994,0.644
0.778079,0.778503,0.596527,0.595676,-0.00859359,-0.00518797,-0.00658842,-0.00113697,33,41,-8.0229,-8.0229,-80.0889,-80.0889,0.648
0.778044,0.778481,0.5965,0.595671,-0.00869258,-0.00527247,-0.00666431,-0.00118984,34,42,-8.13744,-8.13744,-80.2793,-80.2793,0.652
0.778009,0.778458,0.596474,0.595664,-0.00879203,-0.00541518,-0.00674056,-0.00131147,34,42,-8.25271,-8.25271,-80.4716,-80.4716,0.656
0.777974,0.778437,0.596446,0.595657,-0.00889196,-0.00542395,-0.00681717,-0.00145013,35,42,-8.3674,-8.3674,-80.663,-80.663,0.66
0.777938,0.778415,0.596419,0.595649,-0.00899236,-0.0054298,-0.00689414,-0.00165773,35,41,-8.48523,-8.48523,-80.8526,-80.8526,0.664
0.777902,0.778393,0.596391,0.59564,-0.00909323,-0.00546248,-0.00697148,-0.00188251,36,40,-8.60627,-8.60627,-81.0376,-81.0376,0.668
0.777865,0.77837,0.596363,0.595629,-0.00919457,-0.00557065,-0.00704917,-0.00214753,36,38,-8.72963,-8.72963,-81.2171,-81.2171,0.672
0.777828,0.778345,0.596335,0.595618,-0.00929638,-0.00572913,-0.00712722,-0.00238178,36,37,-8.85314,-8.85314,-81.3897,-81.3897,0.676
0.777791,0.778321,0.596306,0.595606,-0.00939865,-0.00589237,-0.00720563,-0.00256675,36,37,-8.9754,-8.9754,-81.5567,-81.5567,0.68
0.777753,0.778297,0.596277,0.595594,-0.00950139,-0.00591482,-0.0072844,-0.00269006,37,36,-9.09659,-9.09659,-81.7201,-81.7201,0.684
0.777715,0.778272,0.596248,0.595582,-0.00960459,-0.00598737,-0.00736352,-0.00280105,37,36,-9.22051,-9.22051,-81.8825,-81.8825,0.688
0.777676,0.778248,0.596218,0.595571,-0.00970825,-0.00603573,-0.00744299,-0.00281747,38,37,-9.34585,-9.34585,-82.0447,-82.0447,0.692
0.777637,0.778224,0.596188,0.595559,-0.00981237,-0.00598161,-0.00752281,-0.0028572,39,38,-9.47351,-9.47351,-82.2104,-82.2104,0.696
0.777598,0.778202,0.596158,0.595549,-0.00991694,-0.00585915,-0.00760299,-0.00273974,41,40,-9.6065,-9.6065,-82.379,-82.379,0.7
0.777558,0.77818,0.596128,0.595539,-0.010022,-0.00571993,-0.00768352,-0.00266143,43,42,-9.74678,-9.74678,-82.5569,-82.5569,0.704
0.777517,0.778158,0.596097,0.595529,-0.0101275,-0.0056559,-0.00776439,-0.00260922,44,44,-9.8947,-9.8947,-82.7425,-82.7425,0.708
0.777477,0.778136,0.596066,0.595518,-0.0102334,-0.00555564,-0.00784561,-0.002632,46,45,-10.0483,-10.0483,-82.9345,-82.9345,0.712
0.777436,0.778117,0.596034,0.595506,-0.0103398,-0.00534484,-0.00792718,-0.00273356,48,45,-10.2089,-10.2089,-83.1298,-83.1298,0.716
0.777394,0.7781,0.596002,0.595495,-0.0104466,-0.00497398,-0.00800909,-0.00280126,52,46,-10.3798,-10.3798,-83.3253,-83.3253,0.72
0.777352,0.778086,0.59597,0.595485,-0.0105539,-0.00443884,-0.00809135,-0.00270245,56,48,-10.566,-10.566,-83.5229,-83.5229,0.724
0.77731,0.778075,0.595937,0.595476,-0.0106617,-0.00388053,-0.00817395,-0.00255019,61,51,-10.7722,-10.7722,-83.7292,-83.7292,0.728
0.777267,0.778067,0.595905,0.595469,-0.0107699,-0.003278,-0.00825689,-0.00227595,66,55,-10.999,-10.999,-83.947,-83.947,0.732
0.777223,0.77806,0.595871,0.595463,-0.0108785,-0.00273236,-0.00834017,-0.00197795,71,59,-11.2479,-11.2479,-84.1812,-84.1812,0.736
0.77718,0.778055,0.595838,0.595459,-0.0109876,-0.00228223,-0.0084238,-0.00163534,76,64,-11.5171,-11.5171,-84.4329,-84.4329,0.74
0.777136,0.77805,0.595804,0.595456,-0.0110971,-0.00192456,-0.00850776,-0.00137813,79,67,-11.8038,-11.8038,-84.7039,-84.7039,0.744
0.777091,0.778047,0.59577,0.595454,-0.011207,-0.00157095,-0.00859205,-0.0010915,83,72,-12.1055,-12.1055,-84.9909,-84.9909,0.748
0.777046,0.778043,0.595735,0.595451,-0.0113174,-0.00133521,-0.00867668,-0.000929204,86,75,-12.4221,-12.4221,-85.2948,-85.2948,0.752
0.777,0.77804,0.5957,0.595449,-0.0114282,-0.00117805,-0.00876165,-0.000821006,88,77,-12.7501,-12.7501,-85.6106,-85.6106,0.756
0.776954,0.778036,0.595665,0.595446,-0.0115395,-0.00107327,-0.00884695,-0.000777665,91,79,-13.0873,-13.0873,-85.936,-85.936,0.76
0.776908,0.778032,0.59563,0.595443,-0.0116512,-0.00106101,-0.00893258,-0.000835143,92,80,-13.4321,-13.4321,-86.2681,-86.2681,0.764
0.776861,0.778028,0.595594,0.595438,-0.0117633,-0.00102404,-0.00901854,-0.000902253,94,81,-13.782,-13.782,-86.603,-86.603,0.768
0.776814,0.778025,0.595557,0.595433,-0.0118759,-0.000999393,-0.00910484,-0.00103337,95,81,-14.1377,-14.1377,-86.9401,-86.9401,0.772
0.776766,0.77802,0.595521,0.595428,-0.0119889,-0.00101175,-0.00919146,-0.00112077,97,82,-14.4988,-14.4988,-87.277,-87.277,0.776
0.776718,0.778017,0.595484,0.595422,-0.0121023,-0.000962411,-0.00927841,-0.00123663,98,82,-14.8645,-14.8645,-87.6153,-87.6153,0.78
0.776669,0.778013,0.595447,0.595416,-0.0122161,-0.000987099,-0.00936568,-0.00137145,100,82,-15.2364,-15.2364,-87.9538,-87.9538,0.784
0.77662,0.778009,0.595409,0.595408,-0.0123304,-0.000974766,-0.00945328,-0.00151891,101,83,-15.6124,-15.6124,-88.2918,-88.2918,0.788
0.776571,0.778005,0.595371,0.595401,-0.0124451,-0.000966544,-0.00954121,-0.00161721,103,83,-15.9937,-15.9937,-88.6289,-88.6289,0.792
0.776521,0.778001,0.595333,0.595394,-0.0125602,-0.000961063,-0.00962946,-0.00165396,104,84,-16.3802,-16.3802,-88.9672,-88.9672,0.796
0.77647,0.777998,0.595294,0.595387,-0.0126757,-0.000957409,-0.00971803,-0.00170725,106,85,-16.7718,-16.7718,-89.3092,-89.3092,0.8
0.776419,0.777994,0.595255,0.595382,-0.0127916,-0.000926182,-0.00980692,-0.00157003,108,88,-17.1685,-17.1685,-89.6547,-89.6547,0.804
0.776368,0.77799,0.595215,0.595377,-0.012908,-0.000962946,-0.00989613,-0.00142097,109,91,-17.571,-17.571,-90.0115,-90.0115,0.808
0.776316,0.777986,0.595176,0.595374,-0.0130248,-0.000987455,-0.00998565,-0.00120643,110,95,-17.9774,-17.9774,-90.3801,-90.3801,0.812
0.776264,0.777981,0.595136,0.595372,-0.013142,-0.00103259,-0.0100755,-0.000977033,112,99,-18.3882,-18.3882,-90.7634,-90.7634,0.816
0.776211,0.777978,0.595095,0.595371,-0.0132596,-0.00100509,-0.0101657,-0.000708937,113,103,-18.8028,-18.8028,-91.1622,-91.1622,0.82
0.776158,0.777973,0.595054,0.595371,-0.0133776,-0.00101555,-0.0102561,-0.000530207,115,106,-19.2233,-19.2233,-91.5778,-91.5778,0.824
0.776104,0.777969,0.595013,0.59537,-0.013496,-0.00102253,-0.0103469,-0.000382262,116,110,-19.6486,-19.6486,-92.0067,-92.0067,0.828
0.77605,0.777964,0.594971,0.59537,-0.0136148,-0.00108476,-0.010438,-0.000254841,118,113,-20.0787,-20.0787,-92.4477,-92.4477,0.832
0.775995,0.77796,0.59493,0.59537,-0.013734,-0.00109745,-0.0105294,-0.000227476,119,115,-20.5123,-20.5123,-92.8996,-92.8996,0.836
0.77594,0.777955,0.594887,0.595369,-0.0138537,-0.00110592,-0.0106212,-0.000238023,121,116,-20.9507,-20.9507,-93.3585,-93.3585,0.84
0.775884,0.777951,0.594845,0.595367,-0.0139737,-0.00108277,-0.0107132,-0.000273846,122,118,-21.3941,-21.3941,-93.8228,-93.8228,0.844
0.775828,0.777947,0.594802,0.595365,-0.0140942,-0.00103855,-0.0108055,-0.000326519,124,119,-21.8436,-21.8436,-94.2915,-94.2915,0.848
0.775771,0.777943,0.594758,0.595363,-0.014215,-0.00103786,-0.0108982,-0.000390425,126,120,-22.2996,-22.2996,-94.7638,-94.7638,0.852
0.775714,0.77794,0.594714,0.595361,-0.0143363,-0.000951022,-0.0109911,-0.00046182,128,121,-22.761,-22.761,-95.2393,-95.2393,0.856
0.775657,0.777937,0.59467,0.595358,-0.0144579,-0.000864342,-0.0110844,-0.000566998,131,122,-23.2305,-23.2305,-95.7177,-95.7177,0.86
0.775599,0.777935,0.594626,0.595354,-0.0145799,-0.000777764,-0.0111779,-0.000665908,133,123,-23.7079,-23.7079,-96.1977,-96.1977,0.864
0.77554,0.777933,0.594581,0.595351,-0.0147024,-0.000720046,-0.0112718,-0.000731848,135,124,-24.1933,-24.1933,-96.6795,-96.6795,0.868
0.775481,0.777931,0.594535,0.595347,-0.0148252,-0.000595194,-0.011366,-0.000804599,138,126,-24.686,-24.686,-97.1645,-97.1645,0.872
0.775422,0.77793,0.59449,0.595343,-0.0149484,-0.000540751,-0.0114604,-0.000853099,140,127,-25.1878,-25.1878,-97.6524,-97.6524,0.876
0.775361,0.777928,0.594444,0.595339,-0.015072,-0.000446873,-0.0115552,-0.000914224,142,128,-25.6969,-25.6969,-98.1444,-98.1444,0.88
0.775301,0.777927,0.594397,0.595334,-0.015196,-0.000413079,-0.0116503,-0.00104135,144,129,-26.2142,-26.2142,-98.6397,-98.6397,0.884
0.77524,0.777926,0.594351,0.59533,-0.0153204,-0.00039055,-0.0117456,-0.00106851,146,130,-26.7381,-26.7381,-99.1358,-99.1358,0.888
0.775178,0.777924,0.594303,0.595324,-0.0154451,-0.00037553,-0.0118413,-0.001173,148,131,-27.2684,-27.2684,-99.6368,-99.6368,0.892
0.775116,0.777923,0.594256,0.595318,-0.0155703,-0.000394308,-0.0119372,-0.00130023,150,132,-27.8048,-27.8048,-100.139,-100.139,0.896
0.775054,0.777921,0.594208,0.595312,-0.0156958,-0.000406827,-0.0120335,-0.00135627,151,133,-28.3463,-28.3463,-100.643,-100.643,0.9
0.774991,0.777919,0.59416,0.595305,-0.0158217,-0.000443963,-0.01213,-0.00148,153,134,-28.8931,-28.8931,-101.15,-101.15,0.904
0.774927,0.777916,0.594111,0.595297,-0.015948,-0.000497512,-0.0122268,-0.00162007,155,135,-29.4446,-29.4446,-101.658,-101.658,0.908
0.774863,0.777914,0.594062,0.59529,-0.0160747,-0.00050442,-0.0123239,-0.00168465,156,136,-30.0004,-30.0004,-102.166,-102.166,0.912
0.774799,0.777912,0.594012,0.595283,-0.0162017,-0.000509026,-0.0124213,-0.0017565,158,137,-30.5618,-30.5618,-102.678,-102.678,0.916
0.774734,0.77791,0.593962,0.595275,-0.0163291,-0.000512096,-0.012519,-0.00177561,160,139,-31.1289,-31.1289,-103.192,-103.192,0.92
0.774668,0.777908,0.593912,0.595267,-0.0164569,-0.000485352,-0.012617,-0.00187472,162,140,-31.7019,-31.7019,-103.713,-103.713,0.924
0.774602,0.777906,0.593861,0.59526,-0.0165851,-0.000525104,-0.0127152,-0.00185442,164,142,-32.2815,-32.2815,-104.235,-104.235,0.928
0.774535,0.777904,0.59381,0.595252,-0.0167136,-0.000522815,-0.0128138,-0.00186968,166,144,-32.8659,-32.8659,-104.764,-104.764,0.932
0.774468,0.777902,0.593759,0.595246,-0.0168425,-0.00055008,-0.0129126,-0.00179348,168,146,-33.4562,-33.4562,-105.3,-105.3,0.936
0.774401,0.777899,0.593707,0.59524,-0.0169718,-0.000568256,-0.0130117,-0.00162752,169,150,-34.0518,-34.0518,-105.845,-105.845,0.94
0.774332,0.777896,0.593655,0.595235,-0.0171014,-0.000609165,-0.0131111,-0.00154567,171,153,-34.6527,-34.6527,-106.403,-106.403,0.944
0.774264,0.777894,0.593602,0.59523,-0.0172314,-0.000636437,-0.0132108,-0.00146231,173,156,-35.2586,-35.2586,-106.972,-106.972,0.948
0.774195,0.77789,0.593549,0.595225,-0.0173618,-0.000712201,-0.0133107,-0.00137795,174,159,-35.8695,-35.8695,-107.55,-107.55,0.952
0.774125,0.777887,0.593496,0.595219,-0.0174925,-0.00076271,-0.0134109,-0.00137929,176,161,-36.4844,-36.4844,-108.138,-108.138,0.956
0.774055,0.777882,0.593442,0.595214,-0.0176236,-0.000911546,-0.0135114,-0.00138018,177,163,-37.1036,-37.1036,-108.733,-108.733,0.96
0.773984,0.777878,0.593388,0.595209,-0.0177551,-0.000924398,-0.0136122,-0.00135198,179,165,-37.7248,-37.7248,-109.335,-109.335,0.964
0.773913,0.777873,0.593333,0.595202,-0.0178869,-0.00101934,-0.0137133,-0.00144835,180,166,-38.3516,-38.3516,-109.944,-109.944,0.968
0.773841,0.777868,0.593278,0.595196,-0.018019,-0.00114021,-0.0138146,-0.0014838,182,168,-38.9817,-38.9817,-110.556,-110.556,0.972
0.773768,0.777863,0.593222,0.59519,-0.0181515,-0.00116322,-0.0139162,-0.00150744,183,170,-39.6145,-39.6145,-111.173,-111.173,0.976
0.773696,0.777856,0.593167,0.595183,-0.0182844,-0.0013225,-0.0140181,-0.0015232,184,172,-40.2525,-40.2525,-111.795,-111.795,0.98
0.773622,0.77785,0.59311,0.595177,-0.0184176,-0.00139991,-0.0141202,-0.00156249,186,174,-40.8922,-40.8922,-112.424,-112.424,0.984
0.773548,0.777844,0.593054,0.59517,-0.0185512,-0.00142272,-0.0142226,-0.00158869,188,176,-41.5359,-41.5359,-113.058,-113.058,0.988
0.773474,0.777838,0.592997,0.595163,-0.0186851,-0.00146671,-0.0143253,-0.00163494,190,177,-42.1852,-42.1852,-113.697,-113.697,0.992
0.773399,0.777831,0.592939,0.595157,-0.0188194,-0.00152484,-0.0144282,-0.00163699,191,179,-42.8393,-42.8393,-114.342,-114.342,0.996
0.773323,0.777825,0.592881,0.59515,-0.018954,-0.00156359,-0.0145314,-0.00166715,193,181,-43.498,-43.498,-114.993,-114.993,1
0.773247,0.777818,0.592823,0.595142,-0.019089,-0.00161821,-0.0146349,-0.00174483,195,183,-44.1619,-44.1619,-115.649,-115.649,1.004
0.77317,0.777811,0.592764,0.595134,-0.0192243,-0.00165462,-0.0147386,-0.00182541,197,184,-44.8305,-44.8305,-116.31,-116.31,1.008
0.773093,0.777804,0.592705,0.595126,-0.0193599,-0.0016789,-0.0148426,-0.00193671,199,185,-45.5044,-45.5044,-116.973,-116.973,1.012
0.773016,0.777799,0.592645,0.595117,-0.0194959,-0.00157992,-0.0149468,-0.00203971,201,187,-46.1842,-46.1842,-117.639,-117.639,1.016
0.772937,0.777792,0.592585,0.595107,-0.0196322,-0.00157152,-0.0150514,-0.00213716,204,188,-46.8732,-46.8732,-118.307,-118.307,1.02
0.772859,0.777787,0.592525,0.595098,-0.0197689,-0.00150833,-0.0151561,-0.00223092,206,189,-47.5689,-47.5689,-118.978,-118.978,1.024
0.772779,0.777782,0.592464,0.595088,-0.0199058,-0.00137984,-0.0152611,-0.00229343,209,191,-48.2732,-48.2732,-119.652,-119.652,1.028
0.772699,0.777778,0.592403,0.595078,-0.0200432,-0.00132296,-0.0153664,-0.00236389,212,193,-48.9877,-48.9877,-120.33,-120.33,1.032
0.772619,0.777774,0.592341,0.595068,-0.0201808,-0.00119868,-0.015472,-0.00243965,215,194,-49.7106,-49.7106,-121.013,-121.013,1.036
0.772538,0.777769,0.592279,0.595057,-0.0203188,-0.0011734,-0.0155778,-0.00254774,217,195,-50.4436,-50.4436,-121.699,-121.699,1.04
0.772456,0.777765,0.592216,0.595045,-0.0204571,-0.00115655,-0.0156838,-0.00267739,220,196,-51.1839,-51.1839,-122.387,-122.387,1.044
0.772374,0.77776,0.592154,0.595033,-0.0205958,-0.00117411,-0.0157901,-0.00273503,222,198,-51.9314,-51.9314,-123.077,-123.077,1.048
0.772292,0.777754,0.59209,0.595021,-0.0207348,-0.00124339,-0.0158967,-0.00285982,224,199,-52.6849,-52.6849,-123.771,-123.771,1.052
0.772208,0.77775,0.592026,0.595008,-0.0208741,-0.001232,-0.0160035,-0.0030006,226,200,-53.4433,-53.4433,-124.468,-124.468,1.056
0.772125,0.777745,0.591962,0.594994,-0.0210137,-0.00116682,-0.0161105,-0.00318083,229,201,-54.2088,-54.2088,-125.165,-125.165,1.06
0.77204,0.777741,0.591897,0.594979,-0.0211537,-0.00115217,-0.0162178,-0.00332977,231,201,-54.983,-54.983,-125.861,-125.861,1.064
0.771955,0.777737,0.591832,0.594964,-0.0212939,-0.0011136,-0.0163253,-0.00351544,234,202,-55.7645,-55.7645,-126.558,-126.558,1.068
0.77187,0.777733,0.591767,0.594949,-0.0214345,-0.0010591,-0.0164331,-0.00352405,236,204,-56.5541,-56.5541,-127.255,-127.255,1.072
0.771784,0.777729,0.591701,0.594935,-0.0215754,-0.000993977,-0.0165412,-0.00355859,239,206,-57.3521,-57.3521,-127.958,-127.958,1.076
0.771697,0.777727,0.591635,0.594919,-0.0217167,-0.000892978,-0.0166494,-0.00366798,242,207,-58.1592,-58.1592,-128.667,-128.667,1.08
0.77161,0.777724,0.591568,0.594904,-0.0218582,-0.000854437,-0.016758,-0.00376971,245,209,-58.976,-58.976,-129.378,-129.378,1.084
0.771522,0.777721,0.5915,0.594887,-0.0220001,-0.000799952,-0.0168667,-0.00386631,248,210,-59.8011,-59.8011,-130.092,-130.092,1.088
0.771434,0.777717,0.591433,0.594871,-0.0221422,-0.000821211,-0.0169757,-0.0039595,250,211,-60.6346,-60.6346,-130.809,-130.809,1.092
0.771345,0.777715,0.591365,0.594853,-0.0222847,-0.000777801,-0.017085,-0.00410801,253,212,-61.4747,-61.4747,-131.529,-131.529,1.096
0.771256,0.777711,0.591296,0.594836,-0.0224275,-0.000806443,-0.0171944,-0.00417822,255,214,-62.3231,-62.3231,-132.25,-132.25,1.1
0.771166,0.777709,0.591227,0.594819,-0.0225706,-0.000710374,-0.0173041,-0.00422502,258,216,-63.178,-63.178,-132.976,-132.976,1.104
0.771075,0.777706,0.591158,0.594801,-0.022714,-0.000761492,-0.0174141,-0.00431381,260,217,-64.0426,-64.0426,-133.706,-133.706,1.108
0.770984,0.777702,0.591088,0.594782,-0.0228578,-0.000795571,-0.0175243,-0.00445937,263,218,-64.913,-64.913,-134.44,-134.44,1.112
0.770892,0.777698,0.591018,0.594763,-0.0230018,-0.000847081,-0.0176347,-0.00449884,265,220,-65.7895,-65.7895,-135.175,-135.175,1.116
0.7708,0.777694,0.590947,0.594745,-0.0231461,-0.000967793,-0.0177453,-0.00452514,266,222,-66.6715,-66.6715,-135.915,-135.915,1.12
0.770707,0.777689,0.590876,0.594726,-0.0232907,-0.00104827,-0.0178562,-0.00460026,268,224,-67.5574,-67.5574,-136.662,-136.662,1.124
0.770614,0.777683,0.590804,0.594707,-0.0234357,-0.0011595,-0.0179673,-0.00467913,270,226,-68.448,-68.448,-137.412,-137.412,1.128
0.77052,0.777678,0.590732,0.594687,-0.0235809,-0.00117607,-0.0180787,-0.00476051,273,227,-69.3428,-69.3428,-138.167,-138.167,1.132
0.770425,0.777673,0.590659,0.594667,-0.0237264,-0.00121591,-0.0181902,-0.00487233,275,229,-70.2444,-70.2444,-138.925,-138.925,1.136
0.77033,0.777668,0.590586,0.594646,-0.0238722,-0.00127126,-0.018302,-0.00497568,277,230,-71.1521,-71.1521,-139.686,-139.686,1.14
0.770234,0.777662,0.590513,0.594625,-0.0240183,-0.00130816,-0.0184141,-0.00507337,279,232,-72.0655,-72.0655,-140.45,-140.45,1.144
0.770138,0.777656,0.590439,0.594602,-0.0241648,-0.00139035,-0.0185263,-0.00528244,281,232,-72.9852,-72.9852,-141.216,-141.216,1.148
0.770041,0.777649,0.590365,0.594578,-0.0243115,-0.00147392,-0.0186388,-0.0055082,284,232,-73.9097,-73.9097,-141.981,-141.981,1.152
0.769943,0.777643,0.59029,0.594554,-0.0244585,-0.00152964,-0.0187515,-0.00571629,286,233,-74.8393,-74.8393,-142.744,-142.744,1.156
0.769845,0.777635,0.590215,0.594529,-0.0246057,-0.00168195,-0.0188644,-0.00582623,287,234,-75.7745,-75.7745,-143.505,-143.505,1.16
0.769746,0.777626,0.590139,0.594506,-0.0247533,-0.00186987,-0.0189775,-0.00581314,289,237,-76.7125,-76.7125,-144.27,-144.27,1.164
0.769647,0.777616,0.590063,0.594485,-0.0249012,-0.00208151,-0.0190909,-0.00563167,290,241,-77.6523,-77.6523,-145.042,-145.042,1.168
0.769547,0.777603,0.589986,0.594466,-0.0250493,-0.00242415,-0.0192045,-0.00530916,290,246,-78.593,-78.593,-145.831,-145.831,1.172
0.769447,0.77759,0.589909,0.59445,-0.0251977,-0.00276774,-0.0193183,-0.00489261,291,253,-79.531,-79.531,-146.64,-146.64,1.176
0.769346,0.777573,0.589832,0.594437,-0.0253464,-0.00319833,-0.0194323,-0.00432701,290,261,-80.4659,-80.4659,-147.475,-147.475,1.18
0.769244,0.777554,0.589754,0.594427,-0.0254954,-0.00371572,-0.0195465,-0.0037484,289,269,-81.3953,-81.3953,-148.343,-148.343,1.184
0.769142,0.777533,0.589675,0.59442,-0.0256447,-0.00429098,-0.0196609,-0.00313233,288,278,-82.3164,-82.3164,-149.243,-149.243,1.188
0.769039,0.777509,0.589596,0.594414,-0.0257943,-0.00478964,-0.0197756,-0.00257767,287,286,-83.2279,-83.2279,-150.177,-150.177,1.192
0.768935,0.777483,0.589517,0.594408,-0.0259441,-0.00538121,-0.0198905,-0.00215031,286,293,-84.1316,-84.1316,-151.142,-151.142,1.196
0.768831,0.777455,0.589437,0.594403,-0.0260942,-0.00594833,-0.0200055,-0.00192299,284,298,-85.0249,-85.0249,-152.134,-152.134,1.2
0.768727,0.777422,0.589357,0.594396,-0.0262446,-0.0066719,-0.0201208,-0.00182902,282,302,-85.9081,-85.9081,-153.143,-153.143,1.204
0.768621,0.777386,0.589276,0.594388,-0.0263952,-0.00749977,-0.0202363,-0.00188154,279,304,-86.7767,-86.7767,-154.164,-154.164,1.208
0.768515,0.777343,0.589195,0.594379,-0.0265461,-0.00854113,-0.020352,-0.00197413,274,306,-87.6272,-87.6272,-155.192,-155.192,1.212
0.768409,0.777295,0.589114,0.594371,-0.0266973,-0.00975361,-0.0204679,-0.00203586,269,309,-88.4532,-88.4532,-156.224,-156.224,1.216
0.768302,0.777239,0.589031,0.594362,-0.0268488,-0.011109,-0.0205841,-0.0021058,262,311,-89.2496,-89.2496,-157.262,-157.262,1.22
0.768194,0.777178,0.588949,0.594354,-0.0270005,-0.0125308,-0.0207004,-0.00206606,254,314,-90.0121,-90.0121,-158.306,-158.306,1.224
0.768086,0.777107,0.588866,0.594347,-0.0271525,-0.0142848,-0.0208169,-0.00195319,245,318,-90.738,-90.738,-159.36,-159.36,1.228
0.767977,0.777025,0.588782,0.59434,-0.0273048,-0.016289,-0.0209336,-0.00184916,233,323,-91.4174,-91.4174,-160.428,-160.428,1.232
0.767867,0.77694,0.588698,0.594334,-0.0274573,-0.0179995,-0.0210506,-0.00175101,224,327,-92.0438,-92.0438,-161.509,-161.509,1.236
0.767757,0.776844,0.588614,0.594328,-0.0276101,-0.019946,-0.0211677,-0.00165678,212,330,-92.6246,-92.6246,-162.602,-162.602,1.24
0.767647,0.77674,0.588529,0.594323,-0.0277631,-0.0219922,-0.0212851,-0.00153639,200,335,-93.1527,-93.1527,-163.709,-163.709,1.244
0.767535,0.776626,0.588444,0.594317,-0.0279164,-0.0241337,-0.0214026,-0.00157129,188,338,-93.6251,-93.6251,-164.829,-164.829,1.248
0.767423,0.776508,0.588358,0.59431,-0.02807,-0.0259644,-0.0215203,-0.00159455,177,340,-94.0394,-94.0394,-165.956,-165.956,1.252
0.767311,0.776381,0.588271,0.594303,-0.0282238,-0.0278759,-0.0216382,-0.00166764,165,343,-94.4039,-94.4039,-167.091,-167.091,1.256
0.767197,0.776247,0.588185,0.594295,-0.0283779,-0.0297836,-0.0217564,-0.00177395,154,345,-94.7161,-94.7161,-168.232,-168.232,1.26
0.767084,0.776108,0.588097,0.594286,-0.0285322,-0.0314297,-0.0218747,-0.00187362,144,347,-94.9764,-94.9764,-169.377,-169.377,1.264
0.766969,0.775956,0.58801,0.594277,-0.0286868,-0.0336211,-0.0219932,-0.00202643,130,349,-95.1908,-95.1908,-170.527,-170.527,1.268
0.766854,0.775805,0.587921,0.594268,-0.0288416,-0.0349957,-0.0221119,-0.00209952,122,351,-95.3455,-95.3455,-171.679,-171.679,1.272
0.766738,0.775651,0.587833,0.59426,-0.0289967,-0.0361424,-0.0222308,-0.00211945,115,354,-95.4636,-95.4636,-172.837,-172.837,1.276
0.766622,0.775489,0.587744,0.594252,-0.029152,-0.0375979,-0.0223499,-0.00204637,106,358,-95.5505,-95.5505,-174.004,-174.004,1.28
0.766505,0.775324,0.587654,0.594246,-0.0293076,-0.0388273,-0.0224692,-0.00188248,99,363,-95.598,-95.598,-175.182,-175.182,1.284
0.766388,0.775155,0.587564,0.594243,-0.0294634,-0.0399924,-0.0225886,-0.00151411,92,370,-95.6124,-95.6124,-176.378,-176.378,1.288
0.766269,0.774984,0.587473,0.594241,-0.0296195,-0.0409131,-0.0227083,-0.00115336,86,377,-95.5958,-95.5958,-177.598,-177.598,1.292
0.766151,0.774809,0.587382,0.59424,-0.0297758,-0.0418436,-0.0228281,-0.000826488,81,383,-95.5548,-95.5548,-178.842,-178.842,1.296
0.766031,0.774634,0.587291,0.59424,-0.0299324,-0.0424928,-0.0229481,-0.000608574,77,389,-95.4897,-95.4897,-180.11,-180.11,1.3
0.765911,0.774454,0.587199,0.594239,-0.0300892,-0.0433286,-0.0230684,-0.000463298,72,393,-95.4079,-95.4079,-181.396,-181.396,1.304
0.765791,0.774275,0.587106,0.594237,-0.0302462,-0.0437994,-0.0231888,-0.00045282,69,397,-95.3047,-95.3047,-182.698,-182.698,1.308
0.765669,0.774095,0.587013,0.594235,-0.0304035,-0.0441421,-0.0233093,-0.000445834,67,401,-95.1905,-95.1905,-184.009,-184.009,1.312
0.765547,0.773914,0.58692,0.594232,-0.030561,-0.0445433,-0.0234301,-0.000556341,65,403,-95.0689,-95.0689,-185.33,-185.33,1.316
0.765425,0.77373,0.586826,0.594227,-0.0307187,-0.0449835,-0.023551,-0.000773967,63,404,-94.9379,-94.9379,-186.656,-186.656,1.32
0.765302,0.773547,0.586731,0.594222,-0.0308767,-0.045277,-0.0236721,-0.00100542,61,406,-94.7968,-94.7968,-187.981,-187.981,1.324
0.765178,0.773361,0.586636,0.594214,-0.0310349,-0.045703,-0.0237934,-0.00127489,59,406,-94.6495,-94.6495,-189.307,-189.307,1.328
0.765053,0.773176,0.586541,0.594206,-0.0311934,-0.0458718,-0.0239149,-0.0015697,58,407,-94.4927,-94.4927,-190.63,-190.63,1.332
0.764928,0.772988,0.586445,0.594195,-0.031352,-0.0462147,-0.0240366,-0.0019102,56,407,-94.3331,-94.3331,-191.95,-191.95,1.336
0.764802,0.7728,0.586349,0.594184,-0.0315109,-0.0465296,-0.0241584,-0.00225235,55,407,-94.1661,-94.1661,-193.265,-193.265,1.34
0.764676,0.772614,0.586252,0.594173,-0.0316701,-0.0464517,-0.0242804,-0.0023653,56,410,-93.9932,-93.9932,-194.576,-194.576,1.344
0.764549,0.772422,0.586154,0.594162,-0.0318294,-0.0470331,-0.0244026,-0.00249817,52,412,-93.824,-93.824,-195.891,-195.891,1.348
0.764421,0.772235,0.586056,0.594154,-0.031989,-0.0468737,-0.0245249,-0.00235643,54,417,-93.6416,-93.6416,-197.21,-197.21,1.352
0.764293,0.772044,0.585958,0.594147,-0.0321488,-0.0472281,-0.0246474,-0.00217556,52,422,-93.4656,-93.4656,-198.545,-198.545,1.356
0.764164,0.771855,0.585859,0.594141,-0.0323088,-0.0472053,-0.0247701,-0.00188224,52,428,-93.2826,-93.2826,-199.898,-199.898,1.36
0.764035,0.771664,0.58576,0.594138,-0.0324691,-0.0473628,-0.024893,-0.00157153,52,435,-93.1025,-93.1025,-201.272,-201.272,1.364
0.763905,0.771473,0.58566,0.594134,-0.0326295,-0.0475253,-0.025016,-0.0013068,51,441,-92.9204,-92.9204,-202.67,-202.67,1.368
0.763774,0.771282,0.58556,0.594132,-0.0327902,-0.0476049,-0.0251392,-0.00107274,51,447,-92.7364,-92.7364,-204.089,-204.089,1.372
0.763642,0.771092,0.585459,0.59413,-0.0329511,-0.0475428,-0.0252625,-0.000916695,52,452,-92.5531,-92.5531,-205.527,-205.527,1.376
0.76351,0.7709,0.585358,0.594127,-0.0331122,-0.047703,-0.0253861,-0.000812667,51,457,-92.3739,-92.3739,-206.982,-206.982,1.38
0.763377,0.770707,0.585256,0.594124,-0.0332736,-0.0478673,-0.0255097,-0.000772105,50,461,-92.1926,-92.1926,-208.451,-208.451,1.384
0.763244,0.770516,0.585154,0.594121,-0.0334351,-0.0478617,-0.0256336,-0.000802646,51,465,-92.0096,-92.0096,-209.931,-209.931,1.388
0.76311,0.770323,0.585051,0.594117,-0.0335969,-0.0480019,-0.0257576,-0.000880588,50,468,-91.8293,-91.8293,-211.421,-211.421,1.392
0.762975,0.770129,0.584948,0.594111,-0.0337588,-0.048153,-0.0258818,-0.00104771,50,470,-91.6476,-91.6476,-212.916,-212.916,1.396
0.76284,0.769935,0.584844,0.594105,-0.033921,-0.0483113,-0.0260061,-0.00121671,49,472,-91.4642,-91.4642,-214.415,-214.415,1.4
0.762704,0.769743,0.58474,0.594099,-0.0340834,-0.0481577,-0.0261306,-0.00135817,51,474,-91.2796,-91.2796,-215.917,-215.917,1.404
0.762567,0.769549,0.584635,0.594092,-0.034246,-0.0483144,-0.0262553,-0.00148126,50,477,-91.1017,-91.1017,-217.423,-217.423,1.408
0.76243,0.769355,0.58453,0.594084,-0.0344088,-0.0483325,-0.0263801,-0.00162091,50,479,-90.9224,-90.9224,-218.933,-218.933,1.412
0.762292,0.769162,0.584424,0.594075,-0.0345718,-0.0483158,-0.026505,-0.00182917,51,481,-90.7456,-90.7456,-220.448,-220.448,1.416
0.762153,0.768969,0.584317,0.594066,-0.034735,-0.0482759,-0.0266302,-0.0019968,52,483,-90.5722,-90.5722,-221.964,-221.964,1.42
0.762014,0.768774,0.584211,0.594056,-0.0348984,-0.0484508,-0.0267554,-0.00216614,51,485,-90.4025,-90.4025,-223.483,-223.483,1.424
0.761874,0.768581,0.584103,0.594044,-0.035062,-0.0484234,-0.0268809,-0.00239419,52,487,-90.231,-90.231,-225.004,-225.004,1.428
0.761733,0.768386,0.583996,0.59403,-0.0352258,-0.0484628,-0.0270064,-0.00280535,52,487,-90.0632,-90.0632,-226.526,-226.526,1.432
0.761592,0.768189,0.583887,0.59401,-0.0353898,-0.0487481,-0.0271322,-0.00354011,51,483,-89.8967,-89.8967,-228.039,-228.039,1.436
0.76145,0.767995,0.583779,0.593984,-0.035554,-0.0486793,-0.0272581,-0.00451939,52,478,-89.7254,-89.7254,-229.53,-229.53,1.44
0.761308,0.7678,0.583669,0.593949,-0.0357184,-0.0487197,-0.0273841,-0.0059496,52,467,-89.559,-89.559,-230.988,-230.988,1.444
0.761165,0.767604,0.58356,0.593903,-0.035883,-0.0487755,-0.0275103,-0.00773801,52,454,-89.3943,-89.3943,-232.394,-232.394,1.448
0.761021,0.767407,0.583449,0.593846,-0.0360477,-0.0489566,-0.0276366,-0.00990918,51,436,-89.2308,-89.2308,-233.732,-233.732,1.452
0.760876,0.767211,0.583338,0.593776,-0.0362127,-0.0489334,-0.0277631,-0.0124795,52,414,-89.0653,-89.0653,-234.985,-234.985,1.456
0.760731,0.767014,0.583227,0.59369,-0.0363779,-0.0490619,-0.0278897,-0.0154886,52,388,-88.9033,-88.9033,-236.136,-236.136,1.46
0.760585,0.766817,0.583115,0.593592,-0.0365432,-0.04909,-0.0280165,-0.0185023,52,361,-88.7408,-88.7408,-237.167,-237.167,1.464
0.760439,0.766619,0.583003,0.593482,-0.0367088,-0.0492814,-0.0281434,-0.0214616,51,335,-88.5803,-88.5803,-238.076,-238.076,1.468
0.760292,0.766423,0.58289,0.593361,-0.0368745,-0.0492075,-0.0282704,-0.0244134,52,309,-88.4178,-88.4178,-238.866,-238.866,1.472
0.760144,0.766227,0.582777,0.593228,-0.0370404,-0.0491295,-0.0283976,-0.0273313,54,282,-88.2607,-88.2607,-239.536,-239.536,1.476
0.759995,0.766027,0.582663,0.593088,-0.0372065,-0.0493941,-0.028525,-0.02991,52,259,-88.1084,-88.1084,-240.089,-240.089,1.48
0.759846,0.76583,0.582549,0.592936,-0.0373727,-0.0493403,-0.0286524,-0.032608,53,234,-87.9522,-87.9522,-240.536,-240.536,1.484
0.759696,0.76563,0.582434,0.592778,-0.0375392,-0.0495922,-0.02878,-0.0348961,52,214,-87.8002,-87.8002,-240.875,-240.875,1.488
0.759546,0.765432,0.582318,0.592617,-0.0377058,-0.0495587,-0.0289078,-0.0366519,53,198,-87.6446,-87.6446,-241.121,-241.121,1.492
0.759395,0.76523,0.582202,0.592451,-0.0378726,-0.049853,-0.0290357,-0.0383118,52,183,-87.4926,-87.4926,-241.296,-241.296,1.496
0.759243,0.765032,0.582086,0.592284,-0.0380396,-0.0497613,-0.0291637,-0.0394184,53,173,-87.336,-87.336,-241.406,-241.406,1.5
0.75909,0.764832,0.581969,0.592114,-0.0382068,-0.0498442,-0.0292919,-0.0405017,53,163,-87.1851,-87.1851,-241.472,-241.472,1.504
0.758937,0.764629,0.581852,0.591943,-0.0383741,-0.0500721,-0.0294202,-0.041195,52,157,-87.0347,-87.0347,-241.495,-241.495,1.508
0.758783,0.764429,0.581734,0.591772,-0.0385416,-0.0500802,-0.0295486,-0.0417724,52,152,-86.8814,-86.8814,-241.493,-241.493,1.512
0.758629,0.764227,0.581615,0.5916,-0.0387093,-0.0502007,-0.0296771,-0.0421862,52,149,-86.731,-86.731,-241.47,-241.47,1.516
0.758474,0.764026,0.581496,0.591424,-0.0388772,-0.0502522,-0.0298058,-0.0427499,53,144,-86.5804,-86.5804,-241.432,-241.432,1.52
0.758318,0.763823,0.581377,0.591251,-0.0390452,-0.050373,-0.0299347,-0.042953,52,143,-86.4316,-86.4316,-241.373,-241.373,1.524
0.758161,0.763622,0.581257,0.591076,-0.0392134,-0.0503383,-0.0300636,-0.0432035,53,141,-86.2829,-86.2829,-241.309,-241.309,1.528
0.758004,0.763421,0.581136,0.590899,-0.0393818,-0.050344,-0.0301927,-0.0435433,54,138,-86.1386,-86.1386,-241.236,-241.236,1.532
0.757846,0.763216,0.581015,0.590718,-0.0395503,-0.0506069,-0.0303219,-0.0440865,53,133,-85.9969,-85.9969,-241.152,-241.152,1.536
0.757688,0.763015,0.580894,0.590541,-0.039719,-0.050523,-0.0304512,-0.0441608,54,133,-85.8517,-85.8517,-241.048,-241.048,1.54
0.757528,0.76281,0.580772,0.590359,-0.0398878,-0.0507838,-0.0305807,-0.0446133,53,129,-85.7117,-85.7117,-240.943,-240.943,1.544
0.757369,0.762607,0.580649,0.590178,-0.0400568,-0.0507849,-0.0307102,-0.0448287,53,128,-85.5679,-85.5679,-240.822,-240.822,1.548
0.757208,0.762402,0.580526,0.589994,-0.040226,-0.0508721,-0.03084,-0.0451738,53,125,-85.4275,-85.4275,-240.695,-240.695,1.552
0.757047,0.762196,0.580402,0.58981,-0.0403954,-0.0511317,-0.0309698,-0.0454902,52,122,-85.2875,-85.2875,-240.555,-240.555,1.556
0.756885,0.761993,0.580278,0.589625,-0.0405649,-0.0509593,-0.0310997,-0.0457299,54,120,-85.1443,-85.1443,-240.405,-240.405,1.56
0.756722,0.761786,0.580154,0.589435,-0.0407345,-0.0512474,-0.0312298,-0.0462928,53,115,-85.0088,-85.0088,-240.247,-240.247,1.564
0.756559,0.76158,0.580029,0.589245,-0.0409043,-0.0513243,-0.03136,-0.0467257,53,112,-84.8686,-84.8686,-240.067,-240.067,1.568
0.756395,0.761375,0.579903,0.589052,-0.0410743,-0.0513468,-0.0314903,-0.0472446,54,107,-84.7299,-84.7299,-239.871,-239.871,1.572
0.75623,0.761168,0.579777,0.588857,-0.0412444,-0.0514194,-0.0316207,-0.0477057,54,103,-84.594,-84.594,-239.656,-239.656,1.576
0.756065,0.760961,0.57965,0.588656,-0.0414147,-0.0515254,-0.0317512,-0.0485889,54,94,-84.4594,-84.4594,-239.423,-239.423,1.58
0.755899,0.760753,0.579523,0.588455,-0.0415851,-0.0516824,-0.0318819,-0.0491489,53,89,-84.3252,-84.3252,-239.154,-239.154,1.584
0.755732,0.760548,0.579395,0.58825,-0.0417557,-0.0516143,-0.0320127,-0.049839,55,83,-84.1904,-84.1904,-238.864,-238.864,1.588
0.755565,0.760332,0.579266,0.588036,-0.0419264,-0.0523751,-0.0321436,-0.0510476,50,71,-84.0594,-84.0594,-238.546,-238.546,1.592
0.755397,0.760129,0.579138,0.587832,-0.0420972,-0.0517882,-0.0322746,-0.0510471,55,71,-83.9124,-83.9124,-238.18,-238.18,1.596
0.755228,0.75992,0.579008,0.58762,-0.0422683,-0.051944,-0.0324057,-0.0516803,54,65,-83.785,-83.785,-237.815,-237.815,1.6
0.755059,0.759705,0.578878,0.587404,-0.0424394,-0.0525949,-0.0325369,-0.0524766,51,57,-83.6555,-83.6555,-237.425,-237.425,1.604
0.754889,0.759497,0.578748,0.58719,-0.0426107,-0.0524242,-0.0326682,-0.0527772,53,54,-83.512,-83.512,-237.003,-237.003,1.608
0.754718,0.759286,0.578617,0.58698,-0.0427822,-0.0524831,-0.0327997,-0.0526897,53,55,-83.3768,-83.3768,-236.571,-236.571,1.612
0.754546,0.759077,0.578486,0.586771,-0.0429538,-0.052436,-0.0329312,-0.0526026,54,56,-83.2439,-83.2439,-236.145,-236.145,1.616
0.754374,0.75887,0.578354,0.586563,-0.0431255,-0.0522031,-0.0330629,-0.0523717,56,58,-83.1166,-83.1166,-235.724,-235.724,1.62
0.754201,0.75866,0.578221,0.586356,-0.0432973,-0.0522782,-0.0331946,-0.0521602,56,60,-82.9995,-82.9995,-235.315,-235.315,1.624
0.754028,0.758449,0.578088,0.586145,-0.0434693,-0.0524434,-0.0333265,-0.052336,56,59,-82.8837,-82.8837,-234.916,-234.916,1.628
0.753854,0.758237,0.577954,0.585939,-0.0436415,-0.0526399,-0.0334585,-0.0520788,55,61,-82.7667,-82.7667,-234.513,-234.513,1.632
0.753679,0.758026,0.57782,0.585729,-0.0438138,-0.0526845,-0.0335905,-0.0521953,56,60,-82.648,-82.648,-234.121,-234.121,1.636
0.753503,0.757813,0.577686,0.585523,-0.0439862,-0.052887,-0.0337227,-0.0519851,55,62,-82.5316,-82.5316,-233.727,-233.727,1.64
0.753327,0.757599,0.577551,0.585317,-0.0441587,-0.053022,-0.033855,-0.0518449,55,64,-82.413,-82.413,-233.344,-233.344,1.644
0.75315,0.757385,0.577415,0.585108,-0.0443314,-0.0531984,-0.0339874,-0.051953,55,63,-82.2942,-82.2942,-232.969,-232.969,1.648
0.752972,0.75717,0.577279,0.584905,-0.0445042,-0.0533735,-0.0341199,-0.0515644,54,66,-82.174,-82.174,-232.592,-232.592,1.652
0.752794,0.756957,0.577142,0.584702,-0.0446771,-0.0533464,-0.0342525,-0.0513053,55,69,-82.0529,-82.0529,-232.234,-232.234,1.656
0.752615,0.756741,0.577005,0.584502,-0.0448502,-0.0535874,-0.0343851,-0.0508735,54,73,-81.936,-81.936,-231.889,-231.889,1.66
0.752435,0.756524,0.576867,0.5843,-0.0450234,-0.0537768,-0.0345179,-0.0507008,54,75,-81.8158,-81.8158,-231.565,-231.565,1.664
0.752255,0.756311,0.576729,0.584106,-0.0451967,-0.0535864,-0.0346508,-0.0500386,56,82,-81.6948,-81.6948,-231.252,-231.252,1.668
0.752073,0.756093,0.57659,0.58391,-0.0453701,-0.0538914,-0.0347838,-0.0496835,55,86,-81.5823,-81.5823,-230.969,-230.969,1.672
0.751892,0.755878,0.57645,0.583713,-0.0455437,-0.0538643,-0.0349168,-0.0494756,56,88,-81.4654,-81.4654,-230.703,-230.703,1.676
0.751709,0.755664,0.57631,0.583522,-0.0457174,-0.0537887,-0.03505,-0.0489627,57,94,-81.3534,-81.3534,-230.45,-230.45,1.68
0.751526,0.755444,0.57617,0.583325,-0.0458912,-0.0541414,-0.0351832,-0.0490238,55,93,-81.2468,-81.2468,-230.22,-230.22,1.684
0.751342,0.75523,0.576029,0.583133,-0.0460651,-0.0539734,-0.0353166,-0.0486903,57,97,-81.1347,-81.1347,-229.991,-229.991,1.688
0.751157,0.755011,0.575887,0.582936,-0.0462391,-0.0541781,-0.03545,-0.048871,57,96,-81.0309,-81.0309,-229.779,-229.779,1.692
0.750972,0.754795,0.575745,0.582741,-0.0464133,-0.0541419,-0.0355835,-0.0488188,58,97,-80.9255,-80.9255,-229.562,-229.562,1.696
0.750786,0.754577,0.575603,0.582548,-0.0465876,-0.0542617,-0.0357171,-0.04864,58,99,-80.8251,-80.8251,-229.351,-229.351,1.7
0.750599,0.754359,0.57546,0.582351,-0.0467619,-0.0543415,-0.0358508,-0.0488663,58,97,-80.7251,-80.7251,-229.15,-229.15,1.704
0.750412,0.754141,0.575316,0.582154,-0.0469364,-0.0543947,-0.0359846,-0.0489595,59,97,-80.627,-80.627,-228.943,-228.943,1.708
0.750224,0.753922,0.575172,0.581957,-0.0471111,-0.0545166,-0.0361185,-0.0491081,59,96,-80.5313,-80.5313,-228.734,-228.734,1.712
0.750035,0.753702,0.575027,0.581761,-0.0472858,-0.0546554,-0.0362524,-0.0490056,58,97,-80.4361,-80.4361,-228.524,-228.524,1.716
0.749846,0.753484,0.574882,0.581562,-0.0474606,-0.054604,-0.0363865,-0.049254,60,96,-80.3413,-80.3413,-228.319,-228.319,1.72
0.749655,0.753262,0.574736,0.581366,-0.0476356,-0.0549153,-0.0365206,-0.049218,58,96,-80.2514,-80.2514,-228.108,-228.108,1.724
0.749465,0.753041,0.574589,0.581169,-0.0478106,-0.0550076,-0.0366548,-0.0492516,59,97,-80.1569,-80.1569,-227.902,-227.902,1.728
0.749273,0.752821,0.574443,0.580971,-0.0479858,-0.0550403,-0.0367891,-0.0493028,59,97,-80.0639,-80.0639,-227.697,-227.697,1.732
0.749081,0.752597,0.574295,0.580772,-0.048161,-0.0553789,-0.0369235,-0.0494233,58,96,-79.9734,-79.9734,-227.494,-227.494,1.736
0.748888,0.752376,0.574147,0.580572,-0.0483364,-0.0553454,-0.0370579,-0.0496476,59,94,-79.8778,-79.8778,-227.288,-227.288,1.74
0.748694,0.752151,0.573999,0.580375,-0.0485119,-0.0555823,-0.0371924,-0.049538,58,96,-79.7869,-79.7869,-227.077,-227.077,1.744
0.7485,0.751927,0.57385,0.580172,-0.0486875,-0.0557402,-0.0373271,-0.049868,58,93,-79.6932,-79.6932,-226.872,-226.872,1.748
0.748304,0.751703,0.5737,0.579973,-0.0488631,-0.0558454,-0.0374617,-0.0498289,58,94,-79.5991,-79.5991,-226.658,-226.658,1.752
0.748109,0.751478,0.57355,0.579775,-0.0490389,-0.0559732,-0.0375965,-0.0497453,58,95,-79.5061,-79.5061,-226.449,-226.449,1.756
0.747912,0.751251,0.573399,0.579573,-0.0492148,-0.0562311,-0.0377313,-0.0499774,57,94,-79.4132,-79.4132,-226.246,-226.246,1.76
0.747715,0.751027,0.573248,0.579374,-0.0493908,-0.0561727,-0.0378662,-0.0499594,59,94,-79.3175,-79.3175,-226.037,-226.037,1.764
0.747517,0.750798,0.573096,0.579173,-0.0495668,-0.0565081,-0.0380012,-0.0500626,57,94,-79.227,-79.227,-225.831,-225.831,1.768
0.747318,0.750571,0.572944,0.578973,-0.049743,-0.0565877,-0.0381363,-0.050045,57,95,-79.1312,-79.1312,-225.625,-225.625,1.772
0.747119,0.750343,0.572791,0.578773,-0.0499192,-0.0566983,-0.0382714,-0.0500045,58,96,-79.0372,-79.0372,-225.424,-225.424,1.776
0.746919,0.750116,0.572638,0.578576,-0.0500956,-0.0567721,-0.0384066,-0.049776,58,99,-78.9443,-78.9443,-225.228,-225.228,1.78
0.746718,0.749887,0.572484,0.57838,-0.050272,-0.0568789,-0.0385419,-0.0494508,58,102,-78.8535,-78.8535,-225.045,-225.045,1.784
0.746517,0.749659,0.57233,0.57819,-0.0504486,-0.0569213,-0.0386772,-0.048831,59,109,-78.764,-78.764,-224.881,-224.881,1.788
0.746315,0.74943,0.572175,0.578001,-0.0506252,-0.0570935,-0.0388126,-0.0482739,58,115,-78.6773,-78.6773,-224.746,-224.746,1.792
0.746112,0.749202,0.572019,0.577818,-0.0508019,-0.0570355,-0.0389481,-0.0474706,60,124,-78.5903,-78.5903,-224.64,-224.64,1.796
0.745908,0.748973,0.571863,0.577636,-0.0509787,-0.0571409,-0.0390837,-0.0468199,60,131,-78.5091,-78.5091,-224.572,-224.572,1.8
0.745704,0.748744,0.571706,0.577457,-0.0511556,-0.0571247,-0.0392193,-0.0461269,61,139,-78.4294,-78.4294,-224.535,-224.535,1.804
0.745499,0.748518,0.571549,0.577277,-0.0513325,-0.05697,-0.0393549,-0.0457514,63,143,-78.355,-78.355,-224.532,-224.532,1.808
0.745293,0.748286,0.571392,0.577097,-0.0515096,-0.0572411,-0.0394907,-0.045501,62,147,-78.2888,-78.2888,-224.55,-224.55,1.812
0.745087,0.748063,0.571233,0.576919,-0.0516867,-0.0567597,-0.0396265,-0.0451325,66,151,-78.2206,-78.2206,-224.582,-224.582,1.816
0.74488,0.747837,0.571075,0.576738,-0.0518639,-0.0566978,-0.0397623,-0.0452324,68,151,-78.1707,-78.1707,-224.634,-224.634,1.82
0.744672,0.747613,0.570915,0.576554,-0.0520412,-0.0564551,-0.0398983,-0.0454717,71,150,-78.1277,-78.1277,-224.686,-224.686,1.824
0.744464,0.747394,0.570755,0.576371,-0.0522186,-0.0558902,-0.0400342,-0.0455449,75,151,-78.0975,-78.0975,-224.733,-224.733,1.828
0.744254,0.747178,0.570595,0.576187,-0.052396,-0.0552256,-0.0401703,-0.04568,81,150,-78.0897,-78.0897,-224.781,-224.781,1.832
0.744044,0.746965,0.570434,0.576001,-0.0525735,-0.0546099,-0.0403064,-0.0459716,87,149,-78.1069,-78.1069,-224.828,-224.828,1.836
0.743834,0.746761,0.570273,0.575817,-0.0527511,-0.0533932,-0.0404425,-0.0459933,96,150,-78.1493,-78.1493,-224.868,-224.868,1.84
0.743622,0.746564,0.57011,0.575634,-0.0529288,-0.0519775,-0.0405788,-0.0458638,107,152,-78.2346,-78.2346,-224.912,-224.912,1.844
0.74341,0.74638,0.569948,0.575452,-0.0531066,-0.050026,-0.040715,-0.0457775,122,154,-78.3697,-78.3697,-224.965,-224.965,1.848
0.743197,0.746205,0.569785,0.57527,-0.0532844,-0.0478901,-0.0408514,-0.0456911,138,156,-78.5706,-78.5706,-225.028,-225.028,1.852
0.742984,0.746047,0.569621,0.575089,-0.0534623,-0.0451706,-0.0409877,-0.0455472,159,158,-78.8442,-78.8442,-225.099,-225.099,1.856
0.74277,0.745903,0.569457,0.57491,-0.0536402,-0.0420907,-0.0411242,-0.0452785,182,162,-79.2081,-79.2081,-225.181,-225.181,1.86
0.742555,0.745769,0.569292,0.574732,-0.0538182,-0.0392026,-0.0412607,-0.0450418,204,166,-79.6726,-79.6726,-225.279,-225.279,1.864
0.742339,0.745639,0.569127,0.57455,-0.0539963,-0.037018,-0.0413972,-0.0452007,222,165,-80.2312,-80.2312,-225.392,-225.392,1.868
0.742123,0.74551,0.568961,0.574371,-0.0541745,-0.0354177,-0.0415338,-0.0450475,235,168,-80.863,-80.863,-225.504,-225.504,1.872
0.741906,0.74538,0.568794,0.574191,-0.0543527,-0.0344372,-0.0416704,-0.0449741,245,170,-81.5504,-81.5504,-225.627,-225.627,1.876
0.741688,0.745244,0.568628,0.574011,-0.054531,-0.0342442,-0.0418071,-0.0449828,248,171,-82.2743,-82.2743,-225.759,-225.759,1.88
0.74147,0.745102,0.56846,0.573827,-0.0547094,-0.0347201,-0.0419439,-0.0453341,248,169,-83.0108,-83.0108,-225.895,-225.895,1.884
0.74125,0.744953,0.568292,0.573644,-0.0548878,-0.0355556,-0.0420806,-0.0455107,245,169,-83.7403,-83.7403,-226.021,-226.021,1.888
0.741031,0.744794,0.568123,0.573458,-0.0550663,-0.0369476,-0.0422175,-0.0458588,238,167,-84.4513,-84.4513,-226.144,-226.144,1.892
0.74081,0.74463,0.567954,0.573274,-0.0552448,-0.0383074,-0.0423543,-0.0458317,231,168,-85.1278,-85.1278,-226.259,-226.259,1.896
0.740589,0.744456,0.567785,0.573085,-0.0554234,-0.0400201,-0.0424913,-0.0463319,221,165,-85.7699,-85.7699,-226.378,-226.378,1.9
0.740366,0.744277,0.567614,0.572899,-0.055602,-0.0415938,-0.0426282,-0.0464062,213,165,-86.3675,-86.3675,-226.483,-226.483,1.904
0.740144,0.744087,0.567444,0.572712,-0.0557807,-0.043593,-0.0427652,-0.0465134,201,165,-86.9236,-86.9236,-226.589,-226.589,1.908
0.73992,0.743892,0.567272,0.572527,-0.0559595,-0.0452713,-0.0429023,-0.0464409,191,167,-87.4264,-87.4264,-226.696,-226.696,1.912
0.739696,0.743689,0.5671,0.572339,-0.0561383,-0.0471387,-0.0430394,-0.0466228,180,167,-87.8844,-87.8844,-226.811,-226.811,1.916
0.739471,0.743479,0.566928,0.572154,-0.0563172,-0.0488731,-0.0431765,-0.046485,170,169,-88.2924,-88.2924,-226.924,-226.924,1.92
0.739246,0.743263,0.566755,0.571969,-0.0564961,-0.0506052,-0.0433137,-0.0463932,160,172,-88.6537,-88.6537,-227.048,-227.048,1.924
0.739019,0.74304,0.566581,0.571785,-0.0566751,-0.0523357,-0.0434509,-0.0462743,150,174,-88.9684,-88.9684,-227.181,-227.181,1.928
0.738792,0.742812,0.566407,0.571598,-0.0568541,-0.0538925,-0.0435882,-0.0464255,141,174,-89.2365,-89.2365,-227.323,-227.323,1.932
0.738564,0.742575,0.566233,0.571413,-0.0570332,-0.0556789,-0.0437254,-0.0463822,130,176,-89.4622,-89.4622,-227.465,-227.465,1.936
0.738336,0.742334,0.566057,0.571227,-0.0572123,-0.0571865,-0.0438628,-0.0463822,121,177,-89.6395,-89.6395,-227.614,-227.614,1.94
0.738107,0.742088,0.565882,0.57104,-0.0573915,-0.0585947,-0.0440001,-0.0465262,112,177,-89.7763,-89.7763,-227.768,-227.768,1.944
0.737877,0.741835,0.565705,0.570851,-0.0575707,-0.0601957,-0.0441375,-0.0467661,103,176,-89.8747,-89.8747,-227.921,-227.921,1.948
0.737646,0.741579,0.565529,0.57066,-0.0577499,-0.0614069,-0.0442749,-0.04707,95,174,-89.9299,-89.9299,-228.069,-228.069,1.952
0.737415,0.741317,0.565351,0.570469,-0.0579292,-0.0627903,-0.0444124,-0.0473014,87,173,-89.9526,-89.9526,-228.21,-228.21,1.956
0.737183,0.741051,0.565173,0.570272,-0.0581086,-0.064058,-0.0445499,-0.0479739,79,168,-89.9378,-89.9378,-228.344,-228.344,1.96
0.73695,0.740782,0.564995,0.570076,-0.0582879,-0.0651335,-0.0446874,-0.0483646,73,166,-89.8891,-89.8891,-228.456,-228.456,1.964
0.736716,0.74051,0.564816,0.569879,-0.0584674,-0.0660808,-0.044825,-0.0486539,67,164,-89.8122,-89.8122,-228.557,-228.557,1.968
0.736482,0.740236,0.564636,0.569679,-0.0586468,-0.0668563,-0.0449626,-0.0490771,62,161,-89.7109,-89.7109,-228.65,-228.65,1.972
0.736247,0.739961,0.564456,0.569474,-0.0588263,-0.0674884,-0.0451002,-0.0497623,59,156,-89.5904,-89.5904,-228.729,-228.729,1.976
0.736011,0.739687,0.564275,0.569272,-0.0590058,-0.0678523,-0.0452378,-0.0500175,57,154,-89.4554,-89.4554,-228.785,-228.785,1.98
0.735775,0.739412,0.564094,0.569072,-0.0591854,-0.0680948,-0.0453755,-0.0500438,56,155,-89.3137,-89.3137,-228.835,-228.835,1.984
0.735538,0.739138,0.563912,0.568868,-0.059365,-0.0682566,-0.0455132,-0.0503779,56,153,-89.1688,-89.1688,-228.889,-228.889,1.988
0.7353,0.738864,0.56373,0.568665,-0.0595446,-0.0683644,-0.0456509,-0.0505144,56,153,-89.0233,-89.0233,-228.933,-228.933,1.992
0.735062,0.738593,0.563547,0.568463,-0.0597243,-0.0681771,-0.0457886,-0.0504614,58,155,-88.8794,-88.8794,-228.978,-228.978,1.996
0.734822,0.738323,0.563364,0.568262,-0.059904,-0.0678795,-0.0459264,-0.0503684,61,157,-88.7458,-88.7458,-229.029,-229.029,2
0.734582,0.738056,0.56318,0.568059,-0.0600837,-0.0675372,-0.0460642,-0.050508,64,157,-88.6257,-88.6257,-229.089,-229.089,2.004
0.734342,0.737791,0.562995,0.567855,-0.0602635,-0.0671074,-0.046202,-0.0506587,68,156,-88.5208,-88.5208,-229.148,-229.148,2.008
0.7341,0.737527,0.56281,0.567651,-0.0604433,-0.0667346,-0.0463398,-0.0507879,72,156,-88.4335,-88.4335,-229.205,-229.205,2.012
0.733858,0.737264,0.562625,0.56744,-0.0606231,-0.0663996,-0.0464777,-0.0514498,75,151,-88.362,-88.362,-229.26,-229.26,2.016
0.733615,0.737005,0.562438,0.567232,-0.0608029,-0.0658884,-0.0466156,-0.0516032,80,151,-88.306,-88.306,-229.294,-229.294,2.02
0.733372,0.736745,0.562252,0.56702,-0.0609828,-0.0656052,-0.0467535,-0.0521374,83,147,-88.2699,-88.2699,-229.325,-229.325,2.024
0.733127,0.736487,0.562064,0.566805,-0.0611627,-0.0652148,-0.0468914,-0.0526374,86,143,-88.2477,-88.2477,-229.338,-229.338,2.028
0.732882,0.736228,0.561877,0.566591,-0.0613426,-0.0650121,-0.0470293,-0.0529708,89,141,-88.242,-88.242,-229.334,-229.334,2.032
0.732637,0.735971,0.561688,0.566374,-0.0615225,-0.0647907,-0.0471672,-0.0533658,92,138,-88.2475,-88.2475,-229.321,-229.321,2.036
0.73239,0.735713,0.561499,0.566157,-0.0617024,-0.0647006,-0.0473052,-0.0536579,93,136,-88.2646,-88.2646,-229.297,-229.297,2.04
0.732143,0.735456,0.56131,0.565939,-0.0618824,-0.0645254,-0.0474432,-0.0539678,96,134,-88.2898,-88.2898,-229.264,-229.264,2.044
0.731895,0.7352,0.56112,0.565725,-0.0620624,-0.0644086,-0.0475812,-0.0537425,98,137,-88.3255,-88.3255,-229.224,-229.224,2.048
0.731647,0.734941,0.560929,0.565511,-0.0622424,-0.0645035,-0.0477192,-0.0536787,98,139,-88.3694,-88.3694,-229.198,-229.198,2.052
0.731397,0.734681,0.560738,0.565297,-0.0624224,-0.0646531,-0.0478572,-0.053665,99,140,-88.4154,-88.4154,-229.179,-229.179,2.056
0.731147,0.734418,0.560546,0.565085,-0.0626024,-0.0650119,-0.0479952,-0.0534543,97,143,-88.4616,-88.4616,-229.166,-229.166,2.06
0.730896,0.734151,0.560354,0.564872,-0.0627825,-0.0655967,-0.0481332,-0.0533426,94,145,-88.5013,-88.5013,-229.166,-229.166,2.064
0.730645,0.733881,0.560161,0.564658,-0.0629626,-0.0662168,-0.0482713,-0.0534409,91,145,-88.528,-88.528,-229.176,-229.176,2.068
0.730393,0.733615,0.559968,0.564446,-0.0631426,-0.0663424,-0.0484093,-0.0532473,91,148,-88.5417,-88.5417,-229.187,-229.187,2.072
0.73014,0.733341,0.559774,0.564232,-0.0633227,-0.0670019,-0.0485474,-0.0533486,88,149,-88.5553,-88.5553,-229.21,-229.21,2.076
0.729886,0.733071,0.559579,0.564017,-0.0635028,-0.0672112,-0.0486855,-0.0534737,88,148,-88.5546,-88.5546,-229.234,-229.234,2.08
0.729632,0.732799,0.559384,0.563799,-0.0636829,-0.0674659,-0.0488236,-0.0538162,87,146,-88.5522,-88.5522,-229.257,-229.257,2.084
0.729377,0.732532,0.559189,0.563581,-0.063863,-0.0672327,-0.0489616,-0.0540445,90,145,-88.5481,-88.5481,-229.27,-229.27,2.088
0.729121,0.732264,0.558993,0.563362,-0.0640431,-0.0671347,-0.0490997,-0.0542543,92,144,-88.5559,-88.5559,-229.279,-229.279,2.092
0.728864,0.731994,0.558796,0.563138,-0.0642232,-0.0672422,-0.0492378,-0.0548837,92,139,-88.5713,-88.5713,-229.282,-229.282,2.096
0.728607,0.731729,0.558599,0.562915,-0.0644034,-0.0669396,-0.0493759,-0.0551305,95,138,-88.5895,-88.5895,-229.264,-229.264,2.1
0.728349,0.731466,0.558401,0.562691,-0.0645835,-0.0665363,-0.049514,-0.0554102,99,136,-88.6224,-88.6224,-229.241,-229.241,2.104
0.72809,0.731205,0.558203,0.562464,-0.0647636,-0.0661522,-0.0496521,-0.0558557,103,133,-88.673,-88.673,-229.21,-229.21,2.108
0.727831,0.730944,0.558004,0.562238,-0.0649438,-0.0658099,-0.0497902,-0.056124,107,131,-88.7408,-88.7408,-229.164,-229.164,2.112
0.727571,0.730686,0.557804,0.562011,-0.0651239,-0.0653513,-0.0499283,-0.0562741,112,131,-88.825,-88.825,-229.113,-229.113,2.116
0.72731,0.730431,0.557604,0.561782,-0.065304,-0.0648728,-0.0500664,-0.056662,116,128,-88.9289,-88.9289,-229.059,-229.059,2.12
0.727048,0.730178,0.557404,0.561553,-0.0654842,-0.0642947,-0.0502045,-0.0568055,122,128,-89.0535,-89.0535,-228.993,-228.993,2.124
0.726786,0.729926,0.557203,0.561325,-0.0656643,-0.0639093,-0.0503426,-0.0569299,126,127,-89.2014,-89.2014,-228.926,-228.926,2.128
0.726523,0.729678,0.557001,0.561093,-0.0658444,-0.0632205,-0.0504807,-0.057272,132,125,-89.3677,-89.3677,-228.858,-228.858,2.132
0.726259,0.729433,0.556799,0.560862,-0.0660245,-0.0626173,-0.0506188,-0.0574137,138,124,-89.5612,-89.5612,-228.78,-228.78,2.136
0.725995,0.729187,0.556596,0.560629,-0.0662047,-0.0622152,-0.0507569,-0.0577096,143,123,-89.7789,-89.7789,-228.701,-228.701,2.14
0.72573,0.728948,0.556393,0.560396,-0.0663848,-0.0614289,-0.050895,-0.0578494,150,122,-90.0163,-90.0163,-228.613,-228.613,2.144
0.725464,0.72871,0.556189,0.560162,-0.0665649,-0.0607608,-0.0510331,-0.0581153,156,120,-90.2841,-90.2841,-228.524,-228.524,2.148
0.725197,0.728471,0.555985,0.559927,-0.0667449,-0.0604017,-0.0511711,-0.0583214,160,119,-90.5784,-90.5784,-228.428,-228.428,2.152
0.72493,0.728239,0.55578,0.559692,-0.066925,-0.0595865,-0.0513092,-0.0584587,168,119,-90.8915,-90.8915,-228.328,-228.328,2.156
0.724662,0.728012,0.555574,0.559458,-0.0671051,-0.0586688,-0.0514472,-0.0584639,176,120,-91.2369,-91.2369,-228.227,-228.227,2.16
0.724393,0.727785,0.555368,0.559223,-0.0672851,-0.0579994,-0.0515853,-0.0585538,183,120,-91.617,-91.617,-228.13,-228.13,2.164
0.724124,0.727564,0.555161,0.558988,-0.0674652,-0.0570924,-0.0517233,-0.0586425,191,120,-92.0255,-92.0255,-228.033,-228.033,2.168
0.723853,0.727348,0.554954,0.558754,-0.0676452,-0.0561135,-0.0518613,-0.0585577,200,122,-92.4696,-92.4696,-227.938,-227.938,2.172
0.723582,0.727132,0.554747,0.558522,-0.0678252,-0.0554033,-0.0519993,-0.0584147,208,124,-92.9508,-92.9508,-227.851,-227.851,2.176
0.723311,0.726922,0.554538,0.558288,-0.0680052,-0.0543829,-0.0521373,-0.0584058,217,125,-93.4623,-93.4623,-227.774,-227.774,2.18
0.723038,0.726712,0.554329,0.558055,-0.0681852,-0.0537601,-0.0522753,-0.0583423,224,127,-94.0123,-94.0123,-227.703,-227.703,2.184
0.722765,0.726509,0.55412,0.557822,-0.0683652,-0.0527404,-0.0524133,-0.0582999,233,128,-94.5904,-94.5904,-227.638,-227.638,2.188
0.722491,0.726306,0.55391,0.557589,-0.0685451,-0.0520893,-0.0525513,-0.0582717,240,129,-95.2073,-95.2073,-227.581,-227.581,2.192
0.722217,0.726107,0.5537,0.557355,-0.068725,-0.0513098,-0.0526892,-0.0583681,248,129,-95.8529,-95.8529,-227.528,-227.528,2.196
0.721942,0.725913,0.553489,0.557122,-0.068905,-0.050387,-0.0528271,-0.0583459,257,130,-96.5314,-96.5314,-227.477,-227.477,2.2
0.721666,0.725719,0.553277,0.556886,-0.0690848,-0.0498006,-0.052965,-0.0585327,264,130,-97.2461,-97.2461,-227.431,-227.431,2.204
0.721389,0.72553,0.553065,0.556651,-0.0692647,-0.0489203,-0.0531029,-0.0586284,273,130,-97.9884,-97.9884,-227.382,-227.382,2.208
0.721112,0.72534,0.552852,0.55641,-0.0694445,-0.0484485,-0.0532408,-0.0591817,279,125,-98.7658,-98.7658,-227.333,-227.333,2.212
0.720833,0.725156,0.552639,0.556171,-0.0696243,-0.047587,-0.0533787,-0.059349,288,125,-99.5677,-99.5677,-227.266,-227.266,2.216
0.720555,0.724971,0.552425,0.555929,-0.0698041,-0.0471854,-0.0535165,-0.0597196,294,122,-100.404,-100.404,-227.195,-227.195,2.22
0.720275,0.724787,0.552211,0.555687,-0.0699839,-0.0467449,-0.0536543,-0.0600243,300,120,-101.263,-101.263,-227.114,-227.114,2.224
0.719995,0.724605,0.551996,0.555441,-0.0701636,-0.0463361,-0.0537921,-0.0605441,306,116,-102.144,-102.144,-227.024,-227.024,2.228
0.719714,0.724424,0.55178,0.555196,-0.0703433,-0.0459772,-0.0539299,-0.0607179,311,115,-103.046,-103.046,-226.917,-226.917,2.232
0.719432,0.724241,0.551564,0.554947,-0.070523,-0.0459682,-0.0540676,-0.0612081,314,111,-103.969,-103.969,-226.806,-226.806,2.236
0.719149,0.724062,0.551348,0.554699,-0.0707026,-0.0455592,-0.0542053,-0.0615061,320,109,-104.902,-104.902,-226.68,-226.68,2.24
0.718866,0.723879,0.551131,0.55445,-0.0708822,-0.0455744,-0.054343,-0.0617911,323,107,-105.857,-105.857,-226.545,-226.545,2.244
0.718582,0.723701,0.550913,0.554203,-0.0710618,-0.0452678,-0.0544807,-0.0617508,328,109,-106.821,-106.821,-226.403,-226.403,2.248
0.718298,0.72352,0.550695,0.553952,-0.0712413,-0.0452362,-0.0546183,-0.0620694,332,106,-107.803,-107.803,-226.266,-226.266,2.252
0.718013,0.723341,0.550476,0.553701,-0.0714208,-0.0450712,-0.0547559,-0.0622818,336,105,-108.797,-108.797,-226.121,-226.121,2.256
0.717726,0.723164,0.550257,0.553455,-0.0716003,-0.0447596,-0.0548935,-0.0620491,341,108,-109.805,-109.805,-225.972,-225.972,2.26
0.71744,0.722989,0.550037,0.553205,-0.0717797,-0.0444655,-0.0550311,-0.0621819,347,108,-110.833,-110.833,-225.836,-225.836,2.264
0.717152,0.722814,0.549817,0.552958,-0.0719591,-0.0442119,-0.0551686,-0.0620401,352,110,-111.88,-111.88,-225.7,-225.7,2.268
0.716864,0.722643,0.549596,0.552712,-0.0721384,-0.0436973,-0.0553061,-0.0618592,359,113,-112.945,-112.945,-225.574,-225.574,2.272
0.716575,0.722472,0.549374,0.552465,-0.0723177,-0.0434118,-0.0554436,-0.0618538,364,114,-114.036,-114.036,-225.46,-225.46,2.276
0.716285,0.722304,0.549152,0.552217,-0.072497,-0.0429336,-0.055581,-0.061879,371,114,-115.146,-115.146,-225.351,-225.351,2.28
0.715995,0.722134,0.54893,0.55197,-0.0726762,-0.0427875,-0.0557185,-0.0618094,375,116,-116.281,-116.281,-225.246,-225.246,2.284
0.715704,0.721965,0.548706,0.551721,-0.0728554,-0.042575,-0.0558558,-0.0620221,380,115,-117.43,-117.43,-225.147,-225.147,2.288
0.715412,0.721797,0.548483,0.551471,-0.0730346,-0.0424621,-0.0559932,-0.0621351,385,115,-118.596,-118.596,-225.045,-225.045,2.292
0.71512,0.721629,0.548259,0.55122,-0.0732137,-0.0423005,-0.0561305,-0.0623256,389,114,-119.776,-119.776,-224.942,-224.942,2.296
0.714827,0.721456,0.548034,0.550966,-0.0733927,-0.0426246,-0.0562678,-0.0627117,391,111,-120.97,-120.97,-224.835,-224.835,2.3
0.714533,0.721286,0.547808,0.550713,-0.0735717,-0.0425239,-0.056405,-0.0629404,395,110,-122.166,-122.166,-224.717,-224.717,2.304
0.714238,0.721113,0.547582,0.550457,-0.0737507,-0.0428023,-0.0565422,-0.0632655,396,107,-123.374,-123.374,-224.593,-224.593,2.308
0.713943,0.72094,0.547356,0.550203,-0.0739296,-0.0429016,-0.0566793,-0.0633671,399,107,-124.584,-124.584,-224.46,-224.46,2.312
0.713647,0.720762,0.547129,0.549948,-0.0741084,-0.0434572,-0.0568165,-0.0634637,399,107,-125.8,-125.8,-224.327,-224.327,2.316
0.71335,0.720581,0.546902,0.54969,-0.0742872,-0.0440291,-0.0569536,-0.0638447,398,104,-127.009,-127.009,-224.195,-224.195,2.32
0.713052,0.720398,0.546673,0.549432,-0.074466,-0.0446119,-0.0570906,-0.0640124,398,104,-128.21,-128.21,-224.051,-224.051,2.324
0.712754,0.720215,0.546445,0.549177,-0.0746447,-0.045058,-0.0572276,-0.0639802,398,105,-129.404,-129.404,-223.904,-223.904,2.328
0.712455,0.720026,0.546216,0.548917,-0.0748234,-0.0457585,-0.0573646,-0.0643042,396,102,-130.592,-130.592,-223.763,-223.763,2.332
0.712155,0.71984,0.545986,0.54866,-0.0750019,-0.0459664,-0.0575015,-0.0642612,398,104,-131.771,-131.771,-223.613,-223.613,2.336
0.711855,0.71965,0.545756,0.548403,-0.0751805,-0.0465081,-0.0576384,-0.0643188,398,104,-132.951,-132.951,-223.47,-223.47,2.34
0.711554,0.71946,0.545525,0.548145,-0.075359,-0.0468692,-0.0577752,-0.0643572,399,105,-134.126,-134.126,-223.328,-223.328,2.344
0.711252,0.719265,0.545293,0.547887,-0.0755374,-0.0474266,-0.057912,-0.0644116,398,105,-135.298,-135.298,-223.189,-223.189,2.348
0.71095,0.719071,0.545061,0.547628,-0.0757158,-0.0477982,-0.0580487,-0.0645055,399,105,-136.463,-136.463,-223.053,-223.053,2.352
0.710647,0.718874,0.544829,0.54737,-0.0758941,-0.0482763,-0.0581854,-0.0644817,399,106,-137.626,-137.626,-222.917,-222.917,2.356
0.710343,0.718674,0.544596,0.547114,-0.0760723,-0.0488542,-0.0583221,-0.0643507,398,108,-138.784,-138.784,-222.787,-222.787,2.36
0.710038,0.718475,0.544362,0.546854,-0.0762505,-0.0492106,-0.0584587,-0.0645224,399,107,-139.933,-139.933,-222.666,-222.666,2.364
0.709733,0.718273,0.544128,0.546595,-0.0764286,-0.0496498,-0.0585953,-0.0646369,399,107,-141.081,-141.081,-222.543,-222.543,2.368
0.709427,0.718071,0.543894,0.546336,-0.0766067,-0.0498562,-0.0587318,-0.0646557,401,108,-142.226,-142.226,-222.42,-222.42,2.372
0.70912,0.717868,0.543658,0.546074,-0.0767847,-0.0501953,-0.0588682,-0.0649561,402,106,-143.373,-143.373,-222.3,-222.3,2.376
0.708812,0.717668,0.543423,0.545812,-0.0769626,-0.0501623,-0.0590047,-0.0651276,406,105,-144.52,-144.52,-222.172,-222.172,2.38
0.708504,0.717462,0.543186,0.545541,-0.0771405,-0.0505433,-0.059141,-0.0659905,406,98,-145.677,-145.677,-222.04,-222.04,2.384
0.708195,0.717266,0.54295,0.545281,-0.0773183,-0.0500776,-0.0592773,-0.0656444,413,102,-146.834,-146.834,-221.878,-221.878,2.388
0.707885,0.71707,0.542712,0.545017,-0.077496,-0.0496807,-0.0594136,-0.065788,419,101,-148.015,-148.015,-221.734,-221.734,2.392
0.707575,0.716874,0.542474,0.544749,-0.0776736,-0.0494449,-0.0595498,-0.0661716,425,98,-149.219,-149.219,-221.588,-221.588,2.396
0.707264,0.716681,0.542236,0.544483,-0.0778512,-0.0490574,-0.0596859,-0.0662834,431,98,-150.44,-150.44,-221.431,-221.431,2.4
0.706952,0.716487,0.541997,0.544218,-0.0780288,-0.0489142,-0.059822,-0.0663292,435,99,-151.683,-151.683,-221.274,-221.274,2.404
0.70664,0.716295,0.541757,0.54395,-0.0782062,-0.0485885,-0.0599581,-0.0665036,441,98,-152.941,-152.941,-221.119,-221.119,2.408
0.706327,0.7161,0.541517,0.54368,-0.0783836,-0.0486016,-0.0600941,-0.066879,445,95,-154.219,-154.219,-220.961,-220.961,2.412
0.706013,0.71591,0.541276,0.543412,-0.0785609,-0.0482937,-0.06023,-0.0668702,451,96,-155.507,-155.507,-220.791,-220.791,2.416
0.705698,0.715716,0.541035,0.543141,-0.0787381,-0.0483763,-0.0603659,-0.0671522,454,94,-156.815,-156.815,-220.627,-220.627,2.42
0.705383,0.715523,0.540794,0.542872,-0.0789153,-0.0482586,-0.0605017,-0.0672251,458,94,-158.13,-158.13,-220.455,-220.455,2.424
0.705067,0.715333,0.540551,0.542601,-0.0790923,-0.048065,-0.0606375,-0.0674176,463,93,-159.461,-159.461,-220.284,-220.284,2.428
0.70475,0.715141,0.540308,0.542328,-0.0792693,-0.0479935,-0.0607732,-0.0676899,467,91,-160.807,-160.807,-220.109,-220.109,2.432
0.704433,0.714949,0.540065,0.542055,-0.0794463,-0.048061,-0.0609088,-0.0678714,471,90,-162.166,-162.166,-219.927,-219.927,2.436
0.704115,0.714759,0.539821,0.541782,-0.0796231,-0.0478469,-0.0610444,-0.0680212,476,90,-163.534,-163.534,-219.742,-219.742,2.44
0.703796,0.714571,0.539577,0.54151,-0.0797999,-0.0475602,-0.0611799,-0.0679484,482,91,-164.919,-164.919,-219.555,-219.555,2.444
0.703476,0.714377,0.539332,0.541234,-0.0799765,-0.0478297,-0.0613154,-0.0683029,484,89,-166.323,-166.323,-219.375,-219.375,2.448
0.703156,0.714188,0.539086,0.540961,-0.0801531,-0.0476927,-0.0614507,-0.0683089,489,89,-167.73,-167.73,-219.185,-219.185,2.452
0.702835,0.713994,0.53884,0.54069,-0.0803297,-0.047918,-0.0615861,-0.0680825,491,92,-169.151,-169.151,-218.999,-218.999,2.456
0.702513,0.713799,0.538594,0.540415,-0.0805061,-0.0482122,-0.0617213,-0.0683059,492,91,-170.576,-170.576,-218.827,-218.827,2.46
0.702191,0.713599,0.538346,0.540141,-0.0806824,-0.0488114,-0.0618565,-0.0683685,492,91,-172.001,-172.001,-218.65,-218.65,2.464
0.701868,0.7134,0.538099,0.53987,-0.0808587,-0.0490957,-0.0619917,-0.0681799,494,94,-173.418,-173.418,-218.476,-218.476,2.468
0.701544,0.713198,0.53785,0.539597,-0.0810349,-0.049602,-0.0621267,-0.0682269,494,94,-174.836,-174.836,-218.313,-218.313,2.472
0.70122,0.712992,0.537602,0.539325,-0.081211,-0.0502562,-0.0622617,-0.0681142,493,96,-176.249,-176.249,-218.153,-218.153,2.476
0.700894,0.712784,0.537352,0.539051,-0.081387,-0.0508362,-0.0623967,-0.0682983,493,95,-177.651,-177.651,-218.002,-218.002,2.48
0.700568,0.712571,0.537102,0.53878,-0.0815629,-0.0515972,-0.0625315,-0.0681043,491,98,-179.045,-179.045,-217.849,-217.849,2.484
0.700242,0.712356,0.536852,0.538507,-0.0817387,-0.0523061,-0.0626663,-0.0681477,489,98,-180.424,-180.424,-217.708,-217.708,2.488
0.699915,0.712137,0.536601,0.538234,-0.0819144,-0.053153,-0.0628011,-0.0681766,487,99,-181.792,-181.792,-217.57,-217.57,2.492
0.699587,0.711916,0.53635,0.53796,-0.0820901,-0.0538327,-0.0629357,-0.0682535,486,99,-183.142,-183.142,-217.435,-217.435,2.496
0.699258,0.711693,0.536098,0.537682,-0.0822656,-0.0544874,-0.0630703,-0.0687366,485,95,-184.481,-184.481,-217.3,-217.3,2.5
0.698928,0.71147,0.535845,0.53741,-0.0824411,-0.0548951,-0.0632048,-0.0684829,485,99,-185.81,-185.81,-217.152,-217.152,2.504
0.698598,0.711243,0.535592,0.537133,-0.0826164,-0.0555124,-0.0633393,-0.068688,484,98,-187.135,-187.135,-217.017,-217.017,2.508
0.698267,0.711017,0.535338,0.536859,-0.0827917,-0.0558375,-0.0634736,-0.068652,485,99,-188.451,-188.451,-216.879,-216.879,2.512
0.697936,0.710786,0.535084,0.536582,-0.0829669,-0.0564861,-0.0636079,-0.0688583,484,98,-189.766,-189.766,-216.747,-216.747,2.516
0.697604,0.710554,0.53483,0.536303,-0.0831419,-0.0569761,-0.0637422,-0.069111,484,96,-191.07,-191.07,-216.611,-216.611,2.52
0.697271,0.710321,0.534574,0.536026,-0.0833169,-0.0573892,-0.0638763,-0.0691643,485,97,-192.369,-192.369,-216.469,-216.469,2.524
0.696937,0.710082,0.534319,0.535746,-0.0834918,-0.0582116,-0.0640104,-0.069459,482,95,-193.662,-193.662,-216.328,-216.328,2.528
0.696603,0.709846,0.534062,0.535468,-0.0836666,-0.0585007,-0.0641444,-0.0694539,484,96,-194.941,-194.941,-216.181,-216.181,2.532
0.696268,0.709607,0.533805,0.535187,-0.0838412,-0.0589238,-0.0642783,-0.0697096,484,94,-196.219,-196.219,-216.037,-216.037,2.536
0.695932,0.709362,0.533548,0.534907,-0.0840158,-0.0596377,-0.0644121,-0.0698513,482,94,-197.493,-197.493,-215.888,-215.888,2.54
0.695596,0.709117,0.53329,0.534627,-0.0841903,-0.0602288,-0.0645459,-0.069917,481,94,-198.754,-198.754,-215.737,-215.737,2.544
0.695259,0.708869,0.533032,0.534347,-0.0843646,-0.0608244,-0.0646795,-0.0699608,480,94,-200.005,-200.005,-215.589,-215.589,2.548
0.694921,0.708615,0.532773,0.534065,-0.0845389,-0.0617109,-0.0648131,-0.0701051,477,94,-201.246,-201.246,-215.442,-215.442,2.552
0.694582,0.708355,0.532513,0.533783,-0.084713,-0.0627626,-0.0649467,-0.0702013,473,94,-202.467,-202.467,-215.295,-215.295,2.556
0.694243,0.708092,0.532253,0.533501,-0.0848871,-0.0638092,-0.0650801,-0.0702943,469,94,-203.664,-203.664,-215.148,-215.148,2.56
0.693903,0.70782,0.531992,0.53322,-0.085061,-0.0651404,-0.0652135,-0.0703275,462,94,-204.835,-204.835,-215.002,-215.002,2.564
0.693563,0.707544,0.531731,0.532939,-0.0852349,-0.0664884,-0.0653467,-0.070292,455,96,-205.972,-205.972,-214.859,-214.859,2.568
0.693221,0.70726,0.53147,0.532656,-0.0854086,-0.0679918,-0.0654799,-0.0704699,447,95,-207.074,-207.074,-214.722,-214.722,2.572
0.692879,0.706972,0.531208,0.532372,-0.0855822,-0.0692819,-0.065613,-0.0705885,441,94,-208.137,-208.137,-214.582,-214.582,2.576
0.692537,0.706682,0.530945,0.532088,-0.0857557,-0.0704011,-0.065746,-0.0707539,436,94,-209.167,-209.167,-214.442,-214.442,2.58
0.692193,0.706389,0.530682,0.531803,-0.0859291,-0.0712912,-0.065879,-0.070893,432,93,-210.17,-210.17,-214.299,-214.299,2.584
0.691849,0.706099,0.530418,0.531519,-0.0861024,-0.0717118,-0.0660118,-0.0709857,432,93,-211.153,-211.153,-214.155,-214.155,2.588
0.691504,0.705806,0.530153,0.53123,-0.0862756,-0.0722514,-0.0661446,-0.071393,431,90,-212.13,-212.13,-214.011,-214.011,2.592
0.691159,0.705519,0.529889,0.530943,-0.0864486,-0.0720641,-0.0662773,-0.0714918,435,90,-213.1,-213.1,-213.855,-213.855,2.596
0.690813,0.705231,0.529623,0.530654,-0.0866216,-0.0720831,-0.0664099,-0.071788,437,88,-214.083,-214.083,-213.698,-213.698,2.6
0.690466,0.704943,0.529357,0.530364,-0.0867944,-0.0720383,-0.0665424,-0.0719567,441,87,-215.073,-215.073,-213.534,-213.534,2.604
0.690119,0.704654,0.529091,0.530074,-0.0869671,-0.0720947,-0.0666748,-0.0721843,443,86,-216.073,-216.073,-213.367,-213.367,2.608
0.68977,0.704362,0.528824,0.52978,-0.0871397,-0.0723627,-0.0668071,-0.0726239,444,83,-217.078,-217.078,-213.195,-213.195,2.612
0.689421,0.704072,0.528556,0.529488,-0.0873122,-0.0724262,-0.0669393,-0.0727731,446,82,-218.083,-218.083,-213.009,-213.009,2.616
0.689072,0.70378,0.528288,0.529193,-0.0874845,-0.07267,-0.0670715,-0.0731028,447,80,-219.094,-219.094,-212.821,-212.821,2.62
0.688722,0.703487,0.52802,0.5289,-0.0876567,-0.0728326,-0.0672035,-0.0731499,449,80,-220.105,-220.105,-212.623,-212.623,2.624
0.688371,0.703194,0.527751,0.528607,-0.0878289,-0.0729986,-0.0673355,-0.0731525,450,81,-221.119,-221.119,-212.429,-212.429,2.628
0.688019,0.702898,0.527481,0.528314,-0.0880008,-0.0733107,-0.0674673,-0.0731831,451,81,-222.135,-222.135,-212.238,-212.238,2.632
0.687667,0.702599,0.527211,0.528021,-0.0881727,-0.0737492,-0.0675991,-0.0732034,451,82,-223.149,-223.149,-212.051,-212.051,2.636
0.687314,0.702299,0.52694,0.527725,-0.0883445,-0.0742142,-0.0677308,-0.0734473,450,80,-224.156,-224.156,-211.867,-211.867,2.64
0.68696,0.701996,0.526669,0.527433,-0.0885161,-0.0746682,-0.0678623,-0.073322,449,82,-225.157,-225.157,-211.677,-211.677,2.644
0.686605,0.701691,0.526397,0.52714,-0.0886876,-0.07523,-0.0679938,-0.073296,448,83,-226.15,-226.15,-211.498,-211.498,2.648
0.68625,0.701385,0.526125,0.526849,-0.088859,-0.0756621,-0.0681252,-0.073106,448,86,-227.133,-227.133,-211.324,-211.324,2.652
0.685895,0.701076,0.525852,0.526557,-0.0890302,-0.0761805,-0.0682565,-0.0730369,447,88,-228.11,-228.11,-211.163,-211.163,2.656
0.685538,0.700766,0.525579,0.526264,-0.0892013,-0.0766124,-0.0683877,-0.0731347,446,88,-229.078,-229.078,-211.009,-211.009,2.66
0.685181,0.700456,0.525305,0.525971,-0.0893723,-0.0769004,-0.0685188,-0.0731712,447,88,-230.04,-230.04,-210.856,-210.856,2.664
0.684823,0.70015,0.525031,0.525682,-0.0895432,-0.0768045,-0.0686498,-0.0729076,450,92,-231.001,-231.001,-210.706,-210.706,2.668
0.684465,0.699841,0.524756,0.525389,-0.0897139,-0.0769709,-0.0687806,-0.072991,452,92,-231.972,-231.972,-210.571,-210.571,2.672
0.684105,0.699529,0.524481,0.525096,-0.0898845,-0.0773121,-0.0689114,-0.0730754,452,92,-232.945,-232.945,-210.438,-210.438,2.676
0.683746,0.699218,0.524205,0.524803,-0.090055,-0.0774532,-0.0690421,-0.0731316,453,92,-233.915,-233.915,-210.306,-210.306,2.68
0.683385,0.698901,0.523928,0.524508,-0.0902253,-0.078008,-0.0691727,-0.0733419,452,91,-234.888,-234.888,-210.176,-210.176,2.684
0.683024,0.698584,0.523652,0.524211,-0.0903955,-0.0784642,-0.0693032,-0.073626,451,89,-235.85,-235.85,-210.041,-210.041,2.688
0.682662,0.698262,0.523374,0.523913,-0.0905656,-0.0791426,-0.0694336,-0.0739306,449,87,-236.804,-236.804,-209.899,-209.899,2.692
0.682299,0.697934,0.523096,0.523613,-0.0907355,-0.0800843,-0.0695639,-0.0742776,445,85,-237.743,-237.743,-209.748,-209.748,2.696
0.681936,0.697605,0.522818,0.523313,-0.0909053,-0.0807697,-0.069694,-0.0745665,442,83,-238.659,-238.659,-209.588,-209.588,2.7
0.681572,0.697275,0.522538,0.523014,-0.0910749,-0.0813994,-0.0698241,-0.0745576,440,84,-239.561,-239.561,-209.42,-209.42,2.704
0.681207,0.696939,0.522259,0.522713,-0.0912445,-0.0822222,-0.0699541,-0.0748107,437,82,-240.449,-240.449,-209.257,-209.257,2.708
0.680842,0.6966,0.521979,0.522412,-0.0914138,-0.0831163,-0.0700839,-0.0750083,432,81,-241.316,-241.316,-209.088,-209.088,2.712
0.680476,0.696257,0.521698,0.522108,-0.0915831,-0.0839427,-0.0702137,-0.0753415,429,79,-242.162,-242.162,-208.914,-208.914,2.716
0.680109,0.695913,0.521417,0.521808,-0.0917522,-0.0846663,-0.0703433,-0.0751894,426,81,-242.989,-242.989,-208.732,-208.732,2.72
0.679742,0.695565,0.521136,0.521505,-0.0919211,-0.0854367,-0.0704729,-0.0754047,423,80,-243.798,-243.798,-208.56,-208.56,2.724
0.679374,0.695216,0.520853,0.521202,-0.09209,-0.0860078,-0.0706023,-0.0755195,421,79,-244.589,-244.589,-208.384,-208.384,2.728
0.679005,0.69487,0.520571,0.5209,-0.0922586,-0.0862159,-0.0707316,-0.0755096,421,80,-245.37,-245.37,-208.207,-208.207,2.732
0.678636,0.694525,0.520288,0.520597,-0.0924272,-0.0862106,-0.0708608,-0.0755894,424,80,-246.15,-246.15,-208.035,-208.035,2.736
0.678266,0.694178,0.520004,0.520295,-0.0925956,-0.0863798,-0.0709899,-0.0755562,425,81,-246.937,-246.937,-207.865,-207.865,2.74
0.677895,0.69383,0.51972,0.519991,-0.0927638,-0.0865502,-0.0711189,-0.0756492,426,81,-247.726,-247.726,-207.7,-207.7,2.744
0.677524,0.693482,0.519435,0.519689,-0.0929319,-0.0867502,-0.0712478,-0.0756537,427,82,-248.515,-248.515,-207.536,-207.536,2.748
0.677152,0.693131,0.51915,0.519386,-0.0930999,-0.0870562,-0.0713766,-0.0756278,427,83,-249.304,-249.304,-207.377,-207.377,2.752
0.676779,0.692778,0.518864,0.519082,-0.0932677,-0.087433,-0.0715052,-0.0757546,426,83,-250.089,-250.089,-207.223,-207.223,2.756
0.676406,0.692422,0.518578,0.518779,-0.0934353,-0.0880009,-0.0716338,-0.0757815,424,84,-250.868,-250.868,-207.068,-207.068,2.76
0.676031,0.692062,0.518291,0.518474,-0.0936028,-0.0886386,-0.0717622,-0.0759722,422,83,-251.635,-251.635,-206.917,-206.917,2.764
0.675657,0.691697,0.518003,0.518167,-0.0937702,-0.0895244,-0.0718905,-0.0761857,417,81,-252.387,-252.387,-206.762,-206.762,2.768
0.675281,0.691331,0.517716,0.517861,-0.0939374,-0.0901438,-0.0720187,-0.076328,415,81,-253.117,-253.117,-206.603,-206.603,2.772
0.674905,0.690958,0.517427,0.517553,-0.0941045,-0.0912188,-0.0721468,-0.076538,409,80,-253.831,-253.831,-206.442,-206.442,2.776
0.674528,0.690587,0.517138,0.517248,-0.0942714,-0.0917052,-0.0722747,-0.0764765,407,81,-254.518,-254.518,-206.277,-206.277,2.78
0.674151,0.690211,0.516849,0.51694,-0.0944381,-0.0925189,-0.0724026,-0.0765795,403,81,-255.195,-255.195,-206.119,-206.119,2.784
0.673773,0.689833,0.516559,0.516635,-0.0946047,-0.0931478,-0.0725303,-0.076533,401,82,-255.851,-255.851,-205.962,-205.962,2.788
0.673394,0.689451,0.516269,0.516326,-0.0947712,-0.0939125,-0.0726579,-0.0767611,397,81,-256.492,-256.492,-205.81,-205.81,2.792
0.673015,0.689071,0.515978,0.516019,-0.0949375,-0.0943071,-0.0727854,-0.0767116,396,82,-257.115,-257.115,-205.654,-205.654,2.796
0.672635,0.688686,0.515687,0.51571,-0.0951036,-0.0949157,-0.0729128,-0.0769089,393,81,-257.729,-257.729,-205.505,-205.505,2.8
0.672254,0.688303,0.515395,0.515403,-0.0952696,-0.0952063,-0.07304,-0.076839,393,83,-258.331,-258.331,-205.352,-205.352,2.804
0.671873,0.687917,0.515102,0.515094,-0.0954354,-0.0956303,-0.0731671,-0.0769939,392,82,-258.928,-258.928,-205.206,-205.206,2.808
0.67149,0.687531,0.514809,0.514786,-0.095601,-0.095913,-0.0732941,-0.0770107,391,83,-259.517,-259.517,-205.058,-205.058,2.812
0.671108,0.687143,0.514516,0.514475,-0.0957665,-0.096303,-0.073421,-0.0772235,390,82,-260.102,-260.102,-204.914,-204.914,2.816
0.670724,0.686757,0.514222,0.514167,-0.0959319,-0.0963615,-0.0735478,-0.0771927,392,83,-260.681,-260.681,-204.766,-204.766,2.82
0.67034,0.686372,0.513928,0.513859,-0.0960971,-0.0963141,-0.0736744,-0.0771433,394,85,-261.263,-261.263,-204.624,-204.624,2.824
0.669956,0.685985,0.513633,0.513546,-0.0962621,-0.096484,-0.0738009,-0.0774558,395,82,-261.852,-261.852,-204.488,-204.488,2.828
0.66957,0.685598,0.513337,0.513237,-0.0964269,-0.0965685,-0.0739273,-0.0773763,396,84,-262.441,-262.441,-204.345,-204.345,2.832
0.669184,0.685204,0.513041,0.512922,-0.0965916,-0.0972582,-0.0740536,-0.0778703,392,80,-263.032,-263.032,-204.208,-204.208,2.836
0.668797,0.684813,0.512745,0.51261,-0.0967562,-0.0973438,-0.0741797,-0.0779118,394,81,-263.606,-263.606,-204.055,-204.055,2.84
0.66841,0.684425,0.512448,0.5123,-0.0969205,-0.0972281,-0.0743057,-0.0777378,396,83,-264.184,-264.184,-203.906,-203.906,2.844
0.668022,0.684034,0.51215,0.511987,-0.0970847,-0.0974388,-0.0744316,-0.0779674,397,82,-264.771,-264.771,-203.768,-203.768,2.848
0.667633,0.683637,0.511852,0.511671,-0.0972487,-0.0980112,-0.0745574,-0.0782644,394,80,-265.355,-265.355,-203.625,-203.625,2.852
0.667244,0.683245,0.511554,0.511358,-0.0974126,-0.0980185,-0.074683,-0.0783184,396,80,-265.927,-265.927,-203.474,-203.474,2.856
0.666854,0.682853,0.511255,0.511044,-0.0975763,-0.0980234,-0.0748085,-0.0783256,398,81,-266.504,-266.504,-203.326,-203.326,2.86
0.666463,0.682457,0.510955,0.510727,-0.0977398,-0.0984009,-0.0749339,-0.0786472,397,79,-267.085,-267.085,-203.181,-203.181,2.864
0.666072,0.682059,0.510655,0.510412,-0.0979032,-0.0987677,-0.0750591,-0.07866,396,80,-267.66,-267.66,-203.028,-203.028,2.868
0.66568,0.681659,0.510355,0.510097,-0.0980664,-0.0990987,-0.0751842,-0.0787549,395,80,-268.228,-268.228,-202.879,-202.879,2.872
0.665288,0.681257,0.510054,0.509781,-0.0982294,-0.099636,-0.0753092,-0.0787894,393,80,-268.79,-268.79,-202.73,-202.73,2.876
0.664894,0.680851,0.509752,0.509467,-0.0983922,-0.100196,-0.075434,-0.078726,390,82,-269.339,-269.339,-202.585,-202.585,2.88
0.664501,0.680443,0.50945,0.509151,-0.0985549,-0.100857,-0.0755588,-0.0787989,387,82,-269.875,-269.875,-202.447,-202.447,2.884
0.664106,0.680033,0.509148,0.508837,-0.0987174,-0.101413,-0.0756833,-0.0787323,385,83,-270.395,-270.395,-202.31,-202.31,2.888
0.663711,0.679618,0.508845,0.50852,-0.0988797,-0.102186,-0.0758078,-0.0788607,381,83,-270.901,-270.901,-202.181,-202.181,2.892
0.663315,0.6792,0.508541,0.508202,-0.0990419,-0.102904,-0.0759321,-0.079119,377,81,-271.386,-271.386,-202.051,-202.051,2.896
0.662918,0.678791,0.508237,0.507886,-0.0992039,-0.10272,-0.0760563,-0.0790321,380,83,-271.855,-271.855,-201.915,-201.915,2.9
0.662521,0.678376,0.507933,0.50757,-0.0993657,-0.103086,-0.0761803,-0.0790318,379,84,-272.333,-272.333,-201.787,-201.787,2.904
0.662124,0.677961,0.507628,0.507251,-0.0995273,-0.103245,-0.0763042,-0.0792331,379,83,-272.805,-272.805,-201.663,-201.663,2.908
0.661725,0.677548,0.507323,0.506931,-0.0996887,-0.103235,-0.076428,-0.0794825,381,82,-273.276,-273.276,-201.536,-201.536,2.912
0.661326,0.677135,0.507017,0.506609,-0.09985,-0.103257,-0.0765517,-0.079879,382,79,-273.753,-273.753,-201.402,-201.402,2.916
0.660926,0.676726,0.50671,0.50629,-0.100011,-0.102927,-0.0766752,-0.0798555,386,80,-274.235,-274.235,-201.256,-201.256,2.92
0.660526,0.676315,0.506403,0.505968,-0.100172,-0.10285,-0.0767985,-0.0800701,388,79,-274.733,-274.733,-201.116,-201.116,2.924
0.660125,0.675904,0.506096,0.505644,-0.100333,-0.102828,-0.0769217,-0.0803572,390,77,-275.237,-275.237,-200.971,-200.971,2.928
0.659723,0.675491,0.505788,0.505319,-0.100493,-0.103015,-0.0770448,-0.0806637,390,74,-275.747,-275.747,-200.818,-200.818,2.932
0.659321,0.67508,0.505479,0.504994,-0.100654,-0.10288,-0.0771678,-0.0808681,393,73,-276.257,-276.257,-200.657,-200.657,2.936
0.658918,0.674664,0.505171,0.504668,-0.100814,-0.10328,-0.0772906,-0.0810619,392,72,-276.775,-276.775,-200.492,-200.492,2.94
0.658514,0.674251,0.504861,0.504342,-0.100974,-0.103258,-0.0774132,-0.0811623,394,72,-277.286,-277.286,-200.323,-200.323,2.944
0.65811,0.673833,0.504551,0.504016,-0.101134,-0.103705,-0.0775358,-0.0812868,392,72,-277.801,-277.801,-200.154,-200.154,2.948
0.657705,0.673414,0.504241,0.503688,-0.101293,-0.10406,-0.0776581,-0.0815138,391,70,-278.307,-278.307,-199.984,-199.984,2.952
0.6573,0.672994,0.50393,0.503363,-0.101453,-0.104325,-0.0777804,-0.0814636,390,72,-278.806,-278.806,-199.81,-199.81,2.956
0.656894,0.672572,0.503619,0.503034,-0.101612,-0.104733,-0.0779025,-0.081718,389,70,-279.301,-279.301,-199.641,-199.641,2.96
0.656487,0.672153,0.503307,0.502708,-0.101771,-0.104745,-0.0780244,-0.0816861,391,71,-279.789,-279.789,-199.467,-199.467,2.964
0.65608,0.671734,0.502994,0.502383,-0.10193,-0.104725,-0.0781462,-0.0815209,392,74,-280.281,-280.281,-199.299,-199.299,2.968
0.655672,0.671314,0.502682,0.502056,-0.102089,-0.104826,-0.0782679,-0.0815835,393,74,-280.779,-280.779,-199.142,-199.142,2.972
0.655263,0.670889,0.502368,0.501727,-0.102247,-0.105326,-0.0783894,-0.0818267,391,72,-281.277,-281.277,-198.986,-198.986,2.976
0.654854,0.670471,0.502054,0.501403,-0.102405,-0.104997,-0.0785108,-0.081557,395,76,-281.765,-281.765,-198.825,-198.825,2.98
0.654444,0.670049,0.50174,0.501073,-0.102563,-0.105238,-0.078632,-0.0818091,395,74,-282.268,-282.268,-198.679,-198.679,2.984
0.654033,0.669628,0.501425,0.500746,-0.102721,-0.105197,-0.0787531,-0.0818044,397,75,-282.769,-282.769,-198.528,-198.528,2.988
0.653622,0.669204,0.50111,0.500418,-0.102879,-0.105487,-0.078874,-0.0818589,396,75,-283.275,-283.275,-198.381,-198.381,2.992
0.65321,0.668774,0.500794,0.500087,-0.103037,-0.10614,-0.0789948,-0.0821543,393,73,-283.776,-283.776,-198.236,-198.236,2.996
0.652798,0.668347,0.500478,0.49976,-0.103194,-0.106317,-0.0791154,-0.0820057,393,76,-284.261,-284.261,-198.084,-198.084,3
0.652385,0.667915,0.500161,0.499428,-0.103351,-0.106924,-0.0792359,-0.0823962,390,73,-284.743,-284.743,-197.942,-197.942,3.004
0.651971,0.667488,0.499844,0.499102,-0.103508,-0.106868,-0.0793562,-0.0820806,392,77,-285.213,-285.213,-197.789,-197.789,3.008
0.651556,0.667057,0.499527,0.498772,-0.103665,-0.107119,-0.0794764,-0.0822445,392,76,-285.688,-285.688,-197.653,-197.653,3.012
0.651141,0.666622,0.499208,0.498441,-0.103821,-0.107689,-0.0795964,-0.0824114,389,75,-286.158,-286.158,-197.514,-197.514,3.016
0.650726,0.666189,0.49889,0.498111,-0.103978,-0.107868,-0.0797163,-0.0824075,389,76,-286.615,-286.615,-197.373,-197.373,3.02
0.65031,0.665755,0.498571,0.497781,-0.104134,-0.108073,-0.079836,-0.0824336,389,77,-287.071,-287.071,-197.237,-197.237,3.024
0.649893,0.665319,0.498251,0.49745,-0.10429,-0.108354,-0.0799556,-0.0825375,389,77,-287.525,-287.525,-197.104,-197.104,3.028
0.649475,0.664885,0.497931,0.497117,-0.104446,-0.108455,-0.080075,-0.0827506,389,76,-287.975,-287.975,-196.971,-196.971,3.032
0.649057,0.664451,0.497611,0.496785,-0.104601,-0.108465,-0.0801943,-0.0828352,391,76,-288.426,-288.426,-196.834,-196.834,3.036
0.648639,0.664015,0.49729,0.496449,-0.104757,-0.108673,-0.0803134,-0.0832946,391,72,-288.88,-288.88,-196.696,-196.696,3.04
0.648219,0.663586,0.496968,0.496119,-0.104912,-0.108149,-0.0804324,-0.0830251,396,75,-289.335,-289.335,-196.545,-196.545,3.044
0.647799,0.663154,0.496646,0.495785,-0.105067,-0.108117,-0.0805512,-0.0831909,398,75,-289.811,-289.811,-196.41,-196.41,3.048
0.647379,0.66272,0.496324,0.49545,-0.105222,-0.108211,-0.0806698,-0.083359,399,74,-290.292,-290.292,-196.271,-196.271,3.052
0.646957,0.662292,0.496001,0.495113,-0.105376,-0.107812,-0.0807883,-0.083615,404,72,-290.776,-290.776,-196.13,-196.13,3.056
0.646536,0.661865,0.495677,0.494779,-0.10553,-0.107518,-0.0809067,-0.0835842,407,73,-291.278,-291.278,-195.983,-195.983,3.06
0.646113,0.661436,0.495353,0.494443,-0.105685,-0.107379,-0.0810248,-0.0837076,410,73,-291.795,-291.795,-195.841,-195.841,3.064
0.64569,0.661011,0.495029,0.494111,-0.105838,-0.107028,-0.0811428,-0.0834731,415,76,-292.322,-292.322,-195.7,-195.7,3.068
0.645267,0.660579,0.494704,0.493774,-0.105992,-0.107341,-0.0812607,-0.0837775,414,74,-292.864,-292.864,-195.572,-195.572,3.072
0.644842,0.660153,0.494379,0.493439,-0.106146,-0.10706,-0.0813784,-0.0837213,418,76,-293.402,-293.402,-195.436,-195.436,3.076
0.644417,0.659727,0.494053,0.493103,-0.106299,-0.106901,-0.081496,-0.0838277,421,75,-293.955,-293.955,-195.306,-195.306,3.08
0.643992,0.659298,0.493727,0.492766,-0.106452,-0.107026,-0.0816133,-0.0839563,421,75,-294.517,-294.517,-195.177,-195.177,3.084
0.643566,0.658869,0.4934,0.492431,-0.106605,-0.107022,-0.0817306,-0.0838981,423,77,-295.08,-295.08,-195.047,-195.047,3.088
0.643139,0.658441,0.493073,0.492096,-0.106758,-0.107078,-0.0818476,-0.0838305,425,78,-295.649,-295.649,-194.924,-194.924,3.092
