peachynonah/Fire_monitor_KIRO_CDSL/csv_datas/trial12/cdsl_data_t12_16_u.csv
joint1_pos_desired, joint1_pos, joint2_pos_desired, joint2_pos, joint1_vel_desired, joint1_vel_filtered, joint2_vel_desired, joint2_vel_filtered, target_torque_joint1, target_torque_joint2, estimated_disturbance_joint1, saturated_DOB_joint1, estimated_disturbance_joint2, saturated_DOB_joint2, current_time
1.25562e-10,0.000251172,8.3175e-11,-0.000451211,9.41623e-08,0,6.2375e-08,0,2,-4,-0,-0,-98.3494,-98.3494,0.004
1.0042e-09,0.000251172,6.65201e-10,-0.000451211,3.76499e-07,0,2.494e-07,0,2,-4,-0.0122789,-0.0122789,-98.3275,-98.3275,0.008
3.38815e-09,0.000251172,2.24438e-09,-0.000451211,8.46783e-07,0,5.60926e-07,0,2,-4,-0.0245451,-0.0245451,-98.3056,-98.3056,0.012
8.02876e-09,0.000251172,5.31841e-09,-0.000451211,1.50479e-06,0,9.96803e-07,0,2,-5,-0.0367905,-0.0367905,-98.2837,-98.2837,0.016
1.56765e-08,0.000251172,1.03844e-08,-0.000451211,2.35029e-06,0,1.55688e-06,0,2,-5,-0.0490069,-0.0490069,-98.2618,-98.2618,0.02
2.70808e-08,0.000251172,1.79389e-08,-0.000451211,3.38307e-06,0,2.24101e-06,0,2,-5,-0.0611863,-0.0611863,-98.2398,-98.2398,0.024
4.29904e-08,0.000251172,2.84777e-08,-0.000451211,4.60288e-06,0,3.04904e-06,0,2,-5,-0.0733202,-0.0733202,-98.2178,-98.2178,0.028
6.4153e-08,0.000251172,4.24962e-08,-0.000451211,6.00952e-06,0,3.98083e-06,0,2,-5,-0.0854007,-0.0854007,-98.1958,-98.1958,0.032
9.13154e-08,0.000251172,6.04892e-08,-0.000451211,7.60276e-06,0,5.03622e-06,0,2,-5,-0.0974193,-0.0974193,-98.1738,-98.1738,0.036
1.25224e-07,0.000251172,8.29506e-08,-0.000451211,9.38236e-06,0,6.21506e-06,0,2,-5,-0.109368,-0.109368,-98.1517,-98.1517,0.04
1.66622e-07,0.000251172,1.10374e-07,-0.000451211,1.13481e-05,0,7.51721e-06,0,2,-5,-0.121238,-0.121238,-98.1295,-98.1295,0.044
2.16256e-07,0.000251172,1.43253e-07,-0.000451211,1.34998e-05,0,8.94252e-06,0,2,-5,-0.133022,-0.133022,-98.1073,-98.1073,0.048
2.74868e-07,0.000251172,1.82078e-07,-0.000451211,1.58371e-05,0,1.04908e-05,0,2,-5,-0.14471,-0.14471,-98.085,-98.085,0.052
3.43201e-07,0.000251172,2.27343e-07,-0.000451211,1.836e-05,0,1.2162e-05,0,2,-5,-0.156295,-0.156295,-98.0627,-98.0627,0.056
4.21995e-07,0.000251172,2.79538e-07,-0.000451211,2.1068e-05,0,1.39559e-05,0,2,-5,-0.167768,-0.167768,-98.0402,-98.0402,0.06
5.11991e-07,0.000251172,3.39154e-07,-0.000451211,2.39611e-05,0,1.58723e-05,0,2,-5,-0.179121,-0.179121,-98.0177,-98.0177,0.064
6.1393e-07,0.000251172,4.0668e-07,-0.00045052,2.7039e-05,0,1.79112e-05,5.75818e-05,2,-4,-0.190345,-0.190345,-97.9953,-97.9953,0.068
7.28549e-07,0.000251172,4.82606e-07,-0.000451557,3.03014e-05,0,2.00723e-05,-4.79849e-05,2,-5,-0.201432,-0.201432,-97.9748,-97.9748,0.072
8.56587e-07,0.000251172,5.67421e-07,-0.000451211,3.37482e-05,0,2.23555e-05,-3.19899e-06,2,-5,-0.212373,-0.212373,-97.9501,-97.9501,0.076
9.98781e-07,0.000251172,6.61613e-07,-0.000451557,3.73792e-05,0,2.47607e-05,-3.09236e-05,2,-5,-0.223159,-0.223159,-97.927,-97.927,0.08
1.15587e-06,0.000251172,7.65669e-07,-0.000451211,4.1194e-05,0,2.72877e-05,8.1752e-06,2,-5,-0.233783,-0.233783,-97.9029,-97.9029,0.084
1.32858e-06,0.000251172,8.80077e-07,-0.000451211,4.51925e-05,0,2.99364e-05,5.45013e-06,2,-5,-0.244235,-0.244235,-97.8801,-97.8801,0.088
1.51765e-06,0.000251172,1.00532e-06,-0.000451211,4.93744e-05,0,3.27066e-05,3.63342e-06,2,-5,-0.254507,-0.254507,-97.8571,-97.8571,0.092
1.72382e-06,0.000251172,1.14189e-06,-0.00045052,5.37396e-05,0,3.55982e-05,6.00041e-05,2,-5,-0.264591,-0.264591,-97.8341,-97.8341,0.096
1.94781e-06,0.000251172,1.29027e-06,-0.000450866,5.82877e-05,0,3.8611e-05,1.12118e-05,2,-5,-0.274477,-0.274477,-97.8131,-97.8131,0.1
2.19036e-06,0.000251172,1.45094e-06,-0.000450866,6.30187e-05,0,4.17448e-05,7.47455e-06,2,-5,-0.284157,-0.284157,-97.79,-97.79,0.104
2.4522e-06,0.000251172,1.62439e-06,-0.00045052,6.79321e-05,0,4.49996e-05,3.3774e-05,2,-5,-0.293622,-0.293622,-97.7666,-97.7666,0.108
2.73406e-06,0.000251172,1.8111e-06,-0.000450866,7.3028e-05,0,4.83752e-05,-6.27495e-06,2,-6,-0.302863,-0.302863,-97.7441,-97.7441,0.112
3.03667e-06,0.000251172,2.01155e-06,-0.000450866,7.83059e-05,0,5.18714e-05,-4.1833e-06,2,-6,-0.311872,-0.311872,-97.7198,-97.7198,0.116
3.36075e-06,0.000251172,2.22623e-06,-0.000450866,8.37657e-05,0,5.54881e-05,-2.78887e-06,2,-6,-0.32064,-0.32064,-97.6955,-97.6955,0.12
3.70704e-06,0.000251172,2.45562e-06,-0.00045052,8.94072e-05,0,5.92251e-05,2.69317e-05,2,-5,-0.329157,-0.329157,-97.6711,-97.6711,0.124
4.07625e-06,0.000251172,2.70019e-06,-0.000451557,9.52301e-05,0,6.30823e-05,-6.84183e-05,2,-6,-0.337416,-0.337416,-97.6475,-97.6475,0.128
4.46912e-06,0.000251172,2.96044e-06,-0.000451211,0.000101234,0,6.70596e-05,-1.68213e-05,2,-6,-0.345407,-0.345407,-97.62,-97.62,0.132
4.88637e-06,0.000251172,3.23683e-06,-0.000451557,0.000107419,0,7.11567e-05,-4.00051e-05,2,-6,-0.353122,-0.353122,-97.5943,-97.5943,0.136
5.32871e-06,0.000251172,3.52985e-06,-0.000450866,0.000113785,0,7.53736e-05,3.09118e-05,1,-6,-0.36055,-0.36055,-97.5677,-97.5677,0.14
5.79689e-06,0.000251172,3.83998e-06,-0.00045052,0.000120332,0,7.97101e-05,4.93988e-05,1,-6,-0.367685,-0.367685,-97.5438,-97.5438,0.144
6.29161e-06,0.000251172,4.16769e-06,-0.00045052,0.000127058,0,8.4166e-05,3.29325e-05,1,-6,-0.374515,-0.374515,-97.5205,-97.5205,0.148
6.81359e-06,0.000251172,4.51346e-06,-0.000450866,0.000133965,0,8.87412e-05,-6.83591e-06,1,-6,-0.381033,-0.381033,-97.4961,-97.4961,0.152
7.36357e-06,0.000251172,4.87778e-06,-0.000450866,0.000141052,0,9.34356e-05,-4.55728e-06,1,-6,-0.387229,-0.387229,-97.4699,-97.4699,0.156
7.94225e-06,0.000251172,5.26111e-06,-0.000450866,0.000148318,0,9.82489e-05,-3.03818e-06,1,-6,-0.393095,-0.393095,-97.4437,-97.4437,0.16
8.55035e-06,0.000251172,5.66393e-06,-0.000450866,0.000155764,0,0.000103181,-2.02546e-06,1,-6,-0.398621,-0.398621,-97.4172,-97.4172,0.164
9.1886e-06,0.000251172,6.08671e-06,-0.000450866,0.000163389,0,0.000108232,-1.3503e-06,1,-7,-0.403798,-0.403798,-97.3906,-97.3906,0.168
9.8577e-06,0.000251172,6.52994e-06,-0.000451557,0.000171193,0,0.000113402,-5.84821e-05,1,-7,-0.408617,-0.408617,-97.3636,-97.3636,0.172
1.05584e-05,0.000251172,6.99409e-06,-0.000450866,0.000179176,0,0.00011869,1.85938e-05,1,-6,-0.413068,-0.413068,-97.3343,-97.3343,0.176
1.12913e-05,0.000251172,7.47962e-06,-0.000450866,0.000187337,0,0.000124096,1.23959e-05,1,-7,-0.417144,-0.417144,-97.3078,-97.3078,0.18
1.20573e-05,0.000251172,7.98701e-06,-0.000450866,0.000195676,0,0.00012962,8.26392e-06,1,-7,-0.420833,-0.420833,-97.2808,-97.2808,0.184
1.2857e-05,0.000251172,8.51673e-06,-0.000450866,0.000204194,0,0.000135262,5.50928e-06,1,-7,-0.424128,-0.424128,-97.2534,-97.2534,0.188
1.36911e-05,0.000251172,9.06927e-06,-0.000450866,0.00021289,0,0.000141022,3.67285e-06,0,-7,-0.427019,-0.427019,-97.2256,-97.2256,0.192
1.45603e-05,0.000251172,9.64507e-06,-0.000450866,0.000221763,0,0.0001469,2.44857e-06,0,-7,-0.429496,-0.429496,-97.1974,-97.1974,0.196
1.54654e-05,0.000251172,1.02446e-05,-0.000450866,0.000230814,0,0.000152896,1.63238e-06,0,-7,-0.43155,-0.43155,-97.1689,-97.1689,0.2
1.64071e-05,0.000251172,1.08684e-05,-0.000450866,0.000240041,0,0.000159008,1.08825e-06,0,-7,-0.433173,-0.433173,-97.1401,-97.1401,0.204
1.7386e-05,0.000251172,1.15168e-05,-0.000450866,0.000249446,0,0.000165238,7.25502e-07,0,-7,-0.434353,-0.434353,-97.111,-97.111,0.208
1.84029e-05,0.000251172,1.21905e-05,-0.000450866,0.000259028,0,0.000171585,4.83668e-07,0,-7,-0.435083,-0.435083,-97.0815,-97.0815,0.212
1.94585e-05,0.000251172,1.28897e-05,-0.000450866,0.000268786,0,0.000178049,3.22445e-07,0,-8,-0.435353,-0.435353,-97.0518,-97.0518,0.216
2.05534e-05,0.000251172,1.3615e-05,-0.000450866,0.00027872,0,0.00018463,2.14963e-07,0,-8,-0.435153,-0.435153,-97.0217,-97.0217,0.22
2.16885e-05,0.000251172,1.43669e-05,-0.000450866,0.000288831,0,0.000191328,1.43309e-07,0,-8,-0.434474,-0.434474,-96.9914,-96.9914,0.224
2.28643e-05,0.000251172,1.51458e-05,-0.000450866,0.000299118,0,0.000198142,9.55393e-08,0,-8,-0.433306,-0.433306,-96.9607,-96.9607,0.228
2.40816e-05,0.000251172,1.59522e-05,-0.000450866,0.00030958,0,0.000205072,6.36929e-08,0,-8,-0.43164,-0.43164,-96.9296,-96.9296,0.232
2.53412e-05,0.000251172,1.67865e-05,-0.000450866,0.000320217,0,0.000212118,4.24619e-08,0,-8,-0.429466,-0.429466,-96.8983,-96.8983,0.236
2.66436e-05,0.000251172,1.76493e-05,-0.000450866,0.00033103,0,0.000219281,2.83079e-08,0,-8,-0.426775,-0.426775,-96.8666,-96.8666,0.24
2.79896e-05,0.000251172,1.85409e-05,-0.000450866,0.000342018,0,0.00022656,1.8872e-08,0,-8,-0.423557,-0.423557,-96.8345,-96.8345,0.244
2.938e-05,0.000251172,1.94619e-05,-0.000450866,0.00035318,0,0.000233954,1.25813e-08,0,-8,-0.419802,-0.419802,-96.8021,-96.8021,0.248
3.08153e-05,0.000251172,2.04127e-05,-0.000450866,0.000364517,0,0.000241464,8.38754e-09,0,-9,-0.415501,-0.415501,-96.7693,-96.7693,0.252
3.22964e-05,0.000251172,2.13938e-05,-0.000450866,0.000376029,0,0.000249089,5.59169e-09,0,-9,-0.410644,-0.410644,-96.7362,-96.7362,0.256
3.38238e-05,0.000251172,2.24056e-05,-0.000450866,0.000387714,0,0.00025683,3.7278e-09,0,-9,-0.405222,-0.405222,-96.7027,-96.7027,0.26
3.53983e-05,0.000251172,2.34486e-05,-0.000450866,0.000399574,0,0.000264686,2.4852e-09,-1,-9,-0.399225,-0.399225,-96.6688,-96.6688,0.264
3.70206e-05,0.000251172,2.45232e-05,-0.000450866,0.000411607,0,0.000272657,1.6568e-09,-1,-9,-0.392642,-0.392642,-96.6346,-96.6346,0.268
3.86914e-05,0.000251172,2.563e-05,-0.000450866,0.000423814,0,0.000280743,1.10453e-09,-1,-9,-0.385465,-0.385465,-96.5999,-96.5999,0.272
4.04113e-05,0.000251172,2.67693e-05,-0.000450866,0.000436193,0,0.000288943,7.36355e-10,-1,-9,-0.377683,-0.377683,-96.5648,-96.5648,0.276
4.21812e-05,0.000251172,2.79417e-05,-0.000450866,0.000448746,0,0.000297259,4.90903e-10,-1,-9,-0.369286,-0.369286,-96.5294,-96.5294,0.28
4.40015e-05,0.000251172,2.91475e-05,-0.000450866,0.000461472,0,0.000305688,3.27269e-10,-1,-10,-0.360266,-0.360266,-96.4935,-96.4935,0.284
4.58732e-05,0.000251172,3.03873e-05,-0.000450866,0.00047437,0,0.000314232,2.18179e-10,-1,-10,-0.350611,-0.350611,-96.4572,-96.4572,0.288
4.77967e-05,0.000251172,3.16615e-05,-0.000450866,0.000487441,0,0.000322891,1.45453e-10,-2,-10,-0.340312,-0.340312,-96.4205,-96.4205,0.292
4.97729e-05,0.000251172,3.29706e-05,-0.000450866,0.000500683,0,0.000331663,9.69685e-11,-2,-10,-0.32936,-0.32936,-96.3834,-96.3834,0.296
5.18024e-05,0.000251172,3.4315e-05,-0.000450866,0.000514098,0,0.000340549,6.46457e-11,-2,-10,-0.317743,-0.317743,-96.3458,-96.3458,0.3
5.38859e-05,0.000251172,3.56951e-05,-0.000450866,0.000527684,0,0.000349549,4.30971e-11,-2,-10,-0.305453,-0.305453,-96.3078,-96.3078,0.304
5.60241e-05,0.000251172,3.71115e-05,-0.000450866,0.000541442,0,0.000358662,2.87314e-11,-2,-10,-0.292479,-0.292479,-96.2693,-96.2693,0.308
5.82177e-05,0.000251172,3.85646e-05,-0.000450866,0.000555371,0,0.000367889,1.91543e-11,-2,-11,-0.278811,-0.278811,-96.2304,-96.2304,0.312
6.04673e-05,0.000251172,4.00548e-05,-0.000450866,0.000569471,0,0.000377229,1.27695e-11,-3,-11,-0.264439,-0.264439,-96.191,-96.191,0.316
6.27737e-05,0.000251172,4.15826e-05,-0.000450866,0.000583742,0,0.000386683,8.51301e-12,-3,-11,-0.249354,-0.249354,-96.1512,-96.1512,0.32
6.51375e-05,0.000251172,4.31484e-05,-0.00045052,0.000598184,0,0.000396249,2.87909e-05,-3,-11,-0.233544,-0.233544,-96.1109,-96.1109,0.324
6.75594e-05,0.000251172,4.47527e-05,-0.00045052,0.000612796,0,0.000405928,1.9194e-05,-3,-11,-0.217,-0.217,-96.0713,-96.0713,0.328
7.00401e-05,0.000251172,4.6396e-05,-0.00045052,0.000627578,0,0.00041572,1.2796e-05,-3,-11,-0.199712,-0.199712,-96.0308,-96.0308,0.332
7.25802e-05,0.000251172,4.80786e-05,-0.00045052,0.00064253,0,0.000425625,8.53065e-06,-4,-11,-0.18167,-0.18167,-95.9896,-95.9896,0.336
7.51806e-05,0.000251172,4.98011e-05,-0.00045052,0.000657651,0,0.000435642,5.6871e-06,-4,-12,-0.162863,-0.162863,-95.9477,-95.9477,0.34
7.78417e-05,0.000251172,5.15639e-05,-0.00045052,0.000672943,0,0.000445771,3.7914e-06,-4,-12,-0.143282,-0.143282,-95.9051,-95.9051,0.344
8.05643e-05,0.000251172,5.33674e-05,-0.00045052,0.000688403,0,0.000456012,2.5276e-06,-4,-12,-0.122915,-0.122915,-95.862,-95.862,0.348
8.33491e-05,0.000251518,5.52122e-05,-0.00045052,0.000704033,2.87909e-05,0.000466366,1.68507e-06,-4,-12,-0.101841,-0.101841,-95.8182,-95.8182,0.352
8.61968e-05,0.000251172,5.70985e-05,-0.00045052,0.000719831,-9.59697e-06,0.000476831,1.12338e-06,-5,-12,-0.0810051,-0.0810051,-95.774,-95.774,0.356
8.9108e-05,0.000251172,5.9027e-05,-0.00045052,0.000735798,-6.39798e-06,0.000487408,7.48918e-07,-5,-12,-0.0578209,-0.0578209,-95.7291,-95.7291,0.36
9.20834e-05,0.000251172,6.09979e-05,-0.00045052,0.000751934,-4.26532e-06,0.000498096,4.99279e-07,-5,-13,-0.0339442,-0.0339442,-95.6837,-95.6837,0.364
9.51237e-05,0.000251172,6.30119e-05,-0.00045052,0.000768238,-2.84355e-06,0.000508896,3.32853e-07,-5,-13,-0.00932012,-0.00932012,-95.6377,-95.6377,0.368
9.82296e-05,0.000251172,6.50693e-05,-0.00045052,0.000784709,-1.8957e-06,0.000519808,2.21902e-07,-5,-13,0.0160914,0.0160914,-95.5912,-95.5912,0.372
0.000101402,0.000251172,6.71705e-05,-0.00045052,0.000801349,-1.2638e-06,0.00053083,1.47934e-07,-6,-13,0.0423207,0.0423207,-95.5441,-95.5441,0.376
0.000104641,0.000251172,6.9316e-05,-0.00045052,0.000818156,-8.42533e-07,0.000541963,9.8623e-08,-6,-13,0.0693912,0.0693912,-95.4964,-95.4964,0.38
0.000107947,0.000251172,7.15063e-05,-0.00045052,0.00083513,-5.61689e-07,0.000553207,6.57486e-08,-6,-13,0.0973222,0.0973222,-95.4482,-95.4482,0.384
0.000111322,0.000251172,7.37418e-05,-0.00045052,0.000852272,-3.74459e-07,0.000564562,4.38324e-08,-6,-14,0.12613,0.12613,-95.3994,-95.3994,0.388
0.000114765,0.000251172,7.6023e-05,-0.00045052,0.00086958,-2.49639e-07,0.000576028,2.92216e-08,-7,-14,0.155829,0.155829,-95.3499,-95.3499,0.392
0.000118279,0.000251172,7.83502e-05,-0.00045052,0.000887055,-1.66426e-07,0.000587604,1.94811e-08,-7,-14,0.186433,0.186433,-95.2999,-95.2999,0.396
0.000121862,0.000251518,8.0724e-05,-0.00045052,0.000904697,2.868e-05,0.00059929,1.29874e-08,-7,-14,0.217865,0.217865,-95.2493,-95.2493,0.4
0.000125516,0.000251863,8.31447e-05,-0.000450175,0.000922505,4.79109e-05,0.000611086,2.87996e-05,-7,-14,0.249006,0.249006,-95.1981,-95.1981,0.404
0.000129242,0.000252209,8.56128e-05,-0.00045052,0.000940478,6.07315e-05,0.000622992,-9.5912e-06,-7,-15,0.280268,0.280268,-95.1474,-95.1474,0.408
0.000133041,0.000251863,8.81288e-05,-0.000450175,0.000958618,1.16968e-05,0.000635008,2.23968e-05,-8,-15,0.312105,0.312105,-95.0946,-95.0946,0.412
0.000136912,0.000251863,9.0693e-05,-0.000450175,0.000976923,7.79784e-06,0.000647134,1.49312e-05,-8,-15,0.346882,0.346882,-95.0424,-95.0424,0.416
0.000140856,0.000252209,9.3306e-05,-0.000450175,0.000995394,3.39895e-05,0.000659369,9.95413e-06,-8,-15,0.382707,0.382707,-94.9893,-94.9893,0.42
0.000144875,0.000252209,9.59681e-05,-0.000450175,0.00101403,2.26597e-05,0.000671714,6.63609e-06,-8,-15,0.418493,0.418493,-94.9353,-94.9353,0.424
0.000148969,0.000251863,9.86798e-05,-0.000450175,0.00103283,-1.36845e-05,0.000684168,4.42406e-06,-9,-16,0.455834,0.455834,-94.8806,-94.8806,0.428
0.000153138,0.000252209,0.000101442,-0.000450175,0.0010518,1.96679e-05,0.000696731,2.94937e-06,-9,-16,0.49554,0.49554,-94.8251,-94.8251,0.432
0.000157383,0.000252209,0.000104254,-0.000450175,0.00107093,1.3112e-05,0.000709403,1.96625e-06,-9,-16,0.53494,0.53494,-94.7688,-94.7688,0.436
0.000161705,0.000252209,0.000107117,-0.000450175,0.00109022,8.7413e-06,0.000722184,1.31083e-06,-10,-16,0.57564,0.57564,-94.7118,-94.7118,0.44
0.000166105,0.000252209,0.000110031,-0.000450175,0.00110968,5.82754e-06,0.000735073,8.73888e-07,-10,-16,0.61756,0.61756,-94.6542,-94.6542,0.444
0.000170583,0.000252209,0.000112998,-0.000450175,0.0011293,3.88502e-06,0.000748071,5.82592e-07,-10,-17,0.660651,0.660651,-94.5958,-94.5958,0.448
0.00017514,0.000252209,0.000116016,-0.000450175,0.00114909,2.59002e-06,0.000761178,3.88395e-07,-10,-17,0.704882,0.704882,-94.5367,-94.5367,0.452
0.000179776,0.000252209,0.000119087,-0.000450175,0.00116904,1.72668e-06,0.000774393,2.5893e-07,-11,-17,0.750236,0.750236,-94.4769,-94.4769,0.456
0.000184492,0.000252209,0.000122211,-0.000450175,0.00118915,1.15112e-06,0.000787716,1.7262e-07,-11,-17,0.796708,0.796708,-94.4164,-94.4164,0.46
0.000189289,0.000252209,0.000125389,-0.000450175,0.00120942,7.67412e-07,0.000801146,1.1508e-07,-11,-17,0.844296,0.844296,-94.3552,-94.3552,0.464
0.000194168,0.000252209,0.000128621,-0.000449829,0.00122986,5.11608e-07,0.000814685,2.88676e-05,-12,-17,0.893002,0.893002,-94.2933,-94.2933,0.468
0.000199128,0.000252209,0.000131907,-0.000449829,0.00125046,3.41072e-07,0.000828331,1.92451e-05,-12,-18,0.942833,0.942833,-94.2318,-94.2318,0.472
0.000204172,0.000252209,0.000135248,-0.000449829,0.00127123,2.27381e-07,0.000842085,1.28301e-05,-12,-18,0.993796,0.993796,-94.1692,-94.1692,0.476
0.000209298,0.000252554,0.000138644,-0.000449829,0.00129215,2.89425e-05,0.000855947,8.55338e-06,-12,-18,1.04581,1.04581,-94.1056,-94.1056,0.48
0.000214509,0.000252209,0.000142095,-0.000449484,0.00131324,-9.49592e-06,0.000869915,3.44932e-05,-13,-18,1.09793,1.09793,-94.0411,-94.0411,0.484
0.000219805,0.000252554,0.000145603,-0.000449829,0.00133449,2.24603e-05,0.000883991,-5.79547e-06,-13,-19,1.15266,1.15266,-93.9768,-93.9768,0.488
0.000225185,0.000252554,0.000149167,-0.000449484,0.0013559,1.49735e-05,0.000898174,2.49273e-05,-13,-19,1.20729,1.20729,-93.9102,-93.9102,0.492
0.000230652,0.000252554,0.000152789,-0.000449484,0.00137747,9.98236e-06,0.000912463,1.66182e-05,-14,-19,1.26341,1.26341,-93.844,-93.844,0.496
0.000236205,0.000252554,0.000156467,-0.000449484,0.0013992,6.65491e-06,0.000926859,1.10788e-05,-14,-20,1.32093,1.32093,-93.7767,-93.7767,0.5
0.000241846,0.000252554,0.000160204,-0.000448793,0.00142109,4.43661e-06,0.000941362,6.49677e-05,-14,-19,1.3798,1.3798,-93.7086,-93.7086,0.504
0.000247574,0.000252554,0.000163998,-0.000448447,0.00144315,2.95774e-06,0.000955971,7.21027e-05,-15,-19,1.43996,1.43996,-93.6418,-93.6418,0.508
0.000253391,0.000252554,0.000167852,-0.000448102,0.00146536,1.97182e-06,0.000970687,7.68594e-05,-15,-20,1.50142,1.50142,-93.5746,-93.5746,0.512
0.000259297,0.000252554,0.000171764,-0.000447756,0.00148774,1.31455e-06,0.000985508,8.00305e-05,-16,-20,1.56415,1.56415,-93.5067,-93.5067,0.516
0.000265293,0.000252899,0.000175736,-0.000447756,0.00151027,2.96673e-05,0.00100044,5.33537e-05,-16,-20,1.62807,1.62807,-93.4381,-93.4381,0.52
0.00027138,0.000252899,0.000179767,-0.000447411,0.00153297,1.97782e-05,0.00101547,6.43601e-05,-16,-20,1.69213,1.69213,-93.3676,-93.3676,0.524
0.000277557,0.000253245,0.00018386,-0.000447065,0.00155582,4.19764e-05,0.00103061,7.16976e-05,-16,-21,1.75779,1.75779,-93.2968,-93.2968,0.528
0.000283827,0.000253245,0.000188012,-0.000446374,0.00157884,2.79843e-05,0.00104585,0.00010538,-17,-21,1.82387,1.82387,-93.2256,-93.2256,0.532
0.000290188,0.000253245,0.000192227,-0.000445684,0.00160201,1.86562e-05,0.0010612,0.000127835,-17,-21,1.89183,1.89183,-93.1549,-93.1549,0.536
0.000296643,0.000253245,0.000196502,-0.000444302,0.00162534,1.24374e-05,0.00107666,0.000200387,-18,-20,1.96148,1.96148,-93.0845,-93.0845,0.54
0.000303191,0.000253245,0.00020084,-0.000443265,0.00164883,8.29163e-06,0.00109222,0.000219964,-18,-20,2.03271,2.03271,-93.0163,-93.0163,0.544
0.000309834,0.000253245,0.00020524,-0.000442229,0.00167248,5.52775e-06,0.00110788,0.000233016,-18,-20,2.10543,2.10543,-92.948,-92.948,0.548
0.000316571,0.00025359,0.000209703,-0.000441883,0.00169629,3.24761e-05,0.00112365,0.000184135,-18,-21,2.17952,2.17952,-92.8793,-92.8793,0.552
0.000323404,0.00025359,0.00021423,-0.000441192,0.00172025,2.16507e-05,0.00113953,0.000180338,-19,-21,2.25391,2.25391,-92.8077,-92.8077,0.556
0.000330333,0.00025359,0.00021882,-0.000440501,0.00174437,1.44338e-05,0.00115551,0.000177807,-19,-22,2.3301,2.3301,-92.7352,-92.7352,0.56
0.000337359,0.00025359,0.000223474,-0.000439465,0.00176865,9.62255e-06,0.00117159,0.000204911,-20,-22,2.40797,2.40797,-92.6617,-92.6617,0.564
0.000344483,0.00025359,0.000228192,-0.000438428,0.00179309,6.41503e-06,0.00118778,0.00022298,-20,-22,2.48742,2.48742,-92.5885,-92.5885,0.568
0.000351704,0.00025359,0.000232976,-0.000437046,0.00181769,4.27669e-06,0.00120407,0.000263817,-21,-22,2.5684,2.5684,-92.5153,-92.5153,0.572
0.000359025,0.00025359,0.000237825,-0.000434628,0.00184244,2.85112e-06,0.00122047,0.000377415,-21,-21,2.65088,2.65088,-92.4432,-92.4432,0.576
0.000366444,0.00025359,0.00024274,-0.000431518,0.00186735,1.90075e-06,0.00123697,0.000510728,-22,-20,2.73484,2.73484,-92.3752,-92.3752,0.58
0.000373964,0.000253936,0.000247721,-0.000428063,0.00189241,3.00581e-05,0.00125357,0.000628395,-22,-19,2.82017,2.82017,-92.3119,-92.3119,0.584
0.000381584,0.000254627,0.000252769,-0.000424954,0.00191764,7.76206e-05,0.00127028,0.000678048,-22,-19,2.90567,2.90567,-92.2527,-92.2527,0.588
0.000389305,0.000254972,0.000257883,-0.000421154,0.00194301,8.0538e-05,0.00128709,0.000768732,-22,-18,2.99068,2.99068,-92.1949,-92.1949,0.592
0.000397128,0.000255318,0.000263066,-0.000417699,0.00196855,8.24829e-05,0.00130401,0.000800397,-22,-18,3.07702,3.07702,-92.14,-92.14,0.596
0.000405053,0.000255663,0.000268316,-0.000413898,0.00199424,8.37795e-05,0.00132102,0.000850298,-23,-18,3.16474,3.16474,-92.0857,-92.0857,0.6
0.000413082,0.000256009,0.000273634,-0.000410098,0.00202008,8.46439e-05,0.00133814,0.000883566,-23,-18,3.25387,3.25387,-92.0327,-92.0327,0.604
0.000421214,0.000256009,0.000279021,-0.000406989,0.00204608,5.64293e-05,0.00135537,0.000848162,-24,-18,3.34454,3.34454,-91.9801,-91.9801,0.608
0.000429451,0.000256354,0.000284477,-0.000403188,0.00207224,6.64105e-05,0.00137269,0.000882142,-24,-18,3.43781,3.43781,-91.9253,-91.9253,0.612
0.000437792,0.000257045,0.000290003,-0.00040077,0.00209855,0.000101855,0.00139012,0.000789631,-24,-19,3.53208,3.53208,-91.8708,-91.8708,0.616
0.000446239,0.000257391,0.000295598,-0.000398697,0.00212501,9.66946e-05,0.00140765,0.000699166,-25,-20,3.62646,3.62646,-91.8115,-91.8115,0.62
0.000454793,0.000258082,0.000301264,-0.00039766,0.00215163,0.000122045,0.00142529,0.000552484,-25,-22,3.72249,3.72249,-91.7473,-91.7473,0.624
0.000463453,0.000258773,0.000307001,-0.000397315,0.00217841,0.000138945,0.00144302,0.000397113,-25,-24,3.81899,3.81899,-91.6758,-91.6758,0.628
0.00047222,0.000259464,0.000312808,-0.000396278,0.00220534,0.000150212,0.00146086,0.000351115,-26,-25,3.91632,3.91632,-91.597,-91.597,0.632
0.000481096,0.000260155,0.000318688,-0.000394896,0.00223242,0.000157723,0.0014788,0.00034924,-26,-25,4.01473,4.01473,-91.5155,-91.5155,0.636
0.00049008,0.000261191,0.000324639,-0.000393169,0.00225965,0.000191522,0.00149684,0.000376782,-26,-25,4.11429,4.11429,-91.433,-91.433,0.64
0.000499173,0.000262228,0.000330662,-0.000391441,0.00228704,0.000214054,0.00151498,0.000395142,-26,-25,4.214,4.214,-91.3506,-91.3506,0.644
0.000508376,0.000263264,0.000336759,-0.000389023,0.00231458,0.000229075,0.00153323,0.000464965,-27,-25,4.31433,4.31433,-91.2682,-91.2682,0.648
0.00051769,0.000264992,0.000342928,-0.000386259,0.00234228,0.000296671,0.00155157,0.000540304,-27,-24,4.41544,4.41544,-91.1878,-91.1878,0.652
0.000527115,0.000266374,0.000349172,-0.000383495,0.00237012,0.000312945,0.00157002,0.00059053,-27,-24,4.51537,4.51537,-91.1096,-91.1096,0.656
0.000536651,0.000267756,0.000355489,-0.000380731,0.00239812,0.000323793,0.00158857,0.000624014,-27,-24,4.6162,4.6162,-91.0326,-91.0326,0.66
0.0005463,0.000269138,0.00036188,-0.000378313,0.00242628,0.000331026,0.00160722,0.000617546,-28,-25,4.71818,4.71818,-90.9558,-90.9558,0.664
0.000556062,0.000269829,0.000368346,-0.000375894,0.00245458,0.000278266,0.00162596,0.000613234,-29,-25,4.82164,4.82164,-90.8779,-90.8779,0.668
0.000565937,0.000269829,0.000374888,-0.000373821,0.00248304,0.000185511,0.00164481,0.000581568,-30,-25,4.92914,4.92914,-90.7986,-90.7986,0.672
0.000575926,0.000269829,0.000381505,-0.000371748,0.00251165,0.000123674,0.00166377,0.000560458,-31,-26,5.04221,5.04221,-90.7171,-90.7171,0.676
0.00058603,0.00027052,0.000388198,-0.000370712,0.00254041,0.000140031,0.00168282,0.000460011,-31,-27,5.1594,5.1594,-90.6333,-90.6333,0.68
0.000596249,0.000271556,0.000394968,-0.000369675,0.00256932,0.000179727,0.00170197,0.000393047,-31,-28,5.27751,5.27751,-90.5444,-90.5444,0.684
0.000606585,0.000272592,0.000401814,-0.000368984,0.00259838,0.000206191,0.00172122,0.000319613,-32,-29,5.39566,5.39566,-90.4514,-90.4514,0.688
0.000617037,0.000274665,0.000408738,-0.000367948,0.00262759,0.000310206,0.00174057,0.000299448,-31,-30,5.51413,5.51413,-90.3544,-90.3544,0.692
0.000627606,0.000277084,0.000415739,-0.000367257,0.00265695,0.00040834,0.00176002,0.000257214,-31,-31,5.62982,5.62982,-90.2554,-90.2554,0.696
0.000638293,0.000280193,0.000422818,-0.000366566,0.00268647,0.000531345,0.00177957,0.000229058,-30,-31,5.7429,5.7429,-90.1535,-90.1535,0.7
0.000649098,0.000283994,0.000429976,-0.00036553,0.00271613,0.00067093,0.00179922,0.000239078,-29,-31,5.8523,5.8523,-90.0494,-90.0494,0.704
0.000660022,0.000287794,0.000437212,-0.000363802,0.00274595,0.000763987,0.00181897,0.00030334,-29,-31,5.95748,5.95748,-89.9447,-89.9447,0.708
0.000671065,0.00029194,0.000444527,-0.000361729,0.00277591,0.000854816,0.00183882,0.000374972,-28,-31,6.06031,6.06031,-89.8417,-89.8417,0.712
0.000682229,0.000296431,0.000451923,-0.000358965,0.00280602,0.000944159,0.00185877,0.000480309,-28,-30,6.16088,6.16088,-89.7407,-89.7407,0.716
0.000693514,0.000300577,0.000459398,-0.000356547,0.00283629,0.000974931,0.00187881,0.000521742,-28,-30,6.25941,6.25941,-89.6429,-89.6429,0.72
0.00070492,0.000304378,0.000466953,-0.000354128,0.0028667,0.000966654,0.00189896,0.000549365,-29,-30,6.3584,6.3584,-89.5458,-89.5458,0.724
0.000716448,0.000308524,0.00047459,-0.000351364,0.00289726,0.000989927,0.0019192,0.000596571,-29,-30,6.45931,6.45931,-89.4487,-89.4487,0.728
0.000728098,0.000312669,0.000482307,-0.000348946,0.00292797,0.00100544,0.00193955,0.00059925,-29,-30,6.56093,6.56093,-89.3525,-89.3525,0.732
0.000739872,0.000317852,0.000490106,-0.000346182,0.00295883,0.00110216,0.00195999,0.000629828,-29,-31,6.66331,6.66331,-89.2553,-89.2553,0.736
0.000751769,0.000321998,0.000497987,-0.000343418,0.00298983,0.00108026,0.00198053,0.000650212,-30,-31,6.76356,6.76356,-89.1583,-89.1583,0.74
0.00076379,0.000326489,0.00050595,-0.000340654,0.00302099,0.00109446,0.00200116,0.000663802,-30,-31,6.86634,6.86634,-89.061,-89.061,0.744
0.000775937,0.000331671,0.000513996,-0.000337199,0.00305229,0.0011615,0.0020219,0.000730444,-30,-31,6.97006,6.97006,-88.9633,-88.9633,0.748
0.000788209,0.000335472,0.000522126,-0.000333744,0.00308374,0.00109104,0.00204273,0.000774872,-31,-31,7.07301,7.07301,-88.8673,-88.8673,0.752
0.000800607,0.000339618,0.000530338,-0.000329599,0.00311534,0.00107285,0.00206366,0.000862072,-32,-30,7.18057,7.18057,-88.7721,-88.7721,0.756
0.000813132,0.000344455,0.000538635,-0.000324762,0.00314708,0.0011183,0.00208469,0.000977788,-32,-29,7.29048,7.29048,-88.6797,-88.6797,0.76
0.000825784,0.000348601,0.000547016,-0.00032027,0.00317898,0.00109103,0.00210582,0.00102614,-32,-29,7.40039,7.40039,-88.5909,-88.5909,0.764
0.000838564,0.000354474,0.000555482,-0.000314051,0.00321101,0.0012168,0.00212704,0.00120233,-32,-28,7.51279,7.51279,-88.5035,-88.5035,0.768
0.000851472,0.000360347,0.000564033,-0.000307487,0.0032432,0.00130064,0.00214836,0.00134858,-31,-27,7.62164,7.62164,-88.4224,-88.4224,0.772
0.00086451,0.000366912,0.000572669,-0.000299541,0.00327553,0.00141412,0.00216978,0.00156125,-31,-25,7.72854,7.72854,-88.3468,-88.3468,0.776
0.000877677,0.000374858,0.000581391,-0.000291249,0.00330801,0.00160494,0.00219129,0.00173181,-29,-24,7.83204,7.83204,-88.2791,-88.2791,0.78
0.000890974,0.000382804,0.000590199,-0.000283303,0.00334064,0.00173215,0.0022129,0.00181673,-29,-23,7.92922,7.92922,-88.2175,-88.2175,0.784
0.000904402,0.000391441,0.000599094,-0.000275011,0.00337341,0.00187454,0.00223461,0.00190214,-28,-22,8.02257,8.02257,-88.1585,-88.1585,0.788
0.000917961,0.00040077,0.000608076,-0.00026741,0.00340632,0.00202705,0.00225642,0.00190149,-27,-23,8.11143,8.11143,-88.1019,-88.1019,0.792
0.000931653,0.000410443,0.000617146,-0.0002605,0.00343938,0.00215751,0.00227832,0.00184348,-26,-24,8.19544,8.19544,-88.0441,-88.0441,0.796
0.000945477,0.000420463,0.000626303,-0.000254281,0.00347259,0.00227328,0.00230031,0.00174722,-25,-25,8.27553,8.27553,-87.9828,-87.9828,0.8
0.000959434,0.000430482,0.000635548,-0.000248754,0.00350594,0.00235046,0.00232241,0.00162547,-25,-26,8.35239,8.35239,-87.9161,-87.9161,0.804
0.000973524,0.00043981,0.000644882,-0.000244608,0.00353944,0.00234433,0.00234459,0.00142914,-25,-29,8.42783,8.42783,-87.843,-87.843,0.808
0.000987749,0.000448793,0.000654305,-0.000240462,0.00357308,0.00231145,0.00236688,0.00129825,-26,-30,8.50527,8.50527,-87.7605,-87.7605,0.812
0.00100211,0.000457085,0.000663818,-0.00023597,0.00360686,0.00223195,0.00238926,0.00123978,-27,-31,8.58597,8.58597,-87.6715,-87.6715,0.816
0.0010166,0.000463995,0.000673419,-0.000232516,0.00364079,0.00206378,0.00241173,0.00111443,-30,-33,8.67207,8.67207,-87.5786,-87.5786,0.82
0.00103124,0.00047125,0.000683112,-0.000229061,0.00367487,0.00198046,0.00243431,0.00103086,-31,-34,8.76694,8.76694,-87.4793,-87.4793,0.824
0.001046,0.000478505,0.000692894,-0.000225951,0.00370908,0.00192492,0.00245697,0.00094636,-32,-35,8.8671,8.8671,-87.3752,-87.3752,0.828
0.00106091,0.000486797,0.000702767,-0.000222151,0.00374344,0.00197426,0.00247973,0.000947607,-32,-35,8.97116,8.97116,-87.2664,-87.2664,0.832
0.00107595,0.00049578,0.000712732,-0.000218696,0.00377795,0.00206474,0.00250259,0.000919647,-32,-36,9.07477,9.07477,-87.1564,-87.1564,0.836
0.00109113,0.00050649,0.000722788,-0.000213859,0.00381259,0.00226901,0.00252554,0.00101617,-30,-36,9.17594,9.17594,-87.0442,-87.0442,0.84
0.00110645,0.0005172,0.000732936,-0.00020764,0.00384738,0.00240519,0.00254859,0.00119568,-29,-34,9.27027,9.27027,-86.9352,-86.9352,0.844
0.00112191,0.00052791,0.000743177,-0.000201421,0.00388232,0.00249598,0.00257173,0.00131536,-29,-33,9.36063,9.36063,-86.8325,-86.8325,0.848
0.00113751,0.00053793,0.00075351,-0.000194166,0.00391739,0.00249892,0.00259496,0.00148152,-29,-32,9.4491,9.4491,-86.7337,-86.7337,0.852
0.00115325,0.000547603,0.000763937,-0.00018622,0.00395261,0.0024721,0.00261829,0.00164987,-30,-31,9.53931,9.53931,-86.641,-86.641,0.856
0.00116913,0.000556241,0.000774457,-0.000177237,0.00398797,0.00236784,0.00264171,0.00184848,-32,-29,9.63271,9.63271,-86.5543,-86.5543,0.86
0.00118515,0.000564532,0.000785071,-0.000167563,0.00402347,0.00226954,0.00266523,0.00203846,-33,-28,9.73242,9.73242,-86.475,-86.475,0.864
0.00120132,0.000573515,0.000795779,-0.000157889,0.00405911,0.00226159,0.00268884,0.00216512,-34,-27,9.83796,9.83796,-86.4025,-86.4025,0.868
0.00121763,0.000582152,0.000806582,-0.000148561,0.0040949,0.0022275,0.00271254,0.00222077,-35,-27,9.9458,9.9458,-86.3341,-86.3341,0.872
0.00123408,0.000591826,0.000817479,-0.000139924,0.00413082,0.00229115,0.00273634,0.00220029,-34,-27,10.0567,10.0567,-86.2667,-86.2667,0.876
0.00125067,0.000602536,0.000828472,-0.000131632,0.00416689,0.00241995,0.00276023,0.00215784,-34,-28,10.1665,10.1665,-86.1973,-86.1973,0.88
0.00126741,0.000614629,0.000839561,-0.000123686,0.0042031,0.00262098,0.00278422,0.00210075,-32,-29,10.2725,10.2725,-86.125,-86.125,0.884
0.0012843,0.000627757,0.000850746,-0.00011643,0.00423945,0.00284138,0.0028083,0.00200511,-31,-30,10.3716,10.3716,-86.0489,-86.0489,0.888
0.00130133,0.000641577,0.000862028,-0.000109521,0.00427594,0.00304589,0.00283247,0.00191256,-29,-31,10.463,10.463,-85.9675,-85.9675,0.892
0.00131851,0.000655397,0.000873406,-0.000102265,0.00431256,0.00318223,0.00285673,0.00187965,-28,-32,10.5476,10.5476,-85.8812,-85.8812,0.896
0.00133583,0.000668525,0.000884882,-9.43191e-05,0.00434933,0.00321554,0.00288109,0.00191529,-28,-32,10.6284,10.6284,-85.7924,-85.7924,0.9
0.0013533,0.000680963,0.000896455,-8.77547e-05,0.00438624,0.00318017,0.00290554,0.00182389,-29,-33,10.7098,10.7098,-85.7036,-85.7036,0.904
0.00137092,0.00069271,0.000908126,-8.11904e-05,0.00442329,0.003099,0.00293008,0.00176295,-31,-34,10.7946,10.7946,-85.6096,-85.6096,0.908
0.00138869,0.000704802,0.000919896,-7.46261e-05,0.00446048,0.00307368,0.00295471,0.00172233,-31,-35,10.8846,10.8846,-85.5119,-85.5119,0.912
0.00140661,0.00071793,0.000931764,-6.80617e-05,0.00449781,0.00314318,0.00297944,0.00169525,-31,-36,10.9773,10.9773,-85.4112,-85.4112,0.916
0.00142467,0.000731059,0.000943731,-6.11519e-05,0.00453527,0.00318951,0.00300426,0.00170598,-31,-36,11.0689,11.0689,-85.3082,-85.3082,0.92
0.00144289,0.000744533,0.000955798,-5.38966e-05,0.00457288,0.00324918,0.00302917,0.00174193,-31,-36,11.1604,11.1604,-85.2044,-85.2044,0.924
0.00146125,0.000758698,0.000967965,-4.59503e-05,0.00461062,0.00334655,0.00305417,0.00182348,-31,-36,11.251,11.251,-85.1009,-85.1009,0.928
0.00147977,0.000771482,0.000980232,-3.7313e-05,0.0046485,0.0032963,0.00307926,0.00193543,-32,-35,11.3397,11.3397,-84.9998,-84.9998,0.932
0.00149844,0.000785301,0.000992599,-2.83303e-05,0.00468652,0.00334917,0.00310445,0.00203885,-32,-34,11.4322,11.4322,-84.9021,-84.9021,0.936
0.00151727,0.000799121,0.00100507,-2.00385e-05,0.00472468,0.00338442,0.00312972,0.00205021,-32,-35,11.5243,11.5243,-84.8073,-84.8073,0.94
0.00153624,0.000813632,0.00101764,-1.17467e-05,0.00476298,0.0034655,0.00315509,0.00205779,-32,-35,11.6166,11.6166,-84.7117,-84.7117,0.944
0.00155537,0.000828142,0.00103031,-3.8004e-06,0.00480141,0.00351955,0.00318055,0.00203405,-32,-36,11.7074,11.7074,-84.6151,-84.6151,0.948
0.00157465,0.00084438,0.00104308,4.49138e-06,0.00483998,0.00369954,0.0032061,0.00204702,-30,-36,11.7974,11.7974,-84.5162,-84.5162,0.952
0.00159409,0.000860273,0.00105596,1.20922e-05,0.00487869,0.00379074,0.00323174,0.00199808,-30,-37,11.8818,11.8818,-84.4164,-84.4164,0.956
0.00161368,0.000876511,0.00106894,2.0384e-05,0.00491753,0.00388034,0.00325747,0.00202303,-30,-37,11.9641,11.9641,-84.3134,-84.3134,0.96
0.00163343,0.000892749,0.00108202,2.90213e-05,0.00495651,0.00394006,0.0032833,0.00206846,-30,-37,12.0444,12.0444,-84.2102,-84.2102,0.964
0.00165333,0.000909678,0.0010952,3.8004e-05,0.00499563,0.00403746,0.00330921,0.00212754,-29,-37,12.124,12.124,-84.1077,-84.1077,0.968
0.00167339,0.000926262,0.00110849,4.69868e-05,0.00503489,0.00407361,0.00333521,0.00216692,-29,-37,12.2014,12.2014,-84.0063,-84.0063,0.972
0.00169361,0.000942154,0.00112188,5.6315e-05,0.00507428,0.00404012,0.00336131,0.00222197,-30,-37,12.2793,12.2793,-83.9053,-83.9053,0.976
0.00171399,0.000958047,0.00113538,6.63343e-05,0.0051138,0.0040178,0.00338749,0.00231625,-31,-36,12.3604,12.3604,-83.8054,-83.8054,0.98
0.00173452,0.00097463,0.00114898,7.77355e-05,0.00515347,0.0040605,0.00341376,0.00249427,-31,-35,12.4443,12.4443,-83.7086,-83.7086,0.984
0.00175522,0.00099225,0.00116269,8.94822e-05,0.00519326,0.00417533,0.00344012,0.00264174,-30,-34,12.528,12.528,-83.6179,-83.6179,0.988
0.00177607,0.00100987,0.0011765,0.000100883,0.0052332,0.00425189,0.00346658,0.00271126,-30,-33,12.6088,12.6088,-83.5321,-83.5321,0.992
0.00179708,0.00102784,0.00119042,0.000113321,0.00527327,0.00433172,0.00349312,0.00284398,-30,-32,12.6881,12.6881,-83.4482,-83.4482,0.996
0.00181826,0.00104615,0.00120445,0.000124722,0.00531347,0.00441373,0.00351975,0.00284609,-30,-33,12.7659,12.7659,-83.3683,-83.3683,1
0.00183959,0.00106411,0.00121858,0.000135087,0.00535381,0.00443962,0.00354647,0.00276112,-30,-34,12.8422,12.8422,-83.287,-83.287,1.004
0.00186109,0.00108208,0.00123282,0.000144761,0.00539428,0.00445687,0.00357328,0.00264689,-30,-35,12.9193,12.9193,-83.2007,-83.2007,1.008
0.00188275,0.00110108,0.00124717,0.000153398,0.00543489,0.00455475,0.00360018,0.00248437,-30,-37,12.9973,12.9973,-83.1081,-83.1081,1.012
0.00190457,0.00111939,0.00126162,0.00016169,0.00547563,0.00456242,0.00362717,0.00234723,-30,-39,13.0733,13.0733,-83.0071,-83.0071,1.016
0.00192655,0.00113839,0.00127619,0.000169982,0.0055165,0.00462511,0.00365424,0.0022558,-30,-41,13.1507,13.1507,-82.8991,-82.8991,1.02
0.0019487,0.00115705,0.00129086,0.000178273,0.00555751,0.00463812,0.00368141,0.00219485,-30,-42,13.2275,13.2275,-82.7858,-82.7858,1.024
0.00197101,0.00117674,0.00130564,0.000187256,0.00559865,0.00473316,0.00370866,0.0022118,-30,-42,13.3054,13.3054,-82.6687,-82.6687,1.028
0.00199349,0.00119644,0.00132053,0.00019693,0.00563993,0.00479652,0.003736,0.00228068,-30,-42,13.3812,13.3812,-82.5511,-82.5511,1.032
0.00201613,0.00121717,0.00133553,0.00020764,0.00568133,0.00492514,0.00376343,0.00241297,-29,-41,13.456,13.456,-82.4351,-82.4351,1.036
0.00203894,0.00123755,0.00135063,0.000218005,0.00572288,0.00498209,0.00379095,0.00247237,-29,-41,13.5274,13.5274,-82.3232,-82.3232,1.04
0.00206191,0.00125932,0.00136585,0.000229752,0.00576455,0.00513522,0.00381855,0.00262714,-28,-40,13.598,13.598,-82.2127,-82.2127,1.044
0.00208506,0.00128039,0.00138118,0.000241153,0.00580636,0.00517973,0.00384625,0.00270153,-28,-39,13.6641,13.6641,-82.1071,-82.1071,1.048
0.00210836,0.00130043,0.00139662,0.000251863,0.00584829,0.00512303,0.00387403,0.00269354,-29,-40,13.7306,13.7306,-82.0031,-82.0031,1.052
0.00213184,0.0013215,0.00141218,0.000262228,0.00589036,0.0051716,0.0039019,0.00265942,-29,-40,13.8011,13.8011,-81.8973,-81.8973,1.056
0.00215549,0.00134223,0.00142784,0.000271901,0.00593257,0.00517519,0.00392985,0.00257909,-30,-42,13.8716,13.8716,-81.7885,-81.7885,1.06
0.0021793,0.00136331,0.00144361,0.000283303,0.0059749,0.00520637,0.0039579,0.0026695,-30,-41,13.9438,13.9438,-81.6753,-81.6753,1.064
0.00220329,0.00138369,0.0014595,0.000294013,0.00601737,0.00516958,0.00398603,0.00267218,-31,-42,14.0169,14.0169,-81.5642,-81.5642,1.068
0.00222744,0.00140408,0.0014755,0.000307142,0.00605996,0.00514505,0.00401424,0.00287551,-32,-40,14.0934,14.0934,-81.4524,-81.4524,1.072
0.00225177,0.00142481,0.00149162,0.00032027,0.00610269,0.00515749,0.00404255,0.00301106,-32,-39,14.173,14.173,-81.3478,-81.3478,1.076
0.00227626,0.00144623,0.00150784,0.000333399,0.00614555,0.00522336,0.00407094,0.00310143,-32,-39,14.2538,14.2538,-81.2473,-81.2473,1.08
0.00230093,0.00146868,0.00152418,0.000345837,0.00618854,0.00535365,0.00409941,0.00310409,-31,-39,14.3336,14.3336,-81.1492,-81.1492,1.084
0.00232577,0.00149079,0.00154064,0.000357929,0.00623166,0.00541172,0.00412798,0.00307708,-31,-40,14.4099,14.4099,-81.0496,-81.0496,1.088
0.00235078,0.00151291,0.00155721,0.000368639,0.00627491,0.00545043,0.00415663,0.0029439,-31,-42,14.4859,14.4859,-80.9471,-80.9471,1.092
0.00237597,0.00153605,0.00157389,0.000379349,0.00631829,0.00556261,0.00418536,0.00285512,-31,-43,14.5619,14.5619,-80.8376,-80.8376,1.096
0.00240133,0.00155886,0.00159069,0.000389368,0.0063618,0.00560861,0.00421418,0.00273835,-31,-44,14.6353,14.6353,-80.7228,-80.7228,1.1
0.00242687,0.00158235,0.00160761,0.000399733,0.00640544,0.00569686,0.00424309,0.0026893,-30,-45,14.7086,14.7086,-80.6016,-80.6016,1.104
0.00245257,0.00160584,0.00162464,0.000411134,0.00644921,0.00575569,0.00427209,0.00274296,-30,-45,14.7802,14.7802,-80.4772,-80.4772,1.108
0.00247846,0.00162934,0.00164178,0.000423227,0.00649311,0.00579491,0.00430117,0.00283632,-31,-45,14.8513,14.8513,-80.3536,-80.3536,1.112
0.00250452,0.00165317,0.00165905,0.000436701,0.00653713,0.00584985,0.00433033,0.00301373,-31,-44,14.9227,14.9227,-80.2328,-80.2328,1.116
0.00253076,0.00167701,0.00167642,0.00045052,0.00658129,0.00588647,0.00435958,0.00316079,-31,-43,14.9937,14.9937,-80.118,-80.118,1.12
0.00255717,0.0017012,0.00169392,0.00046434,0.00662557,0.00593968,0.00438892,0.00325883,-31,-42,15.0652,15.0652,-80.0078,-80.0078,1.124
0.00258376,0.00172538,0.00171154,0.000477814,0.00666999,0.00597515,0.00441834,0.0032954,-31,-42,15.1364,15.1364,-79.9002,-79.9002,1.128
0.00261053,0.00174957,0.00172927,0.000491979,0.00671453,0.0059988,0.00444784,0.00337736,-31,-42,15.2082,15.2082,-79.7929,-79.7929,1.132
0.00263748,0.00177375,0.00174712,0.000505453,0.0067592,0.00601456,0.00447743,0.00337442,-32,-42,15.281,15.281,-79.6873,-79.6873,1.136
0.0026646,0.00179828,0.00176509,0.000521001,0.006804,0.00605386,0.00450711,0.0035452,-32,-41,15.3552,15.3552,-79.5807,-79.5807,1.14
0.00269191,0.0018235,0.00178318,0.000535511,0.00684892,0.00613765,0.00453686,0.00357269,-31,-41,15.4295,15.4295,-79.4795,-79.4795,1.144
0.0027194,0.00184907,0.00180138,0.000550713,0.00689397,0.00622229,0.00456671,0.00364859,-31,-41,15.5023,15.5023,-79.3782,-79.3782,1.148
0.00274706,0.00187498,0.00181971,0.000565569,0.00693915,0.00630751,0.00459664,0.00367041,-31,-41,15.5735,15.5735,-79.2786,-79.2786,1.152
0.00277491,0.00189916,0.00183816,0.000580425,0.00698446,0.00622037,0.00462665,0.00368495,-32,-42,15.6436,15.6436,-79.1784,-79.1784,1.156
0.00280294,0.00192404,0.00185672,0.000594245,0.00702989,0.00621986,0.00465674,0.00360827,-33,-43,15.7192,15.7192,-79.0771,-79.0771,1.16
0.00283115,0.00194926,0.00187541,0.000607719,0.00707545,0.00624831,0.00468692,0.00352836,-33,-44,15.7969,15.7969,-78.971,-78.971,1.164
0.00285954,0.00197414,0.00189422,0.000620157,0.00712114,0.00623849,0.00471719,0.00338871,-34,-46,15.8756,15.8756,-78.8598,-78.8598,1.168
0.00288812,0.00199798,0.00191315,0.000631903,0.00716695,0.00614557,0.00474754,0.00323803,-35,-48,15.9571,15.9571,-78.7411,-78.7411,1.172
0.00291688,0.00202147,0.0019322,0.000642268,0.00721289,0.00605483,0.00477797,0.00302242,-37,-50,16.0448,16.0448,-78.6141,-78.6141,1.176
0.00294582,0.00204462,0.00195137,0.000650905,0.00725896,0.00596554,0.00480848,0.00273472,-38,-54,16.1385,16.1385,-78.4761,-78.4761,1.18
0.00297495,0.00206673,0.00197067,0.000656779,0.00730515,0.00581965,0.00483908,0.00231259,-40,-58,16.2385,16.2385,-78.3236,-78.3236,1.184
0.00300426,0.00208677,0.00199008,0.000661961,0.00735146,0.00554964,0.00486976,0.00197359,-43,-62,16.3475,16.3475,-78.1515,-78.1515,1.188
0.00303376,0.00210473,0.00200963,0.000666107,0.0073979,0.00519689,0.00490052,0.00166122,-48,-66,16.4707,16.4707,-77.9631,-77.9631,1.192
0.00306345,0.00212132,0.00202929,0.000669907,0.00744447,0.00484656,0.00493137,0.00142418,-52,-69,16.6115,16.6115,-77.7596,-77.7596,1.196
0.00309332,0.00213755,0.00204908,0.000673708,0.00749116,0.00458421,0.0049623,0.00126615,-55,-71,16.7697,16.7697,-77.5443,-77.5443,1.2
0.00312338,0.00215276,0.00206899,0.000677163,0.00753798,0.00432294,0.00499331,0.00113201,-58,-73,16.9418,16.9418,-77.3202,-77.3202,1.204
0.00315362,0.00216727,0.00208902,0.000681308,0.00758492,0.00409118,0.0050244,0.00110017,-61,-74,17.1277,17.1277,-77.0886,-77.0886,1.208
0.00318405,0.00217936,0.00210918,0.0006858,0.00763198,0.00373514,0.00505558,0.00110773,-66,-74,17.3266,17.3266,-76.8537,-76.8537,1.212
0.00321468,0.00219041,0.00212947,0.000690982,0.00767917,0.0034114,0.00508684,0.00117035,-70,-75,17.5437,17.5437,-76.6172,-76.6172,1.216
0.00324549,0.00219974,0.00214988,0.00069651,0.00772648,0.00305162,0.00511818,0.00124089,-74,-75,17.7776,17.7776,-76.3813,-76.3813,1.22
0.00327649,0.00220734,0.00217041,0.000701692,0.00777392,0.00266781,0.0051496,0.00125912,-79,-75,18.0301,18.0301,-76.1462,-76.1462,1.224
0.00330768,0.00221425,0.00219107,0.000706875,0.00782148,0.00235436,0.00518111,0.00127128,-83,-76,18.302,18.302,-75.9097,-75.9097,1.228
0.00333906,0.00222047,0.00221186,0.000711366,0.00786916,0.00208781,0.00521269,0.0012218,-86,-77,18.5904,18.5904,-75.6716,-75.6716,1.232
0.00337063,0.00222531,0.00223278,0.000714476,0.00791696,0.00179495,0.00524436,0.00107365,-90,-79,18.8935,18.8935,-75.4288,-75.4288,1.236
0.0034024,0.00223118,0.00225382,0.000718276,0.00796489,0.00168608,0.00527611,0.00103247,-92,-80,19.212,19.212,-75.1779,-75.1779,1.24
0.00343435,0.00223636,0.00227499,0.00072104,0.00801294,0.00155592,0.00530794,0.00091864,-95,-82,19.5385,19.5385,-74.9229,-74.9229,1.244
0.0034665,0.00224155,0.00229628,0.000723458,0.00806112,0.00146914,0.00533985,0.000813963,-97,-84,19.8738,19.8738,-74.6608,-74.6608,1.248
0.00349884,0.00224638,0.0023177,0.000724495,0.00810941,0.0013825,0.00537184,0.000629015,-99,-86,20.2162,20.2162,-74.3918,-74.3918,1.252
0.00353138,0.00225226,0.00233926,0.000725877,0.00815783,0.00141111,0.00540391,0.000534507,-99,-88,20.5654,20.5654,-74.1128,-74.1128,1.256
0.0035641,0.00225778,0.00236094,0.000726913,0.00820637,0.0014014,0.00543607,0.000442711,-101,-90,20.9168,20.9168,-73.8275,-73.8275,1.26
0.00359703,0.00226262,0.00238274,0.00072795,0.00825503,0.00133734,0.0054683,0.000381513,-102,-91,21.2722,21.2722,-73.536,-73.536,1.264
0.00363014,0.00226711,0.00240468,0.000729677,0.00830382,0.00126584,0.00550062,0.000398297,-104,-92,21.6339,21.6339,-73.2398,-73.2398,1.268
0.00366346,0.00227091,0.00242675,0.000730368,0.00835272,0.00116059,0.00553301,0.000323113,-106,-94,22.0022,22.0022,-72.9417,-72.9417,1.272
0.00369697,0.00227471,0.00244895,0.000731405,0.00840175,0.00109043,0.00556549,0.000301781,-108,-95,22.3784,22.3784,-72.6381,-72.6381,1.276
0.00373067,0.00227851,0.00247127,0.000732787,0.00845089,0.00104365,0.00559804,0.000316351,-110,-95,22.7611,22.7611,-72.3313,-72.3313,1.28
0.00376457,0.00228231,0.00249373,0.000735205,0.00850016,0.00101247,0.00563068,0.000412437,-111,-95,23.1493,23.1493,-72.023,-72.023,1.284
0.00379867,0.00228577,0.00251632,0.000736242,0.00854955,0.000962888,0.00566339,0.000361331,-113,-97,23.5426,23.5426,-71.716,-71.716,1.288
0.00383297,0.00228991,0.00253904,0.00073866,0.00859905,0.000987417,0.00569619,0.000442424,-114,-97,23.9413,23.9413,-71.4047,-71.4047,1.292
0.00386747,0.00229475,0.00256189,0.000740042,0.00864868,0.00106135,0.00572906,0.000410113,-115,-98,24.3424,24.3424,-71.0942,-71.0942,1.296
0.00390216,0.00230063,0.00258487,0.00074246,0.00869843,0.00119701,0.00576202,0.000474945,-115,-98,24.7437,24.7437,-70.7802,-70.7802,1.3
0.00393705,0.0023065,0.00260798,0.000743842,0.0087483,0.00128745,0.00579505,0.000431794,-115,-99,25.1429,25.1429,-70.4662,-70.4662,1.304
0.00397215,0.00231237,0.00263123,0.000745915,0.00879828,0.00134775,0.00582816,0.000460608,-115,-100,25.5419,25.5419,-70.1481,-70.1481,1.308
0.00400744,0.00231859,0.00265461,0.000748334,0.00884839,0.00141674,0.00586135,0.000508609,-116,-100,25.9418,25.9418,-69.8289,-69.8289,1.312
0.00404293,0.0023255,0.00267812,0.000750752,0.00889862,0.00152031,0.00589462,0.000540609,-116,-101,26.3422,26.3422,-69.5092,-69.5092,1.316
0.00407863,0.00233103,0.00270177,0.000753171,0.00894896,0.00147419,0.00592797,0.000561942,-118,-102,26.7422,26.7422,-69.1884,-69.1884,1.32
0.00411453,0.00233621,0.00272555,0.000755589,0.00899942,0.00141466,0.0059614,0.000576165,-120,-102,27.1479,27.1479,-68.8661,-68.8661,1.324
0.00415062,0.00234036,0.00274946,0.000758353,0.00905,0.0012886,0.00599491,0.000614437,-122,-103,27.56,27.56,-68.542,-68.542,1.328
0.00418693,0.0023445,0.00277351,0.000761117,0.0091007,0.00120456,0.00602849,0.000639952,-124,-103,27.981,27.981,-68.217,-68.217,1.332
0.00422343,0.00234796,0.00279769,0.000763535,0.00915152,0.00109095,0.00606215,0.000628171,-127,-104,28.4095,28.4095,-67.8906,-67.8906,1.336
0.00426014,0.00235141,0.002822,0.000767336,0.00920246,0.00101521,0.0060959,0.000735481,-129,-104,28.8466,28.8466,-67.5615,-67.5615,1.34
0.00429705,0.00235452,0.00284645,0.0007701,0.00925351,0.000935923,0.00612971,0.000720648,-131,-105,29.2907,29.2907,-67.2341,-67.2341,1.344
0.00433417,0.00235694,0.00287104,0.000772864,0.00930468,0.000825485,0.00616361,0.000710759,-133,-106,29.7421,29.7421,-66.9037,-66.9037,1.348
0.00437149,0.00236074,0.00289576,0.000774591,0.00935597,0.000867024,0.00619759,0.000617794,-134,-108,30.2016,30.2016,-66.5701,-66.5701,1.352
0.00440901,0.00236385,0.00292062,0.000776664,0.00940738,0.000837134,0.00623164,0.000584608,-136,-109,30.6635,30.6635,-66.2302,-66.2302,1.356
0.00444675,0.002368,0.00294562,0.000779082,0.0094589,0.00090358,0.00626577,0.000591275,-136,-110,31.1302,31.1302,-65.8864,-65.8864,1.36
0.00448469,0.00237111,0.00297075,0.00078081,0.00951054,0.000861505,0.00629997,0.000538138,-138,-112,31.5982,31.5982,-65.5402,-65.5402,1.364
0.00452283,0.00237491,0.00299602,0.000783919,0.00956229,0.000891037,0.00633426,0.000617877,-139,-112,32.0718,32.0718,-65.1896,-65.1896,1.368
0.00456118,0.00237905,0.00302142,0.000786338,0.00961417,0.000939516,0.00636862,0.000613455,-140,-113,32.5479,32.5479,-64.8395,-64.8395,1.372
0.00459974,0.00238354,0.00304696,0.000789102,0.00966615,0.00100063,0.00640306,0.000639297,-141,-113,33.0258,33.0258,-64.4868,-64.4868,1.376
0.00463851,0.00238803,0.00307265,0.000791866,0.00971826,0.00104137,0.00643757,0.000656525,-142,-114,33.505,33.505,-64.1326,-64.1326,1.38
0.00467749,0.00239253,0.00309847,0.00079463,0.00977048,0.00106853,0.00647216,0.000668011,-143,-115,33.9864,33.9864,-63.7765,-63.7765,1.384
0.00471668,0.00239667,0.00312442,0.000796702,0.00982281,0.00105784,0.00650683,0.000618086,-144,-116,34.4708,34.4708,-63.4182,-63.4182,1.388
0.00475607,0.00240116,0.00315052,0.000799812,0.00987527,0.00107951,0.00654158,0.000671176,-146,-117,34.9594,34.9594,-63.0554,-63.0554,1.392
0.00479568,0.00240635,0.00317676,0.00080223,0.00992783,0.00115154,0.0065764,0.000648987,-146,-118,35.4509,35.4509,-62.692,-62.692,1.396
0.0048355,0.00241015,0.00320313,0.000806031,0.00998051,0.00108439,0.0066113,0.000749358,-148,-118,35.9436,35.9436,-62.3255,-62.3255,1.4
0.00487552,0.00241498,0.00322965,0.00080914,0.0100333,0.001126,0.00664627,0.00075869,-149,-119,36.443,36.443,-61.9603,-61.9603,1.404
0.00491576,0.00241947,0.0032563,0.00081225,0.0100862,0.00112495,0.00668132,0.000764912,-151,-120,36.9446,36.9446,-61.5929,-61.5929,1.408
0.00495621,0.00242327,0.0032831,0.000815359,0.0101392,0.00106667,0.00671644,0.00076906,-153,-121,37.4505,37.4505,-61.2231,-61.2231,1.412
0.00499688,0.00242707,0.00331003,0.000818814,0.0101924,0.00102781,0.00675164,0.000800616,-155,-121,37.9629,37.9629,-60.851,-60.851,1.416
0.00503775,0.00243053,0.00333711,0.000821923,0.0102456,0.000973117,0.00678692,0.000792862,-157,-122,38.4811,38.4811,-60.4775,-60.4775,1.42
0.00507884,0.00243364,0.00336433,0.000825033,0.010299,0.000907863,0.00682227,0.000787693,-159,-123,39.0057,39.0057,-60.1009,-60.1009,1.424
0.00512015,0.00243606,0.00339169,0.000828142,0.0103525,0.000806778,0.0068577,0.000784247,-161,-125,39.5374,39.5374,-59.7215,-59.7215,1.428
0.00516166,0.00243813,0.00341919,0.000831252,0.0104061,0.000710598,0.0068932,0.00078195,-163,-126,40.0776,40.0776,-59.3392,-59.3392,1.432
0.00520339,0.00244055,0.00344683,0.000834361,0.0104598,0.000675268,0.00692878,0.000780418,-165,-127,40.626,40.626,-58.9542,-58.9542,1.436
0.00524534,0.00244193,0.00347462,0.00083747,0.0105136,0.000565343,0.00696443,0.000779397,-168,-128,41.1803,41.1803,-58.5664,-58.5664,1.44
0.0052875,0.002444,0.00350255,0.000839889,0.0105675,0.000549641,0.00700016,0.000721135,-170,-129,41.7433,41.7433,-58.1757,-58.1757,1.444
0.00532988,0.00244608,0.00353062,0.000842998,0.0106216,0.000539173,0.00703596,0.000739875,-171,-130,42.3112,42.3112,-57.78,-57.78,1.448
0.00537248,0.00244919,0.00355884,0.000845071,0.0106757,0.000618567,0.00707183,0.000665995,-172,-132,42.8836,42.8836,-57.3821,-57.3821,1.452
0.00541529,0.0024516,0.0035872,0.000846799,0.01073,0.000613914,0.00710778,0.000587952,-174,-133,43.4571,43.4571,-56.9782,-56.9782,1.456
0.00545832,0.00245402,0.0036157,0.000848181,0.0107844,0.000610813,0.00714381,0.000507131,-175,-135,44.0351,44.0351,-56.5682,-56.5682,1.46
0.00550156,0.00245644,0.00364435,0.000850599,0.0108389,0.000608745,0.00717991,0.000539624,-177,-136,44.6176,44.6176,-56.1522,-56.1522,1.464
0.00554503,0.00245886,0.00367314,0.000852327,0.0108935,0.000607366,0.00721608,0.000503704,-178,-137,45.2044,45.2044,-55.7347,-55.7347,1.468
0.00558871,0.00246232,0.00370208,0.000853363,0.0109482,0.00069282,0.00725233,0.000422175,-179,-139,45.7954,45.7954,-55.3126,-55.3126,1.472
0.00563261,0.00246577,0.00373116,0.00085509,0.0110031,0.000749789,0.00728865,0.000425405,-180,-140,46.3872,46.3872,-54.8844,-54.8844,1.476
0.00567674,0.00246957,0.00376039,0.000856818,0.011058,0.00081656,0.00732504,0.000427558,-181,-141,46.9808,46.9808,-54.4535,-54.4535,1.48
0.00572108,0.00247303,0.00378976,0.000858891,0.011113,0.000832282,0.00736151,0.000457784,-182,-142,47.576,47.576,-54.0199,-54.0199,1.484
0.00576564,0.00247648,0.00381928,0.000860273,0.0111682,0.000842764,0.00739805,0.000420353,-184,-144,48.1749,48.1749,-53.5845,-53.5845,1.488
0.00581042,0.00247924,0.00384894,0.000862346,0.0112235,0.00079217,0.00743466,0.000452981,-186,-144,48.7779,48.7779,-53.1448,-53.1448,1.492
0.00585543,0.00248235,0.00387876,0.000864419,0.0112789,0.000787232,0.00747135,0.000474733,-188,-145,49.3874,49.3874,-52.7035,-52.7035,1.496
0.00590065,0.00248546,0.00390871,0.000867528,0.0113344,0.00078394,0.00750811,0.000575607,-189,-145,50.0015,50.0015,-52.2605,-52.2605,1.5
0.0059461,0.00248892,0.00393882,0.000870638,0.01139,0.000810536,0.00754494,0.000642856,-191,-146,50.62,50.62,-51.8189,-51.8189,1.504
0.00599177,0.00249237,0.00396907,0.000874092,0.0114457,0.000828266,0.00758185,0.00071648,-192,-146,51.2419,51.2419,-51.3772,-51.3772,1.508
0.00603767,0.00249583,0.00399948,0.000877893,0.0115015,0.000840087,0.00761883,0.000794354,-194,-147,51.8676,51.8676,-50.9358,-50.9358,1.512
0.00608379,0.00249963,0.00403002,0.000881693,0.0115574,0.000876758,0.00765588,0.000846269,-195,-147,52.497,52.497,-50.4948,-50.4948,1.516
0.00613013,0.00250308,0.00406072,0.000885494,0.0116135,0.000872415,0.007693,0.00088088,-197,-148,53.1296,53.1296,-50.053,-50.053,1.52
0.00617669,0.00250688,0.00409157,0.000888949,0.0116696,0.00089831,0.0077302,0.000875162,-198,-149,53.7667,53.7667,-49.6097,-49.6097,1.524
0.00622349,0.00251103,0.00412256,0.000892749,0.0117259,0.000944364,0.00776746,0.000900142,-199,-150,54.4071,54.4071,-49.1634,-49.1634,1.528
0.0062705,0.00251552,0.00415371,0.000894476,0.0117822,0.00100386,0.0078048,0.000744049,-200,-153,55.05,55.05,-48.7147,-48.7147,1.532
0.00631774,0.00252001,0.004185,0.00089724,0.0118387,0.00104352,0.00784221,0.00072636,-202,-154,55.6949,55.6949,-48.2567,-48.2567,1.536
0.00636521,0.0025245,0.00421645,0.000898968,0.0118953,0.00106996,0.0078797,0.000628195,-203,-156,56.3427,56.3427,-47.7948,-47.7948,1.54
0.00641291,0.0025283,0.00424804,0.000902077,0.011952,0.00103001,0.00791725,0.000677915,-205,-157,56.994,56.994,-47.3261,-47.3261,1.544
0.00646083,0.0025321,0.00427978,0.000905187,0.0120088,0.00100337,0.00795488,0.000711062,-207,-157,57.6516,57.6516,-46.8566,-46.8566,1.548
0.00650898,0.0025359,0.00431168,0.000907951,0.0120657,0.000985615,0.00799257,0.000704368,-209,-159,58.3149,58.3149,-46.3853,-46.3853,1.552
0.00655735,0.00253971,0.00434372,0.00091106,0.0121227,0.000973777,0.00803034,0.000728697,-211,-160,58.9836,58.9836,-45.9108,-45.9108,1.556
0.00660596,0.00254316,0.00437592,0.000913478,0.0121799,0.000937094,0.00806818,0.000687335,-213,-161,59.6574,59.6574,-45.4341,-45.4341,1.56
0.00665479,0.00254661,0.00440827,0.000915206,0.0122371,0.000912639,0.00810609,0.000602178,-215,-163,60.3375,60.3375,-44.9525,-44.9525,1.564
0.00670386,0.00254972,0.00444077,0.00091797,0.0122944,0.000867544,0.00814407,0.000631779,-217,-164,61.0233,61.0233,-44.4646,-44.4646,1.568
0.00675315,0.00255249,0.00447342,0.000920043,0.0123519,0.00080869,0.00818212,0.000593932,-219,-166,61.7158,61.7158,-43.9746,-43.9746,1.572
0.00680267,0.00255525,0.00450623,0.00092177,0.0124094,0.000769454,0.00822025,0.000539909,-221,-167,62.4154,62.4154,-43.4799,-43.4799,1.576
0.00685242,0.00255802,0.00453919,0.000923843,0.0124671,0.000743297,0.00825844,0.000532685,-224,-169,63.1215,63.1215,-42.9799,-42.9799,1.58
0.00690241,0.00256078,0.0045723,0.000926953,0.0125248,0.000725859,0.0082967,0.000614242,-225,-169,63.8334,63.8334,-42.4768,-42.4768,1.584
0.00695262,0.00256354,0.00460556,0.000929371,0.0125827,0.000714233,0.00833504,0.000611031,-227,-170,64.5509,64.5509,-41.9738,-41.9738,1.588
0.00700307,0.00256665,0.00463898,0.000932135,0.0126407,0.000735274,0.00837344,0.000637681,-229,-171,65.2735,65.2735,-41.4676,-41.4676,1.592
0.00705375,0.00256942,0.00467255,0.000934899,0.0126988,0.00072051,0.00841191,0.000655448,-231,-172,66.0001,66.0001,-40.9594,-40.9594,1.596
0.00710466,0.00257287,0.00470627,0.000937317,0.0127569,0.000768249,0.00845046,0.000638502,-232,-174,66.7321,66.7321,-40.4487,-40.4487,1.6
0.0071558,0.00257667,0.00474015,0.000939736,0.0128152,0.000828866,0.00848907,0.000627204,-234,-175,67.4667,67.4667,-39.9341,-39.9341,1.604
0.00720718,0.00258116,0.00477418,0.000941809,0.0128736,0.00092686,0.00852775,0.000590882,-234,-177,68.2034,68.2034,-39.4159,-39.4159,1.608
0.00725879,0.00258635,0.00480837,0.000943536,0.0129321,0.00104977,0.00856651,0.000537876,-235,-178,68.9407,68.9407,-38.8928,-38.8928,1.612
0.00731064,0.00259257,0.00484272,0.000944573,0.0129907,0.00121808,0.00860533,0.000444957,-235,-181,69.6773,69.6773,-38.3642,-38.3642,1.616
0.00736272,0.00259948,0.00487722,0.000945609,0.0130494,0.00138787,0.00864422,0.000383011,-235,-182,70.4115,70.4115,-37.8284,-37.8284,1.62
0.00741503,0.0026088,0.00491187,0.000947337,0.0131083,0.0017026,0.00868318,0.000399295,-234,-184,71.1427,71.1427,-37.287,-37.287,1.624
0.00746759,0.0026202,0.00494668,0.000948719,0.0131672,0.00208517,0.00872221,0.00038136,-232,-185,71.8648,71.8648,-36.743,-36.743,1.628
0.00752037,0.00263437,0.00498165,0.000950101,0.0132262,0.00257054,0.0087613,0.000369404,-229,-186,72.5748,72.5748,-36.1949,-36.1949,1.632
0.00757339,0.00265095,0.00501677,0.000951828,0.0132853,0.00309566,0.00880047,0.000390224,-226,-187,73.2683,73.2683,-35.6431,-35.6431,1.636
0.00762665,0.00266961,0.00505205,0.000953901,0.0133446,0.00361848,0.0088397,0.000432895,-222,-188,73.9436,73.9436,-35.0889,-35.0889,1.64
0.00768015,0.00269068,0.00508749,0.000955974,0.0134039,0.00416857,0.00887901,0.000461342,-219,-189,74.6007,74.6007,-34.5333,-34.5333,1.644
0.00773389,0.00271487,0.00512308,0.000958047,0.0134633,0.00479441,0.00891838,0.000480307,-214,-191,75.2382,75.2382,-33.9755,-33.9755,1.648
0.00778786,0.0027432,0.00515884,0.000960465,0.0135229,0.00555713,0.00895782,0.000521741,-208,-191,75.8525,75.8525,-33.4154,-33.4154,1.652
0.00784207,0.00277498,0.00519475,0.000963229,0.0135825,0.00635352,0.00899732,0.000578155,-202,-192,76.4378,76.4378,-32.8537,-32.8537,1.656
0.00789652,0.00281022,0.00523081,0.000966684,0.0136422,0.00717235,0.0090369,0.000673346,-195,-193,76.9926,76.9926,-32.2913,-32.2913,1.66
0.00795121,0.00285099,0.00526704,0.000970139,0.0137021,0.0081789,0.00907654,0.000736806,-187,-193,77.5153,77.5153,-31.7295,-31.7295,1.664
0.00800614,0.0028966,0.00530343,0.000973248,0.013762,0.009253,0.00911625,0.000750323,-178,-194,77.998,77.998,-31.1671,-31.1671,1.668
0.0080613,0.00294773,0.00533997,0.000977394,0.0138221,0.0104297,0.00915603,0.000845706,-167,-195,78.4374,78.4374,-30.6021,-30.6021,1.672
0.00811671,0.00300405,0.00537668,0.000980504,0.0138822,0.0116461,0.00919588,0.000822922,-157,-196,78.8291,78.8291,-30.0376,-30.0376,1.676
0.00817236,0.00306589,0.00541354,0.000984304,0.0139425,0.0129176,0.00923579,0.000865315,-145,-197,79.1711,79.1711,-29.469,-29.469,1.68
0.00822825,0.00313188,0.00545056,0.000988796,0.0140028,0.0141108,0.00927577,0.000951159,-134,-198,79.4613,79.4613,-28.899,-28.899,1.684
0.00828438,0.00320236,0.00548774,0.000992596,0.0140633,0.0152806,0.00931582,0.000950806,-124,-199,79.7025,79.7025,-28.3291,-28.3291,1.688
0.00834076,0.00327664,0.00552509,0.000997433,0.0141239,0.0163771,0.00935593,0.00103694,-114,-200,79.8958,79.8958,-27.7561,-27.7561,1.692
0.00839738,0.0033561,0.00556259,0.00100296,0.0141845,0.01754,0.00939612,0.00115195,-103,-200,80.0436,80.0436,-27.1837,-27.1837,1.696
0.00845423,0.00343867,0.00560026,0.00100745,0.0142453,0.0185743,0.00943636,0.00114225,-93,-201,80.1436,80.1436,-26.6124,-26.6124,1.7
0.00851134,0.00352401,0.00563808,0.00101333,0.0143061,0.0194943,0.00947668,0.00125095,-85,-201,80.201,80.201,-26.0378,-26.0378,1.704
0.00856868,0.00361107,0.00567607,0.00101885,0.0143671,0.0202515,0.00951706,0.00129462,-78,-202,80.2208,80.2208,-25.4644,-25.4644,1.708
0.00862627,0.00370228,0.00571422,0.00102404,0.0144282,0.0211018,0.00955751,0.00129494,-70,-204,80.209,80.209,-24.8893,-24.8893,1.712
0.00868411,0.00379418,0.00575253,0.00102853,0.0144893,0.0217262,0.00959802,0.00123758,-64,-206,80.1625,80.1625,-24.3108,-24.3108,1.716
0.00874219,0.00388643,0.005791,0.00103267,0.0145506,0.0221713,0.0096386,0.00117054,-60,-208,80.0908,80.0908,-23.7265,-23.7265,1.72
0.00880051,0.00398006,0.00582964,0.00103578,0.0146119,0.0225832,0.00967924,0.00103948,-56,-210,80.0011,80.0011,-23.1358,-23.1358,1.724
0.00885908,0.0040761,0.00586844,0.00103889,0.0146734,0.0230594,0.00971996,0.000952105,-51,-212,79.8945,79.8945,-22.5361,-22.5361,1.728
0.0089179,0.00417595,0.0059074,0.00104096,0.014735,0.0236935,0.00976073,0.000807482,-45,-215,79.7678,79.7678,-21.9292,-21.9292,1.732
0.00897696,0.00427131,0.00594652,0.00104269,0.0147966,0.023742,0.00980157,0.000682276,-45,-218,79.6164,79.6164,-21.3126,-21.3126,1.736
0.00903627,0.00436666,0.00598581,0.00104407,0.0148584,0.0237743,0.00984248,0.000570014,-44,-220,79.4638,79.4638,-20.6872,-20.6872,1.74
0.00909583,0.00446098,0.00602526,0.00104546,0.0149202,0.0237094,0.00988346,0.000495173,-45,-222,79.3111,79.3111,-20.0536,-20.0536,1.744
0.00915564,0.0045591,0.00606488,0.00104684,0.0149822,0.0239829,0.00992449,0.000445279,-42,-224,79.161,79.161,-19.4133,-19.4133,1.748
0.00921569,0.00465135,0.00610466,0.00104891,0.0150442,0.0236758,0.0099656,0.000469598,-46,-226,79.0017,79.0017,-18.7675,-18.7675,1.752
0.00927599,0.00475016,0.0061446,0.00105167,0.0151064,0.0240181,0.0100068,0.000543393,-42,-226,78.8547,78.8547,-18.1193,-18.1193,1.756
0.00933654,0.00484482,0.00618471,0.00105513,0.0151686,0.0239008,0.010048,0.000650171,-43,-227,78.6953,78.6953,-17.4708,-17.4708,1.76
0.00939734,0.00493983,0.00622499,0.00105893,0.015231,0.0238513,0.0100893,0.000750148,-44,-227,78.5416,78.5416,-16.8233,-16.8233,1.764
0.00945839,0.00503415,0.00626543,0.00106308,0.0152934,0.0237608,0.0101307,0.00084559,-45,-228,78.3912,78.3912,-16.1765,-16.1765,1.768
0.00951969,0.0051302,0.00630603,0.00106757,0.0153559,0.0238444,0.0101721,0.000938008,-44,-228,78.2452,78.2452,-15.5302,-15.5302,1.772
0.00958124,0.00522693,0.00634681,0.00107206,0.0154186,0.0239577,0.0102136,0.000999621,-43,-229,78.0964,78.0964,-14.8842,-14.8842,1.776
0.00964304,0.00532229,0.00638774,0.0010762,0.0154813,0.0239181,0.0102551,0.00101191,-44,-231,77.9443,77.9443,-14.2372,-14.2372,1.78
0.00970509,0.00541834,0.00642885,0.00108035,0.0155441,0.0239493,0.0102968,0.00102009,-43,-232,77.7947,77.7947,-13.5871,-13.5871,1.784
0.00976739,0.0055168,0.00647012,0.0010845,0.0156071,0.0241716,0.0103384,0.00102555,-41,-233,77.6442,77.6442,-12.9338,-12.9338,1.788
0.00982994,0.00561527,0.00651155,0.00108864,0.0156701,0.0243198,0.0103802,0.00102919,-40,-235,77.4853,77.4853,-12.2772,-12.2772,1.792
0.00989275,0.00571235,0.00655316,0.00109279,0.0157332,0.0243035,0.010422,0.00103162,-40,-236,77.3215,77.3215,-11.6172,-11.6172,1.796
0.00995581,0.00581047,0.00659493,0.00109693,0.0157964,0.0243789,0.0104639,0.00103324,-40,-238,77.1592,77.1592,-10.9536,-10.9536,1.8
0.0100191,0.00590859,0.00663687,0.00110143,0.0158597,0.0244292,0.0105058,0.00106311,-39,-239,76.9947,76.9947,-10.2866,-10.2866,1.804
0.0100827,0.00600602,0.00667898,0.00110626,0.0159231,0.0244052,0.0105478,0.00111181,-39,-240,76.8293,76.8293,-9.61733,-9.61733,1.808
0.0101465,0.00610345,0.00672125,0.00111041,0.0159866,0.0243892,0.0105899,0.0010867,-40,-242,76.6659,76.6659,-8.94632,-8.94632,1.812
0.0102106,0.00620364,0.0067637,0.00111455,0.0160502,0.0246088,0.010632,0.00106996,-38,-243,76.5036,76.5036,-8.27062,-8.27062,1.816
0.0102749,0.0063021,0.00680631,0.00111801,0.0161139,0.0246113,0.0106742,0.00100121,-38,-245,76.3335,76.3335,-7.59041,-7.59041,1.82
0.0103395,0.00639815,0.00684909,0.00112181,0.0161777,0.0244114,0.0107164,0.000984176,-40,-247,76.165,76.165,-6.90375,-6.90375,1.824
0.0104043,0.00649558,0.00689204,0.00112457,0.0162416,0.0243933,0.0107588,0.000886445,-40,-250,76.0057,76.0057,-6.21244,-6.21244,1.828
0.0104694,0.00659404,0.00693516,0.00112734,0.0163056,0.0244676,0.0108011,0.000821291,-39,-252,75.848,75.848,-5.51334,-5.51334,1.832
0.0105348,0.00669147,0.00697845,0.00112976,0.0163696,0.0244308,0.0108436,0.000749064,-40,-254,75.6885,75.6885,-4.80769,-4.80769,1.836
0.0106004,0.00678786,0.00702191,0.00113217,0.0164338,0.0243199,0.0108861,0.000700912,-41,-256,75.5321,75.5321,-4.09526,-4.09526,1.84
0.0106662,0.00688564,0.00706554,0.00113459,0.0164981,0.0243611,0.0109287,0.000668811,-41,-258,75.3811,75.3811,-3.37705,-3.37705,1.844
0.0107324,0.00698479,0.00710934,0.0011377,0.0165624,0.0245037,0.0109713,0.000704992,-39,-259,75.2293,75.2293,-2.65387,-2.65387,1.848
0.0107987,0.00708188,0.00715331,0.00114081,0.0166269,0.0244261,0.011014,0.000729113,-40,-261,75.0732,75.0732,-1.92841,-1.92841,1.852
0.0108654,0.00717861,0.00719745,0.00114392,0.0166914,0.0243455,0.0110567,0.000745194,-41,-262,74.9217,74.9217,-1.20015,-1.20015,1.856
0.0109323,0.00727639,0.00724176,0.00114703,0.016756,0.0243782,0.0110995,0.000755914,-41,-263,74.7745,74.7745,-0.468753,-0.468753,1.86
0.0109994,0.00737382,0.00728625,0.00115014,0.0168208,0.0243711,0.0111424,0.000763061,-41,-265,74.6274,74.6274,0.266014,0.266014,1.864
0.0110668,0.00747124,0.0073309,0.00115359,0.0168856,0.0243665,0.0111854,0.000796617,-41,-266,74.4818,74.4818,1.00422,1.00422,1.868
0.0111345,0.00756902,0.00737573,0.00115705,0.0169505,0.0243921,0.0112284,0.000818987,-41,-268,74.3377,74.3377,1.74487,1.74487,1.872
0.0112024,0.00766748,0.00742073,0.00116016,0.0170155,0.0244668,0.0112714,0.00080511,-41,-269,74.1936,74.1936,2.4885,2.4885,1.876
0.0112706,0.00776526,0.0074659,0.00116361,0.0170806,0.0244591,0.0113145,0.000824649,-41,-271,74.0478,74.0478,3.23648,3.23648,1.88
0.0113391,0.007862,0.00751125,0.00116672,0.0171458,0.0243675,0.0113577,0.000808884,-42,-273,73.904,73.904,3.9876,3.9876,1.884
0.0114078,0.0079615,0.00755676,0.00116983,0.0172111,0.0245368,0.011401,0.000798375,-41,-274,73.7647,73.7647,4.74324,4.74324,1.888
0.0114768,0.00805893,0.00760245,0.00117294,0.0172764,0.0244769,0.0114443,0.000791368,-41,-276,73.6201,73.6201,5.50322,5.50322,1.892
0.011546,0.00815601,0.00764832,0.00117674,0.0173419,0.0244082,0.0114876,0.000844279,-42,-277,73.4796,73.4796,6.26722,6.26722,1.896
0.0116155,0.00825309,0.00769435,0.0011802,0.0174075,0.0243624,0.0115311,0.000850762,-43,-279,73.3433,73.3433,7.03299,7.03299,1.9
0.0116853,0.00835156,0.00774057,0.00118469,0.0174731,0.024447,0.0115745,0.000941457,-42,-280,73.2101,73.2101,7.80214,7.80214,1.904
0.0117553,0.00845037,0.00778695,0.00118918,0.0175388,0.0245322,0.0116181,0.00100192,-42,-281,73.0746,73.0746,8.5714,8.5714,1.908
0.0118256,0.0085471,0.00783351,0.00119471,0.0176047,0.0244163,0.0116617,0.0011286,-43,-281,72.9375,72.9375,9.34178,9.34178,1.912
0.0118961,0.00864522,0.00788024,0.00120127,0.0176706,0.0244541,0.0117054,0.00129943,-43,-281,72.8065,72.8065,10.1105,10.1105,1.916
0.011967,0.00874403,0.00792715,0.00120887,0.0177366,0.024537,0.0117491,0.00149969,-42,-281,72.6751,72.6751,10.8757,10.8757,1.92
0.012038,0.00884112,0.00797424,0.00121786,0.0178027,0.0244482,0.0117929,0.00174835,-43,-280,72.5422,72.5422,11.6359,11.6359,1.924
0.0121094,0.00893958,0.0080215,0.00122753,0.0178689,0.0245042,0.0118367,0.00197172,-43,-279,72.4142,72.4142,12.3895,12.3895,1.928
0.012181,0.00903874,0.00806893,0.0012372,0.0179352,0.0245991,0.0118806,0.00212062,-42,-280,72.2852,72.2852,13.1374,13.1374,1.932
0.0122529,0.00913755,0.00811654,0.00124722,0.0180015,0.0246336,0.0119246,0.00224869,-42,-280,72.1538,72.1538,13.8828,13.8828,1.936
0.012325,0.00923601,0.00816433,0.00125759,0.018068,0.0246278,0.0119686,0.00236285,-42,-280,72.0226,72.0226,14.6265,14.6265,1.94
0.0123974,0.00933482,0.00821229,0.00126726,0.0181345,0.0246528,0.0120127,0.00238138,-42,-282,71.8931,71.8931,15.3693,15.3693,1.944
0.0124701,0.00943571,0.00826043,0.00127694,0.0182012,0.0248421,0.0120568,0.00239373,-41,-283,71.7636,71.7636,16.115,16.115,1.948
0.012543,0.00953521,0.00830874,0.00128592,0.0182679,0.0248532,0.012101,0.00234439,-41,-285,71.628,71.628,16.8642,16.8642,1.952
0.0126162,0.00963402,0.00835724,0.00129456,0.0183347,0.024803,0.0121453,0.0022827,-41,-288,71.4936,71.4936,17.6193,17.6193,1.956
0.0126897,0.0097349,0.00840591,0.00130285,0.0184016,0.0249423,0.0121896,0.00221278,-40,-290,71.3624,71.3624,18.3808,18.3808,1.96
0.0127634,0.00983682,0.00845475,0.00131045,0.0184686,0.0251215,0.012234,0.00210859,-39,-292,71.2267,71.2267,19.1493,19.1493,1.964
0.0128374,0.00993667,0.00850378,0.00131667,0.0185357,0.0250683,0.0122784,0.00192396,-40,-296,71.0855,71.0855,19.9263,19.9263,1.968
0.0129117,0.0100369,0.00855298,0.00132185,0.0186029,0.0250615,0.0123229,0.0017145,-40,-300,70.9481,70.9481,20.7152,20.7152,1.972
0.0129863,0.0101388,0.00860236,0.00132599,0.0186701,0.025201,0.0123675,0.00148849,-39,-304,70.8121,70.8121,21.517,21.517,1.976
0.0130611,0.0102397,0.00865192,0.00132841,0.0187375,0.0252076,0.0124121,0.00119387,-39,-308,70.672,70.672,22.3327,22.3327,1.98
0.0131362,0.0103392,0.00870166,0.00133014,0.0188049,0.0250969,0.0124567,0.000939865,-40,-312,70.5337,70.5337,23.165,23.165,1.984
0.0132115,0.0104407,0.00875158,0.00133118,0.0188724,0.0251958,0.0125015,0.00071295,-39,-316,70.4011,70.4011,24.0122,24.0122,1.988
0.0132871,0.010542,0.00880167,0.00133187,0.01894,0.0252329,0.0125463,0.000532882,-39,-320,70.2662,70.2662,24.8732,24.8732,1.992
0.013363,0.0106404,0.00885195,0.00133256,0.0190077,0.0250274,0.0125911,0.000412836,-42,-323,70.132,70.132,25.7459,25.7459,1.996
0.0134392,0.0107417,0.0089024,0.0013336,0.0190755,0.0251207,0.012636,0.000361597,-41,-325,70.0074,70.0074,26.6279,26.6279,2
0.0135156,0.0108429,0.00895303,0.00133498,0.0191434,0.0251828,0.012681,0.000356228,-41,-327,69.8807,69.8807,27.5161,27.5161,2.004
0.0135923,0.0109431,0.00900385,0.00133601,0.0192113,0.0251379,0.012726,0.000323858,-41,-329,69.7533,69.7533,28.409,28.409,2.008
0.0136693,0.0110429,0.00905484,0.00133774,0.0192794,0.0250792,0.012771,0.00035986,-42,-331,69.6296,69.6296,29.3074,29.3074,2.012
0.0137466,0.0111449,0.00910602,0.00133947,0.0193475,0.0252128,0.0128162,0.000383861,-41,-332,69.5097,69.5097,30.2085,30.2085,2.016
0.0138241,0.0112475,0.00915737,0.00134154,0.0194157,0.0253594,0.0128614,0.000428653,-40,-334,69.3857,69.3857,31.1129,31.1129,2.02
0.0139019,0.0113487,0.00920891,0.00134396,0.019484,0.025342,0.0129066,0.000487305,-40,-335,69.2576,69.2576,32.0197,32.0197,2.024
0.01398,0.0114492,0.00926062,0.00134742,0.0195524,0.0252728,0.0129519,0.000612779,-41,-336,69.1323,69.1323,32.9281,32.9281,2.028
0.0140583,0.0115508,0.00931252,0.00135087,0.0196208,0.0253131,0.0129973,0.000696429,-41,-337,69.0113,69.0113,33.8355,33.8355,2.032
0.0141369,0.0116517,0.0093646,0.00135502,0.0196894,0.0252823,0.0130427,0.000809777,-42,-338,68.8907,68.8907,34.7436,34.7436,2.036
0.0142158,0.011754,0.00941686,0.00135916,0.019758,0.025377,0.0130881,0.000885342,-41,-339,68.7728,68.7728,35.6513,35.6513,2.04
0.014295,0.0118562,0.00946931,0.00136296,0.0198268,0.0254401,0.0131337,0.000906928,-41,-341,68.6528,68.6528,36.5601,36.5601,2.044
0.0143745,0.0119581,0.00952193,0.00136711,0.0198956,0.0254534,0.0131792,0.00095011,-41,-342,68.532,68.532,37.4723,37.4723,2.048
0.0144542,0.012059,0.00957474,0.00137125,0.0199645,0.0253759,0.0132249,0.000978898,-42,-344,68.4128,68.4128,38.387,38.387,2.052
0.0145342,0.0121613,0.00962773,0.00137575,0.0200334,0.0254394,0.0132706,0.00102688,-42,-345,68.2984,68.2984,39.3046,39.3046,2.056
0.0146144,0.0122632,0.00968091,0.00137989,0.0201025,0.0254529,0.0133163,0.00103008,-42,-347,68.1833,68.1833,40.2247,40.2247,2.06
0.014695,0.0123648,0.00973426,0.00138438,0.0201717,0.0254331,0.0133621,0.001061,-42,-349,68.0696,68.0696,41.1489,41.1489,2.064
0.0147758,0.012466,0.0097878,0.00138887,0.0202409,0.0253912,0.013408,0.00108162,-43,-350,67.9587,67.9587,42.0761,42.0761,2.068
0.0148569,0.01257,0.00984153,0.00139406,0.0203102,0.0255935,0.0134539,0.00115294,-42,-351,67.8509,67.8509,43.0066,43.0066,2.072
0.0149383,0.0126747,0.00989543,0.00140028,0.0203796,0.025786,0.0134999,0.00128686,-40,-352,67.7363,67.7363,43.9382,43.9382,2.076
0.01502,0.0127766,0.00994953,0.00140684,0.0204491,0.025684,0.0135459,0.00140494,-41,-353,67.6162,67.6162,44.8684,44.8684,2.08
0.0151019,0.0128799,0.0100038,0.0014141,0.0205186,0.0257311,0.013592,0.00154123,-41,-353,67.5019,67.5019,45.7978,45.7978,2.084
0.0151841,0.0129839,0.0100583,0.00142135,0.0205883,0.0258202,0.0136381,0.0016321,-41,-354,67.3875,67.3875,46.7258,46.7258,2.088
0.0152666,0.0130879,0.0101129,0.00142999,0.020658,0.0258795,0.0136843,0.00180784,-40,-355,67.2712,67.2712,47.654,47.654,2.092
0.0153494,0.0131929,0.0101677,0.00143724,0.0207278,0.0260054,0.0137305,0.00180984,-39,-357,67.1542,67.1542,48.5794,48.5794,2.096
0.0154324,0.013299,0.0102228,0.00144415,0.0207977,0.0261758,0.0137768,0.00178238,-38,-359,67.0335,67.0335,49.509,49.509,2.1
0.0155158,0.0134044,0.010278,0.00145037,0.0208677,0.0262318,0.0138232,0.00170649,-38,-361,66.9077,66.9077,50.4443,50.4443,2.104
0.0155994,0.0135084,0.0103333,0.00145624,0.0209377,0.0261539,0.0138696,0.0016271,-39,-364,66.7819,66.7819,51.3872,51.3872,2.108
0.0156833,0.0136141,0.0103889,0.0014597,0.0210079,0.026246,0.0139161,0.00137265,-38,-368,66.6609,66.6609,52.3383,52.3383,2.112
0.0157674,0.0137222,0.0104447,0.00146212,0.0210781,0.0265089,0.0139626,0.00111663,-36,-373,66.5373,66.5373,53.3048,53.3048,2.116
0.0158519,0.0138276,0.0105006,0.00146454,0.0211484,0.0264538,0.0140091,0.000945959,-37,-377,66.4054,66.4054,54.2864,54.2864,2.12
0.0159366,0.0139302,0.0105567,0.00146592,0.0212188,0.0261868,0.0140558,0.000745803,-40,-380,66.2784,66.2784,55.2799,55.2799,2.124
0.0160216,0.0140373,0.0106131,0.00146765,0.0212893,0.026383,0.0141024,0.000641156,-38,-384,66.1635,66.1635,56.2862,56.2862,2.128
0.0161069,0.0141454,0.0106696,0.00146972,0.0213598,0.0266003,0.0141492,0.000600183,-37,-386,66.0421,66.0421,57.3014,57.3014,2.132
0.0161925,0.0142501,0.0107262,0.00147248,0.0214304,0.0264572,0.014196,0.00063045,-38,-388,65.9145,65.9145,58.3228,58.3228,2.136
0.0162784,0.0143538,0.0107831,0.0014749,0.0215011,0.0262754,0.0142428,0.000621836,-40,-390,65.7951,65.7951,59.3476,59.3476,2.14
0.0163645,0.0144591,0.0108402,0.00147697,0.0215719,0.0262982,0.0142897,0.000587303,-41,-392,65.6851,65.6851,60.3775,60.3775,2.144
0.0164509,0.0145642,0.0108974,0.00147939,0.0216428,0.0262845,0.0143366,0.000593072,-41,-394,65.5763,65.5763,61.4134,61.4134,2.148
0.0165377,0.0146713,0.0109549,0.00148181,0.0217137,0.0264482,0.0143836,0.000596918,-40,-396,65.4696,65.4696,62.4537,62.4537,2.152
0.0166247,0.014778,0.0110125,0.00148458,0.0217848,0.0265285,0.0144307,0.000628273,-39,-398,65.3583,65.3583,63.4984,63.4984,2.156
0.0167119,0.0148834,0.0110703,0.00148803,0.0218559,0.0264669,0.0144778,0.000706758,-40,-400,65.246,65.246,64.5463,64.5463,2.16
0.0167995,0.0149898,0.0111283,0.00149287,0.0219271,0.0265122,0.0145249,0.000874245,-40,-400,65.1382,65.1382,65.5953,65.5953,2.164
0.0168874,0.0150966,0.0111865,0.00149839,0.0219983,0.0265712,0.0145721,0.00104348,-40,-401,65.0305,65.0305,66.6417,66.6417,2.168
0.0169755,0.015202,0.0112449,0.00150461,0.0220697,0.0264954,0.0146194,0.00121389,-41,-401,64.9229,64.9229,67.6854,67.6854,2.172
0.0170639,0.015307,0.0113035,0.00151014,0.0221411,0.026416,0.0146667,0.00126992,-42,-402,64.8207,64.8207,68.7269,68.7269,2.176
0.0171526,0.0154137,0.0113622,0.00151705,0.0222126,0.0265071,0.0147141,0.00142243,-42,-403,64.7236,64.7236,69.7702,69.7702,2.18
0.0172416,0.0155208,0.0114212,0.00152362,0.0222842,0.0265966,0.0147615,0.00149531,-41,-404,64.6248,64.6248,70.8118,70.8118,2.184
0.0173309,0.0156266,0.0114803,0.00152949,0.0223558,0.0265411,0.014809,0.00148632,-42,-407,64.5249,64.5249,71.8552,71.8552,2.188
0.0174205,0.0157333,0.0115397,0.00153502,0.0224276,0.0265904,0.0148565,0.00145154,-42,-409,64.4292,64.4292,72.9036,72.9036,2.192
0.0175103,0.0158404,0.0115992,0.00154054,0.0224994,0.0266521,0.0149041,0.00142835,-42,-411,64.3336,64.3336,73.958,73.958,2.196
0.0176005,0.0159472,0.0116589,0.00154504,0.0225713,0.0266645,0.0149517,0.00132651,-42,-414,64.2377,64.2377,75.0184,75.0184,2.2
0.0176909,0.0160557,0.0117188,0.00154918,0.0226433,0.0268167,0.0149994,0.00122983,-41,-418,64.1432,64.1432,76.0877,76.0877,2.204
0.0177816,0.0161652,0.0117789,0.00155195,0.0227153,0.0270045,0.0150471,0.00105022,-40,-421,64.0442,64.0442,77.1661,77.1661,2.208
0.0178726,0.0162744,0.0118392,0.00155402,0.0227874,0.0271009,0.0150949,0.000872889,-39,-425,63.9396,63.9396,78.257,78.257,2.212
0.0179639,0.0163815,0.0118997,0.00155609,0.0228596,0.0269925,0.0151427,0.000754672,-41,-429,63.8338,63.8338,79.36,79.36,2.216
0.0180555,0.016491,0.0119603,0.00155782,0.0229319,0.0271217,0.0151906,0.000647069,-40,-432,63.7341,63.7341,80.4729,80.4729,2.22
0.0181474,0.0166005,0.0120212,0.00155955,0.0230043,0.0272079,0.0152385,0.000575334,-40,-435,63.6313,63.6313,81.5951,81.5951,2.224
0.0182395,0.0167083,0.0120822,0.00156093,0.0230767,0.0271213,0.0152865,0.00049872,-41,-438,63.5276,63.5276,82.7253,82.7253,2.228
0.018332,0.0168182,0.0121435,0.001563,0.0231492,0.0272364,0.0153345,0.000505225,-40,-440,63.4293,63.4293,83.8634,83.8634,2.232
0.0184247,0.0169291,0.0122049,0.00156507,0.0232218,0.0273995,0.0153826,0.000509562,-39,-442,63.3281,63.3281,85.0062,85.0062,2.236
0.0185177,0.0170375,0.0122665,0.00156749,0.0232945,0.0273067,0.0154307,0.000541245,-40,-444,63.223,63.223,86.1536,86.1536,2.24
0.0186111,0.0171478,0.0123284,0.00157026,0.0233672,0.0273888,0.0154789,0.000591157,-40,-446,63.1237,63.1237,87.3046,87.3046,2.244
0.0187047,0.0172569,0.0123904,0.00157233,0.02344,0.0273571,0.0155272,0.00056685,-41,-448,63.0235,63.0235,88.4585,88.4585,2.248
0.0187986,0.0173658,0.0124526,0.00157406,0.0235129,0.0273072,0.0155754,0.000521855,-42,-451,62.927,62.927,89.6185,89.6185,2.252
0.0188928,0.017476,0.012515,0.00157509,0.0235859,0.0273891,0.0156238,0.000434276,-41,-454,62.8347,62.8347,90.7856,90.7856,2.256
0.0189873,0.0175872,0.0125776,0.00157613,0.0236589,0.0275301,0.0156722,0.00037589,-40,-457,62.741,62.741,91.9612,91.9612,2.26
0.0190821,0.0176961,0.0126403,0.00157751,0.023732,0.0274225,0.0157206,0.000365757,-42,-460,62.6444,62.6444,93.1443,93.1443,2.264
0.0191771,0.0178056,0.0127033,0.00157924,0.0238052,0.0274084,0.0157691,0.000387793,-42,-462,62.5545,62.5545,94.3327,94.3327,2.268
0.0192725,0.0179168,0.0127665,0.00158166,0.0238785,0.027543,0.0158176,0.000460065,-42,-463,62.4672,62.4672,95.5251,95.5251,2.272
0.0193682,0.0180263,0.0128299,0.00158511,0.0239518,0.0274887,0.0158662,0.000594619,-43,-464,62.3771,62.3771,96.7192,96.7192,2.276
0.0194641,0.0181352,0.0128934,0.0015903,0.0240253,0.0273949,0.0159148,0.000828277,-44,-464,62.2919,62.2919,97.9123,97.9123,2.28
0.0195604,0.0182478,0.0129572,0.00159859,0.0240987,0.0276491,0.0159635,0.00124317,-42,-463,62.2121,62.2121,99.0998,99.0998,2.284
0.0196569,0.0183597,0.0130211,0.00160826,0.0241723,0.027761,0.0160122,0.00163492,-41,-461,62.1243,62.1243,100.274,100.274,2.288
0.0197537,0.0184727,0.0130853,0.00162035,0.0242459,0.027922,0.016061,0.00209763,-40,-459,62.0339,62.0339,101.437,101.437,2.292
0.0198509,0.0185847,0.0131496,0.00163245,0.0243197,0.0279429,0.0161098,0.0024061,-40,-458,61.9394,61.9394,102.585,102.585,2.296
0.0199483,0.0186969,0.0132142,0.0016473,0.0243934,0.0279857,0.0161587,0.00284208,-40,-456,61.8464,61.8464,103.724,103.724,2.3
0.020046,0.0188092,0.0132789,0.00166181,0.0244673,0.0280142,0.0162076,0.00310394,-41,-456,61.754,61.754,104.85,104.85,2.304
0.020144,0.0189236,0.0133438,0.00167667,0.0245412,0.0282059,0.0162566,0.0033073,-39,-456,61.6623,61.6623,105.969,105.969,2.308
0.0202423,0.0190373,0.0134089,0.00169291,0.0246152,0.0282761,0.0163056,0.00355804,-39,-456,61.5652,61.5652,107.084,107.084,2.312
0.020341,0.0191485,0.0134743,0.00170984,0.0246893,0.0281214,0.0163547,0.00378278,-41,-456,61.4682,61.4682,108.193,108.193,2.316
0.0204399,0.0192611,0.0135398,0.00172573,0.0247635,0.0281335,0.0164038,0.00384624,-41,-457,61.3798,61.3798,109.297,109.297,2.32
0.0205391,0.0193758,0.0136055,0.00174266,0.0248377,0.0283142,0.016453,0.00397491,-40,-458,61.2929,61.2929,110.403,110.403,2.324
0.0206386,0.0194874,0.0136714,0.00175855,0.024912,0.0281756,0.0165022,0.00397433,-42,-460,61.2017,61.2017,111.508,111.508,2.328
0.0207384,0.0195997,0.0137375,0.00177341,0.0249863,0.0281408,0.0165515,0.00388756,-43,-463,61.1187,61.1187,112.618,112.618,2.332
0.0208385,0.0197148,0.0138038,0.00178688,0.0250608,0.0283479,0.0166008,0.00371455,-41,-467,61.039,61.039,113.737,113.737,2.336
0.0209388,0.0198277,0.0138703,0.00180174,0.0251353,0.0283132,0.0166501,0.00371438,-42,-469,60.9536,60.9536,114.867,114.867,2.34
0.0210395,0.0199407,0.013937,0.00181694,0.0252099,0.0282901,0.0166995,0.00374305,-43,-471,60.8723,60.8723,116.001,116.001,2.344
0.0211405,0.0200551,0.0140039,0.00183248,0.0252845,0.0283899,0.016749,0.00379096,-42,-473,60.7941,60.7941,117.139,117.139,2.348
0.0212418,0.020167,0.014071,0.00184769,0.0253593,0.0282548,0.0167985,0.00379411,-44,-475,60.715,60.715,118.279,118.279,2.352
0.0213434,0.0202807,0.0141383,0.00186323,0.0254341,0.0283088,0.016848,0.003825,-44,-477,60.6437,60.6437,119.424,119.424,2.356
0.0214453,0.0203957,0.0142058,0.00187844,0.0255089,0.0284599,0.0168976,0.0038168,-43,-479,60.5724,60.5724,120.573,120.573,2.36
0.0215475,0.0205094,0.0142735,0.00189502,0.0255839,0.0284455,0.0169473,0.0039265,-44,-480,60.4977,60.4977,121.726,121.726,2.364
0.02165,0.0206224,0.0143414,0.00191229,0.0256589,0.0283783,0.016997,0.00405721,-45,-481,60.4265,60.4265,122.879,122.879,2.368
0.0217527,0.0207374,0.0144095,0.00192957,0.0257339,0.0285062,0.0170467,0.00414435,-44,-482,60.3602,60.3602,124.031,124.031,2.372
0.0218558,0.0208511,0.0144777,0.00194615,0.0258091,0.0284764,0.0170965,0.00414487,-45,-485,60.2915,60.2915,125.184,125.184,2.376
0.0219592,0.0209641,0.0145462,0.0019617,0.0258843,0.0283989,0.0171463,0.00405884,-46,-488,60.227,60.227,126.342,126.342,2.38
0.0220629,0.0210798,0.0146149,0.00197621,0.0259596,0.0285775,0.0171962,0.00391511,-45,-491,60.1678,60.1678,127.508,127.508,2.384
0.0221669,0.0211948,0.0146838,0.00199003,0.026035,0.0286391,0.0172461,0.00376171,-45,-495,60.1039,60.1039,128.686,128.686,2.388
0.0222712,0.0213089,0.0147529,0.0020035,0.0261104,0.0285937,0.0172961,0.00363065,-46,-499,60.0403,60.0403,129.874,129.874,2.392
0.0223758,0.0214232,0.0148222,0.00201905,0.0261859,0.0285923,0.0173461,0.00371603,-47,-500,59.9814,59.9814,131.073,131.073,2.396
0.0224807,0.0215386,0.0148917,0.00203563,0.0262615,0.0286777,0.0173961,0.00385932,-47,-501,59.9249,59.9249,132.272,132.272,2.4
0.0225859,0.0216537,0.0149613,0.00205429,0.0263371,0.0287058,0.0174462,0.00412759,-47,-501,59.8678,59.8678,133.469,133.469,2.404
0.0226914,0.0217711,0.0150312,0.00207295,0.0264128,0.0289261,0.0174964,0.00430643,-45,-501,59.8116,59.8116,134.66,134.66,2.408
0.0227972,0.0218879,0.0151013,0.00209091,0.0264886,0.0290154,0.0175466,0.00436808,-45,-503,59.749,59.749,135.849,135.849,2.412
0.0229033,0.0220036,0.0151716,0.00210957,0.0265644,0.0289886,0.0175968,0.00446677,-46,-504,59.6856,59.6856,137.039,137.039,2.416
0.0230097,0.0221218,0.0152421,0.0021303,0.0266403,0.0291722,0.0176471,0.0047053,-45,-504,59.6256,59.6256,138.229,138.229,2.42
0.0231164,0.0222396,0.0153128,0.00215379,0.0267163,0.0292658,0.0176974,0.00509465,-44,-502,59.5606,59.5606,139.414,139.414,2.424
0.0232234,0.0223571,0.0153837,0.00217625,0.0267923,0.0292995,0.0177478,0.00526784,-44,-503,59.4945,59.4945,140.586,140.586,2.428
0.0233307,0.0224749,0.0154548,0.00219698,0.0268685,0.0293507,0.0177982,0.00523935,-44,-505,59.4296,59.4296,141.757,141.757,2.432
0.0234384,0.0225948,0.0155261,0.0022184,0.0269446,0.0295576,0.0178487,0.00527794,-43,-507,59.3649,59.3649,142.933,142.933,2.436
0.0235463,0.0227119,0.0155975,0.00224016,0.0270209,0.0294652,0.0178992,0.00533245,-44,-509,59.2948,59.2948,144.112,144.112,2.44
0.0236545,0.0228318,0.0156692,0.00226228,0.0270972,0.0296339,0.0179497,0.00539759,-43,-511,59.2308,59.2308,145.294,145.294,2.444
0.0237631,0.0229503,0.0157411,0.00228335,0.0271736,0.0296312,0.0180003,0.00535464,-44,-513,59.1627,59.1627,146.477,146.477,2.448
0.0238719,0.0230691,0.0158132,0.00230373,0.02725,0.0296582,0.018051,0.00526842,-44,-516,59.0974,59.0974,147.667,147.667,2.452
0.0239811,0.0231901,0.0158856,0.00232343,0.0273266,0.029849,0.0181017,0.00515337,-43,-520,59.0333,59.0333,148.865,148.865,2.456
0.0240905,0.0233113,0.0159581,0.00234105,0.0274031,0.0300049,0.0181524,0.00490391,-42,-524,58.9638,58.9638,150.074,150.074,2.46
0.0242003,0.0234298,0.0160308,0.00235659,0.0274798,0.0298786,0.0182032,0.00456487,-44,-530,58.8912,58.8912,151.298,151.298,2.464
0.0243104,0.0235514,0.0161037,0.00237041,0.0275565,0.0300535,0.018254,0.00419488,-43,-536,58.8259,58.8259,152.541,152.541,2.468
0.0244208,0.023673,0.0161768,0.00238354,0.0276333,0.03017,0.0183049,0.00389064,-42,-541,58.7561,58.7561,153.805,153.805,2.472
0.0245314,0.0237936,0.0162501,0.00239494,0.0277101,0.0301614,0.0183558,0.00354386,-43,-547,58.6843,58.6843,155.087,155.087,2.476
0.0246424,0.0239152,0.0163236,0.00240496,0.0277871,0.030242,0.0184067,0.00319751,-42,-553,58.6155,58.6155,156.389,156.389,2.48
0.0247537,0.0240382,0.0163974,0.00241533,0.027864,0.0304109,0.0184577,0.0029954,-41,-557,58.5458,58.5458,157.71,157.71,2.484
0.0248653,0.0241585,0.0164713,0.00242604,0.0279411,0.0302932,0.0185087,0.00288945,-43,-561,58.4724,58.4724,159.045,159.045,2.488
0.0249773,0.0242818,0.0165454,0.00243709,0.0280182,0.0304738,0.0185598,0.00284761,-42,-564,58.406,58.406,160.39,160.39,2.492
0.0250895,0.0244034,0.0166198,0.00244919,0.0280954,0.0304503,0.0186109,0.00290609,-43,-566,58.3352,58.3352,161.741,161.741,2.496
0.025202,0.0245247,0.0166943,0.00246093,0.0281726,0.0304058,0.0186621,0.00291629,-44,-568,58.2684,58.2684,163.095,163.095,2.5
0.0253149,0.0246494,0.0167691,0.00247475,0.0282499,0.0306641,0.0187133,0.00309583,-42,-569,58.2054,58.2054,164.454,164.454,2.504
0.025428,0.02477,0.016844,0.00248926,0.0283273,0.0304907,0.0187646,0.0032731,-44,-570,58.1354,58.1354,165.809,165.809,2.508
0.0255415,0.024893,0.0169192,0.00250619,0.0284047,0.0305767,0.0188159,0.00359282,-44,-569,58.0749,58.0749,167.162,167.162,2.512
0.0256553,0.0250167,0.0169946,0.00252312,0.0284822,0.0306916,0.0188672,0.00380597,-43,-570,58.0136,58.0136,168.507,168.507,2.516
0.0257693,0.0251376,0.0170701,0.00253936,0.0285598,0.0305379,0.0189186,0.00389049,-45,-571,57.951,57.951,169.848,169.848,2.52
0.0258837,0.0252616,0.0171459,0.00255491,0.0286374,0.0306946,0.01897,0.00388925,-44,-574,57.897,57.897,171.191,171.191,2.524
0.0259984,0.025386,0.0172219,0.00256769,0.0287151,0.0308278,0.0190215,0.0036581,-44,-578,57.8392,57.8392,172.54,172.54,2.528
0.0261135,0.025509,0.0172981,0.00257805,0.0287929,0.0308014,0.019073,0.00330246,-45,-584,57.7791,57.7791,173.904,173.904,2.532
0.0262288,0.0256327,0.0173745,0.002586,0.0288707,0.0308414,0.0191245,0.00286383,-45,-591,57.7228,57.7228,175.289,175.289,2.536
0.0263444,0.0257574,0.0174511,0.00259326,0.0289486,0.0309545,0.0191761,0.00251383,-44,-597,57.6675,57.6675,176.698,176.698,2.54
0.0264604,0.0258818,0.0175279,0.00259982,0.0290265,0.031001,0.0192277,0.00222291,-44,-603,57.6105,57.6105,178.127,178.127,2.544
0.0265766,0.0260075,0.0176049,0.00260742,0.0291045,0.0311473,0.0192794,0.00211534,-44,-607,57.5541,57.5541,179.573,179.573,2.548
0.0266932,0.0261336,0.0176821,0.00261606,0.0291826,0.0312735,0.0193311,0.00213,-43,-609,57.4944,57.4944,181.029,181.029,2.552
0.0268101,0.0262584,0.0177596,0.00262608,0.0292607,0.0312425,0.0193829,0.00225494,-44,-611,57.4326,57.4326,182.49,182.49,2.556
0.0269273,0.0263845,0.0178372,0.00263575,0.0293389,0.031337,0.0194347,0.00230944,-44,-613,57.3747,57.3747,183.951,183.951,2.56
0.0270448,0.0265109,0.017915,0.00264508,0.0294172,0.0314288,0.0194865,0.00231698,-43,-615,57.3157,57.3157,185.415,185.415,2.564
0.0271626,0.026636,0.0179931,0.00265234,0.0294955,0.0313749,0.0195384,0.00214926,-44,-620,57.2562,57.2562,186.885,186.885,2.568
0.0272808,0.0267624,0.0180713,0.00265821,0.0295739,0.0314541,0.0195903,0.00192229,-44,-625,57.2015,57.2015,188.368,188.368,2.572
0.0273992,0.0268885,0.0181498,0.00266374,0.0296523,0.0314781,0.0196423,0.00174218,-45,-629,57.1465,57.1465,189.867,189.867,2.576
0.027518,0.0270136,0.0182285,0.00266788,0.0297308,0.0314077,0.0196943,0.00150694,-46,-634,57.0938,57.0938,191.378,191.378,2.58
0.0276371,0.0271394,0.0183074,0.00267065,0.0298094,0.0314184,0.0197463,0.00123496,-47,-640,57.047,57.047,192.906,192.906,2.584
0.0277565,0.0272641,0.0183865,0.00267306,0.029888,0.0313391,0.0197984,0.00102484,-48,-645,57.0029,57.0029,194.451,194.451,2.588
0.0278762,0.0273905,0.0184657,0.00267583,0.0299667,0.0314302,0.0198505,0.000913555,-48,-649,56.9649,56.9649,196.011,196.011,2.592
0.0279962,0.0275173,0.0185453,0.00267963,0.0300454,0.0315197,0.0199027,0.000925737,-48,-651,56.926,56.926,197.58,197.58,2.596
0.0281165,0.0276421,0.018625,0.00268481,0.0301242,0.0314067,0.0199549,0.00104902,-49,-653,56.8869,56.8869,199.155,199.155,2.6
0.0282372,0.0277682,0.0187049,0.00269103,0.0302031,0.0314465,0.0200072,0.00121758,-50,-654,56.8553,56.8553,200.73,200.73,2.604
0.0283582,0.0278932,0.018785,0.00269898,0.030282,0.0313866,0.0200594,0.00147391,-51,-655,56.8255,56.8255,202.304,202.304,2.608
0.0284795,0.0280179,0.0188654,0.00270969,0.030361,0.0313179,0.0201118,0.00187513,-52,-654,56.8014,56.8014,203.872,203.872,2.612
0.0286011,0.0281434,0.0189459,0.00272212,0.0304401,0.0313297,0.0201641,0.00228656,-53,-653,56.7832,56.7832,205.429,205.429,2.616
0.028723,0.0282691,0.0190267,0.00273802,0.0305192,0.0313664,0.0202165,0.00284876,-53,-650,56.7677,56.7677,206.973,206.973,2.62
0.0288452,0.0283921,0.0191077,0.00275564,0.0305984,0.0311605,0.020269,0.00336751,-56,-648,56.7545,56.7545,208.499,208.499,2.624
0.0289678,0.0285168,0.0191888,0.00277326,0.0306776,0.0311672,0.0203215,0.00371334,-57,-647,56.7528,56.7528,210.009,210.009,2.628
0.0290906,0.0286398,0.0192702,0.00279053,0.0307569,0.0310277,0.020374,0.00391511,-59,-648,56.7546,56.7546,211.509,211.509,2.632
0.0292138,0.0287628,0.0193518,0.00280677,0.0308362,0.0309347,0.0204265,0.00396325,-60,-650,56.7656,56.7656,213.007,213.007,2.636
0.0293373,0.0288875,0.0194336,0.00282335,0.0309156,0.0310167,0.0204791,0.00402413,-60,-652,56.7834,56.7834,214.509,214.509,2.64
0.0294611,0.0290095,0.0195157,0.00284166,0.0309951,0.030841,0.0205318,0.00420867,-63,-653,56.8019,56.8019,216.012,216.012,2.644
0.0295853,0.0291318,0.0195979,0.00285998,0.0310746,0.0307526,0.0205845,0.0043317,-65,-655,56.8311,56.8311,217.514,217.514,2.648
0.0297097,0.0292565,0.0196803,0.00287863,0.0311542,0.0308953,0.0206372,0.00444251,-64,-656,56.8668,56.8668,219.015,219.015,2.652
0.0298345,0.0293795,0.019763,0.00289625,0.0312339,0.0308464,0.0206899,0.00443001,-65,-659,56.9005,56.9005,220.518,220.518,2.656
0.0299596,0.0295039,0.0198459,0.0029118,0.0313136,0.030929,0.0207427,0.00424893,-65,-664,56.9393,56.9393,222.027,222.027,2.66
0.030085,0.02963,0.0199289,0.00292666,0.0313933,0.031128,0.0207956,0.00407063,-64,-668,56.9777,56.9777,223.549,223.549,2.664
0.0302108,0.0297558,0.0200122,0.00294151,0.0314731,0.0312319,0.0208484,0.00395176,-64,-672,57.0112,57.0112,225.084,225.084,2.668
0.0303368,0.0298815,0.0200957,0.00295775,0.031553,0.0313012,0.0209014,0.00398768,-64,-675,57.0438,57.0438,226.629,226.629,2.672
0.0304632,0.0300083,0.0201794,0.00297571,0.0316329,0.0314337,0.0209543,0.00415558,-64,-676,57.0767,57.0767,228.178,228.178,2.676
0.0305899,0.0301351,0.0202634,0.00299506,0.0317129,0.0315221,0.0210073,0.00438268,-64,-676,57.1074,57.1074,229.725,229.725,2.68
0.0307169,0.0302647,0.0203475,0.00301476,0.031793,0.0318113,0.0210603,0.00456287,-62,-677,57.1372,57.1372,231.268,231.268,2.684
0.0308442,0.0303939,0.0204318,0.00303652,0.0318731,0.0319754,0.0211134,0.00485574,-61,-677,57.1583,57.1583,232.808,232.808,2.688
0.0309719,0.0305221,0.0205164,0.00305898,0.0319532,0.0319983,0.0211665,0.00510857,-61,-678,57.1761,57.1761,234.342,234.342,2.692
0.0310998,0.030653,0.0206012,0.00308144,0.0320335,0.032244,0.0212196,0.00527712,-60,-679,57.1956,57.1956,235.87,235.87,2.696
0.0312281,0.0307822,0.0206862,0.00310596,0.0321137,0.0322638,0.0212728,0.00556224,-60,-679,57.2087,57.2087,237.395,237.395,2.7
0.0313568,0.0309114,0.0207714,0.00313084,0.0321941,0.032277,0.021326,0.00578111,-61,-679,57.2243,57.2243,238.914,238.914,2.704
0.0314857,0.0310413,0.0208568,0.00315572,0.0322744,0.0323434,0.0213792,0.00592702,-61,-681,57.2425,57.2425,240.43,240.43,2.708
0.0316149,0.0311685,0.0209424,0.00317921,0.0323549,0.0321573,0.0214325,0.00590913,-64,-683,57.2621,57.2621,241.944,241.944,2.712
0.0317445,0.0312963,0.0210282,0.00320098,0.0324354,0.0320909,0.0214859,0.00575325,-65,-688,57.2929,57.2929,243.465,243.465,2.716
0.0318744,0.0314248,0.0211143,0.0032217,0.0325159,0.0321041,0.0215392,0.00556295,-66,-692,57.3297,57.3297,244.999,244.999,2.72
0.0320047,0.031552,0.0212005,0.00324278,0.0325965,0.0319978,0.0215926,0.00546488,-68,-696,57.3699,57.3699,246.545,246.545,2.724
0.0321352,0.0316805,0.021287,0.00326144,0.0326772,0.0320421,0.021646,0.00519796,-68,-701,57.4178,57.4178,248.102,248.102,2.728
0.0322661,0.0318076,0.0213737,0.00327837,0.0327579,0.0319565,0.0216995,0.00487606,-70,-707,57.4677,57.4677,249.675,249.675,2.732
0.0323973,0.0319348,0.0214606,0.00329253,0.0328387,0.0318994,0.021753,0.00443114,-71,-714,57.5248,57.5248,251.269,251.269,2.736
0.0325288,0.0320623,0.0215477,0.00330531,0.0329195,0.0318901,0.0218066,0.00401936,-72,-721,57.5879,57.5879,252.887,252.887,2.74
0.0326606,0.0321866,0.0216351,0.00331948,0.0330004,0.0316248,0.0218601,0.00386,-76,-726,57.6559,57.6559,254.527,254.527,2.744
0.0327928,0.0323096,0.0217226,0.00333606,0.0330814,0.0313328,0.0219138,0.0039553,-80,-728,57.739,57.739,256.179,256.179,2.748
0.0329253,0.032434,0.0218104,0.00335645,0.0331623,0.0312532,0.0219674,0.00433553,-81,-727,57.838,57.838,257.833,257.833,2.752
0.0330581,0.0325546,0.0218983,0.00337787,0.0332434,0.0308835,0.0220211,0.00467539,-86,-727,57.9451,57.9451,259.475,259.475,2.756
0.0331912,0.0326734,0.0219865,0.00339756,0.0333245,0.0304931,0.0220748,0.00475801,-91,-729,58.0721,58.0721,261.11,261.11,2.76
0.0333247,0.0327913,0.0220749,0.00341656,0.0334057,0.0301464,0.0221286,0.00475551,-95,-732,58.2199,58.2199,262.747,262.747,2.764
0.0334585,0.032906,0.0221636,0.00343487,0.0334869,0.0296562,0.0221824,0.00469626,-101,-735,58.3872,58.3872,264.389,264.389,2.768
0.0335926,0.0330186,0.0222524,0.0034556,0.0335681,0.0291566,0.0222362,0.00485829,-107,-737,58.5799,58.5799,266.04,266.04,2.772
0.033727,0.0331302,0.0223415,0.00347806,0.0336494,0.0287372,0.0222901,0.00511027,-112,-737,58.7983,58.7983,267.688,267.688,2.776
0.0338618,0.0332373,0.0224307,0.00349948,0.0337308,0.0280833,0.022344,0.00519189,-120,-739,59.0399,59.0399,269.333,269.333,2.78
0.0339969,0.0333399,0.0225202,0.00352228,0.0338122,0.0272731,0.0223979,0.00536146,-129,-741,59.3149,59.3149,270.978,270.978,2.784
0.0341323,0.0334415,0.0226099,0.00354543,0.0338937,0.0266466,0.0224519,0.0055033,-137,-742,59.629,59.629,272.623,272.623,2.788
0.034268,0.0335382,0.0226998,0.00357307,0.0339752,0.0258259,0.0225059,0.00597214,-146,-740,59.9756,59.9756,274.266,274.266,2.792
0.0344041,0.0336298,0.02279,0.00360382,0.0340568,0.0248468,0.0225599,0.00654382,-158,-738,60.3633,60.3633,275.894,275.894,2.796
0.0345405,0.0337192,0.0228803,0.00363595,0.0341385,0.0240214,0.022614,0.0070401,-167,-736,60.798,60.798,277.503,277.503,2.8
0.0346772,0.0338049,0.0229709,0.00366946,0.0342201,0.0231544,0.0226681,0.00748612,-177,-734,61.274,61.274,279.096,279.096,2.804
0.0348142,0.0338858,0.0230617,0.00370401,0.0343019,0.0221734,0.0227223,0.00786984,-189,-733,61.7934,61.7934,280.676,280.676,2.808
0.0349516,0.0339607,0.0231526,0.00373925,0.0343837,0.0210299,0.0227764,0.00818323,-202,-733,62.3616,62.3616,282.244,282.244,2.812
0.0350893,0.0340323,0.0232439,0.00377449,0.0344655,0.0199796,0.0228307,0.00839216,-214,-734,62.9849,62.9849,283.805,283.805,2.816
0.0352273,0.0340993,0.0233353,0.00380869,0.0345474,0.0189052,0.0228849,0.00844508,-227,-736,63.66,63.66,285.362,285.362,2.82
0.0353657,0.0341639,0.0234269,0.00384255,0.0346294,0.0179874,0.0229392,0.00845156,-238,-738,64.3876,64.3876,286.922,286.922,2.824
0.0355044,0.0342306,0.0235188,0.00387365,0.0347113,0.0175482,0.0229935,0.00822556,-245,-743,65.1601,65.1601,288.488,288.488,2.828
0.0356434,0.0343021,0.0236109,0.00390474,0.0347934,0.0176585,0.0230479,0.00807489,-246,-748,65.9567,65.9567,290.069,290.069,2.832
0.0357827,0.0343777,0.0237032,0.00393583,0.0348755,0.0180776,0.0231022,0.00797444,-244,-751,66.7545,66.7545,291.66,291.66,2.836
0.0359224,0.0344607,0.0237957,0.00396969,0.0349576,0.0189615,0.0231567,0.00813781,-238,-753,67.5395,67.5395,293.261,293.261,2.84
0.0360624,0.0345529,0.0238884,0.00400321,0.0350398,0.0203282,0.0232111,0.00821792,-227,-755,68.2916,68.2916,294.86,294.86,2.844
0.0362027,0.0346503,0.0239814,0.00403257,0.0351221,0.0216712,0.0232656,0.00792584,-216,-760,68.9911,68.9911,296.462,296.462,2.848
0.0363433,0.0347561,0.0240746,0.00406298,0.0352044,0.0232575,0.0233201,0.0078175,-202,-764,69.638,69.638,298.081,298.081,2.852
0.0364843,0.0348711,0.024168,0.00409234,0.0352867,0.0250924,0.0233747,0.00765889,-186,-768,70.2215,70.2215,299.711,299.711,2.856
0.0366256,0.0349938,0.0242616,0.00411964,0.0353692,0.026949,0.0234292,0.00738041,-170,-774,70.7312,70.7312,301.353,301.353,2.86
0.0367673,0.0351209,0.0243554,0.00414797,0.0354516,0.0285611,0.0234839,0.00728113,-156,-778,71.1666,71.1666,303.011,303.011,2.864
0.0369092,0.035256,0.0244494,0.00417768,0.0355341,0.030298,0.0235385,0.00733011,-140,-780,71.5369,71.5369,304.679,304.679,2.868
0.0370515,0.0353938,0.0245437,0.00420946,0.0356167,0.0316862,0.0235932,0.0075355,-128,-781,71.8378,71.8378,306.35,306.35,2.872
0.0371942,0.0355338,0.0246382,0.00424159,0.0356993,0.0327845,0.0236479,0.00770122,-118,-782,72.084,72.084,308.018,308.018,2.876
0.0373371,0.0356764,0.0247329,0.00427683,0.0357819,0.033747,0.0237027,0.00807082,-110,-782,72.2872,72.2872,309.683,309.683,2.88
0.0374804,0.0358178,0.0248278,0.00431311,0.0358646,0.0342735,0.0237574,0.0084036,-106,-781,72.4542,72.4542,311.338,311.338,2.884
0.0376241,0.0359646,0.0249229,0.00434939,0.0359473,0.0350851,0.0238123,0.00862544,-99,-782,72.6013,72.6013,312.984,312.984,2.888
0.037768,0.0361083,0.0250183,0.00438394,0.0360301,0.0353671,0.0238671,0.00862939,-97,-785,72.7188,72.7188,314.627,314.627,2.892
0.0379123,0.0362524,0.0251139,0.00441641,0.036113,0.0355839,0.023922,0.00845927,-96,-789,72.8279,72.8279,316.275,316.275,2.896
0.0380569,0.0363982,0.0252097,0.0044482,0.0361959,0.0358724,0.0239769,0.00828828,-94,-794,72.9311,72.9311,317.936,317.936,2.9
0.0382019,0.0365409,0.0253057,0.00447964,0.0362788,0.0358056,0.0240318,0.00814549,-96,-798,73.0265,73.0265,319.61,319.61,2.904
0.0383471,0.036688,0.0254019,0.00451073,0.0363618,0.0361353,0.0240868,0.00802151,-93,-802,73.1272,73.1272,321.295,321.295,2.908
0.0384928,0.0368345,0.0254984,0.00454459,0.0364448,0.0362976,0.0241418,0.00816919,-93,-804,73.2178,73.2178,322.99,322.99,2.912
0.0386387,0.0369838,0.0255951,0.00457914,0.0365279,0.0366361,0.0241968,0.00832522,-90,-805,73.3044,73.3044,324.684,324.684,2.916
0.038785,0.037133,0.025692,0.00461369,0.0366111,0.0368617,0.0242519,0.00842924,-89,-807,73.3803,73.3803,326.377,326.377,2.92
0.0389316,0.037283,0.0257891,0.00464996,0.0366942,0.0370697,0.024307,0.00864254,-88,-808,73.45,73.45,328.07,328.07,2.924
0.0390785,0.0374364,0.0258864,0.0046897,0.0367775,0.0374963,0.0243621,0.00907265,-84,-807,73.5135,73.5135,329.759,329.759,2.928
0.0392258,0.0375884,0.025984,0.00472977,0.0368607,0.0376656,0.0244173,0.00938818,-83,-806,73.5628,73.5628,331.436,331.436,2.932
0.0393734,0.0377446,0.0260818,0.00477227,0.0369441,0.0381239,0.0244725,0.00980007,-80,-805,73.6073,73.6073,333.104,333.104,2.936
0.0395214,0.0379,0.0261798,0.00481718,0.0370274,0.0383718,0.0245277,0.0102762,-78,-804,73.6359,73.6359,334.759,334.759,2.94
0.0396696,0.0380555,0.026278,0.00486106,0.0371109,0.0385371,0.024583,0.0105072,-77,-804,73.6575,73.6575,336.399,336.399,2.944
0.0398183,0.0382141,0.0263764,0.00490563,0.0371943,0.0389065,0.0246383,0.0107189,-74,-805,73.6745,73.6745,338.035,338.035,2.948
0.0399672,0.0383727,0.0264751,0.00494881,0.0372778,0.0391527,0.0246936,0.0107448,-73,-807,73.6792,73.6792,339.668,339.668,2.952
0.0401165,0.038533,0.026574,0.00499096,0.0373614,0.0394608,0.0247489,0.0106757,-70,-811,73.6762,73.6762,341.304,341.304,2.956
0.0402661,0.0386936,0.0266731,0.00503311,0.037445,0.039695,0.0248043,0.0106296,-69,-814,73.6634,73.6634,342.949,342.949,2.96
0.040416,0.0388563,0.0267724,0.00507492,0.0375286,0.0400238,0.0248597,0.0105701,-66,-817,73.6433,73.6433,344.6,344.6,2.964
0.0405663,0.0390167,0.026872,0.00511741,0.0376123,0.0400415,0.0249152,0.010588,-67,-820,73.613,73.613,346.26,346.26,2.968
0.0407169,0.039179,0.0269717,0.0051606,0.037696,0.0402261,0.0249706,0.0106575,-66,-822,73.5845,73.5845,347.923,347.923,2.972
0.0408679,0.0393397,0.0270717,0.00520344,0.0377798,0.0402052,0.0250261,0.0106751,-67,-825,73.5518,73.5518,349.589,349.589,2.976
