peachynonah/Fire_monitor_KIRO_CDSL/csv_datas/trial12/cdsl_data_t12_8_d.csv
joint1_pos_desired, joint1_pos, joint2_pos_desired, joint2_pos, joint1_vel_desired, joint1_vel_filtered, joint2_vel_desired, joint2_vel_filtered, target_torque_joint1, target_torque_joint2, estimated_disturbance_joint1, saturated_DOB_joint1, estimated_disturbance_joint2, saturated_DOB_joint2, current_time
0.731,0.730354,0.719,0.717479,-3.50599e-07,0,-3.44844e-07,0,-3,-86,0,0,17.3721,0.1,0.004
0.731,0.730354,0.719,0.717478,-1.40128e-06,0,-1.37827e-06,-5.75818e-05,-3,-86,-0.00316895,-0.00316895,17.2827,0.1,0.008
0.731,0.730354,0.719,0.717478,-3.15035e-06,0,-3.09863e-06,-3.83879e-05,-3,-86,-0.00633158,-0.00633158,17.1931,0.1,0.012
0.731,0.730354,0.719,0.717481,-5.59613e-06,0,-5.50426e-06,0.000233526,-3,-83,-0.00948385,-0.00948385,17.1043,0.1,0.016
0.731,0.730354,0.719,0.71749,-8.73695e-06,0,-8.59352e-06,0.000933039,-3,-77,-0.0126217,-0.0126217,17.0188,0.1,0.02
0.731,0.730354,0.719,0.717505,-1.25711e-05,0,-1.23648e-05,0.00183124,-3,-68,-0.0157411,-0.0157411,16.9409,0.1,0.024
0.731,0.730354,0.719,0.717524,-1.7097e-05,0,-1.68163e-05,0.00283312,-3,-58,-0.018838,-0.018838,16.8724,0.1,0.028
0.731,0.730354,0.719,0.717548,-2.23128e-05,0,-2.19465e-05,0.00390411,-3,-47,-0.0219082,-0.0219082,16.8143,0.1,0.032
0.731,0.730354,0.719,0.717575,-2.8217e-05,0,-2.77538e-05,0.00481964,-3,-38,-0.0249478,-0.0249478,16.7673,0.1,0.036
0.731,0.730354,0.719,0.717604,-3.48079e-05,0,-3.42365e-05,0.00563153,-2,-30,-0.0279526,-0.0279526,16.7298,0.1,0.04
0.730999,0.730354,0.718999,0.717632,-4.20837e-05,0,-4.13928e-05,0.00611521,-2,-25,-0.0309187,-0.0309187,16.7006,0.1,0.044
0.730999,0.730354,0.718999,0.71766,-5.00428e-05,0,-4.92213e-05,0.00640887,-2,-22,-0.0338418,-0.0338418,16.6765,0.1,0.048
0.730999,0.730354,0.718999,0.717687,-5.86836e-05,0,-5.77203e-05,0.00646069,-2,-21,-0.0367181,-0.0367181,16.6557,0.1,0.052
0.730999,0.730354,0.718999,0.717713,-6.80044e-05,0,-6.6888e-05,0.00652403,-2,-21,-0.0395433,-0.0395433,16.6357,0.1,0.056
0.730998,0.730354,0.718998,0.717737,-7.80035e-05,0,-7.6723e-05,0.00633593,-2,-22,-0.0423136,-0.0423136,16.6167,0.1,0.06
0.730998,0.730354,0.718998,0.717761,-8.86792e-05,0,-8.72234e-05,0.00618173,-2,-23,-0.0450247,-0.0450247,16.5962,0.1,0.064
0.730998,0.730354,0.718998,0.717783,-0.00010003,0,-9.83878e-05,0.00596378,-2,-25,-0.0476727,-0.0476727,16.5746,0.1,0.068
0.730997,0.730354,0.718997,0.717804,-0.000112054,0,-0.000110214,0.00576089,-2,-27,-0.0502534,-0.0502534,16.5512,0.1,0.072
0.730997,0.730354,0.718997,0.717823,-0.00012475,0,-0.000122702,0.00545288,-2,-29,-0.0527628,-0.0527628,16.5261,0.1,0.076
0.730996,0.730354,0.718996,0.717841,-0.000138115,0,-0.000135848,0.00510359,-2,-32,-0.0551968,-0.0551968,16.4984,0.1,0.08
0.730996,0.730354,0.718996,0.717858,-0.000152149,0,-0.000149652,0.00478436,-2,-35,-0.0575514,-0.0575514,16.4676,0.1,0.084
0.730995,0.730354,0.718995,0.717874,-0.00016685,0,-0.000164111,0.00454275,-2,-37,-0.0598224,-0.0598224,16.4342,0.1,0.088
0.730994,0.730354,0.718994,0.71789,-0.000182216,0,-0.000179225,0.00438167,-2,-38,-0.0620057,-0.0620057,16.3988,0.1,0.092
0.730994,0.730354,0.718994,0.717908,-0.000198245,0,-0.000194991,0.00441824,-2,-38,-0.0640973,-0.0640973,16.3624,0.1,0.096
0.730993,0.730354,0.718993,0.717926,-0.000214936,0,-0.000211408,0.00441383,-2,-38,-0.066093,-0.066093,16.3269,0.1,0.1
0.730992,0.730354,0.718992,0.717943,-0.000232287,0,-0.000228474,0.0043821,-2,-38,-0.0679888,-0.0679888,16.2917,0.1,0.104
0.730991,0.730354,0.718991,0.71796,-0.000250296,0,-0.000246187,0.00433216,-1,-38,-0.0697805,-0.0697805,16.2567,0.1,0.108
0.73099,0.730354,0.71899,0.717977,-0.000268962,0,-0.000264547,0.00435644,-1,-37,-0.0714641,-0.0714641,16.2218,0.1,0.112
0.730989,0.730354,0.718989,0.717995,-0.000288284,0,-0.000283551,0.00434384,-1,-37,-0.0730353,-0.0730353,16.1875,0.1,0.116
0.730988,0.730354,0.718988,0.718012,-0.000308258,0,-0.000303198,0.00436423,-1,-36,-0.0744902,-0.0744902,16.1536,0.1,0.12
0.730986,0.730354,0.718987,0.718029,-0.000328885,0,-0.000323486,0.00432024,-1,-36,-0.0758245,-0.0758245,16.1205,0.1,0.124
0.730985,0.730354,0.718985,0.718046,-0.000350162,0,-0.000344414,0.00429092,-1,-36,-0.0770342,-0.0770342,16.0874,0.1,0.128
0.730984,0.730354,0.718984,0.718062,-0.000372087,0,-0.000365979,0.00418499,-1,-37,-0.0781151,-0.0781151,16.0544,0.1,0.132
0.730982,0.730354,0.718982,0.718077,-0.00039466,0,-0.000388181,0.0040568,-1,-38,-0.0790631,-0.0790631,16.0209,0.1,0.136
0.73098,0.730354,0.718981,0.718092,-0.000417877,0,-0.000411017,0.00394254,0,-39,-0.0798741,-0.0798741,15.9867,0.1,0.14
0.730979,0.730354,0.718979,0.718108,-0.000441738,0,-0.000434487,0.00392395,0,-38,-0.080544,-0.080544,15.9519,0.1,0.144
0.730977,0.730354,0.718977,0.718123,-0.000466241,0,-0.000458588,0.00388277,0,-38,-0.0810685,-0.0810685,15.9175,0.1,0.148
0.730975,0.730354,0.718975,0.718138,-0.000491385,0,-0.000483318,0.00385531,0,-38,-0.0814436,-0.0814436,15.8832,0.1,0.152
0.730973,0.730354,0.718973,0.718153,-0.000517167,0,-0.000508678,0.00377943,0,-39,-0.0816651,-0.0816651,15.8491,0.1,0.156
0.730971,0.730354,0.718971,0.718168,-0.000543587,0,-0.000534663,0.00375763,0,-39,-0.0817289,-0.0817289,15.8149,0.1,0.16
0.730969,0.730354,0.718969,0.718183,-0.000570642,0,-0.000561274,0.00382947,0,-37,-0.0816308,-0.0816308,15.781,0.1,0.164
0.730966,0.730354,0.718967,0.718197,-0.00059833,0,-0.000588508,0.00370462,0,-38,-0.0813666,-0.0813666,15.7483,0.1,0.168
0.730964,0.730354,0.718964,0.718211,-0.000626651,0,-0.000616364,0.00362138,0,-39,-0.0809323,-0.0809323,15.715,0.1,0.172
0.730961,0.730354,0.718962,0.718225,-0.000655603,0,-0.00064484,0.0035371,0,-39,-0.0803236,-0.0803236,15.6814,0.1,0.176
0.730959,0.730354,0.718959,0.718237,-0.000685183,0,-0.000673935,0.00342333,0,-40,-0.0795364,-0.0795364,15.6475,0.1,0.18
0.730956,0.730354,0.718956,0.71825,-0.000715391,0,-0.000703647,0.00334748,0,-40,-0.0785665,-0.0785665,15.6131,0.1,0.184
0.730953,0.730354,0.718954,0.718264,-0.000746224,0,-0.000733974,0.00338329,0,-39,-0.0774098,-0.0774098,15.5786,0.1,0.188
0.73095,0.730354,0.718951,0.718277,-0.000777682,0,-0.000764916,0.00332079,1,-39,-0.076062,-0.076062,15.545,0.1,0.192
0.730947,0.730354,0.718947,0.718291,-0.000809762,0,-0.000796469,0.00339429,1,-38,-0.0745191,-0.0745191,15.5114,0.1,0.196
0.730943,0.730354,0.718944,0.718304,-0.000842463,0,-0.000828633,0.00335692,1,-38,-0.0727768,-0.0727768,15.4791,0.1,0.2
0.73094,0.730354,0.718941,0.718316,-0.000875783,0,-0.000861406,0.00327442,1,-39,-0.0708309,-0.0708309,15.447,0.1,0.204
0.730936,0.730354,0.718937,0.718329,-0.000909721,0,-0.000894787,0.00321942,1,-39,-0.0686774,-0.0686774,15.4147,0.1,0.208
0.730933,0.730354,0.718934,0.718341,-0.000944275,0,-0.000928773,0.00315396,2,-39,-0.0663119,-0.0663119,15.3825,0.1,0.212
0.730929,0.730354,0.71893,0.718353,-0.000979443,0,-0.000963364,0.00313911,2,-38,-0.0637303,-0.0637303,15.3503,0.1,0.216
0.730925,0.730354,0.718926,0.718367,-0.00101522,0,-0.000998558,0.0031868,2,-38,-0.0609284,-0.0609284,15.3186,0.1,0.22
0.730921,0.730354,0.718922,0.718381,-0.00105162,0,-0.00103435,0.00330496,2,-36,-0.0579021,-0.0579021,15.288,0.1,0.224
0.730916,0.730354,0.718918,0.718396,-0.00108862,0,-0.00107075,0.00347011,3,-34,-0.0546471,-0.0546471,15.2593,0.1,0.228
0.730912,0.730354,0.718913,0.718409,-0.00112623,0,-0.00110774,0.00343625,3,-34,-0.0511592,-0.0511592,15.2327,0.1,0.232
0.730907,0.730354,0.718909,0.718422,-0.00116444,0,-0.00114533,0.00332731,3,-34,-0.0474343,-0.0474343,15.2064,0.1,0.236
0.730903,0.730354,0.718904,0.718432,-0.00120326,0,-0.00118351,0.00305314,3,-36,-0.0434681,-0.0434681,15.1796,0.1,0.24
0.730898,0.730354,0.718899,0.718439,-0.00124269,0,-0.00122229,0.00266883,4,-40,-0.0392564,-0.0392564,15.1507,0.1,0.244
0.730893,0.730354,0.718894,0.718445,-0.00128271,0,-0.00126166,0.00226866,4,-43,-0.034795,-0.034795,15.1185,0.1,0.248
0.730887,0.730354,0.718889,0.71845,-0.00132334,0,-0.00130161,0.00191552,4,-46,-0.0300796,-0.0300796,15.0831,0.1,0.252
0.730882,0.730354,0.718884,0.718453,-0.00136456,0,-0.00134216,0.00153613,4,-49,-0.0251061,-0.0251061,15.0448,0.1,0.256
0.730876,0.730354,0.718879,0.718456,-0.00140638,0,-0.00138329,0.00122562,5,-52,-0.0198701,-0.0198701,15.0034,0.1,0.26
0.730871,0.730354,0.718873,0.718458,-0.0014488,0,-0.00142501,0.000989827,5,-53,-0.0143676,-0.0143676,14.9596,0.1,0.264
0.730865,0.730354,0.718867,0.71846,-0.00149181,0,-0.00146732,0.000890212,5,-54,-0.00859412,-0.00859412,14.9143,0.1,0.268
0.730859,0.730354,0.718861,0.718463,-0.00153541,0,-0.0015102,0.000795011,6,-54,-0.00254558,-0.00254558,14.8686,0.1,0.272
0.730853,0.730354,0.718855,0.718466,-0.0015796,0,-0.00155367,0.000760335,6,-54,0.0037823,0.0037823,14.8228,0.1,0.276
0.730846,0.730354,0.718849,0.718468,-0.00162438,0,-0.00159771,0.000737217,6,-54,0.0103937,0.0103937,14.7773,0.1,0.28
0.73084,0.730354,0.718842,0.718472,-0.00166975,0,-0.00164234,0.000779387,7,-53,0.017293,0.017293,14.7324,0.1,0.284
0.730833,0.730354,0.718836,0.718475,-0.0017157,0,-0.00168753,0.000807501,7,-52,0.0244842,0.0244842,14.6886,0.1,0.288
0.730826,0.730354,0.718829,0.718479,-0.00176224,0,-0.00173331,0.000826243,7,-51,0.0319718,0.0319718,14.6458,0.1,0.292
0.730819,0.730354,0.718822,0.718483,-0.00180935,0,-0.00177965,0.000867529,7,-50,0.0397598,0.0397598,14.6039,0.1,0.296
0.730811,0.730354,0.718815,0.718486,-0.00185705,0,-0.00182657,0.000837471,8,-50,0.0478526,0.0478526,14.5631,0.1,0.3
0.730804,0.730354,0.718807,0.718488,-0.00190533,0,-0.00187406,0.000788641,8,-50,0.0562544,0.0562544,14.5228,0.1,0.304
0.730796,0.730354,0.7188,0.718491,-0.00195419,0,-0.00192211,0.000698506,8,-50,0.0649695,0.0649695,14.4827,0.1,0.308
0.730788,0.730354,0.718792,0.718492,-0.00200362,0,-0.00197073,0.000580835,9,-51,0.0740022,0.0740022,14.4424,0.1,0.312
0.73078,0.730354,0.718784,0.718492,-0.00205363,0,-0.00201992,0.000387223,9,-52,0.0833566,0.0833566,14.4017,0.1,0.316
0.730772,0.730354,0.718776,0.718492,-0.00210421,-5.75818e-05,-0.00206967,0.00028694,9,-53,0.0930136,0.0930136,14.3598,0.1,0.32
0.730763,0.730354,0.718767,0.718492,-0.00215536,-9.59697e-06,-0.00211998,0.000191293,10,-53,0.102711,0.1,14.3177,0.1,0.324
0.730755,0.730354,0.718759,0.718492,-0.00220708,-6.39798e-06,-0.00217085,0.000127529,10,-53,0.112989,0.1,14.2754,0.1,0.328
0.730746,0.730354,0.71875,0.718493,-0.00225937,-4.26532e-06,-0.00222228,0.000142601,11,-53,0.123579,0.1,14.2334,0.1,0.332
0.730736,0.730354,0.718741,0.718492,-0.00231223,-2.84355e-06,-0.00227427,3.74855e-05,11,-53,0.134477,0.1,14.1921,0.1,0.336
0.730727,0.730354,0.718732,0.718493,-0.00236565,-1.8957e-06,-0.00232682,5.37813e-05,11,-52,0.145681,0.1,14.1507,0.1,0.34
0.730718,0.730353,0.718722,0.718492,-0.00241964,-5.88456e-05,-0.00237992,7.06324e-06,11,-52,0.15717,0.1,14.1102,0.1,0.344
0.730708,0.730354,0.718713,0.718493,-0.00247418,4.71423e-05,-0.00243357,3.34998e-05,12,-51,0.168701,0.1,14.07,0.1,0.348
0.730698,0.730354,0.718703,0.718493,-0.00252929,-2.61536e-05,-0.00248777,2.23332e-05,12,-51,0.18108,0.1,14.0309,0.1,0.352
0.730688,0.730354,0.718693,0.718493,-0.00258496,-1.74357e-05,-0.00254252,1.48888e-05,13,-50,0.193379,0.1,13.9925,0.1,0.356
0.730677,0.730354,0.718682,0.718493,-0.00264118,-1.16238e-05,-0.00259782,9.92585e-06,13,-50,0.206041,0.1,13.9548,0.1,0.36
0.730666,0.730354,0.718672,0.718493,-0.00269796,-7.74922e-06,-0.00265367,6.61724e-06,13,-49,0.219053,0.1,13.9179,0.1,0.364
0.730656,0.730354,0.718661,0.718493,-0.00275529,-5.16615e-06,-0.00271006,4.41149e-06,14,-48,0.232406,0.1,13.8817,0.1,0.368
0.730644,0.730354,0.71865,0.718493,-0.00281317,-3.4441e-06,-0.00276699,2.94099e-06,14,-48,0.246096,0.1,13.8463,0.1,0.372
0.730633,0.730354,0.718639,0.718493,-0.00287161,-2.29607e-06,-0.00282447,1.96066e-06,14,-47,0.260121,0.1,13.8118,0.1,0.376
0.730621,0.730353,0.718628,0.718493,-0.0029306,-5.91126e-05,-0.00288249,1.30711e-06,15,-47,0.274458,0.1,13.778,0.1,0.38
0.73061,0.730354,0.718616,0.718492,-0.00299013,1.81735e-05,-0.00294104,-2.79195e-05,15,-46,0.288851,0.1,13.7451,0.1,0.384
0.730597,0.730353,0.718604,0.718493,-0.00305021,-1.66753e-05,-0.00300014,1.01779e-05,16,-45,0.30398,0.1,13.7127,0.1,0.388
0.730585,0.730353,0.718592,0.718493,-0.00311083,-1.11168e-05,-0.00305977,6.78527e-06,16,-44,0.31926,0.1,13.6815,0.1,0.392
0.730573,0.730353,0.71858,0.718493,-0.003172,-7.41123e-06,-0.00311993,4.52352e-06,16,-44,0.334911,0.1,13.6511,0.1,0.396
0.73056,0.730353,0.718567,0.718493,-0.00323371,-4.94082e-06,-0.00318063,3.01568e-06,17,-43,0.350926,0.1,13.6215,0.1,0.4
0.730547,0.730353,0.718554,0.718493,-0.00329596,-3.29388e-06,-0.00324185,2.01045e-06,17,-42,0.367299,0.1,13.5928,0.1,0.404
0.730533,0.730353,0.718541,0.718493,-0.00335875,-2.19592e-06,-0.00330361,1.3403e-06,18,-42,0.384029,0.1,13.5649,0.1,0.408
0.73052,0.730354,0.718528,0.718493,-0.00342207,2.7327e-05,-0.0033659,8.93534e-07,18,-41,0.401128,0.1,13.5378,0.1,0.412
0.730506,0.730353,0.718514,0.718493,-0.00348593,-3.93639e-05,-0.00342871,5.95689e-07,18,-40,0.418712,0.1,13.5116,0.1,0.416
0.730492,0.730353,0.7185,0.718493,-0.00355033,-2.62426e-05,-0.00349204,3.97126e-07,19,-40,0.436298,0.1,13.4862,0.1,0.42
0.730478,0.730353,0.718486,0.718493,-0.00361525,-1.74951e-05,-0.0035559,2.64751e-07,19,-39,0.454318,0.1,13.4617,0.1,0.424
0.730463,0.730353,0.718472,0.718493,-0.00368071,-1.16634e-05,-0.00362029,1.76501e-07,20,-38,0.472749,0.1,13.4381,0.1,0.428
0.730448,0.730353,0.718457,0.718493,-0.0037467,-7.77558e-06,-0.00368519,1.17667e-07,20,-37,0.491576,0.1,13.4153,0.1,0.432
0.730433,0.730353,0.718442,0.718493,-0.00381321,-5.18372e-06,-0.00375061,7.84447e-08,21,-37,0.510793,0.1,13.3934,0.1,0.436
0.730418,0.730353,0.718427,0.718493,-0.00388025,-3.45581e-06,-0.00381655,5.22965e-08,21,-36,0.530394,0.1,13.3724,0.1,0.44
0.730402,0.730353,0.718412,0.718493,-0.00394782,2.6487e-05,-0.00388301,3.48643e-08,22,-35,0.550389,0.1,13.3523,0.1,0.444
0.730386,0.730353,0.718396,0.718492,-0.0040159,-3.99238e-05,-0.00394998,-2.87677e-05,22,-35,0.570893,0.1,13.333,0.1,0.448
0.73037,0.730352,0.71838,0.718492,-0.00408451,-8.41977e-05,-0.00401746,-1.91785e-05,22,-34,0.591399,0.1,13.3143,0.1,0.452
0.730353,0.730352,0.718364,0.718492,-0.00415364,-8.49227e-05,-0.00408546,-1.27856e-05,22,-33,0.612048,0.1,13.2966,0.1,0.456
0.730337,0.730352,0.718348,0.718492,-0.00422329,-5.66152e-05,-0.00415396,-8.52376e-06,23,-32,0.633088,0.1,13.2799,0.1,0.46
0.73032,0.730351,0.718331,0.718492,-0.00429346,-0.000124116,-0.00422298,-5.68251e-06,23,-31,0.654639,0.1,13.2641,0.1,0.464
0.730302,0.730351,0.718314,0.718492,-0.00436414,-8.27441e-05,-0.0042925,-3.78834e-06,24,-30,0.676232,0.1,13.2493,0.1,0.468
0.730285,0.730351,0.718296,0.718492,-0.00443533,-5.51628e-05,-0.00436252,-2.52556e-06,24,-30,0.698451,0.1,13.2353,0.1,0.472
0.730267,0.730351,0.718279,0.718492,-0.00450704,-3.67752e-05,-0.00443305,-1.68371e-06,25,-29,0.721218,0.1,13.2223,0.1,0.476
0.730249,0.730351,0.718261,0.718492,-0.00457926,-2.45168e-05,-0.00450408,-1.12247e-06,26,-28,0.744486,0.1,13.2102,0.1,0.48
0.73023,0.730351,0.718243,0.718492,-0.00465198,-1.63445e-05,-0.00457562,-7.48313e-07,26,-27,0.768222,0.1,13.199,0.1,0.484
0.730211,0.73035,0.718224,0.718492,-0.00472522,-3.96873e-05,-0.00464765,-2.92898e-05,26,-27,0.792394,0.1,13.1888,0.1,0.488
0.730192,0.73035,0.718206,0.718492,-0.00479896,-2.64582e-05,-0.00472018,-1.95265e-05,27,-26,0.816849,0.1,13.1791,0.1,0.492
0.730173,0.73035,0.718187,0.718492,-0.00487321,-1.76388e-05,-0.00479321,-1.30177e-05,28,-25,0.841785,0.1,13.1705,0.1,0.496
0.730153,0.73035,0.718167,0.718492,-0.00494796,-1.17592e-05,-0.00486673,-8.67846e-06,28,-24,0.86718,0.1,13.1629,0.1,0.5
0.730133,0.73035,0.718148,0.718492,-0.00502321,-7.83946e-06,-0.00494075,-3.45766e-05,29,-23,0.89302,0.1,13.1563,0.1,0.504
0.730113,0.730351,0.718128,0.718492,-0.00509896,2.35646e-05,-0.00501526,-2.3051e-05,29,-22,0.919308,0.1,13.1503,0.1,0.508
0.730093,0.73035,0.718108,0.718491,-0.00517521,-4.18721e-05,-0.00509025,-4.41583e-05,29,-22,0.946153,0.1,13.1454,0.1,0.512
0.730072,0.73035,0.718087,0.718492,-0.00525196,-5.67057e-05,-0.00516574,-6.47933e-07,30,-20,0.97306,0.1,13.1412,0.1,0.516
0.730051,0.730349,0.718066,0.718491,-0.0053292,-9.53856e-05,-0.00524172,-2.92229e-05,30,-20,1.00029,0.1,13.1384,0.1,0.52
0.730029,0.730348,0.718045,0.718491,-0.00540694,-9.23813e-05,-0.00531818,-1.94819e-05,31,-19,1.02774,0.1,13.1363,0.1,0.524
0.730007,0.730348,0.718024,0.718491,-0.00548517,-9.03785e-05,-0.00539512,-1.29879e-05,31,-18,1.05564,0.1,13.1352,0.1,0.528
0.729985,0.730348,0.718002,0.718491,-0.00556389,-8.90432e-05,-0.00547255,-3.74496e-05,32,-17,1.08397,0.1,13.1351,0.1,0.532
0.729963,0.730347,0.71798,0.718491,-0.0056431,-8.81531e-05,-0.00555046,-2.49664e-05,32,-16,1.11275,0.1,13.1357,0.1,0.536
0.72994,0.730347,0.717958,0.718491,-0.0057228,-0.000116351,-0.00562885,-1.66442e-05,33,-15,1.14195,0.1,13.1374,0.1,0.54
0.729917,0.730346,0.717935,0.718491,-0.00580298,-0.00016394,-0.00570772,-3.98871e-05,33,-14,1.17142,0.1,13.1402,0.1,0.544
0.729894,0.730344,0.717912,0.718491,-0.00588365,-0.000224457,-0.00578707,-2.65914e-05,33,-13,1.20105,0.1,13.1437,0.1,0.548
0.72987,0.730343,0.717889,0.718491,-0.00596481,-0.000293593,-0.00586689,-1.77276e-05,33,-12,1.23076,0.1,13.1483,0.1,0.552
0.729846,0.730341,0.717865,0.71849,-0.00604645,-0.000368474,-0.00594719,-4.06093e-05,34,-11,1.26052,0.1,13.1539,0.1,0.556
0.729822,0.730338,0.717841,0.71849,-0.00612856,-0.000475977,-0.00602796,-5.58638e-05,34,-10,1.29028,0.1,13.1603,0.1,0.56
0.729797,0.730335,0.717817,0.71849,-0.00621116,-0.000576436,-0.0061092,-3.72425e-05,34,-9,1.31987,0.1,13.1675,0.1,0.564
0.729772,0.730331,0.717792,0.71849,-0.00629423,-0.0006722,-0.00619091,-2.48284e-05,34,-8,1.34934,0.1,13.176,0.1,0.568
0.729747,0.730328,0.717767,0.71849,-0.00637778,-0.000707252,-0.00627309,-4.53432e-05,34,-7,1.37873,0.1,13.1854,0.1,0.572
0.729721,0.730325,0.717742,0.718489,-0.00646181,-0.00075941,-0.00635573,-5.90197e-05,34,-7,1.40837,0.1,13.1957,0.1,0.576
0.729695,0.730321,0.717716,0.718489,-0.00654631,-0.000794183,-0.00643884,-6.81374e-05,35,-6,1.43819,0.1,13.2069,0.1,0.58
0.729669,0.730317,0.71769,0.718488,-0.00663128,-0.000846155,-0.00652242,-7.42159e-05,35,-5,1.46825,0.1,13.2189,0.1,0.584
0.729642,0.730313,0.717664,0.718488,-0.00671672,-0.000909595,-0.00660646,-4.94772e-05,35,-3,1.49848,0.1,13.2319,0.1,0.588
0.729615,0.730308,0.717638,0.718488,-0.00680263,-0.00103826,-0.00669096,-9.05667e-05,35,-3,1.52879,0.1,13.2461,0.1,0.592
0.729587,0.730302,0.717611,0.718488,-0.006889,-0.00121041,-0.00677591,-6.03778e-05,35,-1,1.55881,0.1,13.261,0.1,0.596
0.72956,0.730295,0.717583,0.718487,-0.00697585,-0.00138276,-0.00686133,-6.90428e-05,34,0,1.5883,0.1,13.2771,0.1,0.6
0.729532,0.730287,0.717556,0.718487,-0.00706315,-0.00161282,-0.0069472,-7.48194e-05,34,0,1.61726,0.1,13.2941,0.1,0.604
0.729503,0.730277,0.717528,0.718487,-0.00715092,-0.00188136,-0.00703353,-7.86706e-05,33,1,1.64535,0.1,13.3121,0.1,0.608
0.729474,0.730265,0.717499,0.718487,-0.00723915,-0.00229071,-0.00712031,-5.2447e-05,31,2,1.67232,0.1,13.3311,0.1,0.612
0.729445,0.730252,0.717471,0.718486,-0.00732784,-0.00256362,-0.00720755,-6.37556e-05,30,3,1.69747,0.1,13.3514,0.1,0.616
0.729416,0.730239,0.717442,0.718486,-0.00741699,-0.00283192,-0.00729523,-4.25037e-05,29,4,1.72154,0.1,13.3726,0.1,0.62
0.729386,0.730224,0.717412,0.718486,-0.0075066,-0.00306838,-0.00738337,-2.83358e-05,28,5,1.74456,0.1,13.395,0.1,0.624
0.729356,0.73021,0.717383,0.718486,-0.00759666,-0.0032548,-0.00747195,-1.88906e-05,28,7,1.76675,0.1,13.4186,0.1,0.628
0.729325,0.730198,0.717353,0.718486,-0.00768717,-0.00320634,-0.00756098,-4.13846e-05,29,7,1.78846,0.1,13.4433,0.1,0.632
0.729294,0.730185,0.717322,0.718486,-0.00777814,-0.00314524,-0.00765045,-2.75898e-05,30,9,1.81096,0.1,13.4688,0.1,0.636
0.729263,0.730173,0.717291,0.718486,-0.00786956,-0.0031333,-0.00774037,-1.83932e-05,30,10,1.8343,0.1,13.4955,0.1,0.64
0.729231,0.730161,0.71726,0.718486,-0.00796142,-0.00306776,-0.00783073,-1.22621e-05,31,11,1.85825,0.1,13.5233,0.1,0.644
0.729199,0.730149,0.717229,0.718486,-0.00805374,-0.00308165,-0.00792153,-8.17474e-06,32,12,1.88305,0.1,13.5522,0.1,0.648
0.729167,0.730135,0.717197,0.718485,-0.0081465,-0.00317728,-0.00801277,-6.30317e-05,32,13,1.90826,0.1,13.5822,0.1,0.652
0.729134,0.730121,0.717165,0.718484,-0.00823971,-0.00326982,-0.00810445,-0.000185976,32,13,1.93343,0.1,13.6126,0.1,0.656
0.729101,0.730107,0.717132,0.718481,-0.00833336,-0.00336031,-0.00819656,-0.00032552,32,13,1.95859,0.1,13.6429,0.1,0.66
0.729067,0.730093,0.717099,0.718478,-0.00842746,-0.00344942,-0.00828911,-0.000447341,32,13,1.98375,0.1,13.6728,0.1,0.664
0.729034,0.730078,0.717066,0.718476,-0.00852199,-0.00350884,-0.00838209,-0.000499764,33,13,2.00894,0.1,13.7026,0.1,0.668
0.728999,0.730063,0.717032,0.718475,-0.00861696,-0.00363482,-0.00847551,-0.00044834,32,15,2.03428,0.1,13.733,0.1,0.672
0.728965,0.730044,0.716998,0.718474,-0.00871237,-0.00394913,-0.00856935,-0.000385266,31,17,2.05935,0.1,13.765,0.1,0.676
0.72893,0.730026,0.716964,0.718472,-0.00880822,-0.00415867,-0.00866363,-0.000372008,31,18,2.08317,0.1,13.7986,0.1,0.68
0.728894,0.730007,0.716929,0.718471,-0.00890451,-0.00438474,-0.00875833,-0.000334378,30,19,2.10632,0.1,13.8335,0.1,0.684
0.728858,0.729987,0.716893,0.718469,-0.00900122,-0.00453545,-0.00885346,-0.000366873,30,20,2.12873,0.1,13.8698,0.1,0.688
0.728822,0.72997,0.716858,0.718468,-0.00909837,-0.00449197,-0.00894901,-0.000388537,31,21,2.1509,0.1,13.9068,0.1,0.692
0.728786,0.729951,0.716822,0.718466,-0.00919595,-0.00454936,-0.00904499,-0.000374188,31,23,2.17382,0.1,13.9447,0.1,0.696
0.728749,0.729934,0.716786,0.718465,-0.00929396,-0.00447245,-0.00914139,-0.000393413,32,24,2.19701,0.1,13.9839,0.1,0.7
0.728711,0.729915,0.716749,0.718462,-0.00939239,-0.00459393,-0.00923821,-0.000463812,32,24,2.22111,0.1,14.0238,0.1,0.704
0.728673,0.729896,0.716712,0.71846,-0.00949125,-0.00458854,-0.00933545,-0.000481954,33,25,2.24512,0.1,14.0642,0.1,0.708
0.728635,0.729876,0.716674,0.718457,-0.00959054,-0.0047289,-0.0094331,-0.000580421,33,26,2.26966,0.1,14.1055,0.1,0.712
0.728597,0.729856,0.716636,0.718454,-0.00969025,-0.00485126,-0.00953118,-0.000674856,33,26,2.29394,0.1,14.1469,0.1,0.716
0.728558,0.729834,0.716598,0.718449,-0.00979038,-0.00501921,-0.00962966,-0.000795395,32,26,2.31807,0.1,14.1884,0.1,0.72
0.728518,0.729812,0.716559,0.718445,-0.00989093,-0.00518876,-0.00972856,-0.000933337,32,26,2.34178,0.1,14.2298,0.1,0.724
0.728479,0.729789,0.71652,0.718439,-0.0099919,-0.00538817,-0.00982788,-0.00111167,32,25,2.36506,0.1,14.2709,0.1,0.728
0.728438,0.729767,0.71648,0.718433,-0.0100933,-0.00546352,-0.0099276,-0.00123056,32,25,2.38781,0.1,14.3114,0.1,0.732
0.728398,0.729745,0.716441,0.718427,-0.0101951,-0.00548497,-0.0100277,-0.00133861,32,26,2.41072,0.1,14.3518,0.1,0.736
0.728357,0.729723,0.7164,0.718419,-0.0102973,-0.00547047,-0.0101283,-0.00149702,33,25,2.4341,0.1,14.3922,0.1,0.74
0.728315,0.729701,0.71636,0.718411,-0.0103999,-0.00543202,-0.0102292,-0.00168899,34,25,2.45814,0.1,14.4321,0.1,0.744
0.728274,0.729679,0.716318,0.718403,-0.010503,-0.00549276,-0.0103306,-0.00181698,34,25,2.48294,0.1,14.4713,0.1,0.748
0.728231,0.729656,0.716277,0.718395,-0.0106064,-0.00556204,-0.0104323,-0.00184472,35,26,2.50797,0.1,14.5103,0.1,0.752
0.728189,0.729633,0.716235,0.718389,-0.0107103,-0.00566581,-0.0105345,-0.00177684,35,28,2.53316,0.1,14.5503,0.1,0.756
0.728146,0.729609,0.716193,0.718383,-0.0108146,-0.00573499,-0.0106371,-0.00167401,35,30,2.55835,0.1,14.5921,0.1,0.76
0.728102,0.729587,0.71615,0.718377,-0.0109193,-0.00566594,-0.01074,-0.00160545,36,32,2.58378,0.1,14.636,0.1,0.764
0.728058,0.729565,0.716107,0.718371,-0.0110243,-0.00564871,-0.0108434,-0.00153095,37,34,2.61018,0.1,14.6818,0.1,0.768
0.728014,0.729543,0.716063,0.718366,-0.0111298,-0.00557963,-0.0109471,-0.00148129,38,36,2.63729,0.1,14.7295,0.1,0.772
0.727969,0.729522,0.716019,0.71836,-0.0112357,-0.005476,-0.0110513,-0.00144818,39,37,2.6654,0.1,14.7787,0.1,0.776
0.727924,0.729503,0.715975,0.718354,-0.011342,-0.00523417,-0.0111558,-0.0014549,41,39,2.69476,0.1,14.8295,0.1,0.78
0.727879,0.729487,0.71593,0.718348,-0.0114487,-0.00481383,-0.0112607,-0.00154575,44,39,2.72618,0.1,14.8812,0.1,0.784
0.727833,0.729472,0.715885,0.71834,-0.0115558,-0.00444723,-0.0113661,-0.00163511,47,39,2.76061,0.1,14.9332,0.1,0.788
0.727786,0.72946,0.715839,0.718332,-0.0116633,-0.0039725,-0.0114718,-0.00175227,50,40,2.79779,0.1,14.9855,0.1,0.792
0.727739,0.72945,0.715793,0.718324,-0.0117711,-0.00345448,-0.0115779,-0.00188795,54,40,2.83832,0.1,15.0377,0.1,0.796
0.727692,0.729443,0.715746,0.718314,-0.0118794,-0.00293639,-0.0116844,-0.00209357,58,39,2.88244,0.1,15.0897,0.1,0.8
0.727644,0.729437,0.715699,0.718303,-0.0119881,-0.00244704,-0.0117913,-0.00231702,61,38,2.93013,0.1,15.1408,0.1,0.804
0.727596,0.729433,0.715652,0.718291,-0.0120971,-0.00191927,-0.0118985,-0.00255236,65,37,2.98126,0.1,15.1908,0.1,0.808
0.727548,0.729431,0.715604,0.718277,-0.0122065,-0.00148105,-0.0120062,-0.00279563,68,36,3.03599,0.1,15.2396,0.1,0.812
0.727498,0.72943,0.715556,0.718264,-0.0123164,-0.00104495,-0.0121142,-0.0029866,71,36,3.09384,0.1,15.2872,0.1,0.816
0.727449,0.729429,0.715507,0.718251,-0.0124266,-0.000754213,-0.0122226,-0.00308512,74,36,3.15473,0.1,15.3341,0.1,0.82
0.727399,0.729429,0.715458,0.718236,-0.0125372,-0.0005316,-0.0123314,-0.00326597,76,36,3.21786,0.1,15.3812,0.1,0.824
0.727349,0.729428,0.715409,0.718221,-0.0126482,-0.000411982,-0.0124405,-0.00341532,77,36,3.28283,0.1,15.4277,0.1,0.828
0.727298,0.729427,0.715359,0.718206,-0.0127595,-0.000361027,-0.0125501,-0.00354368,78,36,3.34904,0.1,15.4739,0.1,0.832
0.727247,0.729427,0.715308,0.71819,-0.0128713,-0.000298267,-0.01266,-0.00368684,80,36,3.41614,0.1,15.52,0.1,0.836
0.727195,0.729425,0.715257,0.718174,-0.0129834,-0.00037159,-0.0127703,-0.00383986,80,36,3.48414,0.1,15.5658,0.1,0.84
0.727143,0.729423,0.715206,0.718157,-0.0130959,-0.000391681,-0.0128809,-0.00391308,81,36,3.55233,0.1,15.6114,0.1,0.844
0.72709,0.729421,0.715154,0.71814,-0.0132088,-0.000405075,-0.0129919,-0.00404826,82,36,3.62099,0.1,15.6574,0.1,0.848
0.727037,0.729418,0.715102,0.718123,-0.013322,-0.000500378,-0.0131033,-0.0041096,82,37,3.69014,0.1,15.7033,0.1,0.852
0.726984,0.729416,0.715049,0.718106,-0.0134356,-0.000506331,-0.0132151,-0.00415049,83,38,3.75938,0.1,15.7498,0.1,0.856
0.72693,0.729415,0.714996,0.718089,-0.0135496,-0.000452717,-0.0133272,-0.00420654,84,39,3.8292,0.1,15.7971,0.1,0.86
0.726875,0.729414,0.714943,0.718071,-0.013664,-0.000388184,-0.0134397,-0.0042727,85,40,3.89994,0.1,15.8451,0.1,0.864
0.72682,0.729413,0.714889,0.718053,-0.0137788,-0.000316371,-0.0135526,-0.00437438,87,40,3.97166,0.1,15.8936,0.1,0.868
0.726765,0.729413,0.714834,0.718034,-0.0138939,-0.000210914,-0.0136658,-0.00449976,88,40,4.04441,0.1,15.9423,0.1,0.872
0.726709,0.729413,0.71478,0.718014,-0.0140093,-0.0001694,-0.0137794,-0.00464092,89,40,4.11835,0.1,15.991,0.1,0.876
0.726653,0.729413,0.714724,0.717994,-0.0141252,-0.000141725,-0.0138933,-0.00476382,90,40,4.19313,0.1,16.0395,0.1,0.88
0.726596,0.729412,0.714668,0.717975,-0.0142414,-0.000123274,-0.0140076,-0.00481696,91,41,4.26868,0.1,16.0881,0.1,0.884
0.726539,0.729411,0.714612,0.717955,-0.0143579,-0.000168555,-0.0141222,-0.00488118,92,42,4.34491,0.1,16.1373,0.1,0.888
0.726481,0.72941,0.714555,0.717934,-0.0144749,-0.000198743,-0.0142372,-0.00501037,93,42,4.42151,0.1,16.1871,0.1,0.892
0.726423,0.729409,0.714498,0.717911,-0.0145921,-0.000218868,-0.0143526,-0.00518286,93,42,4.49854,0.1,16.2368,0.1,0.896
0.726365,0.729407,0.714441,0.717889,-0.0147098,-0.000289867,-0.0144683,-0.00532665,94,42,4.57606,0.1,16.2861,0.1,0.9
0.726305,0.729407,0.714383,0.717866,-0.0148278,-0.000250826,-0.0145844,-0.0054513,95,42,4.65383,0.1,16.3352,0.1,0.904
0.726246,0.729405,0.714324,0.717843,-0.0149461,-0.000311172,-0.0147008,-0.00556319,96,43,4.7324,0.1,16.3843,0.1,0.908
0.726186,0.729404,0.714265,0.717819,-0.0150649,-0.00026503,-0.0148176,-0.00572416,97,42,4.81129,0.1,16.4335,0.1,0.912
0.726125,0.729404,0.714205,0.717795,-0.0151839,-0.000234268,-0.0149347,-0.00580268,98,43,4.89106,0.1,16.4824,0.1,0.916
0.726064,0.729403,0.714145,0.71777,-0.0153033,-0.000213761,-0.0150521,-0.0059414,99,43,4.97163,0.1,16.5318,0.1,0.92
0.726003,0.729403,0.714085,0.717746,-0.0154231,-0.000142507,-0.0151699,-0.0059763,100,44,5.05297,0.1,16.5811,0.1,0.924
0.725941,0.729403,0.714024,0.717721,-0.0155432,-9.50048e-05,-0.0152881,-0.00602835,102,45,5.13534,0.1,16.6313,0.1,0.928
0.725879,0.729402,0.713963,0.717697,-0.0156637,-0.000120918,-0.0154065,-0.00606306,102,46,5.21858,0.1,16.6822,0.1,0.932
0.725816,0.729402,0.713901,0.717671,-0.0157845,-0.000109403,-0.0155254,-0.00617257,104,47,5.30232,0.1,16.7341,0.1,0.936
0.725752,0.729401,0.713838,0.717646,-0.0159056,-0.000130517,-0.0156445,-0.00624557,104,47,5.38675,0.1,16.7861,0.1,0.94
0.725688,0.7294,0.713776,0.71762,-0.0160271,-0.000173384,-0.015764,-0.00632304,105,48,5.47167,0.1,16.8387,0.1,0.944
0.725624,0.729399,0.713712,0.717593,-0.016149,-0.000201962,-0.0158839,-0.00648984,106,48,5.557,0.1,16.8917,0.1,0.948
0.725559,0.729398,0.713649,0.717565,-0.0162711,-0.000192223,-0.016004,-0.00665862,107,48,5.64281,0.1,16.9444,0.1,0.952
0.725494,0.729398,0.713584,0.717536,-0.0163936,-0.000185731,-0.0161245,-0.00682873,108,48,5.72931,0.1,16.9966,0.1,0.956
0.725428,0.729397,0.71352,0.717508,-0.0165165,-0.000181402,-0.0162454,-0.00688455,109,48,5.8165,0.1,17.0485,0.1,0.96
0.725362,0.729396,0.713454,0.71748,-0.0166397,-0.000178517,-0.0163665,-0.00695056,110,49,5.90435,0.1,17.1012,0.1,0.964
0.725295,0.729395,0.713389,0.717455,-0.0167632,-0.000262966,-0.016488,-0.00670665,111,53,5.99283,0.1,17.1546,0.1,0.968
0.725228,0.729393,0.713322,0.717434,-0.0168871,-0.000290474,-0.0166099,-0.00619856,111,60,6.08149,0.1,17.2119,0.1,0.972
0.72516,0.729392,0.713256,0.717417,-0.0170113,-0.000308813,-0.016732,-0.00551434,112,68,6.17064,0.1,17.2757,0.1,0.976
0.725092,0.729391,0.713189,0.717405,-0.0171358,-0.000292248,-0.0168545,-0.00468391,113,77,6.26034,0.1,17.3476,0.1,0.98
0.725023,0.72939,0.713121,0.717398,-0.0172606,-0.000281205,-0.0169773,-0.00369842,114,88,6.35079,0.1,17.4293,0.1,0.984
0.724954,0.729389,0.713053,0.717397,-0.0173858,-0.000273843,-0.0171004,-0.00260957,116,101,6.44195,0.1,17.5221,0.1,0.988
0.724884,0.729388,0.712984,0.717397,-0.0175113,-0.000240144,-0.0172239,-0.00173971,117,111,6.53382,0.1,17.6269,0.1,0.992
0.724813,0.729387,0.712915,0.717397,-0.0176371,-0.000217678,-0.0173476,-0.00115981,118,118,6.62652,0.1,17.7416,0.1,0.996
0.724743,0.729386,0.712845,0.717396,-0.0177633,-0.000231491,-0.0174717,-0.000830788,119,123,6.71999,0.1,17.8632,0.1,1
0.724671,0.729385,0.712775,0.717395,-0.0178898,-0.0002407,-0.0175961,-0.000640231,120,127,6.81404,0.1,17.9892,0.1,1.004
0.7246,0.729384,0.712705,0.717394,-0.0180166,-0.000275631,-0.0177208,-0.000513194,121,130,6.90868,0.1,18.1183,0.1,1.008
0.724527,0.729382,0.712633,0.717392,-0.0181437,-0.000327708,-0.0178459,-0.000514875,121,131,7.00376,0.1,18.2499,0.1,1.012
0.724454,0.72938,0.712562,0.717389,-0.0182711,-0.000362427,-0.0179712,-0.000544786,122,133,7.09921,0.1,18.3828,0.1,1.016
0.724381,0.729378,0.71249,0.717386,-0.0183989,-0.000414363,-0.0180969,-0.000622309,123,134,7.19511,0.1,18.5165,0.1,1.02
0.724307,0.729376,0.712417,0.717382,-0.018527,-0.000448988,-0.0182228,-0.000760364,124,134,7.29138,0.1,18.6507,0.1,1.024
0.724233,0.729374,0.712344,0.717378,-0.0186553,-0.000472071,-0.0183491,-0.0008524,125,135,7.38811,0.1,18.7848,0.1,1.028
0.724158,0.729372,0.71227,0.717374,-0.018784,-0.00051625,-0.0184757,-0.000913758,126,136,7.48537,0.1,18.9193,0.1,1.032
0.724083,0.729369,0.712196,0.71737,-0.0189131,-0.000545703,-0.0186026,-0.000897081,127,138,7.58305,0.1,19.0544,0.1,1.036
0.724007,0.729367,0.712121,0.717367,-0.0190424,-0.000565339,-0.0187298,-0.000914754,127,140,7.68123,0.1,19.191,0.1,1.04
0.72393,0.729364,0.712046,0.717363,-0.019172,-0.00060722,-0.0188573,-0.000926536,128,142,7.77995,0.1,19.3287,0.1,1.044
0.723853,0.729362,0.711971,0.717359,-0.019302,-0.00060635,-0.0189851,-0.0009056,129,144,7.87913,0.1,19.4675,0.1,1.048
0.723776,0.729359,0.711894,0.717356,-0.0194322,-0.000634561,-0.0191132,-0.000862852,130,146,7.97897,0.1,19.6078,0.1,1.052
0.723698,0.729356,0.711818,0.717353,-0.0195628,-0.000653368,-0.0192416,-0.000834353,131,148,8.07932,0.1,19.7499,0.1,1.056
0.723619,0.729354,0.71174,0.71735,-0.0196936,-0.000637115,-0.0193703,-0.000786563,132,150,8.18025,0.1,19.8934,0.1,1.06
0.72354,0.729351,0.711663,0.717347,-0.0198248,-0.000655071,-0.0194993,-0.000783493,133,152,8.28194,0.1,20.0388,0.1,1.064
0.723461,0.729348,0.711584,0.717345,-0.0199562,-0.000695832,-0.0196286,-0.000752656,134,154,8.3842,0.1,20.1854,0.1,1.068
0.723381,0.729344,0.711506,0.717342,-0.020088,-0.000751797,-0.0197582,-0.000732098,135,156,8.48689,0.1,20.3336,0.1,1.072
0.7233,0.729341,0.711426,0.717339,-0.0202201,-0.000789107,-0.0198881,-0.000747184,136,158,8.58995,0.1,20.4833,0.1,1.076
0.723219,0.729338,0.711347,0.717336,-0.0203524,-0.000813981,-0.0200183,-0.000757241,137,160,8.69348,0.1,20.6341,0.1,1.08
0.723137,0.729334,0.711266,0.717333,-0.0204851,-0.000801772,-0.0201488,-0.000677573,138,163,8.79757,0.1,20.7862,0.1,1.084
0.723055,0.729332,0.711185,0.71733,-0.020618,-0.00070726,-0.0202795,-0.000710834,140,164,8.90245,0.1,20.9402,0.1,1.088
0.722972,0.729331,0.711104,0.717327,-0.0207513,-0.000615462,-0.0204106,-0.000733007,141,166,9.00856,0.1,21.0953,0.1,1.092
0.722889,0.729329,0.711022,0.717323,-0.0208848,-0.000525471,-0.0205419,-0.000834163,143,167,9.11589,0.1,21.2513,0.1,1.096
0.722805,0.729327,0.71094,0.71732,-0.0210186,-0.00052306,-0.0206736,-0.000786436,144,169,9.22439,0.1,21.4077,0.1,1.1
0.722721,0.729325,0.710857,0.717317,-0.0211527,-0.000550243,-0.0208055,-0.0008122,145,171,9.33358,0.1,21.5659,0.1,1.104
0.722636,0.729322,0.710773,0.717313,-0.0212871,-0.000597156,-0.0209377,-0.000886958,146,172,9.4433,0.1,21.725,0.1,1.108
0.72255,0.729319,0.710689,0.717309,-0.0214218,-0.000628431,-0.0210702,-0.000879214,147,174,9.55345,0.1,21.8848,0.1,1.112
0.722465,0.729317,0.710605,0.717306,-0.0215568,-0.000649282,-0.0212029,-0.000845261,148,176,9.66411,0.1,22.0459,0.1,1.116
0.722378,0.729314,0.71052,0.717303,-0.0216921,-0.000663182,-0.021336,-0.000851417,149,178,9.77535,0.1,22.2087,0.1,1.12
0.722291,0.729312,0.710434,0.717299,-0.0218276,-0.000614867,-0.0214693,-0.00085552,150,180,9.88723,0.1,22.3727,0.1,1.124
0.722203,0.72931,0.710348,0.717295,-0.0219634,-0.000553866,-0.0216029,-0.000915838,152,181,10.0001,0.1,22.5379,0.1,1.128
0.722115,0.729309,0.710261,0.717291,-0.0220995,-0.000455617,-0.0217367,-0.000927259,154,183,10.114,0.1,22.7039,0.1,1.132
0.722027,0.729309,0.710174,0.717287,-0.0222359,-0.000332535,-0.0218709,-0.000992455,156,185,10.2292,0.1,22.871,0.1,1.136
0.721937,0.729309,0.710086,0.717282,-0.0223726,-0.00022169,-0.0220053,-0.0010935,157,186,10.3459,0.1,23.0387,0.1,1.14
0.721848,0.729308,0.709998,0.717275,-0.0225095,-0.000176584,-0.02214,-0.00127603,159,186,10.4638,0.1,23.2067,0.1,1.144
0.721757,0.729308,0.709909,0.717269,-0.0226467,-0.000146514,-0.0222749,-0.00139771,160,187,10.5827,0.1,23.3743,0.1,1.148
0.721666,0.729307,0.70982,0.717262,-0.0227842,-0.000184049,-0.0224102,-0.00150763,161,188,10.7024,0.1,23.5419,0.1,1.152
0.721575,0.729306,0.70973,0.717253,-0.022922,-0.000209072,-0.0225457,-0.00169607,162,188,10.8226,0.1,23.7097,0.1,1.156
0.721483,0.729304,0.709639,0.717244,-0.02306,-0.000312127,-0.0226814,-0.00193686,163,187,10.9434,0.1,23.8769,0.1,1.16
0.721391,0.729302,0.709548,0.717233,-0.0231983,-0.00038083,-0.0228175,-0.00221255,164,187,11.0643,0.1,24.0431,0.1,1.164
0.721298,0.729299,0.709457,0.717221,-0.0233369,-0.000484214,-0.0229538,-0.00248271,164,186,11.1855,0.1,24.2078,0.1,1.168
0.721204,0.729296,0.709365,0.717208,-0.0234757,-0.000581928,-0.0230903,-0.00272041,165,186,11.3068,0.1,24.3711,0.1,1.172
0.72111,0.729292,0.709272,0.717196,-0.0236148,-0.000704652,-0.0232271,-0.00282129,165,187,11.4282,0.1,24.5335,0.1,1.176
0.721015,0.729288,0.709179,0.717184,-0.0237542,-0.000786468,-0.0233642,-0.00288854,166,188,11.5497,0.1,24.6963,0.1,1.18
0.72092,0.729284,0.709085,0.717172,-0.0238938,-0.000869803,-0.0235016,-0.00287579,167,190,11.6714,0.1,24.8597,0.1,1.184
0.720824,0.72928,0.708991,0.717161,-0.0240337,-0.000896569,-0.0236392,-0.00283851,168,193,11.7933,0.1,25.0247,0.1,1.188
0.720727,0.729277,0.708896,0.71715,-0.0241738,-0.000885622,-0.023777,-0.00281365,169,195,11.9159,0.1,25.1913,0.1,1.192
0.72063,0.729274,0.708801,0.717139,-0.0243143,-0.000820742,-0.0239151,-0.00282586,171,197,12.0392,0.1,25.3595,0.1,1.196
0.720533,0.729272,0.708705,0.717127,-0.0244549,-0.000719907,-0.0240535,-0.00289159,173,198,12.1637,0.1,25.5289,0.1,1.2
0.720435,0.72927,0.708608,0.717113,-0.0245959,-0.000623893,-0.0241921,-0.00305057,174,199,12.2894,0.1,25.699,0.1,1.204
0.720336,0.729269,0.708511,0.717098,-0.024737,-0.000531092,-0.024331,-0.00327173,176,199,12.4165,0.1,25.8688,0.1,1.208
0.720237,0.729267,0.708414,0.717081,-0.0248785,-0.000498016,-0.0244701,-0.00359191,178,197,12.5447,0.1,26.0377,0.1,1.212
0.720137,0.729265,0.708315,0.717066,-0.0250202,-0.000504756,-0.0246095,-0.0036902,179,199,12.6739,0.1,26.2048,0.1,1.216
0.720037,0.729263,0.708217,0.717051,-0.0251621,-0.000538041,-0.0247491,-0.00372693,180,200,12.8038,0.1,26.3724,0.1,1.22
0.719936,0.729259,0.708117,0.717035,-0.0253043,-0.000646603,-0.0248889,-0.00375142,180,202,12.9341,0.1,26.541,0.1,1.224
0.719834,0.729255,0.708018,0.717019,-0.0254468,-0.000805351,-0.025029,-0.00388291,181,203,13.0646,0.1,26.7106,0.1,1.228
0.719732,0.72925,0.707917,0.717002,-0.0255895,-0.000939973,-0.0251694,-0.00399936,181,204,13.1948,0.1,26.8803,0.1,1.232
0.71963,0.729245,0.707816,0.716985,-0.0257324,-0.00105851,-0.02531,-0.00410579,182,205,13.3251,0.1,27.0503,0.1,1.236
0.719526,0.729239,0.707715,0.716966,-0.0258756,-0.00116633,-0.0254508,-0.0042919,183,205,13.4553,0.1,27.2204,0.1,1.24
0.719423,0.729233,0.707613,0.716948,-0.026019,-0.00132458,-0.0255919,-0.00438719,183,206,13.5857,0.1,27.3902,0.1,1.244
0.719318,0.729227,0.70751,0.716932,-0.0261627,-0.0013725,-0.0257332,-0.00419159,184,210,13.7159,0.1,27.5605,0.1,1.248
0.719213,0.729222,0.707407,0.716917,-0.0263066,-0.00131807,-0.0258748,-0.0040612,186,213,13.8467,0.1,27.7341,0.1,1.252
0.719108,0.729218,0.707303,0.716901,-0.0264508,-0.00119542,-0.0260166,-0.00406064,188,215,13.9785,0.1,27.9104,0.1,1.256
0.719002,0.729215,0.707199,0.716883,-0.0265952,-0.00102727,-0.0261586,-0.00417543,190,216,14.1118,0.1,28.0879,0.1,1.26
0.718895,0.729214,0.707094,0.716864,-0.0267398,-0.000800011,-0.0263008,-0.0044247,192,216,14.2468,0.1,28.2656,0.1,1.264
0.718788,0.729213,0.706988,0.716844,-0.0268847,-0.000590923,-0.0264433,-0.00459088,195,217,14.3839,0.1,28.4423,0.1,1.268
0.71868,0.729213,0.706882,0.716824,-0.0270298,-0.000422739,-0.0265861,-0.00470167,197,218,14.5229,0.1,28.6187,0.1,1.272
0.718572,0.729213,0.706776,0.716803,-0.0271751,-0.000281826,-0.026729,-0.00489069,199,218,14.6637,0.1,28.7953,0.1,1.276
0.718463,0.729212,0.706668,0.716782,-0.0273207,-0.000245466,-0.0268722,-0.0050455,201,218,14.8059,0.1,28.9715,0.1,1.28
0.718353,0.729211,0.706561,0.716761,-0.0274665,-0.000221226,-0.0270156,-0.00511991,202,220,14.9491,0.1,29.1475,0.1,1.284
0.718243,0.72921,0.706452,0.71674,-0.0276125,-0.000233857,-0.0271592,-0.00516952,203,221,15.0932,0.1,29.3242,0.1,1.288
0.718132,0.729209,0.706343,0.716719,-0.0277588,-0.000299859,-0.0273031,-0.00514501,204,224,15.2379,0.1,29.5019,0.1,1.292
0.718021,0.729207,0.706234,0.7167,-0.0279053,-0.000343861,-0.0274472,-0.00501351,205,227,15.383,0.1,29.6813,0.1,1.296
0.717909,0.729205,0.706124,0.716684,-0.028052,-0.000401986,-0.0275915,-0.0047243,207,232,15.5286,0.1,29.8634,0.1,1.3
0.717796,0.729203,0.706013,0.71667,-0.0281989,-0.000411945,-0.027736,-0.00430117,208,238,15.6746,0.1,30.0499,0.1,1.304
0.717683,0.729201,0.705902,0.716659,-0.0283461,-0.000418585,-0.0278808,-0.00375997,209,246,15.8213,0.1,30.2421,0.1,1.308
0.71757,0.7292,0.70579,0.716651,-0.0284935,-0.000423011,-0.0280258,-0.00314005,210,254,15.9687,0.1,30.4412,0.1,1.312
0.717455,0.729198,0.705678,0.716646,-0.0286411,-0.000425962,-0.028171,-0.00255402,212,262,16.1169,0.1,30.6478,0.1,1.316
0.71734,0.729197,0.705565,0.716641,-0.028789,-0.000399138,-0.0283164,-0.00210575,213,268,16.2657,0.1,30.8615,0.1,1.32
0.717225,0.729195,0.705451,0.716637,-0.028937,-0.000381256,-0.028462,-0.00172053,215,274,16.4155,0.1,31.0811,0.1,1.324
0.717109,0.729194,0.705337,0.716634,-0.0290853,-0.000369334,-0.0286078,-0.00143493,216,279,16.5661,0.1,31.3059,0.1,1.328
0.716992,0.729192,0.705222,0.716631,-0.0292338,-0.000361387,-0.0287539,-0.00121574,218,284,16.7176,0.1,31.5348,0.1,1.332
0.716875,0.729191,0.705107,0.716627,-0.0293825,-0.000384879,-0.0289001,-0.0010984,219,287,16.8698,0.1,31.7673,0.1,1.336
0.716757,0.729189,0.704991,0.716625,-0.0295314,-0.00037175,-0.0290466,-0.000962596,220,291,17.0227,0.1,32.0023,0.1,1.34
0.716639,0.729188,0.704875,0.716621,-0.0296805,-0.000391788,-0.0291933,-0.00092964,222,294,17.1763,0.1,32.24,0.1,1.344
0.71652,0.729186,0.704757,0.716616,-0.0298299,-0.000405146,-0.0293402,-0.00102283,223,295,17.3306,0.1,32.4793,0.1,1.348
0.7164,0.729184,0.70464,0.716612,-0.0299794,-0.000414052,-0.0294873,-0.00102738,224,297,17.4856,0.1,32.7191,0.1,1.352
0.71628,0.729182,0.704522,0.716607,-0.0301292,-0.00044878,-0.0296346,-0.00114557,225,299,17.6413,0.1,32.9601,0.1,1.356
0.716159,0.729179,0.704403,0.716601,-0.0302792,-0.000529514,-0.0297821,-0.00119558,226,300,17.7975,0.1,33.2014,0.1,1.36
0.716038,0.729176,0.704283,0.716597,-0.0304293,-0.000640919,-0.0299298,-0.00117134,227,303,17.954,0.1,33.4436,0.1,1.364
0.715916,0.729171,0.704163,0.716592,-0.0305797,-0.000859143,-0.0300777,-0.00115517,227,305,18.1106,0.1,33.6874,0.1,1.368
0.715793,0.729165,0.704043,0.716589,-0.0307303,-0.00103342,-0.0302259,-0.00102923,228,309,18.2666,0.1,33.9329,0.1,1.372
0.71567,0.729159,0.703921,0.716588,-0.0308811,-0.00123597,-0.0303742,-0.00083011,228,313,18.4225,0.1,34.1809,0.1,1.376
0.715546,0.729152,0.7038,0.716585,-0.0310321,-0.00134222,-0.0305227,-0.000754943,229,317,18.5779,0.1,34.4323,0.1,1.38
0.715422,0.729146,0.703677,0.716583,-0.0311833,-0.00144184,-0.0306714,-0.000676041,230,320,18.7335,0.1,34.6858,0.1,1.384
0.715297,0.729139,0.703554,0.716581,-0.0313347,-0.00153704,-0.0308203,-0.00065223,230,322,18.8893,0.1,34.9415,0.1,1.388
0.715171,0.729132,0.703431,0.716577,-0.0314863,-0.00157172,-0.0309694,-0.00072273,232,324,19.0453,0.1,35.1987,0.1,1.392
0.715045,0.729126,0.703307,0.716574,-0.0316381,-0.00156605,-0.0311187,-0.000769729,233,326,19.2019,0.1,35.4566,0.1,1.396
0.714918,0.72912,0.703182,0.716569,-0.0317901,-0.00156227,-0.0312682,-0.000887435,235,327,19.3593,0.1,35.7154,0.1,1.4
0.71479,0.729114,0.703056,0.716564,-0.0319423,-0.00153096,-0.0314179,-0.00102349,236,328,19.5175,0.1,35.9744,0.1,1.404
0.714662,0.729107,0.70293,0.716556,-0.0320946,-0.00159646,-0.0315678,-0.00131572,237,328,19.6766,0.1,36.2333,0.1,1.408
0.714534,0.729104,0.702804,0.716552,-0.0322472,-0.00129463,-0.0317178,-0.00122264,240,331,19.8363,0.1,36.4909,0.1,1.412
0.714404,0.729101,0.702677,0.716546,-0.0324,-0.00112221,-0.0318681,-0.00133333,243,333,19.9985,0.1,36.7506,0.1,1.416
0.714274,0.729099,0.702549,0.71654,-0.0325529,-0.000949675,-0.0320185,-0.00143591,245,334,20.1624,0.1,37.0107,0.1,1.42
0.714144,0.729098,0.702421,0.716533,-0.0327061,-0.000719489,-0.0321692,-0.00153309,248,336,20.3281,0.1,37.2712,0.1,1.424
0.714013,0.729097,0.702292,0.716526,-0.0328594,-0.000566032,-0.03232,-0.00159788,250,338,20.4959,0.1,37.532,0.1,1.428
0.713881,0.729096,0.702162,0.716518,-0.0330129,-0.000406146,-0.032471,-0.00169865,253,339,20.6653,0.1,37.7937,0.1,1.432
0.713749,0.729096,0.702032,0.71651,-0.0331666,-0.000299555,-0.0326221,-0.00179463,255,341,20.8364,0.1,38.0557,0.1,1.436
0.713616,0.729096,0.701901,0.716503,-0.0333205,-0.000199703,-0.0327735,-0.00177224,257,343,21.009,0.1,38.3182,0.1,1.44
0.713482,0.729095,0.70177,0.716497,-0.0334745,-0.000190717,-0.032925,-0.00169973,258,346,21.1828,0.1,38.5823,0.1,1.444
0.713348,0.729095,0.701638,0.716493,-0.0336288,-0.000184727,-0.0330767,-0.00147864,260,351,21.3574,0.1,38.8487,0.1,1.448
0.713213,0.729093,0.701505,0.716491,-0.0337832,-0.000238315,-0.0332286,-0.00115851,261,357,21.5329,0.1,39.1187,0.1,1.452
0.713078,0.729092,0.701372,0.71649,-0.0339378,-0.00027404,-0.0333807,-0.000858711,262,362,21.7088,0.1,39.3933,0.1,1.456
0.712942,0.72909,0.701238,0.716489,-0.0340926,-0.00038423,-0.0335329,-0.000630056,263,367,21.8852,0.1,39.6722,0.1,1.46
0.712805,0.729086,0.701104,0.716489,-0.0342476,-0.000515272,-0.0336854,-0.000448828,264,371,22.0617,0.1,39.9548,0.1,1.464
0.712668,0.729082,0.700968,0.716488,-0.0344027,-0.000689006,-0.0338379,-0.000356801,264,375,22.2383,0.1,40.2406,0.1,1.468
0.71253,0.729077,0.700833,0.716487,-0.034558,-0.000891201,-0.0339907,-0.000295449,265,378,22.4146,0.1,40.5287,0.1,1.472
0.712391,0.729071,0.700697,0.716485,-0.0347135,-0.00108358,-0.0341436,-0.000369712,265,380,22.5905,0.1,40.8186,0.1,1.476
0.712252,0.729063,0.70056,0.716483,-0.0348691,-0.00138458,-0.0342967,-0.000448011,265,381,22.7661,0.1,41.1093,0.1,1.48
0.712112,0.729054,0.700422,0.716481,-0.035025,-0.00170041,-0.03445,-0.000442629,265,384,22.9406,0.1,41.4006,0.1,1.484
0.711972,0.729041,0.700284,0.716479,-0.035181,-0.00217008,-0.0346034,-0.000496622,264,386,23.1141,0.1,41.6933,0.1,1.488
0.711831,0.729026,0.700145,0.716478,-0.0353371,-0.00274231,-0.034757,-0.000388663,262,390,23.2856,0.1,41.9869,0.1,1.492
0.711689,0.729008,0.700006,0.716477,-0.0354935,-0.00329654,-0.0349108,-0.000345482,260,393,23.4545,0.1,42.283,0.1,1.496
0.711547,0.72899,0.699866,0.716476,-0.03565,-0.00369482,-0.0350647,-0.000316694,260,396,23.6211,0.1,42.5809,0.1,1.5
0.711404,0.728971,0.699725,0.716474,-0.0358066,-0.0041043,-0.0352188,-0.000383875,259,398,23.7862,0.1,42.8804,0.1,1.504
0.71126,0.72895,0.699584,0.716472,-0.0359634,-0.00443486,-0.0353731,-0.000428662,258,400,23.9497,0.1,43.1807,0.1,1.508
0.711116,0.728929,0.699443,0.716469,-0.0361204,-0.00474161,-0.0355275,-0.000487311,258,402,24.1122,0.1,43.4819,0.1,1.512
0.710971,0.728905,0.6993,0.716466,-0.0362776,-0.00514765,-0.0356821,-0.000641574,257,403,24.2736,0.1,43.7839,0.1,1.516
0.710826,0.728877,0.699157,0.71646,-0.0364349,-0.00573504,-0.0358368,-0.000888371,256,403,24.4334,0.1,44.0857,0.1,1.52
0.71068,0.728845,0.699013,0.716452,-0.0365924,-0.0065585,-0.0359917,-0.00122565,252,403,24.5905,0.1,44.3863,0.1,1.524
0.710533,0.728807,0.698869,0.716443,-0.03675,-0.00753933,-0.0361467,-0.00162324,248,402,24.7436,0.1,44.685,0.1,1.528
0.710386,0.728763,0.698724,0.716431,-0.0369078,-0.00865388,-0.0363019,-0.00206105,244,400,24.8917,0.1,44.9811,0.1,1.532
0.710238,0.728714,0.698579,0.716418,-0.0370657,-0.00985756,-0.0364572,-0.00246809,238,399,25.0342,0.1,45.2743,0.1,1.536
0.710089,0.728655,0.698433,0.716404,-0.0372238,-0.0114662,-0.0366127,-0.00282582,231,398,25.1704,0.1,45.5648,0.1,1.54
0.70994,0.728588,0.698286,0.716388,-0.0373821,-0.0132296,-0.0367684,-0.00320826,222,397,25.298,0.1,45.8532,0.1,1.544
0.70979,0.728512,0.698138,0.716374,-0.0375405,-0.0152113,-0.0369242,-0.00331927,212,398,25.4162,0.1,46.1393,0.1,1.548
0.70964,0.728429,0.69799,0.716362,-0.037699,-0.0169931,-0.0370801,-0.00322053,204,402,25.5239,0.1,46.4259,0.1,1.552
0.709489,0.728339,0.697842,0.716355,-0.0378577,-0.0188432,-0.0372362,-0.00272284,195,409,25.622,0.1,46.7151,0.1,1.556
0.709337,0.728239,0.697693,0.71635,-0.0380166,-0.0209115,-0.0373925,-0.0022183,184,417,25.7103,0.1,47.0107,0.1,1.56
0.709185,0.728133,0.697543,0.716348,-0.0381755,-0.022751,-0.0375489,-0.00165161,175,425,25.7875,0.1,47.3128,0.1,1.564
0.709031,0.72802,0.697392,0.716346,-0.0383347,-0.0246396,-0.0377054,-0.00127382,166,431,25.8549,0.1,47.6219,0.1,1.568
0.708878,0.727897,0.697241,0.716345,-0.038494,-0.0266471,-0.0378621,-0.000906795,156,437,25.9123,0.1,47.9362,0.1,1.572
0.708724,0.727767,0.697089,0.716343,-0.0386534,-0.0285902,-0.0380189,-0.000748485,146,442,25.959,0.1,48.2555,0.1,1.576
0.708569,0.72763,0.696937,0.716342,-0.038813,-0.0304613,-0.0381758,-0.000642944,137,445,25.9954,0.1,48.5777,0.1,1.58
0.708413,0.727486,0.696784,0.716339,-0.0389727,-0.0322846,-0.0383329,-0.000630166,128,448,26.0219,0.1,48.9023,0.1,1.584
0.708257,0.727341,0.69663,0.716336,-0.0391326,-0.0336728,-0.0384902,-0.00070802,121,450,26.0389,0.1,49.2285,0.1,1.588
0.7081,0.727187,0.696476,0.716332,-0.0392925,-0.0352893,-0.0386475,-0.000817504,113,452,26.0488,0.1,49.5552,0.1,1.592
0.707942,0.727033,0.696321,0.716326,-0.0394527,-0.0362806,-0.038805,-0.000976867,108,453,26.0506,0.1,49.8823,0.1,1.596
0.707784,0.726876,0.696165,0.716319,-0.0396129,-0.0373445,-0.0389627,-0.00128464,103,453,26.0475,0.1,50.209,0.1,1.6
0.707626,0.726714,0.696009,0.71631,-0.0397734,-0.0383993,-0.0391204,-0.00160499,98,453,26.0393,0.1,50.5341,0.1,1.604
0.707466,0.726549,0.695852,0.716298,-0.0399339,-0.0392752,-0.0392783,-0.0020201,94,451,26.0261,0.1,50.8574,0.1,1.608
0.707306,0.72638,0.695695,0.716285,-0.0400946,-0.0403198,-0.0394364,-0.00246958,89,450,26.0087,0.1,51.1779,0.1,1.612
0.707145,0.726205,0.695537,0.716272,-0.0402554,-0.0414769,-0.0395945,-0.00274044,84,450,25.9862,0.1,51.4955,0.1,1.616
0.706984,0.726033,0.695378,0.716261,-0.0404163,-0.0419891,-0.0397528,-0.00271948,82,453,25.9583,0.1,51.8119,0.1,1.62
0.706822,0.72586,0.695219,0.716254,-0.0405774,-0.0423594,-0.0399113,-0.0024176,80,458,25.9286,0.1,52.1302,0.1,1.624
0.706659,0.72568,0.695059,0.71625,-0.0407386,-0.0432397,-0.0400698,-0.00195722,76,466,25.8975,0.1,52.4529,0.1,1.628
0.706496,0.725508,0.694898,0.716248,-0.0408999,-0.0431931,-0.0402285,-0.00141998,78,474,25.8627,0.1,52.7818,0.1,1.632
0.706332,0.725327,0.694737,0.716248,-0.0410614,-0.0438819,-0.0403873,-0.000946652,75,481,25.8289,0.1,53.1174,0.1,1.636
0.706168,0.725146,0.694575,0.716248,-0.0412229,-0.0442834,-0.0405462,-0.000631101,73,487,25.7923,0.1,53.459,0.1,1.64
0.706002,0.724962,0.694413,0.716248,-0.0413846,-0.0449254,-0.0407053,-0.000449525,70,492,25.7542,0.1,53.8052,0.1,1.644
0.705837,0.724776,0.69425,0.716248,-0.0415465,-0.0454398,-0.0408644,-0.000328474,68,496,25.7135,0.1,54.1546,0.1,1.648
0.70567,0.724591,0.694086,0.716247,-0.0417084,-0.0456676,-0.0410237,-0.000276565,68,499,25.6711,0.1,54.5065,0.1,1.652
0.705503,0.724404,0.693921,0.716245,-0.0418705,-0.0460497,-0.0411831,-0.000328331,67,501,25.6282,0.1,54.8603,0.1,1.656
0.705335,0.724209,0.693756,0.716244,-0.0420327,-0.0469091,-0.0413427,-0.000334051,63,504,25.584,0.1,55.2151,0.1,1.66
0.705167,0.72402,0.693591,0.716241,-0.042195,-0.0470214,-0.0415023,-0.000481819,63,506,25.5362,0.1,55.5711,0.1,1.664
0.704998,0.723833,0.693424,0.716238,-0.0423574,-0.0469811,-0.0416621,-0.000580331,64,507,25.4888,0.1,55.9271,0.1,1.668
0.704828,0.723641,0.693257,0.716234,-0.0425199,-0.0472709,-0.0418219,-0.000703588,63,509,25.4425,0.1,56.2835,0.1,1.672
0.704657,0.723447,0.69309,0.71623,-0.0426826,-0.0476944,-0.0419819,-0.000785759,61,511,25.3956,0.1,56.6401,0.1,1.676
0.704486,0.723248,0.692922,0.716225,-0.0428454,-0.0483799,-0.042142,-0.000926912,58,513,25.3472,0.1,56.9973,0.1,1.68
0.704315,0.723059,0.692753,0.71622,-0.0430082,-0.0480019,-0.0423022,-0.00102101,61,515,25.2963,0.1,57.3545,0.1,1.684
0.704142,0.722863,0.692583,0.716214,-0.0431712,-0.0483545,-0.0424626,-0.0012277,60,516,25.2483,0.1,57.7121,0.1,1.688
0.703969,0.722668,0.692413,0.716206,-0.0433344,-0.0484744,-0.042623,-0.00148066,60,516,25.1994,0.1,58.0691,0.1,1.692
0.703796,0.72247,0.692242,0.716195,-0.0434976,-0.0488423,-0.0427835,-0.00190842,59,515,25.1508,0.1,58.4249,0.1,1.696
0.703621,0.722274,0.692071,0.716179,-0.0436609,-0.0489148,-0.0429442,-0.00259666,59,511,25.1012,0.1,58.7777,0.1,1.7
0.703446,0.722075,0.691899,0.716158,-0.0438243,-0.0491358,-0.0431049,-0.00348735,59,505,25.0521,0.1,59.1249,0.1,1.704
0.703271,0.721878,0.691726,0.716129,-0.0439879,-0.0491968,-0.0432658,-0.00468576,59,497,25.0029,0.1,59.4645,0.1,1.708
0.703094,0.721671,0.691553,0.716091,-0.0441515,-0.0500724,-0.0434267,-0.00629084,55,484,24.9541,0.1,59.7934,0.1,1.712
0.702917,0.721477,0.691378,0.716046,-0.0443153,-0.0495333,-0.0435878,-0.0079943,59,470,24.9018,0.1,60.1077,0.1,1.716
0.70274,0.72128,0.691204,0.715988,-0.0444791,-0.0494331,-0.043749,-0.0101664,61,452,24.8535,0.1,60.4061,0.1,1.72
0.702562,0.721079,0.691028,0.715916,-0.0446431,-0.0496829,-0.0439102,-0.0127373,60,429,24.8067,0.1,60.6842,0.1,1.724
0.702383,0.72088,0.690853,0.715831,-0.0448071,-0.0497343,-0.0440716,-0.0156029,61,404,24.7596,0.1,60.9379,0.1,1.728
0.702203,0.720672,0.690676,0.715727,-0.0449713,-0.0504595,-0.044233,-0.0190392,57,373,24.7129,0.1,61.1643,0.1,1.732
0.702023,0.72047,0.690499,0.715608,-0.0451355,-0.05054,-0.0443946,-0.0226257,58,341,24.6634,0.1,61.3578,0.1,1.736
0.701842,0.720269,0.690321,0.715474,-0.0452999,-0.0503633,-0.0445563,-0.0262259,59,308,24.6145,0.1,61.5171,0.1,1.74
0.701661,0.720063,0.690142,0.715319,-0.0454643,-0.0508213,-0.044718,-0.0304686,58,269,24.5675,0.1,61.6417,0.1,1.744
0.701478,0.719868,0.689963,0.715158,-0.0456289,-0.0501189,-0.0448799,-0.0336714,63,240,24.5194,0.1,61.7262,0.1,1.748
0.701296,0.719664,0.689783,0.714977,-0.0457935,-0.0503993,-0.0450418,-0.037534,62,205,24.476,0.1,61.78,0.1,1.752
0.701112,0.71946,0.689603,0.71479,-0.0459583,-0.0505862,-0.0452038,-0.0405986,62,177,24.4321,0.1,61.7974,0.1,1.756
0.700928,0.719255,0.689422,0.714591,-0.0461231,-0.0507971,-0.0453659,-0.0436781,61,149,24.3882,0.1,61.786,0.1,1.76
0.700743,0.719051,0.68924,0.714389,-0.046288,-0.050909,-0.0455281,-0.0459326,61,129,24.3443,0.1,61.7461,0.1,1.764
0.700558,0.718844,0.689057,0.714184,-0.046453,-0.0511563,-0.0456904,-0.0477524,61,113,24.3007,0.1,61.6857,0.1,1.768
0.700371,0.718638,0.688874,0.713979,-0.0466181,-0.0512348,-0.0458528,-0.0488791,61,103,24.2568,0.1,61.6094,0.1,1.772
0.700185,0.718434,0.688691,0.713775,-0.0467833,-0.0512008,-0.0460153,-0.0496303,62,97,24.2136,0.1,61.5239,0.1,1.776
0.699997,0.718228,0.688506,0.713572,-0.0469486,-0.0512932,-0.0461779,-0.0499584,63,96,24.1716,0.1,61.433,0.1,1.78
0.699809,0.718022,0.688321,0.713373,-0.0471139,-0.0513261,-0.0463405,-0.0498891,63,98,24.1303,0.1,61.341,0.1,1.784
0.69962,0.717814,0.688135,0.71317,-0.0472794,-0.0515495,-0.0465032,-0.0501885,63,96,24.0897,0.1,61.2513,0.1,1.788
0.699431,0.717607,0.687949,0.712969,-0.0474449,-0.0516121,-0.046666,-0.0502441,64,97,24.0489,0.1,61.1607,0.1,1.792
0.699241,0.717402,0.687762,0.712764,-0.0476105,-0.0515675,-0.0468289,-0.0505403,65,96,24.0089,0.1,61.0713,0.1,1.796
0.69905,0.717187,0.687574,0.712552,-0.0477762,-0.0522575,-0.0469919,-0.0514,62,89,23.9699,0.1,60.9805,0.1,1.8
0.698858,0.716983,0.687386,0.712347,-0.0479419,-0.051825,-0.0471549,-0.0513109,65,91,23.9285,0.1,60.8836,0.1,1.804
0.698666,0.716773,0.687197,0.712135,-0.0481078,-0.0520549,-0.0473181,-0.0518849,65,87,23.8904,0.1,60.7891,0.1,1.808
0.698474,0.716564,0.687008,0.711925,-0.0482737,-0.0521505,-0.0474813,-0.0520948,65,86,23.8521,0.1,60.6909,0.1,1.812
0.69828,0.716352,0.686817,0.711709,-0.0484397,-0.0523871,-0.0476445,-0.052753,64,81,23.8142,0.1,60.5923,0.1,1.816
0.698086,0.716141,0.686626,0.711495,-0.0486058,-0.0525448,-0.0478079,-0.0529902,64,80,23.776,0.1,60.4893,0.1,1.82
0.697891,0.715929,0.686435,0.71128,-0.0487719,-0.0526787,-0.0479713,-0.0532348,65,79,23.7381,0.1,60.3858,0.1,1.824
0.697696,0.715716,0.686243,0.711062,-0.0489382,-0.0528831,-0.0481348,-0.0535993,64,77,23.7003,0.1,60.2817,0.1,1.828
0.6975,0.715502,0.68605,0.710847,-0.0491045,-0.0530482,-0.0482984,-0.0537272,64,77,23.6625,0.1,60.176,0.1,1.832
0.697303,0.715289,0.685856,0.710629,-0.0492708,-0.0531583,-0.048462,-0.0539852,64,76,23.6249,0.1,60.0709,0.1,1.836
0.697106,0.715072,0.685662,0.710411,-0.0494373,-0.0535195,-0.0486257,-0.0541572,63,76,23.5875,0.1,59.9651,0.1,1.84
0.696908,0.714857,0.685467,0.710192,-0.0496038,-0.0536164,-0.0487895,-0.0543007,64,76,23.5492,0.1,59.8595,0.1,1.844
0.696709,0.714636,0.685272,0.70997,-0.0497704,-0.0541705,-0.0489534,-0.0546842,61,74,23.5113,0.1,59.7544,0.1,1.848
0.696509,0.714417,0.685076,0.709756,-0.049937,-0.0543383,-0.0491173,-0.0543353,61,78,23.4713,0.1,59.6476,0.1,1.852
0.696309,0.714205,0.684879,0.70955,-0.0501037,-0.0538456,-0.0492812,-0.0533541,65,89,23.4318,0.1,59.5466,0.1,1.856
0.696109,0.713986,0.684681,0.709342,-0.0502705,-0.0541505,-0.0494453,-0.0529016,64,95,23.3959,0.1,59.457,0.1,1.86
0.695907,0.713769,0.684483,0.70914,-0.0504374,-0.0542386,-0.0496094,-0.0521104,64,104,23.3593,0.1,59.374,0.1,1.864
0.695705,0.713548,0.684285,0.708937,-0.0506043,-0.0545853,-0.0497736,-0.0516981,63,110,23.3232,0.1,59.3006,0.1,1.868
0.695502,0.713322,0.684085,0.708732,-0.0507712,-0.0551907,-0.0499378,-0.0514809,61,113,23.286,0.1,59.2331,0.1,1.872
0.695299,0.713107,0.683885,0.708539,-0.0509383,-0.0547017,-0.0501021,-0.0504147,65,125,23.2469,0.1,59.1701,0.1,1.876
0.695095,0.712885,0.683684,0.708342,-0.0511054,-0.0549804,-0.0502664,-0.0500206,64,130,23.2114,0.1,59.1192,0.1,1.88
0.69489,0.712662,0.683483,0.708144,-0.0512725,-0.0552525,-0.0504308,-0.0498443,63,134,23.1752,0.1,59.0741,0.1,1.884
0.694685,0.71244,0.683281,0.707948,-0.0514397,-0.05529,-0.0505953,-0.0495828,64,138,23.1387,0.1,59.0325,0.1,1.888
0.694479,0.712215,0.683078,0.707753,-0.051607,-0.0556317,-0.0507598,-0.0493221,63,142,23.1029,0.1,58.9955,0.1,1.892
0.694272,0.711985,0.682875,0.707547,-0.0517743,-0.0562338,-0.0509244,-0.050012,60,137,23.066,0.1,58.9623,0.1,1.896
0.694064,0.711768,0.682671,0.707354,-0.0519417,-0.0555987,-0.051089,-0.0494354,65,144,23.0273,0.1,58.9248,0.1,1.9
0.693856,0.711541,0.682466,0.707153,-0.0521091,-0.0559526,-0.0512537,-0.0497421,64,143,22.9929,0.1,58.8944,0.1,1.904
0.693648,0.711309,0.682261,0.706942,-0.0522766,-0.0566492,-0.0514184,-0.0507238,61,135,22.9573,0.1,58.8624,0.1,1.908
0.693438,0.711085,0.682055,0.706738,-0.0524441,-0.0564227,-0.0515832,-0.0508025,63,136,22.9191,0.1,58.8229,0.1,1.912
0.693228,0.710861,0.681848,0.706533,-0.0526117,-0.0562716,-0.051748,-0.0509702,64,136,22.8833,0.1,58.7845,0.1,1.916
0.693017,0.710636,0.681641,0.706326,-0.0527793,-0.0562861,-0.0519129,-0.0511971,65,135,22.8494,0.1,58.7461,0.1,1.92
0.692806,0.710409,0.681433,0.706113,-0.052947,-0.0564685,-0.0520778,-0.0519242,65,130,22.8164,0.1,58.7071,0.1,1.924
0.692594,0.710175,0.681224,0.705896,-0.0531147,-0.0571083,-0.0522428,-0.0526968,62,124,22.7832,0.1,58.6626,0.1,1.928
0.692381,0.709952,0.681015,0.705686,-0.0532825,-0.0567,-0.0524078,-0.0526649,66,126,22.7479,0.1,58.6127,0.1,1.932
0.692167,0.709721,0.680805,0.705469,-0.0534503,-0.0570323,-0.0525729,-0.0531618,65,122,22.7156,0.1,58.5646,0.1,1.936
0.691953,0.709491,0.680594,0.705253,-0.0536182,-0.0571675,-0.052738,-0.0534356,65,121,22.6826,0.1,58.5136,0.1,1.94
0.691738,0.709259,0.680383,0.705033,-0.0537861,-0.0574304,-0.0529032,-0.0539347,64,118,22.6498,0.1,58.4615,0.1,1.944
0.691523,0.709028,0.680171,0.704817,-0.0539541,-0.057548,-0.0530683,-0.0540084,64,119,22.6166,0.1,58.4066,0.1,1.948
0.691307,0.708795,0.679958,0.704596,-0.054122,-0.0577992,-0.0532336,-0.0543742,64,117,22.5837,0.1,58.3526,0.1,1.952
0.69109,0.708564,0.679745,0.704382,-0.0542901,-0.0578227,-0.0533989,-0.0541286,65,121,22.5505,0.1,58.2971,0.1,1.956
0.690872,0.70833,0.679531,0.704171,-0.0544581,-0.05804,-0.0535642,-0.0536482,64,127,22.5182,0.1,58.2461,0.1,1.96
0.690654,0.70809,0.679317,0.703958,-0.0546263,-0.0586454,-0.0537295,-0.0535295,62,130,22.4856,0.1,58.2015,0.1,1.964
0.690435,0.70786,0.679101,0.703763,-0.0547944,-0.0582429,-0.0538949,-0.0519532,65,146,22.4509,0.1,58.1607,0.1,1.968
0.690216,0.707625,0.678885,0.703567,-0.0549626,-0.0584352,-0.0540603,-0.0509023,65,158,22.4194,0.1,58.1372,0.1,1.972
0.689996,0.70739,0.678669,0.703377,-0.0551308,-0.0585346,-0.0542258,-0.0498275,65,170,22.3878,0.1,58.1261,0.1,1.976
0.689775,0.707153,0.678452,0.703185,-0.0552991,-0.0588313,-0.0543913,-0.0491973,64,178,22.3567,0.1,58.1272,0.1,1.98
0.689553,0.706917,0.678234,0.703,-0.0554673,-0.0588562,-0.0545568,-0.0482013,65,190,22.325,0.1,58.1367,0.1,1.984
0.689331,0.706681,0.678015,0.702813,-0.0556357,-0.0589305,-0.0547224,-0.0477101,66,196,22.2942,0.1,58.1576,0.1,1.988
0.689108,0.706443,0.677796,0.702625,-0.055804,-0.0591239,-0.0548879,-0.0475266,65,200,22.264,0.1,58.1851,0.1,1.992
0.688885,0.706192,0.677576,0.702426,-0.0559724,-0.0602894,-0.0550536,-0.0482104,60,195,22.2333,0.1,58.2157,0.1,1.996
0.68866,0.705964,0.677356,0.702242,-0.0561408,-0.0591949,-0.0552192,-0.0474858,67,204,22.1978,0.1,58.2419,0.1,2
0.688436,0.705726,0.677134,0.702053,-0.0563092,-0.0593002,-0.0553849,-0.0474346,67,206,22.1693,0.1,58.2768,0.1,2.004
0.68821,0.705486,0.676912,0.70186,-0.0564777,-0.0595144,-0.0555506,-0.0476884,67,205,22.1411,0.1,58.3138,0.1,2.008
0.687984,0.705247,0.67669,0.70167,-0.0566462,-0.0596284,-0.0557163,-0.0476561,67,208,22.1129,0.1,58.3502,0.1,2.012
0.687757,0.705,0.676467,0.701476,-0.0568147,-0.060309,-0.055882,-0.0478936,64,207,22.0848,0.1,58.3886,0.1,2.016
0.687529,0.704759,0.676243,0.70129,-0.0569832,-0.0603308,-0.0560478,-0.0474762,65,213,22.054,0.1,58.4266,0.1,2.02
0.687301,0.704516,0.676018,0.701103,-0.0571518,-0.0604606,-0.0562136,-0.0472267,65,217,22.0242,0.1,58.4705,0.1,2.024
0.687072,0.704274,0.675793,0.700921,-0.0573204,-0.0604895,-0.0563794,-0.0466573,66,225,21.9947,0.1,58.5189,0.1,2.028
0.686842,0.704036,0.675567,0.700744,-0.057489,-0.0601633,-0.0565453,-0.0457882,69,235,21.9663,0.1,58.5747,0.1,2.032
0.686612,0.703793,0.675341,0.700567,-0.0576576,-0.0603489,-0.0567111,-0.045324,68,241,21.9406,0.1,58.6409,0.1,2.036
0.686381,0.70355,0.675114,0.700386,-0.0578263,-0.0604438,-0.056877,-0.0452449,69,244,21.915,0.1,58.7131,0.1,2.04
0.68615,0.703306,0.674886,0.70021,-0.0579949,-0.0606798,-0.0570429,-0.0448754,68,250,21.8898,0.1,58.7881,0.1,2.044
0.685917,0.703059,0.674657,0.700032,-0.0581636,-0.06101,-0.0572088,-0.0447155,67,253,21.8642,0.1,58.8683,0.1,2.048
0.685684,0.702814,0.674428,0.699854,-0.0583323,-0.0610573,-0.0573747,-0.0446952,68,255,21.8379,0.1,58.9518,0.1,2.052
0.685451,0.702569,0.674198,0.699673,-0.058501,-0.0611752,-0.0575407,-0.0448833,68,256,21.8123,0.1,59.0371,0.1,2.056
0.685216,0.702319,0.673968,0.699493,-0.0586697,-0.0615705,-0.0577066,-0.0448935,67,258,21.787,0.1,59.1223,0.1,2.06
0.684981,0.702071,0.673737,0.699312,-0.0588385,-0.0617189,-0.0578726,-0.0449866,67,259,21.7605,0.1,59.2091,0.1,2.064
0.684745,0.701824,0.673505,0.699132,-0.0590072,-0.0617314,-0.0580386,-0.0450199,68,260,21.7342,0.1,59.2967,0.1,2.068
0.684509,0.701573,0.673272,0.69895,-0.059176,-0.0621141,-0.0582045,-0.0451573,67,261,21.7088,0.1,59.3856,0.1,2.072
0.684272,0.701323,0.673039,0.698772,-0.0593447,-0.0621964,-0.0583705,-0.044961,67,265,21.6823,0.1,59.475,0.1,2.076
0.684034,0.701072,0.672805,0.698593,-0.0595135,-0.0623665,-0.0585366,-0.0449165,67,267,21.6564,0.1,59.5679,0.1,2.08
0.683796,0.70082,0.672571,0.698414,-0.0596823,-0.062595,-0.0587026,-0.0448292,67,270,21.6305,0.1,59.6631,0.1,2.084
0.683557,0.700564,0.672336,0.698233,-0.0598511,-0.0630353,-0.0588686,-0.0449438,65,271,21.6042,0.1,59.7607,0.1,2.088
0.683317,0.700315,0.6721,0.698056,-0.0600199,-0.0628394,-0.0590346,-0.0447611,67,275,21.5767,0.1,59.859,0.1,2.092
0.683077,0.700061,0.671863,0.697876,-0.0601887,-0.0630255,-0.0592007,-0.044812,67,277,21.5512,0.1,59.9608,0.1,2.096
0.682836,0.699816,0.671626,0.697701,-0.0603575,-0.0624585,-0.0593667,-0.0444717,71,282,21.526,0.1,60.0639,0.1,2.1
0.682594,0.699567,0.671389,0.69752,-0.0605263,-0.0623397,-0.0595327,-0.0447054,73,282,21.5051,0.1,60.1717,0.1,2.104
0.682351,0.699318,0.67115,0.69734,-0.0606952,-0.0623756,-0.0596988,-0.0448037,74,283,21.4859,0.1,60.2791,0.1,2.108
0.682108,0.699069,0.670911,0.697159,-0.060864,-0.0622844,-0.0598648,-0.0449844,75,283,21.4677,0.1,60.387,0.1,2.112
0.681865,0.698819,0.670671,0.696975,-0.0610328,-0.0623388,-0.0600309,-0.0453351,76,282,21.4509,0.1,60.4948,0.1,2.116
0.68162,0.698575,0.670431,0.696791,-0.0612016,-0.0618856,-0.0601969,-0.0455114,79,282,21.4352,0.1,60.6008,0.1,2.12
0.681375,0.698328,0.67019,0.696603,-0.0613704,-0.0618426,-0.060363,-0.0460032,80,280,21.423,0.1,60.7066,0.1,2.124
0.681129,0.698084,0.669948,0.696417,-0.0615392,-0.0615836,-0.060529,-0.0461871,83,280,21.4123,0.1,60.8093,0.1,2.128
0.680883,0.697852,0.669705,0.696232,-0.061708,-0.0604032,-0.060695,-0.0462233,91,281,21.4046,0.1,60.9119,0.1,2.132
0.680635,0.697622,0.669462,0.696044,-0.0618768,-0.0594436,-0.0608611,-0.046449,97,281,21.405,0.1,61.0158,0.1,2.136
0.680388,0.697392,0.669218,0.695853,-0.0620456,-0.0587462,-0.0610271,-0.0469162,102,279,21.412,0.1,61.1189,0.1,2.14
0.680139,0.697173,0.668974,0.69566,-0.0622144,-0.0574464,-0.0611931,-0.0473428,111,277,21.4246,0.1,61.2191,0.1,2.144
0.67989,0.696959,0.668729,0.695462,-0.0623832,-0.056148,-0.0613591,-0.0480879,120,272,21.446,0.1,61.3166,0.1,2.148
0.67964,0.69675,0.668483,0.695262,-0.062552,-0.0548505,-0.0615251,-0.0487285,128,267,21.4763,0.1,61.4083,0.1,2.152
0.679389,0.696558,0.668237,0.695067,-0.0627208,-0.0525747,-0.0616911,-0.0487238,143,269,21.5159,0.1,61.4957,0.1,2.156
0.679138,0.696372,0.66799,0.694868,-0.0628895,-0.0505393,-0.0618571,-0.0490949,156,268,21.57,0.1,61.5846,0.1,2.16
0.678886,0.696202,0.667742,0.694668,-0.0630583,-0.0478868,-0.0620231,-0.0493423,172,268,21.6377,0.1,61.6716,0.1,2.164
0.678634,0.69604,0.667493,0.69447,-0.063227,-0.0453987,-0.0621891,-0.0493921,188,269,21.7224,0.1,61.7579,0.1,2.168
0.678381,0.695894,0.667244,0.694277,-0.0633957,-0.0424444,-0.062355,-0.0490222,207,275,21.8232,0.1,61.8456,0.1,2.172
0.678127,0.695759,0.666995,0.694082,-0.0635644,-0.0394959,-0.062521,-0.0489483,225,277,21.9428,0.1,61.9386,0.1,2.176
0.677872,0.695631,0.666744,0.69389,-0.0637331,-0.0370408,-0.0626869,-0.0486112,241,283,22.0808,0.1,62.0342,0.1,2.18
0.677617,0.695508,0.666493,0.693693,-0.0639018,-0.0349435,-0.0628528,-0.0488471,255,282,22.2345,0.1,62.1345,0.1,2.184
0.677361,0.695391,0.666241,0.693504,-0.0640704,-0.0329982,-0.0630187,-0.0483421,268,289,22.4017,0.1,62.2346,0.1,2.188
0.677104,0.695275,0.665989,0.69331,-0.0642391,-0.0316725,-0.0631845,-0.048351,277,291,22.5813,0.1,62.3411,0.1,2.192
0.676847,0.69516,0.665736,0.693116,-0.0644077,-0.03076,-0.0633504,-0.0483857,284,293,22.7696,0.1,62.4493,0.1,2.196
0.676589,0.695046,0.665482,0.692927,-0.0645763,-0.0299501,-0.0635162,-0.0480634,290,298,22.9643,0.1,62.5589,0.1,2.2
0.67633,0.694927,0.665228,0.692728,-0.0647449,-0.0299284,-0.063682,-0.0485682,292,295,23.1644,0.1,62.6731,0.1,2.204
0.676071,0.694802,0.664973,0.692527,-0.0649134,-0.0303458,-0.0638478,-0.0491351,292,292,23.3654,0.1,62.7838,0.1,2.208
0.675811,0.694671,0.664717,0.692322,-0.065082,-0.0311423,-0.0640136,-0.0498874,289,287,23.5647,0.1,62.8905,0.1,2.212
0.67555,0.694531,0.664461,0.692116,-0.0652505,-0.0324218,-0.0641793,-0.0503888,283,284,23.7598,0.1,62.9915,0.1,2.216
0.675289,0.694385,0.664203,0.691901,-0.065419,-0.0338219,-0.0643451,-0.0515293,277,275,23.9481,0.1,63.0888,0.1,2.22
0.675027,0.694233,0.663946,0.691696,-0.0655874,-0.0351872,-0.0645108,-0.0513971,270,278,24.129,0.1,63.177,0.1,2.224
0.674764,0.69407,0.663687,0.691483,-0.0657559,-0.0370186,-0.0646764,-0.0520287,261,274,24.3023,0.1,63.2679,0.1,2.228
0.674501,0.693904,0.663428,0.691276,-0.0659243,-0.0385563,-0.0648421,-0.0519604,254,277,24.4656,0.1,63.3546,0.1,2.232
0.674237,0.693726,0.663169,0.691067,-0.0660927,-0.040474,-0.0650077,-0.05203,244,278,24.6204,0.1,63.4436,0.1,2.236
0.673972,0.693541,0.662908,0.690855,-0.066261,-0.0424146,-0.0651733,-0.0523931,235,277,24.7646,0.1,63.5334,0.1,2.24
0.673707,0.693349,0.662647,0.690642,-0.0664293,-0.0442841,-0.0653388,-0.0526351,225,276,24.898,0.1,63.6213,0.1,2.244
0.673441,0.693139,0.662386,0.690419,-0.0665976,-0.0469988,-0.0655044,-0.0536602,211,268,25.0208,0.1,63.7082,0.1,2.248
0.673174,0.692935,0.662123,0.690208,-0.0667659,-0.048348,-0.0656699,-0.0533935,204,273,25.1287,0.1,63.7871,0.1,2.252
0.672907,0.692711,0.66186,0.689985,-0.0669341,-0.0509173,-0.0658353,-0.0541658,191,267,25.2289,0.1,63.8699,0.1,2.256
0.672639,0.692485,0.661597,0.689765,-0.0671023,-0.0527453,-0.0660008,-0.0544216,182,267,25.3149,0.1,63.9469,0.1,2.26
0.67237,0.692257,0.661332,0.68955,-0.0672705,-0.0541944,-0.0661662,-0.0542178,174,271,25.391,0.1,64.0234,0.1,2.264
0.6721,0.692017,0.661067,0.689331,-0.0674386,-0.0561681,-0.0663315,-0.0543986,164,271,25.4591,0.1,64.1033,0.1,2.268
0.67183,0.691769,0.660802,0.689108,-0.0676067,-0.0580597,-0.0664968,-0.0548647,154,268,25.5163,0.1,64.1831,0.1,2.272
0.67156,0.691518,0.660535,0.688887,-0.0677747,-0.0596662,-0.0666621,-0.0549739,146,269,25.5632,0.1,64.26,0.1,2.276
0.671288,0.691251,0.660268,0.68866,-0.0679427,-0.0619753,-0.0668274,-0.0555361,134,266,25.6011,0.1,64.3373,0.1,2.28
0.671016,0.690992,0.660001,0.688442,-0.0681107,-0.0629676,-0.0669926,-0.0552199,129,271,25.6267,0.1,64.4112,0.1,2.284
0.670743,0.690716,0.659732,0.688218,-0.0682786,-0.0649248,-0.0671578,-0.0555274,119,270,25.6468,0.1,64.4896,0.1,2.288
0.67047,0.690439,0.659463,0.687992,-0.0684465,-0.0664023,-0.0673229,-0.0557899,111,269,25.6563,0.1,64.5666,0.1,2.292
0.670196,0.690158,0.659194,0.687768,-0.0686143,-0.067704,-0.067488,-0.0558786,105,270,25.658,0.1,64.6428,0.1,2.296
0.669921,0.68987,0.658923,0.687542,-0.0687822,-0.0690901,-0.067653,-0.0560817,98,270,25.6529,0.1,64.7198,0.1,2.3
0.669645,0.689585,0.658653,0.687321,-0.0689499,-0.0697838,-0.067818,-0.055814,94,275,25.6407,0.1,64.7967,0.1,2.304
0.669369,0.689292,0.658381,0.687091,-0.0691176,-0.0709948,-0.067983,-0.0563553,88,272,25.6252,0.1,64.8775,0.1,2.308
0.669092,0.688995,0.658109,0.686859,-0.0692853,-0.0720325,-0.0681479,-0.0568889,83,268,25.6034,0.1,64.9546,0.1,2.312
0.668815,0.688695,0.657836,0.686622,-0.0694529,-0.073041,-0.0683128,-0.0576765,78,263,25.5764,0.1,65.0279,0.1,2.316
0.668537,0.688388,0.657562,0.686382,-0.0696205,-0.0742603,-0.0684776,-0.0584895,72,257,25.5443,0.1,65.0951,0.1,2.32
0.668258,0.688082,0.657288,0.686142,-0.069788,-0.0749868,-0.0686424,-0.0590315,69,253,25.5061,0.1,65.156,0.1,2.324
0.667978,0.687773,0.657013,0.685899,-0.0699555,-0.0757591,-0.0688071,-0.0595368,65,250,25.4646,0.1,65.2132,0.1,2.328
0.667698,0.687471,0.656737,0.685662,-0.0701229,-0.0757269,-0.0689718,-0.0594417,66,253,25.4199,0.1,65.2673,0.1,2.332
0.667418,0.687164,0.656461,0.685422,-0.0702903,-0.076051,-0.0691364,-0.0596663,65,253,25.3763,0.1,65.3239,0.1,2.336
0.667136,0.686854,0.656184,0.685178,-0.0704576,-0.0765261,-0.069301,-0.0601327,63,250,25.3318,0.1,65.3799,0.1,2.34
0.666854,0.686545,0.655907,0.684935,-0.0706249,-0.0767853,-0.0694655,-0.0602997,63,250,25.2855,0.1,65.4331,0.1,2.344
0.666571,0.686234,0.655629,0.684691,-0.0707921,-0.0770732,-0.06963,-0.060555,62,250,25.2389,0.1,65.4863,0.1,2.348
0.666288,0.685923,0.65535,0.684448,-0.0709593,-0.0773228,-0.0697944,-0.0605812,61,251,25.1916,0.1,65.5388,0.1,2.352
0.666003,0.685612,0.65507,0.684205,-0.0711264,-0.0774316,-0.0699588,-0.0606563,61,253,25.1439,0.1,65.5927,0.1,2.356
0.665718,0.685302,0.65479,0.683965,-0.0712934,-0.0775041,-0.0701231,-0.060476,62,256,25.0968,0.1,65.6477,0.1,2.36
0.665433,0.684993,0.654509,0.683725,-0.0714604,-0.0774085,-0.0702873,-0.0602695,63,260,25.0503,0.1,65.7063,0.1,2.364
0.665147,0.684683,0.654228,0.683483,-0.0716273,-0.0774311,-0.0704515,-0.0603333,64,261,25.0056,0.1,65.7684,0.1,2.368
0.66486,0.684375,0.653946,0.683244,-0.0717942,-0.0772447,-0.0706156,-0.0601455,66,265,24.9619,0.1,65.8318,0.1,2.372
0.664572,0.684069,0.653663,0.683007,-0.071961,-0.0770628,-0.0707797,-0.0598764,68,270,24.9204,0.1,65.8987,0.1,2.376
0.664284,0.683753,0.653379,0.682761,-0.0721278,-0.0776613,-0.0709437,-0.0604455,65,266,24.8808,0.1,65.9697,0.1,2.38
0.663995,0.683455,0.653095,0.682528,-0.0722945,-0.0766208,-0.0711077,-0.0596733,72,275,24.8395,0.1,66.0372,0.1,2.384
0.663706,0.68315,0.652811,0.682289,-0.0724611,-0.0765029,-0.0712716,-0.0596767,74,277,24.8051,0.1,66.1138,0.1,2.388
0.663416,0.682844,0.652525,0.682045,-0.0726276,-0.0765107,-0.0714354,-0.0601397,75,275,24.7726,0.1,66.1919,0.1,2.392
0.663125,0.682529,0.652239,0.681792,-0.0727941,-0.0772357,-0.0715992,-0.0611681,71,267,24.7407,0.1,66.2667,0.1,2.396
0.662833,0.682234,0.651952,0.681553,-0.0729606,-0.0761067,-0.0717629,-0.060702,79,273,24.7064,0.1,66.3336,0.1,2.4
0.662541,0.681933,0.651665,0.681304,-0.073127,-0.0758147,-0.0719265,-0.0612263,82,270,24.6797,0.1,66.4064,0.1,2.404
0.662248,0.681632,0.651377,0.681055,-0.0732933,-0.07562,-0.0720901,-0.0616046,84,268,24.6559,0.1,66.4757,0.1,2.408
0.661955,0.681324,0.651088,0.680799,-0.0734595,-0.0760661,-0.0722536,-0.062375,82,263,24.634,0.1,66.5428,0.1,2.412
0.661661,0.681028,0.650799,0.680549,-0.0736256,-0.0753845,-0.072417,-0.062428,87,264,24.6111,0.1,66.6041,0.1,2.416
0.661366,0.680732,0.650509,0.680299,-0.0737917,-0.0749302,-0.0725804,-0.0624633,91,266,24.5933,0.1,66.6667,0.1,2.42
0.66107,0.680435,0.650218,0.680045,-0.0739578,-0.0746561,-0.0727437,-0.0627459,93,265,24.5793,0.1,66.7305,0.1,2.424
0.660774,0.680133,0.649927,0.679782,-0.0741237,-0.0749916,-0.0729069,-0.0637405,92,257,24.5678,0.1,66.7927,0.1,2.428
0.660477,0.679847,0.649635,0.67953,-0.0742896,-0.0738045,-0.0730701,-0.0635398,101,261,24.5561,0.1,66.8473,0.1,2.432
0.66018,0.679555,0.649342,0.679269,-0.0744554,-0.0735601,-0.0732332,-0.0640683,103,257,24.5523,0.1,66.9053,0.1,2.436
0.659882,0.679267,0.649049,0.679007,-0.0746211,-0.0730517,-0.0733962,-0.0645933,107,254,24.5513,0.1,66.9596,0.1,2.44
0.659583,0.678979,0.648755,0.678745,-0.0747868,-0.0726552,-0.0735591,-0.0649145,110,253,24.5544,0.1,67.0106,0.1,2.444
0.659283,0.678695,0.648461,0.678478,-0.0749524,-0.0720741,-0.073722,-0.0654741,115,249,24.5611,0.1,67.0598,0.1,2.448
0.658983,0.678416,0.648166,0.678214,-0.0751179,-0.0713125,-0.0738848,-0.0656745,121,249,24.5726,0.1,67.1054,0.1,2.452
0.658682,0.67814,0.64787,0.67795,-0.0752833,-0.0705744,-0.0740475,-0.0657505,126,250,24.5898,0.1,67.1507,0.1,2.456
0.658381,0.677869,0.647573,0.677684,-0.0754487,-0.0696217,-0.0742101,-0.0660027,133,250,24.6128,0.1,67.1969,0.1,2.46
0.658079,0.677593,0.647276,0.677414,-0.0756139,-0.0693896,-0.0743727,-0.0665163,135,247,24.6424,0.1,67.2421,0.1,2.464
0.657776,0.677337,0.646978,0.677157,-0.0757791,-0.0675938,-0.0745351,-0.0657934,147,255,24.6753,0.1,67.2845,0.1,2.468
0.657473,0.677079,0.64668,0.676893,-0.0759442,-0.0665694,-0.0746975,-0.065801,155,257,24.72,0.1,67.3354,0.1,2.472
0.657169,0.676824,0.646381,0.676628,-0.0761093,-0.0656849,-0.0748599,-0.0659499,161,258,24.7719,0.1,67.3879,0.1,2.476
0.656864,0.676574,0.646081,0.67636,-0.0762742,-0.064577,-0.0750221,-0.066366,169,255,24.8305,0.1,67.4405,0.1,2.48
0.656558,0.67633,0.64578,0.67609,-0.0764391,-0.0633777,-0.0751842,-0.0667009,178,254,24.8971,0.1,67.4906,0.1,2.484
0.656252,0.676091,0.645479,0.67582,-0.0766038,-0.0621751,-0.0753463,-0.066953,186,253,24.9721,0.1,67.5391,0.1,2.488
0.655946,0.675855,0.645178,0.675543,-0.0767685,-0.0611431,-0.0755083,-0.0677544,194,247,25.0556,0.1,67.5865,0.1,2.492
0.655638,0.675625,0.644875,0.675262,-0.0769331,-0.0599368,-0.0756702,-0.0685766,202,241,25.1465,0.1,67.6276,0.1,2.496
0.65533,0.675408,0.644572,0.674991,-0.0770977,-0.0580098,-0.075832,-0.0682611,215,246,25.2464,0.1,67.6627,0.1,2.5
0.655021,0.675194,0.644269,0.674715,-0.0772621,-0.0564948,-0.0759938,-0.0685401,226,245,25.359,0.1,67.7023,0.1,2.504
0.654712,0.674986,0.643964,0.674438,-0.0774264,-0.0550241,-0.0761554,-0.0687549,236,245,25.482,0.1,67.7409,0.1,2.508
0.654402,0.67478,0.643659,0.67416,-0.0775907,-0.0538421,-0.076317,-0.0690133,245,244,25.615,0.1,67.7791,0.1,2.512
0.654091,0.674577,0.643354,0.673876,-0.0777548,-0.0528238,-0.0764784,-0.0697326,252,239,25.7563,0.1,67.8161,0.1,2.516
0.65378,0.674376,0.643048,0.673594,-0.0779189,-0.0519434,-0.0766398,-0.069953,259,238,25.9049,0.1,67.8479,0.1,2.52
0.653468,0.674185,0.642741,0.673319,-0.0780829,-0.0505503,-0.0768011,-0.0695817,269,244,26.0603,0.1,67.8794,0.1,2.524
0.653155,0.67399,0.642433,0.673038,-0.0782468,-0.0499959,-0.0769623,-0.0697948,274,244,26.2248,0.1,67.9161,0.1,2.528
0.652842,0.673801,0.642125,0.672759,-0.0784106,-0.0490792,-0.0771234,-0.0697929,281,245,26.394,0.1,67.9525,0.1,2.532
0.652528,0.673616,0.641816,0.672484,-0.0785743,-0.048065,-0.0772844,-0.0694462,289,250,26.57,0.1,67.9908,0.1,2.536
0.652213,0.673429,0.641507,0.6722,-0.0787379,-0.047648,-0.0774453,-0.069906,293,248,26.7529,0.1,68.0337,0.1,2.54
0.651898,0.673245,0.641197,0.671916,-0.0789014,-0.0471397,-0.0776062,-0.0702702,298,246,26.9395,0.1,68.0739,0.1,2.544
0.651582,0.673057,0.640886,0.671623,-0.0790648,-0.0470312,-0.0777669,-0.0712615,300,238,27.13,0.1,68.1117,0.1,2.548
0.651266,0.672879,0.640574,0.67134,-0.0792281,-0.0461814,-0.0779275,-0.071145,307,241,27.3225,0.1,68.1419,0.1,2.552
0.650948,0.672703,0.640262,0.671054,-0.0793913,-0.045471,-0.078088,-0.0712113,313,242,27.5213,0.1,68.1748,0.1,2.556
0.65063,0.672528,0.63995,0.670769,-0.0795544,-0.0449398,-0.0782485,-0.0712843,318,243,27.7254,0.1,68.2088,0.1,2.56
0.650312,0.672357,0.639636,0.670485,-0.0797175,-0.0441538,-0.0784088,-0.0711314,325,246,27.9339,0.1,68.2438,0.1,2.564
0.649993,0.672189,0.639322,0.670202,-0.0798804,-0.0435146,-0.0785691,-0.0710583,331,249,28.1483,0.1,68.282,0.1,2.568
0.649673,0.672023,0.639008,0.669919,-0.0800432,-0.0428006,-0.0787292,-0.0709232,337,252,28.3676,0.1,68.3227,0.1,2.572
0.649352,0.671859,0.638693,0.669635,-0.0802059,-0.0422382,-0.0788892,-0.0709483,342,254,28.5923,0.1,68.3662,0.1,2.576
0.649031,0.671697,0.638377,0.66935,-0.0803685,-0.0416042,-0.0790492,-0.0710226,348,255,28.8215,0.1,68.4112,0.1,2.58
0.648709,0.671537,0.63806,0.669065,-0.080531,-0.0411239,-0.079209,-0.0711009,353,256,29.0556,0.1,68.4571,0.1,2.584
0.648387,0.671379,0.637743,0.668779,-0.0806934,-0.0405158,-0.0793687,-0.0712683,358,256,29.2937,0.1,68.5038,0.1,2.588
0.648064,0.671219,0.637425,0.668485,-0.0808557,-0.0403407,-0.0795284,-0.0719845,361,251,29.5363,0.1,68.5502,0.1,2.592
0.64774,0.671065,0.637107,0.668193,-0.0810179,-0.0397922,-0.0796879,-0.072318,367,249,29.7812,0.1,68.5914,0.1,2.596
0.647416,0.670912,0.636788,0.667896,-0.0811799,-0.0392825,-0.0798473,-0.0729434,372,245,30.0305,0.1,68.6307,0.1,2.6
0.647091,0.670758,0.636468,0.667594,-0.0813419,-0.0390003,-0.0800066,-0.073821,375,238,30.2838,0.1,68.6652,0.1,2.604
0.646765,0.670609,0.636148,0.667299,-0.0815038,-0.0384379,-0.0801658,-0.0738302,381,240,30.54,0.1,68.6932,0.1,2.608
0.646439,0.670457,0.635827,0.666998,-0.0816655,-0.0382645,-0.0803249,-0.0743258,384,237,30.8005,0.1,68.7224,0.1,2.612
0.646112,0.670305,0.635505,0.666688,-0.0818272,-0.0381776,-0.0804839,-0.0753184,387,229,31.063,0.1,68.7481,0.1,2.616
0.645784,0.670158,0.635183,0.666388,-0.0819887,-0.0377167,-0.0806428,-0.0752028,391,231,31.3272,0.1,68.7662,0.1,2.62
0.645456,0.67001,0.63486,0.666084,-0.0821501,-0.0374958,-0.0808015,-0.0755,395,230,31.5952,0.1,68.7869,0.1,2.624
0.645127,0.66986,0.634536,0.665777,-0.0823114,-0.0374349,-0.0809602,-0.0759573,397,228,31.8654,0.1,68.8062,0.1,2.628
0.644797,0.669713,0.634212,0.665473,-0.0824726,-0.0371927,-0.0811187,-0.0759166,401,230,32.1371,0.1,68.8228,0.1,2.632
0.644467,0.669568,0.633888,0.665169,-0.0826337,-0.0369449,-0.0812772,-0.0759471,404,231,32.4112,0.1,68.8415,0.1,2.636
0.644136,0.669421,0.633562,0.664862,-0.0827946,-0.0368661,-0.0814355,-0.0762265,407,230,32.6878,0.1,68.8615,0.1,2.64
0.643805,0.669276,0.633236,0.664557,-0.0829555,-0.0366696,-0.0815937,-0.0762689,410,231,32.9659,0.1,68.8804,0.1,2.644
0.643473,0.669126,0.632909,0.664245,-0.0831162,-0.0369129,-0.0817518,-0.0768153,411,228,33.246,0.1,68.9003,0.1,2.648
0.64314,0.668982,0.632582,0.66394,-0.0832768,-0.0366432,-0.0819097,-0.0766614,415,231,33.5258,0.1,68.9168,0.1,2.652
0.642806,0.668833,0.632254,0.663629,-0.0834373,-0.0368089,-0.0820676,-0.0770194,416,229,33.808,0.1,68.9363,0.1,2.656
0.642472,0.668682,0.631925,0.663319,-0.0835976,-0.0371497,-0.0822253,-0.0771142,416,230,34.09,0.1,68.954,0.1,2.66
0.642138,0.668527,0.631596,0.663003,-0.0837579,-0.0376648,-0.0823829,-0.0777819,415,225,34.3708,0.1,68.972,0.1,2.664
0.641802,0.668373,0.631266,0.6627,-0.083918,-0.0379506,-0.0825404,-0.0770755,415,233,34.6494,0.1,68.9859,0.1,2.668
0.641466,0.668213,0.630936,0.662392,-0.084078,-0.0386018,-0.0826978,-0.0770364,413,235,34.927,0.1,69.008,0.1,2.672
0.64113,0.668051,0.630605,0.662083,-0.0842379,-0.0392375,-0.0828551,-0.0771542,412,236,35.2014,0.1,69.0322,0.1,2.676
0.640792,0.667887,0.630273,0.661775,-0.0843977,-0.039834,-0.0830122,-0.0771177,410,238,35.4728,0.1,69.0569,0.1,2.68
0.640454,0.667719,0.629941,0.661467,-0.0845573,-0.0405772,-0.0831692,-0.0770357,408,240,35.7413,0.1,69.0836,0.1,2.684
0.640116,0.667552,0.629608,0.661161,-0.0847168,-0.0409575,-0.0833261,-0.0768659,407,244,36.0062,0.1,69.1129,0.1,2.688
0.639777,0.667383,0.629274,0.660855,-0.0848762,-0.0413837,-0.0834829,-0.0767239,407,247,36.2697,0.1,69.1454,0.1,2.692
0.639437,0.66721,0.62894,0.660543,-0.0850354,-0.0419846,-0.0836395,-0.0771763,405,244,36.5314,0.1,69.1808,0.1,2.696
0.639096,0.667046,0.628605,0.660248,-0.0851946,-0.0416654,-0.083796,-0.0760383,409,257,36.7907,0.1,69.214,0.1,2.7
0.638755,0.666879,0.62827,0.659947,-0.0853536,-0.041683,-0.0839524,-0.0757691,411,261,37.0528,0.1,69.2598,0.1,2.704
0.638414,0.666715,0.627933,0.659645,-0.0855124,-0.0414643,-0.0841087,-0.0756472,415,264,37.316,0.1,69.3099,0.1,2.708
0.638071,0.66655,0.627597,0.659339,-0.0856712,-0.0413762,-0.0842648,-0.0759978,417,263,37.5814,0.1,69.3625,0.1,2.712
0.637728,0.666389,0.627259,0.659033,-0.0858298,-0.0410007,-0.0844208,-0.0761452,422,263,37.8485,0.1,69.4133,0.1,2.716
0.637385,0.666231,0.626921,0.658724,-0.0859883,-0.0405776,-0.0845767,-0.0765313,426,261,38.1189,0.1,69.4641,0.1,2.72
0.63704,0.666077,0.626583,0.658411,-0.0861466,-0.0398637,-0.0847324,-0.0771055,433,257,38.3932,0.1,69.5126,0.1,2.724
0.636695,0.66592,0.626243,0.658087,-0.0863048,-0.0396757,-0.0848881,-0.0784095,436,246,38.6728,0.1,69.5565,0.1,2.728
0.63635,0.665775,0.625904,0.657775,-0.0864629,-0.0384851,-0.0850435,-0.0782424,445,249,38.9551,0.1,69.5898,0.1,2.732
0.636004,0.665629,0.625563,0.657457,-0.0866209,-0.0378353,-0.0851989,-0.0786781,452,247,39.2456,0.1,69.6261,0.1,2.736
0.635657,0.665483,0.625222,0.657137,-0.0867787,-0.0374021,-0.0853541,-0.0791124,457,244,39.5412,0.1,69.6597,0.1,2.74
0.635309,0.665339,0.62488,0.656815,-0.0869363,-0.0369117,-0.0855092,-0.0796036,462,241,39.8405,0.1,69.6905,0.1,2.744
0.634961,0.665194,0.624538,0.656487,-0.0870939,-0.0366712,-0.0856642,-0.0803916,465,235,40.1439,0.1,69.7178,0.1,2.748
0.634613,0.665053,0.624195,0.65616,-0.0872513,-0.036223,-0.085819,-0.0808306,470,233,40.4498,0.1,69.7391,0.1,2.752
0.634263,0.664913,0.623851,0.655836,-0.0874086,-0.0358378,-0.0859737,-0.080893,475,234,40.7596,0.1,69.7579,0.1,2.756
0.633913,0.664774,0.623507,0.655508,-0.0875657,-0.0354946,-0.0861282,-0.08128,480,232,41.0727,0.1,69.7774,0.1,2.76
0.633563,0.664638,0.623162,0.655181,-0.0877227,-0.0349491,-0.0862826,-0.0813941,485,232,41.3892,0.1,69.7949,0.1,2.764
0.633212,0.664501,0.622817,0.654852,-0.0878795,-0.0347582,-0.0864369,-0.0816429,489,231,41.7099,0.1,69.8128,0.1,2.768
0.63286,0.664367,0.622471,0.654525,-0.0880362,-0.034343,-0.086591,-0.0817512,494,232,42.033,0.1,69.8298,0.1,2.772
0.632507,0.664232,0.622124,0.654195,-0.0881928,-0.0341238,-0.086745,-0.0819385,497,232,42.3596,0.1,69.8474,0.1,2.776
0.632154,0.664096,0.621777,0.653865,-0.0883492,-0.0340352,-0.0868989,-0.0821786,500,231,42.6885,0.1,69.8647,0.1,2.78
0.631801,0.663961,0.621429,0.653526,-0.0885055,-0.0339762,-0.0870526,-0.0830296,503,224,43.0189,0.1,69.8809,0.1,2.784
0.631446,0.663824,0.62108,0.653188,-0.0886616,-0.034052,-0.0872062,-0.0835106,505,221,43.3507,0.1,69.8904,0.1,2.788
0.631091,0.66369,0.620731,0.652856,-0.0888176,-0.0338434,-0.0873596,-0.083313,508,225,43.683,0.1,69.8971,0.1,2.792
0.630736,0.663554,0.620382,0.652522,-0.0889734,-0.0339347,-0.0875129,-0.0834116,510,225,44.0176,0.1,69.9073,0.1,2.796
0.630379,0.663418,0.620031,0.652191,-0.0891291,-0.0339955,-0.087666,-0.0831607,512,229,44.3525,0.1,69.9182,0.1,2.8
0.630023,0.663281,0.61968,0.651859,-0.0892847,-0.0340649,-0.087819,-0.0831373,514,231,44.688,0.1,69.9332,0.1,2.804
0.629665,0.663139,0.619329,0.651524,-0.0894401,-0.0345142,-0.0879718,-0.0833521,514,231,45.0239,0.1,69.9499,0.1,2.808
0.629307,0.662994,0.618976,0.651185,-0.0895953,-0.0351017,-0.0881246,-0.0838119,512,228,45.3578,0.1,69.9659,0.1,2.812
0.628948,0.662848,0.618624,0.650846,-0.0897504,-0.0355509,-0.0882771,-0.0841185,512,227,45.6889,0.1,69.979,0.1,2.816
0.628589,0.662699,0.61827,0.650512,-0.0899054,-0.0361095,-0.0884295,-0.0838911,511,230,46.0181,0.1,69.9909,0.1,2.82
0.628229,0.662549,0.617916,0.650175,-0.0900602,-0.0366258,-0.0885818,-0.0840273,510,231,46.3447,0.1,70.0065,0.1,2.824
0.627869,0.662395,0.617562,0.649838,-0.0902148,-0.0372292,-0.0887339,-0.0841181,509,231,46.6689,0.1,70.0224,0.1,2.828
0.627507,0.66224,0.617206,0.649499,-0.0903693,-0.037689,-0.0888859,-0.0842939,508,231,46.9903,0.1,70.0389,0.1,2.832
0.627146,0.662082,0.616851,0.64916,-0.0905237,-0.0383122,-0.0890377,-0.0844398,507,231,47.3096,0.1,70.0553,0.1,2.836
0.626783,0.661924,0.616494,0.648821,-0.0906779,-0.0387277,-0.0891893,-0.0845947,506,232,47.626,0.1,70.0718,0.1,2.84
0.62642,0.661767,0.616137,0.648482,-0.0908319,-0.0388896,-0.0893408,-0.0846404,508,233,47.9409,0.1,70.0884,0.1,2.844
0.626057,0.661608,0.615779,0.648141,-0.0909858,-0.039199,-0.0894922,-0.0848435,508,232,48.2556,0.1,70.1061,0.1,2.848
0.625692,0.661452,0.615421,0.647803,-0.0911395,-0.0390886,-0.0896434,-0.0846911,511,235,48.5696,0.1,70.1235,0.1,2.852
0.625327,0.661293,0.615062,0.647462,-0.0912931,-0.0393317,-0.0897944,-0.0848486,512,235,48.885,0.1,70.1439,0.1,2.856
0.624962,0.661135,0.614703,0.647119,-0.0914465,-0.0394074,-0.0899453,-0.0851551,514,234,49.2,0.1,70.1641,0.1,2.86
0.624596,0.660973,0.614343,0.646771,-0.0915998,-0.0397745,-0.0900961,-0.0857913,514,229,49.5154,0.1,70.1828,0.1,2.864
0.624229,0.660815,0.613982,0.646429,-0.0917529,-0.0397026,-0.0902467,-0.0856684,516,232,49.8296,0.1,70.197,0.1,2.868
0.623862,0.660652,0.613621,0.646082,-0.0919058,-0.0400289,-0.0903971,-0.0860472,517,230,50.1451,0.1,70.2138,0.1,2.872
0.623494,0.660492,0.613259,0.645739,-0.0920586,-0.0400161,-0.0905473,-0.0859542,519,233,50.4596,0.1,70.2286,0.1,2.876
0.623125,0.660324,0.612896,0.645384,-0.0922112,-0.040641,-0.0906975,-0.0868711,517,225,50.7749,0.1,70.2454,0.1,2.88
0.622756,0.660167,0.612533,0.645052,-0.0923636,-0.0402227,-0.0908474,-0.0855821,522,239,51.0878,0.1,70.2558,0.1,2.884
0.622387,0.66,0.612169,0.644701,-0.0925159,-0.0406923,-0.0909972,-0.0863351,522,234,51.4038,0.1,70.2796,0.1,2.888
0.622016,0.659843,0.611805,0.644371,-0.0926681,-0.0402569,-0.0911468,-0.0850809,527,247,51.7184,0.1,70.2985,0.1,2.892
0.621645,0.659677,0.61144,0.644018,-0.09282,-0.0406864,-0.0912963,-0.0861449,526,239,52.0363,0.1,70.3302,0.1,2.896
0.621274,0.659519,0.611075,0.64368,-0.0929718,-0.0402529,-0.0914456,-0.0855875,531,246,52.3528,0.1,70.3537,0.1,2.9
0.620901,0.659361,0.610709,0.643334,-0.0931235,-0.0400215,-0.0915948,-0.0858204,535,245,52.6731,0.1,70.3839,0.1,2.904
0.620529,0.659201,0.610342,0.642986,-0.0932749,-0.0399824,-0.0917437,-0.0862637,538,242,52.9958,0.1,70.4133,0.1,2.908
0.620155,0.659046,0.609975,0.642635,-0.0934262,-0.0396109,-0.0918926,-0.0867895,543,239,53.32,0.1,70.4397,0.1,2.912
0.619781,0.65889,0.609607,0.642279,-0.0935774,-0.0393632,-0.0920412,-0.0874567,547,234,53.6475,0.1,70.4623,0.1,2.916
0.619407,0.658736,0.609238,0.641928,-0.0937283,-0.0390541,-0.0921897,-0.0875561,551,234,53.9776,0.1,70.4801,0.1,2.92
0.619031,0.658583,0.608869,0.641577,-0.0938791,-0.0387904,-0.092338,-0.0876223,555,235,54.3108,0.1,70.4985,0.1,2.924
0.618656,0.658423,0.6085,0.641217,-0.0940297,-0.0392193,-0.0924862,-0.088415,555,229,54.6464,0.1,70.5174,0.1,2.928
0.618279,0.658271,0.60813,0.640871,-0.0941802,-0.0387854,-0.0926342,-0.0877631,560,237,54.9806,0.1,70.5307,0.1,2.932
0.617902,0.658114,0.607759,0.640523,-0.0943305,-0.0389568,-0.092782,-0.0875875,561,240,55.3184,0.1,70.5518,0.1,2.936
0.617524,0.657956,0.607387,0.640172,-0.0944806,-0.0391574,-0.0929296,-0.0876145,562,242,55.6561,0.1,70.5761,0.1,2.94
0.617146,0.657792,0.607015,0.63982,-0.0946306,-0.0397519,-0.0930771,-0.08769,561,243,55.9932,0.1,70.6016,0.1,2.944
0.616767,0.657628,0.606643,0.639466,-0.0947803,-0.0401769,-0.0932244,-0.0880283,561,241,56.3275,0.1,70.6278,0.1,2.948
0.616388,0.657459,0.606269,0.639114,-0.0949299,-0.040921,-0.0933716,-0.0879947,558,243,56.6599,0.1,70.6524,0.1,2.952
0.616008,0.657286,0.605896,0.638759,-0.0950793,-0.0416473,-0.0935185,-0.0882026,556,242,56.9885,0.1,70.6787,0.1,2.956
0.615627,0.657102,0.605521,0.638393,-0.0952286,-0.0430816,-0.0936653,-0.0893201,549,233,57.3129,0.1,70.7039,0.1,2.96
0.615246,0.656925,0.605146,0.638043,-0.0953777,-0.0435196,-0.093812,-0.0887407,549,240,57.6295,0.1,70.7205,0.1,2.964
0.614864,0.65674,0.604771,0.637686,-0.0955266,-0.044445,-0.0939584,-0.0889015,545,240,57.9439,0.1,70.7439,0.1,2.968
0.614482,0.65655,0.604395,0.637322,-0.0956753,-0.045465,-0.0941047,-0.0896133,541,235,58.2533,0.1,70.767,0.1,2.972
0.614099,0.656359,0.604018,0.636967,-0.0958238,-0.0462026,-0.0942508,-0.0892817,539,240,58.5572,0.1,70.7851,0.1,2.976
0.613715,0.656164,0.603641,0.636602,-0.0959722,-0.047011,-0.0943967,-0.0899531,536,235,58.8571,0.1,70.8074,0.1,2.98
0.613331,0.655975,0.603263,0.636256,-0.0961204,-0.0470893,-0.0945425,-0.0888461,538,247,59.1533,0.1,70.8255,0.1,2.984
0.612946,0.655783,0.602884,0.6359,-0.0962684,-0.0474582,-0.094688,-0.0889141,538,248,59.4498,0.1,70.8556,0.1,2.988
0.612561,0.655585,0.602505,0.635542,-0.0964162,-0.0480784,-0.0948334,-0.0890747,536,248,59.7447,0.1,70.8864,0.1,2.992
0.612175,0.655384,0.602126,0.635169,-0.0965638,-0.0488086,-0.0949787,-0.0904485,534,236,60.0365,0.1,70.9165,0.1,2.996
0.611789,0.655192,0.601745,0.634817,-0.0967113,-0.0485756,-0.0951237,-0.0896658,537,245,60.3251,0.1,70.9355,0.1,3
0.611401,0.654991,0.601365,0.634452,-0.0968586,-0.0491401,-0.0952686,-0.0901516,536,242,60.6159,0.1,70.9632,0.1,3.004
0.611014,0.654787,0.600983,0.634084,-0.0970057,-0.0497179,-0.0954132,-0.090821,535,237,60.9039,0.1,70.9875,0.1,3.008
0.610625,0.65458,0.600601,0.633713,-0.0971526,-0.0504486,-0.0955577,-0.0914688,532,232,61.1891,0.1,71.0065,0.1,3.012
0.610236,0.654376,0.600219,0.63335,-0.0972993,-0.0506191,-0.0957021,-0.0911521,533,237,61.4709,0.1,71.0211,0.1,3.016
0.609847,0.654165,0.599836,0.632984,-0.0974459,-0.0512797,-0.0958462,-0.0913152,531,237,61.7523,0.1,71.0402,0.1,3.02
0.609457,0.653952,0.599452,0.632616,-0.0975922,-0.0519793,-0.0959901,-0.0915391,529,236,62.0304,0.1,71.0591,0.1,3.024
0.609066,0.653738,0.599068,0.632249,-0.0977384,-0.0525032,-0.0961339,-0.0916021,528,237,62.305,0.1,71.0773,0.1,3.028
0.608675,0.653515,0.598683,0.631881,-0.0978844,-0.0535147,-0.0962775,-0.0917592,524,237,62.577,0.1,71.0964,0.1,3.032
0.608283,0.653294,0.598298,0.631514,-0.0980302,-0.0541315,-0.0964209,-0.0917775,522,238,62.8435,0.1,71.1154,0.1,3.036
0.607891,0.653068,0.597912,0.631147,-0.0981758,-0.0549169,-0.0965641,-0.0917034,519,241,63.1069,0.1,71.1358,0.1,3.04
0.607498,0.652849,0.597525,0.630798,-0.0983212,-0.0548647,-0.0967072,-0.090272,521,256,63.3666,0.1,71.1592,0.1,3.044
0.607104,0.652625,0.597138,0.630442,-0.0984664,-0.0552042,-0.09685,-0.0898072,521,262,63.6275,0.1,71.1979,0.1,3.048
0.60671,0.652398,0.59675,0.630083,-0.0986114,-0.055776,-0.0969926,-0.0897852,520,264,63.8871,0.1,71.2424,0.1,3.052
0.606315,0.652167,0.596362,0.629722,-0.0987563,-0.0563876,-0.0971351,-0.0899433,518,264,64.1439,0.1,71.2885,0.1,3.056
0.60592,0.651938,0.595973,0.629359,-0.0989009,-0.0567089,-0.0972774,-0.0902503,518,262,64.3979,0.1,71.3345,0.1,3.06
0.605524,0.651699,0.595584,0.628982,-0.0990454,-0.0577292,-0.0974195,-0.0915202,514,252,64.6504,0.1,71.3783,0.1,3.064
0.605128,0.651469,0.595194,0.62862,-0.0991897,-0.0576321,-0.0975614,-0.0912439,516,256,64.8978,0.1,71.4116,0.1,3.068
0.604731,0.651233,0.594803,0.628247,-0.0993337,-0.0581144,-0.0977031,-0.0919235,515,251,65.1466,0.1,71.4487,0.1,3.072
0.604333,0.650997,0.594412,0.627875,-0.0994776,-0.0584071,-0.0978446,-0.0922614,516,249,65.3934,0.1,71.4807,0.1,3.076
0.603935,0.650758,0.594021,0.627495,-0.0996213,-0.0588326,-0.0979859,-0.09312,515,242,65.6392,0.1,71.5104,0.1,3.08
0.603536,0.650528,0.593628,0.627127,-0.0997648,-0.0584253,-0.0981271,-0.0927711,520,247,65.8837,0.1,71.5337,0.1,3.084
0.603137,0.650296,0.593236,0.626754,-0.0999081,-0.0582689,-0.098268,-0.0929704,523,247,66.1319,0.1,71.5616,0.1,3.088
0.602737,0.650066,0.592842,0.626382,-0.100051,-0.0579631,-0.0984088,-0.0929593,527,248,66.3823,0.1,71.5891,0.1,3.092
0.602336,0.649839,0.592448,0.626009,-0.100194,-0.0576153,-0.0985493,-0.0930383,531,249,66.6358,0.1,71.6181,0.1,3.096
0.601935,0.649611,0.592054,0.625633,-0.100337,-0.0573546,-0.0986897,-0.0934076,535,247,66.8926,0.1,71.6476,0.1,3.1
0.601533,0.64939,0.591659,0.62526,-0.100479,-0.0567202,-0.0988298,-0.0933084,541,250,67.1525,0.1,71.6752,0.1,3.104
0.601131,0.649166,0.591263,0.624886,-0.100622,-0.05647,-0.0989698,-0.0933862,545,250,67.4175,0.1,71.705,0.1,3.108
0.600729,0.64894,0.590867,0.624509,-0.100764,-0.0564759,-0.0991096,-0.0936971,547,249,67.6851,0.1,71.7355,0.1,3.112
0.600325,0.648712,0.59047,0.624129,-0.100906,-0.056595,-0.0992491,-0.0940772,549,247,67.9536,0.1,71.7642,0.1,3.116
0.599921,0.648482,0.590073,0.623751,-0.101047,-0.0569624,-0.0993885,-0.094273,548,246,68.2223,0.1,71.7907,0.1,3.12
0.599517,0.64825,0.589675,0.623373,-0.101189,-0.0572936,-0.0995277,-0.0943459,548,247,68.4897,0.1,71.8168,0.1,3.124
0.599112,0.64801,0.589277,0.622983,-0.10133,-0.0581766,-0.0996667,-0.0953734,545,238,68.7555,0.1,71.8431,0.1,3.128
0.598706,0.647778,0.588878,0.622613,-0.101471,-0.0581031,-0.0998054,-0.0944462,548,249,69.0171,0.1,71.8615,0.1,3.132
0.5983,0.647539,0.588478,0.622236,-0.101612,-0.05863,-0.099944,-0.0943174,546,252,69.2799,0.1,71.8903,0.1,3.136
0.597893,0.647301,0.588078,0.62186,-0.101753,-0.0589812,-0.100082,-0.0942316,546,254,69.5402,0.1,71.9218,0.1,3.14
0.597486,0.647057,0.587678,0.621483,-0.101893,-0.0596472,-0.100221,-0.094232,544,255,69.7992,0.1,71.9555,0.1,3.144
0.597078,0.646805,0.587277,0.621097,-0.102034,-0.0607246,-0.100359,-0.0950096,539,249,70.0545,0.1,71.9902,0.1,3.148
0.59667,0.646565,0.586875,0.620733,-0.102174,-0.0604927,-0.100496,-0.0936278,543,264,70.3043,0.1,72.0198,0.1,3.152
0.596261,0.646314,0.586473,0.620356,-0.102313,-0.0612307,-0.100634,-0.093887,540,263,70.5563,0.1,72.0636,0.1,3.156
0.595851,0.646061,0.58607,0.61998,-0.102453,-0.0618954,-0.100771,-0.0938871,538,265,70.8043,0.1,72.1065,0.1,3.16
0.595441,0.645803,0.585666,0.619596,-0.102593,-0.0627992,-0.100908,-0.0946069,534,259,71.0488,0.1,72.1503,0.1,3.164
0.59503,0.645549,0.585263,0.619218,-0.102732,-0.0630563,-0.101045,-0.0945685,534,261,71.2887,0.1,72.1888,0.1,3.168
0.594619,0.645293,0.584858,0.618834,-0.102871,-0.0633716,-0.101182,-0.09509,534,258,71.5279,0.1,72.2288,0.1,3.172
0.594207,0.645037,0.584453,0.618446,-0.10301,-0.0635818,-0.101319,-0.0956967,535,253,71.766,0.1,72.2648,0.1,3.176
0.593795,0.644779,0.584048,0.61805,-0.103148,-0.0638371,-0.101455,-0.0967922,535,244,72.0038,0.1,72.296,0.1,3.18
0.593382,0.644525,0.583641,0.617657,-0.103287,-0.0637482,-0.101591,-0.0972634,538,241,72.2412,0.1,72.318,0.1,3.184
0.592969,0.644265,0.583235,0.617263,-0.103425,-0.0641496,-0.101727,-0.0976927,538,238,72.48,0.1,72.3366,0.1,3.188
0.592555,0.644005,0.582828,0.616869,-0.103563,-0.0644747,-0.101863,-0.0979789,537,237,72.7171,0.1,72.3525,0.1,3.192
0.59214,0.643731,0.58242,0.616466,-0.1037,-0.0657568,-0.101998,-0.0989183,531,229,72.9527,0.1,72.3667,0.1,3.196
0.591725,0.643466,0.582012,0.616083,-0.103838,-0.0659205,-0.102133,-0.0978171,532,241,73.1813,0.1,72.3739,0.1,3.2
0.59131,0.64319,0.581603,0.615696,-0.103975,-0.0669797,-0.102269,-0.0975148,527,246,73.4094,0.1,72.3931,0.1,3.204
0.590894,0.64291,0.581193,0.615309,-0.104112,-0.0680026,-0.102403,-0.0972269,523,250,73.6314,0.1,72.4168,0.1,3.208
0.590477,0.642627,0.580784,0.614927,-0.104249,-0.0689436,-0.102538,-0.0966607,518,257,73.8477,0.1,72.4449,0.1,3.212
0.59006,0.642341,0.580373,0.614545,-0.104386,-0.0697437,-0.102672,-0.0962832,515,262,74.0586,0.1,72.48,0.1,3.216
0.589642,0.642052,0.579962,0.614165,-0.104522,-0.0705938,-0.102807,-0.09583,511,268,74.2653,0.1,72.5202,0.1,3.22
0.589223,0.641759,0.579551,0.613786,-0.104659,-0.0714772,-0.102941,-0.0954991,508,272,74.4671,0.1,72.5663,0.1,3.224
0.588804,0.641453,0.579139,0.613392,-0.104795,-0.0731315,-0.103074,-0.0964302,499,265,74.6637,0.1,72.6164,0.1,3.228
0.588385,0.641155,0.578726,0.613012,-0.104931,-0.0735721,-0.103208,-0.0959856,498,271,74.8507,0.1,72.6593,0.1,3.232
0.587965,0.640854,0.578313,0.612625,-0.105066,-0.0741537,-0.103341,-0.096265,496,270,75.0358,0.1,72.7075,0.1,3.236
0.587544,0.640548,0.577899,0.612231,-0.105202,-0.0749446,-0.103475,-0.0969695,492,264,75.2178,0.1,72.7542,0.1,3.24
0.587123,0.640242,0.577485,0.611835,-0.105337,-0.075443,-0.103607,-0.0976408,491,259,75.3958,0.1,72.7951,0.1,3.244
0.586702,0.639934,0.577071,0.611433,-0.105472,-0.0759769,-0.10374,-0.0986065,489,251,75.5714,0.1,72.8305,0.1,3.248
0.58628,0.639629,0.576655,0.611029,-0.105606,-0.0760736,-0.103873,-0.0994518,490,244,75.7447,0.1,72.8577,0.1,3.252
0.585857,0.639324,0.57624,0.610624,-0.105741,-0.0761669,-0.104005,-0.0999866,491,241,75.9185,0.1,72.878,0.1,3.256
0.585434,0.639003,0.575823,0.610206,-0.105875,-0.0774671,-0.104137,-0.101524,485,227,76.092,0.1,72.8938,0.1,3.26
0.58501,0.638706,0.575406,0.609821,-0.106009,-0.0764625,-0.104269,-0.0997842,493,245,76.2592,0.1,72.8973,0.1,3.264
0.584586,0.638392,0.574989,0.609422,-0.106143,-0.0770884,-0.1044,-0.0997476,491,247,76.4334,0.1,72.9187,0.1,3.268
0.584161,0.638083,0.574571,0.609027,-0.106276,-0.0771313,-0.104532,-0.0994352,492,252,76.6048,0.1,72.942,0.1,3.272
0.583735,0.637776,0.574153,0.608633,-0.10641,-0.077016,-0.104663,-0.099083,495,256,76.777,0.1,72.9698,0.1,3.276
0.583309,0.637473,0.573734,0.608238,-0.106543,-0.0765937,-0.104794,-0.0989634,499,259,76.9513,0.1,73.0023,0.1,3.28
0.582883,0.637171,0.573315,0.607844,-0.106676,-0.0762257,-0.104925,-0.098826,504,262,77.1296,0.1,73.0374,0.1,3.284
0.582456,0.636876,0.572895,0.607449,-0.106809,-0.0754334,-0.105055,-0.0988496,511,263,77.3117,0.1,73.0751,0.1,3.288
0.582029,0.636573,0.572474,0.607042,-0.106941,-0.0755098,-0.105186,-0.0997867,512,255,77.4998,0.1,73.1135,0.1,3.292
0.581601,0.636279,0.572053,0.606644,-0.107073,-0.0748985,-0.105316,-0.0996916,518,258,77.6889,0.1,73.1443,0.1,3.296
0.581172,0.63599,0.571632,0.606253,-0.107205,-0.073944,-0.105445,-0.0990812,526,265,77.8835,0.1,73.1777,0.1,3.3
0.580743,0.635693,0.57121,0.605852,-0.107337,-0.074085,-0.105575,-0.099394,527,263,78.0851,0.1,73.2181,0.1,3.304
0.580313,0.635393,0.570787,0.605445,-0.107469,-0.0744093,-0.105704,-0.100236,527,257,78.2866,0.1,73.2563,0.1,3.308
0.579883,0.635094,0.570364,0.605042,-0.1076,-0.0745103,-0.105834,-0.100365,528,257,78.4872,0.1,73.2879,0.1,3.312
0.579452,0.634793,0.56994,0.604633,-0.107731,-0.0747505,-0.105962,-0.101028,528,252,78.6881,0.1,73.3193,0.1,3.316
0.579021,0.634492,0.569516,0.604224,-0.107862,-0.0748817,-0.106091,-0.101469,529,249,78.8885,0.1,73.3454,0.1,3.32
0.57859,0.634191,0.569092,0.603818,-0.107992,-0.0750268,-0.10622,-0.101475,530,250,79.089,0.1,73.3687,0.1,3.324
0.578157,0.633881,0.568666,0.6034,-0.108123,-0.0758434,-0.106348,-0.102458,527,242,79.2892,0.1,73.3928,0.1,3.328
0.577725,0.633581,0.568241,0.603001,-0.108253,-0.0756103,-0.106476,-0.101559,530,252,79.4856,0.1,73.4094,0.1,3.332
0.577291,0.633272,0.567815,0.602595,-0.108383,-0.0761172,-0.106604,-0.101535,529,254,79.6842,0.1,73.4358,0.1,3.336
0.576858,0.632959,0.567388,0.602188,-0.108513,-0.0768294,-0.106731,-0.101606,526,254,79.8802,0.1,73.4638,0.1,3.34
0.576423,0.632636,0.566961,0.60177,-0.108642,-0.0781391,-0.106859,-0.102546,519,247,80.0721,0.1,73.4919,0.1,3.344
0.575988,0.63232,0.566533,0.601366,-0.108771,-0.0784364,-0.106986,-0.102078,519,252,80.2566,0.1,73.5126,0.1,3.348
0.575553,0.631998,0.566105,0.600954,-0.1089,-0.0791529,-0.107113,-0.102313,516,251,80.4398,0.1,73.539,0.1,3.352
0.575117,0.631672,0.565676,0.600541,-0.109029,-0.0798896,-0.107239,-0.102671,513,249,80.6192,0.1,73.5643,0.1,3.356
0.574681,0.631344,0.565247,0.600124,-0.109157,-0.0805823,-0.107366,-0.103227,510,245,80.7946,0.1,73.5872,0.1,3.36
0.574244,0.631014,0.564817,0.5997,-0.109286,-0.0812745,-0.107492,-0.104116,507,238,80.9662,0.1,73.6057,0.1,3.364
0.573807,0.630683,0.564387,0.599276,-0.109414,-0.0817071,-0.107618,-0.104708,506,234,81.1343,0.1,73.6167,0.1,3.368
0.573369,0.630351,0.563956,0.598852,-0.109542,-0.0821395,-0.107743,-0.105161,505,230,81.3005,0.1,73.6233,0.1,3.372
0.57293,0.63001,0.563525,0.598418,-0.109669,-0.0831763,-0.107869,-0.106326,500,220,81.4645,0.1,73.6262,0.1,3.376
0.572491,0.629676,0.563093,0.597993,-0.109796,-0.0833205,-0.107994,-0.106297,501,222,81.6229,0.1,73.6194,0.1,3.38
0.572052,0.629349,0.562661,0.597578,-0.109923,-0.0827544,-0.108119,-0.105414,506,232,81.7818,0.1,73.6147,0.1,3.384
0.571612,0.629019,0.562228,0.597159,-0.11005,-0.0826937,-0.108244,-0.10517,508,235,81.9454,0.1,73.6198,0.1,3.388
