peachynonah/Fire_monitor_KIRO_CDSL/csv_datas/trial12/cdsl_data_t12_12_d.csv
joint1_pos_desired, joint1_pos, joint2_pos_desired, joint2_pos, joint1_vel_desired, joint1_vel_filtered, joint2_vel_desired, joint2_vel_filtered, target_torque_joint1, target_torque_joint2, estimated_disturbance_joint1, saturated_DOB_joint1, estimated_disturbance_joint2, saturated_DOB_joint2, current_time
0.745793,0.744971,0.73494,0.733149,-3.57694e-07,0,-3.52489e-07,0,-5,-88,0,0,17.1324,1,0.004
0.745793,0.744971,0.73494,0.733058,-1.42963e-06,0,-1.40883e-06,-0.0076008,-5,-162,-0.00523748,-0.00523748,17.0367,1,0.008
0.745793,0.744971,0.73494,0.732993,-3.2141e-06,0,-3.16733e-06,-0.0105087,-5,-190,-0.0104695,-0.0104695,16.8677,1,0.012
0.745793,0.744971,0.73494,0.732944,-5.70938e-06,0,-5.62629e-06,-0.0110941,-5,-197,-0.0156919,-0.0156919,16.6711,1,0.016
0.745793,0.744971,0.73494,0.732917,-8.91375e-06,0,-8.78404e-06,-0.00961297,-5,-183,-0.0209004,-0.0209004,16.4702,1,0.02
0.745793,0.744971,0.73494,0.732913,-1.28255e-05,0,-1.26389e-05,-0.00678293,-5,-155,-0.0260908,-0.0260908,16.2853,1,0.024
0.745793,0.744971,0.73494,0.732926,-1.7443e-05,0,-1.71891e-05,-0.0034279,-5,-123,-0.0312589,-0.0312589,16.1294,1,0.028
0.745793,0.744971,0.73494,0.732952,-2.27644e-05,0,-2.24331e-05,-6.83636e-05,-5,-91,-0.0364004,-0.0364004,16.0076,1,0.032
0.745793,0.744971,0.73494,0.732989,-2.8788e-05,0,-2.83691e-05,0.00303505,-5,-60,-0.0415112,-0.0415112,15.9198,1,0.036
0.745793,0.744971,0.73494,0.733032,-3.55123e-05,2.87909e-05,-3.49955e-05,0.00559344,-4,-35,-0.0465758,-0.0465758,15.8632,1,0.04
0.745792,0.744971,0.734939,0.73308,-4.29353e-05,1.91939e-05,-4.23105e-05,0.00767332,-4,-15,-0.0514538,-0.0514538,15.8325,1,0.044
0.745792,0.744971,0.734939,0.733128,-5.10555e-05,1.2796e-05,-5.03126e-05,0.00917507,-4,0,-0.056341,-0.056341,15.8228,1,0.048
0.745792,0.744971,0.734939,0.733176,-5.98712e-05,8.53064e-06,-5.89999e-05,0.0100611,-4,8,-0.0612158,-0.0612158,15.8284,1,0.052
0.745792,0.744971,0.734939,0.733219,-6.93806e-05,3.4478e-05,-6.83709e-05,0.0103062,-4,11,-0.0660514,-0.0660514,15.8429,1,0.056
0.745791,0.744971,0.734938,0.733259,-7.9582e-05,-5.80558e-06,-7.84239e-05,0.0101818,-4,11,-0.0707107,-0.0707107,15.8602,1,0.06
0.745791,0.744971,0.734938,0.733295,-9.04738e-05,-3.87038e-06,-8.91572e-05,0.0098109,-4,8,-0.0755208,-0.0755208,15.8766,1,0.064
0.745791,0.744971,0.734938,0.733326,-0.000102054,-2.58026e-06,-0.000100569,0.00916058,-4,2,-0.080257,-0.080257,15.8897,1,0.068
0.74579,0.744971,0.734937,0.733354,-0.000114322,2.70708e-05,-0.000112658,0.00843912,-4,-4,-0.0849073,-0.0849073,15.8967,1,0.072
0.74579,0.744971,0.734937,0.733379,-0.000127274,-1.07438e-05,-0.000125422,0.00769902,-4,-10,-0.089345,-0.089345,15.897,1,0.076
0.745789,0.744971,0.734936,0.733399,-0.00014091,2.16284e-05,-0.00013886,0.00680256,-4,-19,-0.0938923,-0.0938923,15.8903,1,0.08
0.745789,0.744971,0.734936,0.733417,-0.000155228,1.44189e-05,-0.000152969,0.00606096,-4,-25,-0.0981927,-0.0981927,15.8752,1,0.084
0.745788,0.744971,0.734935,0.733434,-0.000170227,9.61263e-06,-0.000167749,0.0054226,-4,-31,-0.102448,-0.102448,15.8532,1,0.088
0.745787,0.744971,0.734934,0.73345,-0.000185903,6.40842e-06,-0.000183198,0.00493945,-4,-35,-0.106642,-0.106642,15.8255,1,0.092
0.745786,0.744971,0.734934,0.733467,-0.000202257,4.27228e-06,-0.000199314,0.00470372,-4,-37,-0.110761,-0.110761,15.7935,1,0.096
0.745786,0.744971,0.734933,0.733484,-0.000219286,2.84819e-06,-0.000216094,0.00454657,-4,-38,-0.114795,-0.114795,15.7598,1,0.1
0.745785,0.744971,0.734932,0.733501,-0.000236988,1.89879e-06,-0.000233539,0.00447059,-4,-39,-0.118736,-0.118736,15.7251,1,0.104
0.745784,0.744971,0.734931,0.733518,-0.000255361,1.26586e-06,-0.000251645,0.00439115,-4,-39,-0.122578,-0.122578,15.6902,1,0.108
0.745783,0.744971,0.73493,0.733536,-0.000274405,8.43907e-07,-0.000270412,0.00439577,-4,-39,-0.126314,-0.126314,15.6551,1,0.112
0.745782,0.744971,0.734929,0.733553,-0.000294118,5.62605e-07,-0.000289838,0.00437006,-3,-39,-0.129938,-0.129938,15.6205,1,0.116
0.74578,0.744971,0.734928,0.733571,-0.000314497,3.7507e-07,-0.00030992,0.00443929,-3,-38,-0.133447,-0.133447,15.5863,1,0.12
0.745779,0.744971,0.734926,0.733589,-0.000335541,2.50047e-07,-0.000330658,0.00445666,-3,-37,-0.136836,-0.136836,15.5534,1,0.124
0.745778,0.744971,0.734925,0.733608,-0.000357248,1.66698e-07,-0.000352049,0.00455461,-3,-36,-0.140099,-0.140099,15.5212,1,0.128
0.745776,0.744971,0.734923,0.733626,-0.000379617,1.11132e-07,-0.000374093,0.00450474,-3,-36,-0.143233,-0.143233,15.4905,1,0.132
0.745775,0.744971,0.734922,0.733644,-0.000402646,7.40879e-08,-0.000396787,0.00452908,-3,-35,-0.146232,-0.146232,15.4599,1,0.136
0.745773,0.744971,0.73492,0.733663,-0.000426333,4.93919e-08,-0.000420129,0.0045741,-3,-34,-0.149093,-0.149093,15.4302,1,0.14
0.745771,0.744971,0.734919,0.733682,-0.000450678,3.29279e-08,-0.000444119,0.00466169,-3,-33,-0.151811,-0.151811,15.4015,1,0.144
0.745769,0.744971,0.734917,0.7337,-0.000475677,2.1952e-08,-0.000468754,0.00460492,-2,-33,-0.154383,-0.154383,15.3742,1,0.148
0.745767,0.744971,0.734915,0.733718,-0.000501329,1.46346e-08,-0.000494033,0.00456708,-2,-33,-0.156802,-0.156802,15.347,1,0.152
0.745765,0.744971,0.734913,0.733735,-0.000527633,9.75643e-09,-0.000519955,0.00445547,-2,-33,-0.159067,-0.159067,15.3199,1,0.156
0.745763,0.744971,0.734911,0.733752,-0.000554587,6.50429e-09,-0.000546517,0.00435228,-2,-34,-0.161171,-0.161171,15.2924,1,0.16
0.745761,0.744971,0.734908,0.733767,-0.000582189,4.33619e-09,-0.000573717,0.00416832,-2,-35,-0.163111,-0.163111,15.2643,1,0.164
0.745759,0.744971,0.734906,0.733781,-0.000610438,2.89079e-09,-0.000601555,0.0039881,-2,-37,-0.164883,-0.164883,15.2351,1,0.168
0.745756,0.744971,0.734904,0.733795,-0.000639332,1.9272e-09,-0.000630029,0.00383916,-2,-38,-0.166482,-0.166482,15.2047,1,0.172
0.745753,0.744971,0.734901,0.73381,-0.00066887,1.2848e-09,-0.000659136,0.00373987,-1,-38,-0.167904,-0.167904,15.1734,1,0.176
0.745751,0.744971,0.734898,0.733824,-0.000699049,8.56531e-10,-0.000688876,0.00370246,-1,-38,-0.169144,-0.169144,15.1419,1,0.18
0.745748,0.744971,0.734895,0.733838,-0.000729868,5.71021e-10,-0.000719247,0.00364874,-1,-38,-0.170199,-0.170199,15.1105,1,0.184
0.745745,0.744971,0.734893,0.733852,-0.000761325,3.80681e-10,-0.000750246,0.00358413,-1,-38,-0.171063,-0.171063,15.0793,1,0.188
0.745742,0.744971,0.734889,0.733864,-0.00079342,2.53787e-10,-0.000781874,0.00336831,-1,-40,-0.171733,-0.171733,15.048,1,0.192
0.745738,0.744971,0.734886,0.733875,-0.000826149,1.69191e-10,-0.000814126,0.00313806,0,-41,-0.172205,-0.172205,15.0151,1,0.196
0.745735,0.744971,0.734883,0.733883,-0.000859512,1.12794e-10,-0.000847004,0.00281181,0,-44,-0.172473,-0.172473,14.9806,1,0.2
0.745732,0.744971,0.734879,0.73389,-0.000893506,7.51962e-11,-0.000880503,0.00242157,0,-47,-0.172534,-0.172534,14.9434,1,0.204
0.745728,0.744971,0.734876,0.733894,-0.00092813,5.01308e-11,-0.000914624,0.00193108,0,-52,-0.172382,-0.172382,14.9029,1,0.208
0.745724,0.744971,0.734872,0.733897,-0.000963383,3.34205e-11,-0.000949364,0.0015465,0,-55,-0.172015,-0.172015,14.8583,1,0.212
0.74572,0.744971,0.734868,0.733898,-0.000999263,2.22803e-11,-0.000984722,0.00117496,0,-58,-0.171427,-0.171427,14.8104,1,0.216
0.745716,0.744971,0.734864,0.733899,-0.00103577,1.48536e-11,-0.0010207,0.000869678,0,-61,-0.170614,-0.170614,14.7596,1,0.22
0.745712,0.744971,0.73486,0.7339,-0.0010729,9.90238e-12,-0.00105728,0.000608576,0,-63,-0.169572,-0.169572,14.7064,1,0.224
0.745708,0.744971,0.734856,0.7339,-0.00111065,6.60159e-12,-0.00109448,0.000434508,0,-64,-0.168295,-0.168295,14.6513,1,0.228
0.745703,0.744971,0.734851,0.7339,-0.00114902,4.40106e-12,-0.0011323,0.000318463,0,-65,-0.166781,-0.166781,14.5952,1,0.232
0.745698,0.744971,0.734847,0.733901,-0.00118801,2.93404e-12,-0.00117072,0.0002411,1,-65,-0.165024,-0.165024,14.5386,1,0.236
0.745694,0.744971,0.734842,0.733901,-0.00122761,1.95603e-12,-0.00120975,0.000189524,1,-65,-0.16302,-0.16302,14.482,1,0.24
0.745689,0.744971,0.734837,0.733903,-0.00126784,1.30402e-12,-0.00124939,0.000241513,1,-64,-0.160764,-0.160764,14.4256,1,0.244
0.745683,0.744971,0.734832,0.733904,-0.00130867,8.69345e-13,-0.00128963,0.000276172,1,-63,-0.158252,-0.158252,14.3704,1,0.248
0.745678,0.744971,0.734827,0.733905,-0.00135012,5.79563e-13,-0.00133047,0.000270488,2,-63,-0.15548,-0.15548,14.3163,1,0.252
0.745673,0.744971,0.734821,0.733906,-0.00139218,3.86375e-13,-0.00137192,0.000266698,2,-63,-0.152443,-0.152443,14.2628,1,0.256
0.745667,0.744971,0.734816,0.733907,-0.00143484,2.57584e-13,-0.00141396,0.000292962,2,-62,-0.149137,-0.149137,14.21,1,0.26
0.745661,0.744971,0.73481,0.733908,-0.00147812,1.71722e-13,-0.00145661,0.000281681,3,-61,-0.145557,-0.145557,14.1583,1,0.264
0.745655,0.744971,0.734804,0.733909,-0.001522,1.14482e-13,-0.00149985,0.00027416,3,-61,-0.141698,-0.141698,14.1071,1,0.268
0.745649,0.744971,0.734798,0.73391,-0.00156648,7.63211e-14,-0.00154368,0.000240355,3,-61,-0.137557,-0.137557,14.0566,1,0.272
0.745643,0.744971,0.734792,0.73391,-0.00161156,5.08807e-14,-0.00158811,0.000189028,3,-61,-0.133129,-0.133129,14.0064,1,0.276
0.745636,0.744971,0.734785,0.73391,-0.00165725,3.39205e-14,-0.00163313,0.000126019,4,-61,-0.128409,-0.128409,13.9565,1,0.28
0.745629,0.744971,0.734779,0.73391,-0.00170354,2.26136e-14,-0.00167875,8.40123e-05,4,-61,-0.123393,-0.123393,13.9068,1,0.284
0.745622,0.744971,0.734772,0.733911,-0.00175042,1.50758e-14,-0.00172495,8.47991e-05,4,-60,-0.118076,-0.118076,13.8573,1,0.288
0.745615,0.744971,0.734765,0.733911,-0.0017979,1.00505e-14,-0.00177173,5.65328e-05,5,-60,-0.112454,-0.112454,13.8087,1,0.292
0.745608,0.744971,0.734758,0.733911,-0.00184597,6.70034e-15,-0.00181911,3.76885e-05,5,-60,-0.106522,-0.106522,13.7605,1,0.296
0.745601,0.744971,0.73475,0.733911,-0.00189463,4.46689e-15,-0.00186706,2.51257e-05,5,-59,-0.100275,-0.100275,13.7129,1,0.3
0.745593,0.744971,0.734743,0.733911,-0.00194389,2.97793e-15,-0.0019156,1.67504e-05,6,-59,-0.0937103,-0.0937103,13.666,1,0.304
0.745585,0.744971,0.734735,0.733911,-0.00199374,1.98529e-15,-0.00196472,1.1167e-05,6,-58,-0.0868219,-0.0868219,13.6197,1,0.308
0.745577,0.744971,0.734727,0.733911,-0.00204417,-5.75818e-05,-0.00201442,7.44464e-06,6,-58,-0.0796285,-0.0796285,13.5742,1,0.312
0.745569,0.744971,0.734719,0.733911,-0.00209519,1.91939e-05,-0.0020647,4.9631e-06,7,-57,-0.0723743,-0.0723743,13.5294,1,0.316
0.74556,0.744971,0.734711,0.733911,-0.00214679,-1.5995e-05,-0.00211555,3.30873e-06,7,-57,-0.0643956,-0.0643956,13.4854,1,0.32
0.745552,0.744971,0.734702,0.733911,-0.00219898,-3.94542e-05,-0.00216698,2.20582e-06,7,-56,-0.0562689,-0.0562689,13.4422,1,0.324
0.745543,0.744971,0.734693,0.733911,-0.00225175,-2.63028e-05,-0.00221898,1.47055e-06,8,-56,-0.0479144,-0.0479144,13.3998,1,0.328
0.745533,0.744971,0.734684,0.733911,-0.0023051,-1.75352e-05,-0.00227155,9.80365e-07,8,-55,-0.0391377,-0.0391377,13.3581,1,0.332
0.745524,0.744971,0.734675,0.733911,-0.00235902,-1.16901e-05,-0.00232469,6.53576e-07,9,-54,-0.029958,-0.029958,13.3173,1,0.336
0.745515,0.74497,0.734666,0.733911,-0.00241352,-3.65844e-05,-0.0023784,4.35718e-07,9,-54,-0.0203982,-0.0203982,13.2773,1,0.34
0.745505,0.744971,0.734656,0.733911,-0.0024686,4.40136e-06,-0.00243268,2.90478e-07,9,-53,-0.0105885,-0.0105885,13.2381,1,0.344
0.745495,0.74497,0.734646,0.733911,-0.00252425,-2.58567e-05,-0.00248752,1.93652e-07,10,-52,-0.00020775,-0.00020775,13.1997,1,0.348
0.745485,0.74497,0.734636,0.733911,-0.00258047,-1.72378e-05,-0.00254292,1.29102e-07,10,-52,0.0103914,0.0103914,13.1622,1,0.352
0.745474,0.74497,0.734626,0.733911,-0.00263727,-1.14919e-05,-0.00259889,8.60677e-08,11,-51,0.0214157,0.0214157,13.1255,1,0.356
0.745464,0.74497,0.734615,0.733911,-0.00269463,-7.66124e-06,-0.00265541,2.88483e-05,11,-50,0.0328541,0.0328541,13.0896,1,0.36
0.745453,0.74497,0.734605,0.733911,-0.00275255,-5.10749e-06,-0.0027125,-9.55872e-06,12,-50,0.0447007,0.0447007,13.0548,1,0.364
0.745442,0.74497,0.734594,0.733911,-0.00281105,-3.405e-06,-0.00277014,-6.37248e-06,12,-49,0.0569534,0.0569534,13.0205,1,0.368
0.74543,0.74497,0.734582,0.733911,-0.0028701,-3.10609e-05,-0.00282834,-4.24832e-06,12,-48,0.0696005,0.0696005,12.9871,1,0.372
0.745419,0.74497,0.734571,0.733911,-0.00292972,-2.07073e-05,-0.00288709,-2.83221e-06,13,-48,0.082508,0.082508,12.9546,1,0.376
0.745407,0.74497,0.734559,0.733911,-0.0029899,-1.38049e-05,-0.00294639,-1.88814e-06,13,-47,0.0958777,0.0958777,12.9229,1,0.38
0.745395,0.74497,0.734547,0.733911,-0.00305064,-9.20324e-06,-0.00300625,-1.25876e-06,14,-46,0.109696,0.109696,12.8921,1,0.384
0.745382,0.74497,0.734535,0.733911,-0.00311194,-6.13549e-06,-0.00306665,-8.39175e-07,14,-46,0.123954,0.123954,12.8622,1,0.388
0.74537,0.74497,0.734523,0.733911,-0.00317379,-4.09033e-06,-0.0031276,-5.5945e-07,15,-45,0.138649,0.138649,12.8332,1,0.392
0.745357,0.74497,0.73451,0.73391,-0.00323619,-3.15178e-05,-0.0031891,-2.91639e-05,15,-44,0.153768,0.153768,12.805,1,0.396
0.745344,0.74497,0.734497,0.733911,-0.00329915,-2.10119e-05,-0.00325114,9.34833e-06,16,-43,0.169176,0.169176,12.7774,1,0.4
0.745331,0.74497,0.734484,0.733911,-0.00336266,-1.40079e-05,-0.00331372,6.23222e-06,16,-43,0.185076,0.185076,12.7511,1,0.404
0.745317,0.74497,0.734471,0.733911,-0.00342672,-9.33861e-06,-0.00337685,4.15481e-06,17,-42,0.201452,0.201452,12.7257,1,0.408
0.745303,0.74497,0.734457,0.733911,-0.00349132,-6.22574e-06,-0.00344052,2.76988e-06,17,-41,0.218297,0.218297,12.7011,1,0.412
0.745289,0.74497,0.734443,0.733911,-0.00355648,-4.15049e-06,-0.00350472,1.84658e-06,18,-40,0.235607,0.235607,12.6775,1,0.416
0.745275,0.744969,0.734429,0.733911,-0.00362217,-3.15579e-05,-0.00356946,1.23106e-06,18,-40,0.253369,0.253369,12.6547,1,0.42
0.74526,0.74497,0.734415,0.733911,-0.00368841,7.75231e-06,-0.00363474,8.20704e-07,19,-39,0.271461,0.271461,12.6328,1,0.424
0.745245,0.744969,0.7344,0.733911,-0.00375519,-2.36227e-05,-0.00370055,5.47136e-07,19,-38,0.290207,0.290207,12.6118,1,0.428
0.74523,0.744969,0.734385,0.733911,-0.00382252,-1.57485e-05,-0.00376689,3.64757e-07,20,-37,0.30926,0.30926,12.5917,1,0.432
0.745215,0.744969,0.73437,0.733911,-0.00389038,-1.0499e-05,-0.00383376,2.43172e-07,20,-36,0.328826,0.328826,12.5726,1,0.436
0.745199,0.744969,0.734355,0.733911,-0.00395877,-3.57902e-05,-0.00390116,1.62114e-07,21,-36,0.348886,0.348886,12.5543,1,0.44
0.745183,0.744969,0.734339,0.733911,-0.00402771,-2.38602e-05,-0.00396909,1.08076e-07,21,-35,0.369298,0.369298,12.537,1,0.444
0.745167,0.744969,0.734323,0.73391,-0.00409717,-4.46977e-05,-0.00403755,-2.87189e-05,22,-34,0.39025,0.39025,12.5206,1,0.448
0.74515,0.744969,0.734306,0.73391,-0.00416717,-2.97985e-05,-0.00410653,-1.91459e-05,22,-33,0.411587,0.411587,12.5049,1,0.452
0.745133,0.744969,0.73429,0.73391,-0.0042377,-1.98656e-05,-0.00417603,-1.27639e-05,23,-32,0.433502,0.433502,12.4902,1,0.456
0.745116,0.744968,0.734273,0.73391,-0.00430876,-4.20347e-05,-0.00424605,-8.5093e-06,23,-32,0.455958,0.455958,12.4766,1,0.46
0.745099,0.744968,0.734256,0.73391,-0.00438034,-2.80231e-05,-0.0043166,-5.67286e-06,24,-31,0.478808,0.478808,12.4639,1,0.464
0.745081,0.744968,0.734239,0.73391,-0.00445245,-4.7473e-05,-0.00438766,-3.78191e-06,25,-30,0.502232,0.502232,12.4522,1,0.468
0.745063,0.744968,0.734221,0.73391,-0.00452509,-6.04396e-05,-0.00445924,-2.52127e-06,25,-29,0.526062,0.526062,12.4414,1,0.472
0.745045,0.744967,0.734203,0.73391,-0.00459825,-6.9084e-05,-0.00453133,-1.68085e-06,26,-28,0.550338,0.550338,12.4317,1,0.476
0.745026,0.744967,0.734185,0.73391,-0.00467193,-7.48469e-05,-0.00460394,-1.12057e-06,26,-27,0.575089,0.575089,12.4229,1,0.48
0.745008,0.744967,0.734166,0.73391,-0.00474612,-4.98979e-05,-0.00467706,-2.9538e-05,27,-26,0.600346,0.600346,12.4151,1,0.484
0.744988,0.744967,0.734147,0.73391,-0.00482084,-6.20562e-05,-0.00475069,-1.9692e-05,28,-25,0.626261,0.626261,12.408,1,0.488
0.744969,0.744967,0.734128,0.73391,-0.00489608,-4.13708e-05,-0.00482483,-1.3128e-05,28,-24,0.652657,0.652657,12.4019,1,0.492
0.744949,0.744966,0.734109,0.73391,-0.00497182,-8.51624e-05,-0.00489947,-3.75429e-05,29,-24,0.679685,0.679685,12.3969,1,0.496
0.744929,0.744966,0.734089,0.73391,-0.00504809,-2.7984e-05,-0.00497463,-2.50286e-05,30,-23,0.707053,0.707053,12.3926,1,0.5
0.744909,0.744966,0.734069,0.73391,-0.00512486,-4.74469e-05,-0.00505028,-1.66857e-05,30,-22,0.735263,0.735263,12.3895,1,0.504
0.744888,0.744966,0.734048,0.73391,-0.00520214,-3.16313e-05,-0.00512644,-1.11238e-05,31,-21,0.763933,0.763933,12.3874,1,0.508
0.744867,0.744966,0.734028,0.733909,-0.00527994,-4.98784e-05,-0.0052031,-3.62068e-05,32,-20,0.793241,0.793241,12.3864,1,0.512
0.744846,0.744965,0.734007,0.733909,-0.00535824,-6.20432e-05,-0.00528026,-2.41379e-05,32,-19,0.823013,0.823013,12.3862,1,0.516
0.744824,0.744965,0.733986,0.733909,-0.00543704,-7.01531e-05,-0.00535792,-1.60919e-05,33,-18,0.853289,0.853289,12.387,1,0.52
0.744803,0.744965,0.733964,0.733909,-0.00551636,-1.79778e-05,-0.00543608,-1.07279e-05,34,-17,0.884118,0.884118,12.389,1,0.524
0.74478,0.744964,0.733942,0.733909,-0.00559617,-6.9567e-05,-0.00551473,-3.59429e-05,34,-16,0.915779,0.915779,12.392,1,0.528
0.744758,0.744964,0.73392,0.733909,-0.00567648,-7.5169e-05,-0.00559388,-2.39619e-05,35,-15,0.947754,0.947754,12.3958,1,0.532
0.744735,0.744964,0.733897,0.733909,-0.0057573,-7.89036e-05,-0.00567351,-4.47655e-05,36,-14,0.980286,0.980286,12.4007,1,0.536
0.744712,0.744963,0.733874,0.733908,-0.00583861,-0.000110184,-0.00575364,-5.86346e-05,36,-13,1.01338,1,12.4065,1,0.54
0.744688,0.744963,0.733851,0.733908,-0.00592042,-0.000102247,-0.00583426,-3.90897e-05,37,-12,1.04685,1,12.4131,1,0.544
0.744664,0.744962,0.733828,0.733908,-0.00600272,-0.000154537,-0.00591537,-5.48508e-05,37,-11,1.0808,1,12.421,1,0.548
0.74464,0.744961,0.733804,0.733908,-0.00608552,-0.000131816,-0.00599696,-6.53581e-05,38,-10,1.11494,1,12.4297,1,0.552
0.744616,0.744961,0.73378,0.733907,-0.00616881,-0.000116668,-0.00607904,-7.2363e-05,38,-9,1.14967,1,12.4394,1,0.556
0.744591,0.74496,0.733755,0.733907,-0.00625258,-0.000135361,-0.0061616,-7.70329e-05,39,-8,1.18493,1,12.4501,1,0.56
0.744566,0.74496,0.733731,0.733907,-0.00633685,-0.000119031,-0.00624464,-8.01462e-05,40,-7,1.22056,1,12.4618,1,0.564
0.74454,0.744959,0.733705,0.733906,-0.00642161,-0.000194518,-0.00632816,-0.000111013,40,-6,1.25672,1,12.4744,1,0.568
0.744514,0.744958,0.73368,0.733906,-0.00650685,-0.000216051,-0.00641216,-0.000102799,40,-5,1.29294,1,12.4879,1,0.572
0.744488,0.744955,0.733654,0.733905,-0.00659257,-0.000374362,-0.00649664,-0.000126115,40,-4,1.32947,1,12.5024,1,0.576
0.744462,0.744952,0.733628,0.733904,-0.00667878,-0.000451111,-0.00658159,-0.000141658,40,-3,1.36561,1,12.5178,1,0.58
0.744435,0.74495,0.733601,0.733904,-0.00676547,-0.000473486,-0.00666702,-0.00012323,41,-2,1.40182,1,12.5342,1,0.584
0.744407,0.744947,0.733575,0.733904,-0.00685264,-0.000603567,-0.00675292,-0.000110944,41,-1,1.43834,1,12.5518,1,0.588
0.74438,0.744944,0.733547,0.733903,-0.00694029,-0.000661496,-0.00683929,-0.000102754,41,0,1.47464,1,12.5706,1,0.592
0.744352,0.74494,0.73352,0.733903,-0.00702841,-0.000786489,-0.00692613,-9.72934e-05,41,0,1.51107,1,12.5905,1,0.596
0.744324,0.744935,0.733492,0.733903,-0.00711701,-0.000898608,-0.00701344,-9.36532e-05,41,2,1.5473,1,12.6116,1,0.6
0.744295,0.74493,0.733464,0.733903,-0.00720609,-0.00105973,-0.00710122,-6.24355e-05,41,3,1.58336,1,12.6338,1,0.604
0.744266,0.744923,0.733435,0.733902,-0.00729563,-0.0012823,-0.00718946,-7.04146e-05,40,4,1.61899,1,12.6574,1,0.608
0.744237,0.744914,0.733406,0.733902,-0.00738565,-0.00154585,-0.00727817,-4.6943e-05,39,6,1.65385,1,12.6821,1,0.612
0.744207,0.744904,0.733377,0.733902,-0.00747613,-0.0018655,-0.00736734,-3.12954e-05,38,7,1.68769,1,12.7081,1,0.616
0.744177,0.744892,0.733347,0.733902,-0.00756709,-0.00225135,-0.00745697,-7.84454e-05,37,8,1.72021,1,12.7353,1,0.62
0.744146,0.744879,0.733317,0.733901,-0.0076585,-0.00259496,-0.00754706,-0.000109879,35,9,1.75108,1,12.7631,1,0.624
0.744115,0.744865,0.733287,0.7339,-0.00775039,-0.00293919,-0.0076376,-0.000102043,34,10,1.78051,1,12.7918,1,0.628
0.744084,0.744849,0.733256,0.733899,-0.00784273,-0.00322626,-0.0077286,-0.000183193,33,10,1.80854,1,12.8216,1,0.632
0.744053,0.744834,0.733225,0.733897,-0.00793554,-0.00344643,-0.00782006,-0.000266083,33,11,1.83548,1,12.8517,1,0.636
0.744021,0.744818,0.733194,0.733896,-0.00802881,-0.00365079,-0.00791197,-0.000292552,32,12,1.86171,1,12.8821,1,0.64
0.743989,0.744801,0.733162,0.733894,-0.00812254,-0.00384462,-0.00800434,-0.00033899,32,12,1.8873,1,12.9134,1,0.644
0.743956,0.744783,0.73313,0.733892,-0.00821672,-0.00400263,-0.00809715,-0.00042753,32,13,1.91234,1,12.9453,1,0.648
0.743923,0.744765,0.733097,0.73389,-0.00831136,-0.00422313,-0.00819041,-0.000457765,31,14,1.93699,1,12.9776,1,0.652
0.743889,0.744746,0.733064,0.733886,-0.00840646,-0.00434134,-0.00828412,-0.000621877,31,13,1.96095,1,13.0105,1,0.656
0.743856,0.74473,0.733031,0.733883,-0.008502,-0.00427619,-0.00837828,-0.000702494,32,14,1.98486,1,13.043,1,0.66
0.743821,0.744713,0.732997,0.733879,-0.008598,-0.00426155,-0.00847288,-0.000785029,33,14,2.00964,1,13.0759,1,0.664
0.743787,0.744697,0.732963,0.733875,-0.00869445,-0.00419421,-0.00856792,-0.000811262,34,15,2.03506,1,13.1091,1,0.668
0.743752,0.74468,0.732928,0.733872,-0.00879134,-0.00420689,-0.00866341,-0.000828751,34,16,2.06136,1,13.1431,1,0.672
0.743716,0.744663,0.732894,0.733868,-0.00888868,-0.00424414,-0.00875933,-0.00084041,35,17,2.08812,1,13.1782,1,0.676
0.743681,0.744644,0.732858,0.733865,-0.00898647,-0.00435535,-0.0088557,-0.000848182,35,19,2.11518,1,13.2143,1,0.68
0.743645,0.744625,0.732823,0.733861,-0.0090847,-0.00448707,-0.0089525,-0.000853364,35,20,2.14216,1,13.2515,1,0.684
0.743608,0.744606,0.732787,0.733858,-0.00918338,-0.00460367,-0.00904974,-0.000856819,35,21,2.16894,1,13.2898,1,0.688
0.743571,0.744586,0.73275,0.733854,-0.00928249,-0.0047102,-0.00914741,-0.000887913,35,22,2.19562,1,13.3292,1,0.692
0.743534,0.744565,0.732714,0.73385,-0.00938204,-0.00492517,-0.00924551,-0.000908642,34,23,2.2222,1,13.3695,1,0.696
0.743496,0.744544,0.732676,0.733846,-0.00948203,-0.00503969,-0.00934405,-0.00100883,34,24,2.24817,1,13.4108,1,0.7
0.743458,0.744523,0.732639,0.733841,-0.00958246,-0.00511604,-0.00944302,-0.00101805,34,25,2.27406,1,13.4522,1,0.704
0.743419,0.744502,0.732601,0.733838,-0.00968332,-0.00513815,-0.00954241,-0.000995398,35,26,2.3001,1,13.4948,1,0.708
0.74338,0.744481,0.732563,0.733834,-0.00978462,-0.00518168,-0.00964223,-0.000922717,35,28,2.32657,1,13.5387,1,0.712
0.743341,0.744459,0.732524,0.733832,-0.00988635,-0.00523949,-0.00974248,-0.000845472,36,30,2.35336,1,13.5847,1,0.716
0.743301,0.744438,0.732485,0.733829,-0.00998851,-0.00524924,-0.00984315,-0.000822766,36,32,2.3804,1,13.6325,1,0.72
0.743261,0.744416,0.732445,0.733825,-0.0100911,-0.0053709,-0.00994424,-0.000865211,36,33,2.40791,1,13.6818,1,0.724
0.743221,0.744391,0.732405,0.733822,-0.0101941,-0.00562476,-0.0100458,-0.000835926,36,35,2.43526,1,13.7318,1,0.728
0.74318,0.744367,0.732365,0.733818,-0.0102975,-0.00573641,-0.0101477,-0.000845193,36,36,2.4618,1,13.7833,1,0.732
0.743138,0.744343,0.732324,0.733814,-0.0104014,-0.00586843,-0.01025,-0.000908953,36,37,2.48829,1,13.836,1,0.736
0.743096,0.744318,0.732283,0.73381,-0.0105057,-0.00598523,-0.0103528,-0.00095146,36,38,2.51461,1,13.8892,1,0.74
0.743054,0.744293,0.732241,0.733804,-0.0106104,-0.00609189,-0.010456,-0.00109496,36,38,2.54085,1,13.9431,1,0.744
0.743012,0.744267,0.732199,0.733798,-0.0107155,-0.00619179,-0.0105596,-0.00130579,36,37,2.56708,1,13.9968,1,0.748
0.742968,0.744241,0.732157,0.73379,-0.0108211,-0.00631597,-0.0106636,-0.00150393,36,37,2.59333,1,14.0496,1,0.752
0.742925,0.744214,0.732114,0.733781,-0.0109271,-0.00642755,-0.010768,-0.00175118,36,36,2.61947,1,14.1016,1,0.756
0.742881,0.744186,0.73207,0.73377,-0.0110334,-0.00664589,-0.0108729,-0.00205997,35,34,2.64552,1,14.1523,1,0.76
0.742837,0.744158,0.732027,0.733759,-0.0111402,-0.00676266,-0.0109781,-0.00229463,35,33,2.67098,1,14.2012,1,0.764
0.742792,0.74413,0.731983,0.733747,-0.0112474,-0.00686929,-0.0110838,-0.00256622,36,32,2.69637,1,14.249,1,0.768
0.742747,0.744101,0.731938,0.733734,-0.0113551,-0.00694039,-0.0111898,-0.00277608,36,31,2.72178,1,14.2953,1,0.772
0.742701,0.744075,0.731893,0.733721,-0.0114631,-0.00687262,-0.0112963,-0.00294478,37,31,2.74745,1,14.3408,1,0.776
0.742655,0.744047,0.731848,0.733707,-0.0115715,-0.00688502,-0.0114031,-0.00311482,38,31,2.77406,1,14.3858,1,0.78
0.742608,0.744021,0.731802,0.733694,-0.0116804,-0.00677812,-0.0115104,-0.00319939,39,31,2.80126,1,14.4304,1,0.784
0.742562,0.743994,0.731756,0.73368,-0.0117896,-0.00670686,-0.0116181,-0.00325577,40,32,2.82966,1,14.4754,1,0.788
0.742514,0.743968,0.731709,0.733667,-0.0118993,-0.00668814,-0.0117261,-0.00329336,41,33,2.85905,1,14.5211,1,0.792
0.742466,0.743945,0.731662,0.733653,-0.0120093,-0.00638775,-0.0118346,-0.00328963,43,35,2.88927,1,14.5678,1,0.796
0.742418,0.743923,0.731614,0.73364,-0.0121198,-0.00607233,-0.0119434,-0.00331593,46,36,2.92181,1,14.6157,1,0.8
0.742369,0.743904,0.731566,0.733627,-0.0122307,-0.00563172,-0.0120527,-0.00333347,49,37,2.95679,1,14.6646,1,0.804
0.74232,0.743888,0.731518,0.733612,-0.0123419,-0.00507886,-0.0121623,-0.00340274,52,38,2.99493,1,14.7145,1,0.808
0.742271,0.743875,0.731469,0.733597,-0.0124536,-0.00445117,-0.0122723,-0.00353529,57,38,3.03684,1,14.7651,1,0.812
0.742221,0.743865,0.73142,0.733581,-0.0125656,-0.00377359,-0.0123828,-0.00368125,61,38,3.08294,1,14.8155,1,0.816
0.74217,0.743858,0.73137,0.733565,-0.0126781,-0.00314913,-0.0124936,-0.00383613,65,38,3.13348,1,14.8658,1,0.82
0.742119,0.743853,0.73132,0.733547,-0.0127909,-0.00253128,-0.0126048,-0.00402576,70,37,3.18817,1,14.9157,1,0.824
0.742068,0.743849,0.731269,0.733529,-0.0129041,-0.00197543,-0.0127163,-0.00418097,73,37,3.24695,1,14.9651,1,0.828
0.742016,0.743846,0.731218,0.733511,-0.0130177,-0.00154728,-0.0128283,-0.00428444,77,38,3.30947,1,15.0142,1,0.832
0.741964,0.743844,0.731166,0.733491,-0.0131317,-0.00123306,-0.0129406,-0.00455496,79,37,3.37499,1,15.0635,1,0.836
0.741911,0.743842,0.731114,0.733471,-0.0132461,-0.000965993,-0.0130534,-0.00470651,82,37,3.44291,1,15.1114,1,0.84
0.741858,0.74384,0.731062,0.733449,-0.0133609,-0.000874323,-0.0131665,-0.00492271,83,36,3.51291,1,15.1591,1,0.844
0.741804,0.743836,0.731009,0.73343,-0.0134761,-0.000842,-0.01328,-0.0048941,84,38,3.58406,1,15.206,1,0.848
0.74175,0.743833,0.730956,0.733408,-0.0135916,-0.000878034,-0.0133938,-0.00504777,85,38,3.65601,1,15.2544,1,0.852
0.741695,0.743829,0.730902,0.733388,-0.0137075,-0.000902056,-0.0135081,-0.00506384,86,39,3.72841,1,15.3027,1,0.856
0.74164,0.743824,0.730848,0.733365,-0.0138238,-0.000975653,-0.0136227,-0.0052761,86,38,3.80131,1,15.352,1,0.86
0.741585,0.74382,0.730793,0.733344,-0.0139405,-0.00105351,-0.0137377,-0.00533123,87,39,3.87445,1,15.4005,1,0.864
0.741529,0.743816,0.730738,0.733322,-0.0140576,-0.00101904,-0.013853,-0.00536798,88,40,3.94786,1,15.4498,1,0.868
0.741472,0.743812,0.730682,0.733299,-0.014175,-0.000996059,-0.0139687,-0.00547885,89,41,4.02211,1,15.5001,1,0.872
0.741415,0.743808,0.730626,0.733277,-0.0142928,-0.00098074,-0.0140848,-0.00552398,90,42,4.09716,1,15.5505,1,0.876
0.741358,0.743805,0.730569,0.733255,-0.014411,-0.000884154,-0.0142013,-0.00549648,92,44,4.17299,1,15.6019,1,0.88
0.7413,0.743803,0.730512,0.733233,-0.0145296,-0.000790972,-0.0143181,-0.00550694,93,45,4.25004,1,15.6549,1,0.884
0.741242,0.743802,0.730455,0.73321,-0.0146485,-0.000613688,-0.0144353,-0.00557149,95,46,4.32831,1,15.709,1,0.888
0.741183,0.743801,0.730397,0.733188,-0.0147678,-0.000524289,-0.0145529,-0.00555695,96,48,4.40822,1,15.7639,1,0.892
0.741124,0.743799,0.730338,0.733163,-0.0148874,-0.00046469,-0.0146708,-0.00574879,98,47,4.48931,1,15.8201,1,0.896
0.741064,0.743798,0.73028,0.733138,-0.0150075,-0.000396166,-0.0147891,-0.00593426,99,47,4.5714,1,15.8758,1,0.9
0.741003,0.743797,0.73022,0.733112,-0.0151279,-0.000350483,-0.0149077,-0.0060867,100,47,4.65456,1,15.931,1,0.904
0.740943,0.743796,0.73016,0.733087,-0.0152486,-0.000320028,-0.0150267,-0.00621712,102,47,4.73865,1,15.9859,1,0.908
0.740881,0.743794,0.7301,0.73306,-0.0153697,-0.000357307,-0.0151461,-0.00633286,102,48,4.82357,1,16.041,1,0.912
0.74082,0.743793,0.730039,0.733034,-0.0154912,-0.000324577,-0.0152658,-0.00641002,104,49,4.90899,1,16.0962,1,0.916
0.740758,0.743792,0.729978,0.733007,-0.015613,-0.000331549,-0.0153858,-0.00649025,105,49,4.99527,1,16.152,1,0.92
0.740695,0.743791,0.729916,0.73298,-0.0157352,-0.000336196,-0.0155062,-0.00660131,106,50,5.08221,1,16.2084,1,0.924
0.740632,0.74379,0.729854,0.732952,-0.0158578,-0.000281713,-0.015627,-0.00670415,107,50,5.16983,1,16.265,1,0.928
0.740568,0.743788,0.729791,0.732924,-0.0159806,-0.000302972,-0.0157481,-0.0068015,108,51,5.25843,1,16.3219,1,0.932
0.740504,0.743788,0.729728,0.732896,-0.0161039,-0.000259563,-0.0158696,-0.00689519,109,52,5.34763,1,16.3792,1,0.936
0.740439,0.743788,0.729664,0.732869,-0.0162275,-0.000173042,-0.0159914,-0.00687127,111,53,5.43779,1,16.437,1,0.94
0.740374,0.743787,0.7296,0.732844,-0.0163515,-0.000201734,-0.0161135,-0.00668259,112,57,5.5291,1,16.4965,1,0.944
0.740308,0.743787,0.729535,0.732822,-0.0164758,-0.000134489,-0.016236,-0.00629768,113,62,5.62099,1,16.5594,1,0.948
0.740242,0.743786,0.72947,0.732801,-0.0166004,-0.000147241,-0.0163588,-0.00589712,114,68,5.71393,1,16.6275,1,0.952
0.740176,0.743785,0.729404,0.732784,-0.0167254,-0.000155743,-0.016482,-0.00534217,115,75,5.80751,1,16.701,1,0.956
0.740108,0.743784,0.729338,0.732769,-0.0168507,-0.000190201,-0.0166055,-0.00479945,116,82,5.90173,1,16.7815,1,0.96
0.740041,0.743783,0.729271,0.732756,-0.0169764,-0.000213174,-0.0167294,-0.00429369,117,88,5.99648,1,16.8688,1,0.964
0.739973,0.743782,0.729204,0.732746,-0.0171024,-0.000257279,-0.0168536,-0.0036974,118,96,6.0918,1,16.9627,1,0.968
0.739904,0.743781,0.729137,0.732738,-0.0172288,-0.000257892,-0.0169781,-0.00315591,119,103,6.1876,1,17.0638,1,0.972
0.739835,0.74378,0.729068,0.732731,-0.0173555,-0.000258301,-0.0171029,-0.00265097,120,110,6.28411,1,17.1718,1,0.976
0.739765,0.743779,0.729,0.732727,-0.0174826,-0.000258573,-0.0172281,-0.00217039,121,116,6.38134,1,17.2862,1,0.98
0.739695,0.743777,0.728931,0.732721,-0.0176099,-0.000287546,-0.0173537,-0.00187879,122,121,6.47927,1,17.4067,1,0.984
0.739624,0.743777,0.728861,0.732717,-0.0177376,-0.000220488,-0.0174795,-0.00159802,124,125,6.57779,1,17.5315,1,0.988
0.739553,0.743776,0.728791,0.732712,-0.0178657,-0.000233365,-0.0176057,-0.00146842,125,129,6.67738,1,17.6605,1,0.992
0.739481,0.743775,0.72872,0.732707,-0.0179941,-0.000213158,-0.0177322,-0.00138202,126,131,6.77764,1,17.7922,1,0.996
0.739409,0.743775,0.728649,0.732702,-0.0181228,-0.000199688,-0.017859,-0.00141079,127,133,6.87873,1,17.9261,1,1
0.739336,0.743774,0.728577,0.732696,-0.0182518,-0.000190707,-0.0179862,-0.00137239,128,135,6.98062,1,18.0611,1,1.004
0.739263,0.743773,0.728505,0.73269,-0.0183812,-0.000213511,-0.0181137,-0.00143316,129,137,7.08329,1,18.1979,1,1.008
0.739189,0.743772,0.728432,0.732684,-0.0185109,-0.000228713,-0.0182415,-0.00144489,130,138,7.18655,1,18.3356,1,1.012
0.739115,0.74377,0.728359,0.732678,-0.0186409,-0.000267639,-0.0183696,-0.0014527,131,140,7.29046,1,18.4745,1,1.016
0.73904,0.743769,0.728285,0.732673,-0.0187712,-0.000264799,-0.0184981,-0.00142912,132,143,7.3949,1,18.6148,1,1.02
0.738965,0.743768,0.728211,0.732669,-0.0189019,-0.000262905,-0.0186268,-0.00129824,134,146,7.50009,1,18.7569,1,1.024
0.738889,0.743767,0.728136,0.732665,-0.0190329,-0.000261643,-0.0187559,-0.00121098,135,149,7.60603,1,18.9016,1,1.028
0.738812,0.743766,0.728061,0.732661,-0.0191642,-0.000318383,-0.0188853,-0.00109523,136,152,7.71269,1,19.0487,1,1.032
0.738736,0.743765,0.727985,0.732657,-0.0192958,-0.000298628,-0.019015,-0.00104686,137,154,7.8198,1,19.1984,1,1.036
0.738658,0.743763,0.727909,0.732654,-0.0194277,-0.000371831,-0.019145,-0.000957022,138,157,7.92774,1,19.35,1,1.04
0.73858,0.743761,0.727832,0.732652,-0.01956,-0.000391842,-0.0192754,-0.000868342,139,160,8.03603,1,19.5039,1,1.044
0.738502,0.743758,0.727755,0.732649,-0.0196926,-0.000462764,-0.019406,-0.000809222,140,163,8.14493,1,19.6602,1,1.048
0.738423,0.743757,0.727677,0.732646,-0.0198254,-0.000452464,-0.0195369,-0.000769809,141,165,8.25421,1,19.8185,1,1.052
0.738343,0.743754,0.727598,0.732644,-0.0199586,-0.00053197,-0.0196682,-0.000685951,142,168,8.36426,1,19.9786,1,1.056
0.738263,0.743753,0.72752,0.73264,-0.0200921,-0.000469811,-0.0197998,-0.000774001,143,169,8.47468,1,20.141,1,1.06
0.738182,0.74375,0.72744,0.732636,-0.020226,-0.000485953,-0.0199316,-0.000832701,144,171,8.58617,1,20.3039,1,1.064
0.738101,0.743749,0.72736,0.732633,-0.0203601,-0.000410341,-0.0200638,-0.000871834,146,173,8.69836,1,20.4678,1,1.068
0.738019,0.743747,0.72728,0.732629,-0.0204945,-0.000446306,-0.0201963,-0.000897923,147,174,8.8117,1,20.6327,1,1.072
0.737937,0.743746,0.727198,0.732625,-0.0206292,-0.000412701,-0.020329,-0.000915315,148,176,8.92561,1,20.7988,1,1.076
0.737854,0.743743,0.727117,0.732621,-0.0207643,-0.000505462,-0.0204621,-0.00092691,149,178,9.04044,1,20.9662,1,1.08
0.737771,0.74374,0.727035,0.732617,-0.0208996,-0.000567302,-0.0205955,-0.00093464,150,181,9.15551,1,21.135,1,1.084
0.737687,0.743738,0.726952,0.732613,-0.0210353,-0.000550947,-0.0207291,-0.000997376,151,182,9.27103,1,21.3051,1,1.088
0.737603,0.743735,0.726869,0.732607,-0.0211712,-0.000626416,-0.0208631,-0.00115436,152,183,9.38737,1,21.4761,1,1.092
0.737518,0.743733,0.726785,0.732601,-0.0213074,-0.000619147,-0.0209974,-0.00128781,153,184,9.50409,1,21.6469,1,1.096
0.737432,0.743729,0.726701,0.732592,-0.021444,-0.000700674,-0.0211319,-0.00154952,154,183,9.62159,1,21.8178,1,1.1
0.737346,0.743726,0.726616,0.732583,-0.0215808,-0.000726234,-0.0212667,-0.00178158,155,183,9.73942,1,21.9876,1,1.104
0.73726,0.743723,0.726531,0.732573,-0.0217179,-0.000772065,-0.0214019,-0.00202266,156,183,9.85787,1,22.1566,1,1.108
0.737173,0.743719,0.726445,0.732563,-0.0218553,-0.00080262,-0.0215373,-0.00221217,157,183,9.97685,1,22.3246,1,1.112
0.737085,0.743716,0.726359,0.732552,-0.021993,-0.00085178,-0.021673,-0.00239609,158,184,10.0964,1,22.4923,1,1.116
0.736997,0.743712,0.726272,0.732541,-0.022131,-0.000855763,-0.021809,-0.0025187,160,185,10.2165,1,22.6596,1,1.12
0.736908,0.743708,0.726184,0.73253,-0.0222693,-0.000915999,-0.0219452,-0.00260044,161,186,10.3374,1,22.8272,1,1.124
0.736818,0.743704,0.726096,0.732519,-0.0224079,-0.000956157,-0.0220818,-0.00268373,162,187,10.4587,1,22.9955,1,1.128
0.736729,0.743699,0.726007,0.732507,-0.0225467,-0.00101172,-0.0222186,-0.00273925,163,189,10.5805,1,23.1644,1,1.132
0.736638,0.743694,0.725918,0.732497,-0.0226859,-0.00107755,-0.0223558,-0.00263231,163,192,10.7028,1,23.3344,1,1.136
0.736547,0.74369,0.725829,0.732488,-0.0228253,-0.00112144,-0.0224932,-0.00253223,165,195,10.8256,1,23.507,1,1.14
0.736455,0.743685,0.725738,0.732479,-0.022965,-0.0011507,-0.0226308,-0.00246551,166,198,10.9489,1,23.682,1,1.144
0.736363,0.74368,0.725648,0.732469,-0.023105,-0.00114142,-0.0227688,-0.00244982,167,200,11.0728,1,23.8592,1,1.148
0.736271,0.743675,0.725556,0.732458,-0.0232453,-0.00116402,-0.022907,-0.00252573,168,202,11.1975,1,24.038,1,1.152
0.736177,0.743671,0.725464,0.732448,-0.0233858,-0.00115029,-0.0230455,-0.00254755,170,204,11.323,1,24.2176,1,1.156
0.736084,0.743666,0.725372,0.732438,-0.0235266,-0.00114114,-0.0231843,-0.00256209,171,206,11.4493,1,24.3985,1,1.16
0.735989,0.743663,0.725279,0.732427,-0.0236677,-0.00101988,-0.0233233,-0.00257179,173,208,11.5765,1,24.5808,1,1.164
0.735894,0.74366,0.725185,0.732417,-0.0238091,-0.00096783,-0.0234626,-0.00254946,175,211,11.7052,1,24.7645,1,1.168
0.735799,0.743657,0.725091,0.732407,-0.0239508,-0.000875547,-0.0236022,-0.00259216,176,212,11.835,1,24.9499,1,1.172
0.735703,0.743654,0.724996,0.732394,-0.0240927,-0.000842817,-0.0237421,-0.00273579,178,213,11.9661,1,25.1363,1,1.176
0.735606,0.743651,0.724901,0.732381,-0.0242349,-0.000792205,-0.0238822,-0.00291791,179,214,12.0982,1,25.3228,1,1.18
0.735509,0.743649,0.724805,0.732367,-0.0243773,-0.000758464,-0.0240226,-0.0031257,181,214,12.2314,1,25.5091,1,1.184
0.735411,0.743646,0.724709,0.732351,-0.0245201,-0.00073597,-0.0241632,-0.00340819,183,214,12.3656,1,25.6947,1,1.188
0.735313,0.743643,0.724612,0.732334,-0.024663,-0.000720974,-0.0243041,-0.00368288,184,213,12.5007,1,25.879,1,1.192
0.735214,0.743641,0.724515,0.732316,-0.0248063,-0.000682186,-0.0244453,-0.00400996,186,212,12.6367,1,26.0621,1,1.196
0.735114,0.743637,0.724416,0.732296,-0.0249498,-0.000713909,-0.0245867,-0.0042856,187,212,12.7738,1,26.2434,1,1.2
0.735014,0.743634,0.724318,0.732276,-0.0250936,-0.000763849,-0.0247284,-0.00455573,188,211,12.9114,1,26.4235,1,1.204
0.734913,0.74363,0.724219,0.732254,-0.0252376,-0.000825933,-0.0248704,-0.00485098,189,211,13.0496,1,26.6025,1,1.208
0.734812,0.743625,0.724119,0.732231,-0.0253819,-0.000953695,-0.0250126,-0.00516298,190,210,13.1883,1,26.78,1,1.212
0.73471,0.74362,0.724019,0.732209,-0.0255265,-0.00109645,-0.025155,-0.00525582,190,211,13.327,1,26.9561,1,1.216
0.734608,0.743612,0.723918,0.732185,-0.0256713,-0.00139316,-0.0252977,-0.00549045,190,211,13.4657,1,27.1327,1,1.22
0.734505,0.743603,0.723816,0.73216,-0.0258164,-0.00170613,-0.0254407,-0.00579083,190,211,13.6036,1,27.3084,1,1.224
0.734401,0.743592,0.723714,0.732134,-0.0259617,-0.00205873,-0.0255839,-0.00604866,189,210,13.7405,1,27.4827,1,1.228
0.734297,0.743579,0.723611,0.732107,-0.0261073,-0.00240896,-0.0257274,-0.00627813,189,210,13.8762,1,27.656,1,1.232
0.734192,0.743566,0.723508,0.732078,-0.0262531,-0.00267124,-0.0258711,-0.00660386,189,209,14.0108,1,27.8285,1,1.236
0.734087,0.743554,0.723405,0.732048,-0.0263992,-0.00278851,-0.0260151,-0.00690738,189,209,14.1448,1,27.9993,1,1.24
0.733981,0.743543,0.7233,0.732017,-0.0265456,-0.00278031,-0.0261593,-0.00719611,191,208,14.2791,1,28.1687,1,1.244
0.733875,0.743534,0.723195,0.731989,-0.0266921,-0.00260211,-0.0263037,-0.00710068,193,211,14.4142,1,28.3368,1,1.248
0.733768,0.743527,0.72309,0.731962,-0.026839,-0.00236814,-0.0264484,-0.00700827,196,214,14.5513,1,28.5075,1,1.252
0.73366,0.743521,0.722984,0.731936,-0.026986,-0.00203941,-0.0265933,-0.00677392,199,219,14.6906,1,28.6808,1,1.256
0.733552,0.743516,0.722877,0.731915,-0.0271334,-0.00176268,-0.0267385,-0.00627219,202,226,14.8325,1,28.8581,1,1.26
0.733443,0.743511,0.72277,0.731899,-0.0272809,-0.00157819,-0.0268839,-0.00556342,204,235,14.9769,1,29.0421,1,1.264
0.733334,0.743506,0.722662,0.731886,-0.0274287,-0.00148399,-0.0270296,-0.00474542,206,246,15.1231,1,29.2349,1,1.268
0.733224,0.743501,0.722554,0.731878,-0.0275768,-0.00142119,-0.0271755,-0.00388339,208,256,15.2706,1,29.4374,1,1.272
0.733113,0.743495,0.722445,0.731871,-0.027725,-0.0014657,-0.0273216,-0.00310716,209,266,15.4193,1,29.6501,1,1.276
0.733002,0.743488,0.722335,0.731867,-0.0278736,-0.00158174,-0.0274679,-0.00241693,210,275,15.5685,1,29.8722,1,1.28
0.73289,0.743478,0.722225,0.731865,-0.0280223,-0.00183185,-0.0276145,-0.00181282,210,284,15.7179,1,30.1026,1,1.284
0.732778,0.743467,0.722114,0.731863,-0.0281713,-0.00217133,-0.0277614,-0.0013525,210,291,15.8667,1,30.3407,1,1.288
0.732665,0.743453,0.722003,0.731862,-0.0283205,-0.00259919,-0.0279084,-0.00101683,209,297,16.0144,1,30.5849,1,1.292
0.732551,0.743437,0.721891,0.73186,-0.02847,-0.00308597,-0.0280557,-0.000793053,208,302,16.1605,1,30.8339,1,1.296
0.732437,0.743418,0.721778,0.731858,-0.0286197,-0.00364081,-0.0282032,-0.000701447,206,305,16.3046,1,31.0868,1,1.3
0.732322,0.743396,0.721665,0.731856,-0.0287696,-0.00424104,-0.0283509,-0.000669168,204,308,16.4464,1,31.3421,1,1.304
0.732207,0.74337,0.721551,0.731853,-0.0289197,-0.00501547,-0.0284989,-0.000676439,201,311,16.5856,1,31.5993,1,1.308
0.732091,0.74334,0.721437,0.73185,-0.0290701,-0.00584846,-0.0286471,-0.000738869,198,313,16.7213,1,31.858,1,1.312
0.731974,0.743306,0.721322,0.731846,-0.0292207,-0.00669169,-0.0287955,-0.000809279,195,315,16.8531,1,32.1177,1,1.316
0.731857,0.743268,0.721207,0.731841,-0.0293716,-0.00759934,-0.0289441,-0.000913802,191,316,16.9809,1,32.3782,1,1.32
0.731739,0.743226,0.721091,0.731836,-0.0295226,-0.00860751,-0.029093,-0.00106986,187,317,17.1044,1,32.6393,1,1.324
0.731621,0.743177,0.720974,0.73183,-0.0296739,-0.00979786,-0.0292421,-0.00117389,182,319,17.223,1,32.9004,1,1.328
0.731502,0.743122,0.720857,0.731824,-0.0298254,-0.0111097,-0.0293913,-0.00130083,176,320,17.3356,1,33.1621,1,1.332
0.731382,0.743061,0.720739,0.731817,-0.0299771,-0.0125024,-0.0295408,-0.00144304,170,322,17.4417,1,33.4242,1,1.336
0.731262,0.742995,0.72062,0.73181,-0.030129,-0.013834,-0.0296906,-0.00159543,164,323,17.5407,1,33.6864,1,1.34
0.731141,0.742922,0.720501,0.731801,-0.0302812,-0.0152976,-0.0298405,-0.00178339,157,324,17.633,1,33.9487,1,1.344
0.73102,0.742841,0.720382,0.731791,-0.0304335,-0.016993,-0.0299907,-0.00202386,149,324,17.7178,1,34.2107,1,1.348
0.730898,0.742756,0.720261,0.731781,-0.0305861,-0.0184113,-0.030141,-0.00218418,142,325,17.7939,1,34.4719,1,1.352
0.730775,0.742663,0.720141,0.731769,-0.0307389,-0.0200189,-0.0302916,-0.00243501,135,325,17.8628,1,34.7331,1,1.356
0.730652,0.742568,0.720019,0.731757,-0.0308919,-0.0212635,-0.0304424,-0.00263102,129,326,17.9236,1,34.9934,1,1.36
0.730528,0.742466,0.719897,0.731745,-0.0310451,-0.0226978,-0.0305934,-0.0027617,122,328,17.9781,1,35.2534,1,1.364
0.730403,0.742357,0.719774,0.731734,-0.0311986,-0.024201,-0.0307446,-0.00279123,115,330,18.0254,1,35.5138,1,1.368
0.730278,0.742245,0.719651,0.731723,-0.0313522,-0.0254047,-0.030896,-0.00278213,110,333,18.0651,1,35.7755,1,1.372
0.730153,0.742129,0.719527,0.731713,-0.031506,-0.0266102,-0.0310476,-0.0026609,104,337,18.0989,1,36.039,1,1.376
0.730026,0.742008,0.719403,0.731705,-0.0316601,-0.0278457,-0.0311994,-0.00246492,98,341,18.1267,1,36.3054,1,1.38
0.729899,0.741884,0.719278,0.731697,-0.0318144,-0.0288998,-0.0313514,-0.00227668,93,346,18.1484,1,36.5754,1,1.384
0.729772,0.741758,0.719152,0.73169,-0.0319688,-0.0297752,-0.0315036,-0.0020936,89,350,18.1651,1,36.8488,1,1.388
0.729644,0.741628,0.719026,0.731682,-0.0321235,-0.0306467,-0.031656,-0.00202914,86,354,18.1777,1,37.1257,1,1.392
0.729515,0.741496,0.718899,0.731675,-0.0322783,-0.0314293,-0.0318086,-0.00198616,82,357,18.1862,1,37.4048,1,1.396
0.729385,0.741362,0.718771,0.731666,-0.0324334,-0.0321237,-0.0319614,-0.00207267,79,359,18.1913,1,37.686,1,1.4
0.729255,0.741225,0.718643,0.731656,-0.0325887,-0.0328746,-0.0321144,-0.00218793,76,360,18.1932,1,37.9679,1,1.404
0.729125,0.741087,0.718514,0.731646,-0.0327441,-0.0333752,-0.0322676,-0.00232234,74,362,18.1919,1,38.2502,1,1.408
0.728993,0.740946,0.718385,0.731635,-0.0328998,-0.0340256,-0.032421,-0.00241196,71,364,18.1885,1,38.5329,1,1.412
0.728861,0.740805,0.718255,0.731625,-0.0330556,-0.0344592,-0.0325746,-0.00244291,70,366,18.1824,1,38.8164,1,1.416
0.728729,0.740662,0.718124,0.731616,-0.0332117,-0.0348635,-0.0327284,-0.00237717,68,370,18.1747,1,39.1012,1,1.42
0.728596,0.740517,0.717993,0.731608,-0.0333679,-0.0353633,-0.0328823,-0.00224697,67,374,18.1656,1,39.3884,1,1.424
0.728462,0.740368,0.717861,0.7316,-0.0335243,-0.0359844,-0.0330365,-0.00218896,64,377,18.1545,1,39.6785,1,1.428
0.728328,0.740225,0.717729,0.731592,-0.033681,-0.0359091,-0.0331908,-0.0021215,65,381,18.141,1,39.9708,1,1.432
0.728193,0.740078,0.717596,0.731585,-0.0338378,-0.0361467,-0.0333454,-0.00204773,65,384,18.1287,1,40.2654,1,1.436
0.728057,0.739929,0.717462,0.731577,-0.0339948,-0.0365067,-0.0335001,-0.00199856,63,388,18.1159,1,40.5624,1,1.44
0.727921,0.73978,0.717328,0.731568,-0.0341519,-0.0367755,-0.033655,-0.00208093,63,390,18.1019,1,40.8615,1,1.444
0.727784,0.73963,0.717193,0.731558,-0.0343093,-0.0369835,-0.03381,-0.00219344,62,391,18.0873,1,41.1615,1,1.448
0.727646,0.739478,0.717057,0.731547,-0.0344669,-0.0373236,-0.0339653,-0.0023836,61,392,18.0724,1,41.4619,1,1.452
0.727508,0.739327,0.716921,0.731535,-0.0346246,-0.0374641,-0.0341207,-0.00259675,61,393,18.0565,1,41.762,1,1.456
0.727369,0.739173,0.716784,0.73152,-0.0347825,-0.0378168,-0.0342764,-0.00296918,60,393,18.0406,1,42.0616,1,1.46
0.72723,0.739019,0.716647,0.731504,-0.0349406,-0.0380519,-0.0344321,-0.00333262,60,392,18.0236,1,42.3591,1,1.464
0.72709,0.738865,0.716509,0.731485,-0.0350989,-0.0382375,-0.0345881,-0.00377646,59,390,18.0062,1,42.6545,1,1.468
0.726949,0.738709,0.71637,0.731465,-0.0352573,-0.0384764,-0.0347443,-0.00424509,59,389,17.9886,1,42.9472,1,1.472
0.726807,0.738553,0.716231,0.73144,-0.035416,-0.0386932,-0.0349006,-0.00490301,59,385,17.9706,1,43.2368,1,1.476
0.726666,0.738394,0.716091,0.731411,-0.0355748,-0.0390393,-0.0350571,-0.0057159,57,380,17.9521,1,43.5213,1,1.48
0.726523,0.738237,0.71595,0.731376,-0.0357338,-0.0390973,-0.0352137,-0.00671848,58,373,17.9327,1,43.7993,1,1.484
0.72638,0.738076,0.715809,0.731335,-0.0358929,-0.0394814,-0.0353706,-0.00787632,57,365,17.9137,1,44.0688,1,1.488
0.726236,0.737916,0.715667,0.731286,-0.0360522,-0.0395936,-0.0355276,-0.00933919,57,353,17.8936,1,44.3281,1,1.492
0.726091,0.737755,0.715525,0.73123,-0.0362117,-0.0398411,-0.0356848,-0.0108903,56,341,17.8736,1,44.5745,1,1.496
0.725946,0.737594,0.715382,0.731165,-0.0363714,-0.0399773,-0.0358421,-0.0126441,56,326,17.8532,1,44.8068,1,1.5
0.7258,0.737432,0.715238,0.731091,-0.0365312,-0.0401257,-0.0359996,-0.0145906,56,310,17.8329,1,45.0232,1,1.504
0.725654,0.737266,0.715094,0.731005,-0.0366912,-0.0406565,-0.0361573,-0.0169248,54,290,17.8124,1,45.2215,1,1.508
0.725507,0.737106,0.714949,0.730912,-0.0368514,-0.0404345,-0.0363151,-0.0190568,56,271,17.7902,1,45.3981,1,1.512
0.725359,0.736944,0.714803,0.73081,-0.0370117,-0.0404593,-0.0364731,-0.0211978,57,253,17.7701,1,45.5551,1,1.516
0.725211,0.73678,0.714657,0.7307,-0.0371722,-0.040591,-0.0366313,-0.0232874,57,234,17.7507,1,45.6923,1,1.52
0.725062,0.736616,0.71451,0.730581,-0.0373329,-0.0407363,-0.0367896,-0.0254578,57,215,17.7314,1,45.8101,1,1.524
0.724912,0.736452,0.714363,0.730458,-0.0374937,-0.0408045,-0.0369481,-0.0271639,57,201,17.7122,1,45.9081,1,1.528
0.724762,0.736285,0.714215,0.730332,-0.0376547,-0.0411378,-0.0371067,-0.0286179,56,189,17.6935,1,45.9908,1,1.532
0.724611,0.73612,0.714066,0.730202,-0.0378158,-0.0411585,-0.0372655,-0.0299616,57,178,17.6739,1,46.0607,1,1.536
0.724459,0.735954,0.713917,0.730071,-0.0379771,-0.0413162,-0.0374244,-0.0308574,57,171,17.6551,1,46.119,1,1.54
0.724307,0.735782,0.713767,0.729937,-0.0381385,-0.0418532,-0.0375835,-0.0317137,55,164,17.6362,1,46.1699,1,1.544
0.724154,0.735618,0.713616,0.729812,-0.0383001,-0.0416066,-0.0377428,-0.0315648,57,167,17.6154,1,46.2145,1,1.548
0.724001,0.73545,0.713465,0.729683,-0.0384619,-0.0417013,-0.0379022,-0.031811,57,167,17.5969,1,46.262,1,1.552
0.723846,0.735281,0.713313,0.729552,-0.0386238,-0.0419085,-0.0380618,-0.0321191,57,166,17.5786,1,46.3087,1,1.556
0.723692,0.735112,0.71316,0.729417,-0.0387859,-0.0419601,-0.0382215,-0.03267,57,162,17.5602,1,46.3538,1,1.56
0.723536,0.734942,0.713007,0.729279,-0.0389481,-0.0421961,-0.0383813,-0.0332964,57,158,17.5423,1,46.395,1,1.564
0.72338,0.73477,0.712853,0.729133,-0.0391105,-0.0424399,-0.0385413,-0.0343761,56,149,17.524,1,46.4314,1,1.568
0.723223,0.734599,0.712699,0.728986,-0.039273,-0.042516,-0.0387015,-0.0351536,57,143,17.5053,1,46.4588,1,1.572
0.723066,0.734429,0.712543,0.728832,-0.0394356,-0.0425379,-0.0388617,-0.0362765,57,134,17.4871,1,46.4798,1,1.576
0.722908,0.734255,0.712388,0.728672,-0.0395984,-0.0428404,-0.0390222,-0.0375145,57,123,17.4696,1,46.4912,1,1.58
0.722749,0.734084,0.712231,0.728513,-0.0397614,-0.0428406,-0.0391828,-0.0382823,57,118,17.4514,1,46.4921,1,1.584
0.72259,0.73391,0.712074,0.728349,-0.0399245,-0.0430134,-0.0393435,-0.0391684,57,111,17.4341,1,46.4869,1,1.588
0.72243,0.733737,0.711917,0.728182,-0.0400877,-0.0430999,-0.0395043,-0.0400183,58,104,17.4167,1,46.4745,1,1.592
0.722269,0.733557,0.711758,0.728004,-0.0402511,-0.0437333,-0.0396653,-0.0414774,55,91,17.3996,1,46.455,1,1.596
0.722108,0.733386,0.711599,0.727837,-0.0404146,-0.0434358,-0.0398265,-0.0415864,57,92,17.3802,1,46.4232,1,1.6
0.721946,0.733211,0.71144,0.727661,-0.0405782,-0.043583,-0.0399877,-0.0424076,57,85,17.3632,1,46.3916,1,1.604
0.721783,0.733028,0.711279,0.727478,-0.040742,-0.0442857,-0.0401491,-0.0435022,54,76,17.3461,1,46.3533,1,1.608
0.72162,0.732855,0.711118,0.727302,-0.0409059,-0.0438905,-0.0403107,-0.0437136,57,75,17.3264,1,46.3061,1,1.612
0.721456,0.732678,0.710957,0.727124,-0.04107,-0.0440013,-0.0404723,-0.0439121,58,75,17.3097,1,46.2585,1,1.616
0.721291,0.732501,0.710795,0.726945,-0.0412342,-0.0441327,-0.0406342,-0.0441885,58,73,17.2933,1,46.2105,1,1.62
0.721126,0.732322,0.710632,0.726765,-0.0413985,-0.0443643,-0.0407961,-0.044459,57,72,17.2771,1,46.1614,1,1.624
0.72096,0.732137,0.710468,0.726579,-0.041563,-0.0449794,-0.0409582,-0.0451577,55,67,17.2602,1,46.1111,1,1.628
0.720793,0.731961,0.710304,0.726404,-0.0417276,-0.0446408,-0.0411203,-0.0447309,57,72,17.2413,1,46.056,1,1.632
0.720626,0.731782,0.710139,0.726224,-0.0418923,-0.044703,-0.0412827,-0.0447631,58,73,17.225,1,46.0067,1,1.636
0.720458,0.731602,0.709974,0.726045,-0.0420571,-0.0448021,-0.0414451,-0.0447846,58,74,17.2094,1,45.9587,1,1.64
0.72029,0.731419,0.709808,0.725863,-0.0422221,-0.0450985,-0.0416077,-0.045058,57,73,17.194,1,45.912,1,1.644
0.72012,0.731237,0.709641,0.725683,-0.0423872,-0.0451809,-0.0417704,-0.0450387,58,75,17.1779,1,45.8644,1,1.648
0.719951,0.731054,0.709474,0.725502,-0.0425524,-0.0453798,-0.0419332,-0.0450547,58,76,17.1623,1,45.8186,1,1.652
0.71978,0.730871,0.709306,0.725321,-0.0427178,-0.0455124,-0.0420962,-0.0451805,58,76,17.1465,1,45.7743,1,1.656
0.719609,0.730682,0.709137,0.725134,-0.0428833,-0.0461478,-0.0422592,-0.0456386,55,73,17.1307,1,45.7303,1,1.66
0.719437,0.730497,0.708967,0.724956,-0.0430489,-0.0461108,-0.0424224,-0.0452531,56,78,17.1125,1,45.6838,1,1.664
0.719264,0.730315,0.708797,0.724784,-0.0432146,-0.0459133,-0.0425857,-0.0445642,58,87,17.0956,1,45.643,1,1.668
0.719091,0.73013,0.708627,0.724611,-0.0433804,-0.046012,-0.0427491,-0.0441337,58,92,17.0806,1,45.6106,1,1.672
0.718917,0.729935,0.708455,0.724431,-0.0435463,-0.0469703,-0.0429126,-0.044365,54,91,17.0656,1,45.5839,1,1.676
0.718743,0.729756,0.708283,0.724269,-0.0437124,-0.0461985,-0.0430763,-0.0430796,59,105,17.0469,1,45.5573,1,1.68
0.718568,0.729568,0.708111,0.724103,-0.0438786,-0.04649,-0.0432401,-0.0425394,58,112,17.033,1,45.545,1,1.684
0.718392,0.729381,0.707938,0.723939,-0.0440449,-0.0465405,-0.0434039,-0.0420928,59,118,17.0186,1,45.5397,1,1.688
0.718215,0.729191,0.707764,0.723773,-0.0442113,-0.0468908,-0.0435679,-0.0418815,58,122,17.0046,1,45.5404,1,1.692
0.718038,0.728998,0.707589,0.723604,-0.0443778,-0.0473834,-0.043732,-0.0419422,56,123,16.9896,1,45.5448,1,1.696
0.71786,0.728814,0.707414,0.723443,-0.0445444,-0.0469057,-0.0438962,-0.0414356,59,129,16.9731,1,45.5506,1,1.7
0.717682,0.728623,0.707238,0.723278,-0.0447112,-0.0471343,-0.0440605,-0.041357,59,132,16.96,1,45.5629,1,1.704
0.717503,0.728431,0.707061,0.723108,-0.044878,-0.0474306,-0.044225,-0.0417653,58,130,16.9465,1,45.5774,1,1.708
0.717323,0.72824,0.706884,0.722939,-0.045045,-0.0475706,-0.0443895,-0.0418647,58,130,16.9323,1,45.5898,1,1.712
0.717142,0.72805,0.706706,0.722772,-0.0452121,-0.0475775,-0.0445541,-0.0419022,59,132,16.9184,1,45.6028,1,1.716
0.716961,0.727856,0.706528,0.722603,-0.0453792,-0.0478125,-0.0447189,-0.041956,59,133,16.9052,1,45.6172,1,1.72
0.716779,0.727656,0.706348,0.722425,-0.0455465,-0.0485449,-0.0448837,-0.042798,56,126,16.8915,1,45.6323,1,1.724
0.716597,0.727463,0.706169,0.722255,-0.0457139,-0.0484574,-0.0450486,-0.0427547,57,128,16.8749,1,45.6411,1,1.728
0.716413,0.727275,0.705988,0.722083,-0.0458814,-0.047996,-0.0452137,-0.0427834,60,130,16.8599,1,45.6521,1,1.732
0.71623,0.727078,0.705807,0.721909,-0.0460489,-0.0483794,-0.0453788,-0.0430329,59,129,16.8481,1,45.6643,1,1.736
0.716045,0.726879,0.705625,0.721726,-0.0462166,-0.0488941,-0.0455441,-0.0439766,57,122,16.8351,1,45.6754,1,1.74
0.71586,0.726687,0.705442,0.721551,-0.0463844,-0.0485462,-0.0457094,-0.0438859,60,124,16.8204,1,45.6792,1,1.744
0.715674,0.72649,0.705259,0.72137,-0.0465523,-0.048775,-0.0458748,-0.0443149,59,122,16.8085,1,45.6854,1,1.748
0.715487,0.726291,0.705075,0.72119,-0.0467202,-0.0491002,-0.0460404,-0.0446009,59,120,16.7962,1,45.6891,1,1.752
0.7153,0.726085,0.704891,0.720998,-0.0468883,-0.0498929,-0.046206,-0.0456553,55,112,16.7827,1,45.6912,1,1.756
0.715112,0.725889,0.704706,0.720816,-0.0470565,-0.049644,-0.0463717,-0.0456385,57,114,16.7661,1,45.685,1,1.76
0.714924,0.725692,0.70452,0.720635,-0.0472247,-0.049478,-0.0465375,-0.0455409,59,116,16.7519,1,45.6807,1,1.764
0.714735,0.725493,0.704334,0.720451,-0.0473931,-0.0495977,-0.0467034,-0.0456486,59,117,16.7396,1,45.679,1,1.768
0.714545,0.72529,0.704146,0.720263,-0.0475615,-0.0499366,-0.0468694,-0.0461234,58,114,16.7273,1,45.6778,1,1.772
0.714354,0.72509,0.703959,0.720077,-0.04773,-0.049961,-0.0470354,-0.0462097,59,115,16.7143,1,45.6737,1,1.776
0.714163,0.724888,0.70377,0.719892,-0.0478986,-0.0502076,-0.0472016,-0.046296,59,115,16.702,1,45.6704,1,1.78
0.713971,0.724685,0.703581,0.719706,-0.0480673,-0.0503432,-0.0473679,-0.0463535,59,116,16.6893,1,45.668,1,1.784
0.713778,0.724483,0.703391,0.719518,-0.0482361,-0.0504048,-0.0475342,-0.0465646,59,116,16.6768,1,45.6666,1,1.788
0.713585,0.724277,0.703201,0.719335,-0.048405,-0.0507626,-0.0477006,-0.0463023,58,120,16.6648,1,45.6651,1,1.792
0.713391,0.724074,0.70301,0.719154,-0.048574,-0.050742,-0.0478671,-0.0459546,59,125,16.6519,1,45.668,1,1.796
0.713196,0.723868,0.702818,0.718977,-0.048743,-0.0509874,-0.0480337,-0.0453486,59,133,16.64,1,45.6762,1,1.8
0.713001,0.723664,0.702625,0.718803,-0.0489121,-0.0510646,-0.0482003,-0.044743,59,140,16.6278,1,45.6922,1,1.804
0.712805,0.723457,0.702432,0.718635,-0.0490813,-0.0512888,-0.0483671,-0.0437923,59,151,16.616,1,45.7161,1,1.808
0.712608,0.723244,0.702238,0.718468,-0.0492506,-0.0519278,-0.0485339,-0.0431584,56,159,16.6037,1,45.7512,1,1.812
0.712411,0.723038,0.702044,0.718308,-0.04942,-0.0517779,-0.0487008,-0.0420449,58,172,16.589,1,45.7945,1,1.816
0.712213,0.722834,0.701849,0.718153,-0.0495894,-0.0514765,-0.0488678,-0.0409859,60,184,16.5763,1,45.8507,1,1.82
0.712014,0.72263,0.701653,0.717998,-0.0497589,-0.0513907,-0.0490348,-0.040251,62,193,16.5662,1,45.9191,1,1.824
0.711815,0.722421,0.701456,0.717838,-0.0499285,-0.0516502,-0.0492019,-0.0401354,61,196,16.5574,1,45.9962,1,1.828
0.711615,0.722211,0.701259,0.717677,-0.0500982,-0.0519095,-0.0493691,-0.0402023,61,198,16.548,1,46.0762,1,1.832
0.711414,0.722003,0.701061,0.717512,-0.0502679,-0.0519673,-0.0495364,-0.0405348,61,196,16.5382,1,46.157,1,1.836
0.711213,0.721793,0.700863,0.717344,-0.0504377,-0.0520922,-0.0497037,-0.0410156,62,194,16.5291,1,46.2361,1,1.84
0.711011,0.721584,0.700664,0.717174,-0.0506076,-0.0521754,-0.0498712,-0.0415377,62,191,16.5202,1,46.3122,1,1.844
0.710808,0.721369,0.700464,0.717,-0.0507776,-0.0526916,-0.0500386,-0.0422024,60,186,16.5117,1,46.3847,1,1.848
0.710604,0.721154,0.700264,0.716825,-0.0509476,-0.0530357,-0.0502062,-0.0427031,59,183,16.5012,1,46.4523,1,1.852
0.7104,0.720944,0.700062,0.716653,-0.0511177,-0.0529196,-0.0503738,-0.0428354,61,184,16.4899,1,46.5168,1,1.856
0.710196,0.720735,0.699861,0.716486,-0.0512878,-0.0526982,-0.0505415,-0.0424054,63,190,16.4803,1,46.582,1,1.86
0.70999,0.720522,0.699658,0.716317,-0.051458,-0.0528098,-0.0507092,-0.042349,63,193,16.4729,1,46.653,1,1.864
0.709784,0.720313,0.699455,0.716154,-0.0516283,-0.0526538,-0.050877,-0.041822,65,200,16.4659,1,46.7266,1,1.868
0.709577,0.720099,0.699251,0.715987,-0.0517987,-0.0529241,-0.0510449,-0.0417873,64,202,16.4607,1,46.8069,1,1.872
0.709369,0.719887,0.699047,0.715826,-0.0519691,-0.0529316,-0.0512128,-0.0413324,65,208,16.455,1,46.8896,1,1.876
0.709161,0.719673,0.698841,0.715663,-0.0521396,-0.0531381,-0.0513808,-0.0411154,65,213,16.4501,1,46.9784,1,1.88
0.708952,0.71946,0.698635,0.715501,-0.0523101,-0.0531606,-0.0515489,-0.040942,66,216,16.4451,1,47.0711,1,1.884
0.708743,0.719244,0.698429,0.715333,-0.0524807,-0.0534347,-0.051717,-0.0412295,65,216,16.4409,1,47.167,1,1.888
0.708533,0.719028,0.698222,0.715167,-0.0526513,-0.0536175,-0.0518851,-0.0413636,65,216,16.4361,1,47.2619,1,1.892
0.708322,0.718814,0.698014,0.714997,-0.052822,-0.0535954,-0.0520533,-0.041712,66,215,16.4313,1,47.357,1,1.896
0.70811,0.718596,0.697805,0.714828,-0.0529928,-0.0539261,-0.0522216,-0.0419444,65,215,16.4275,1,47.4504,1,1.9
0.707898,0.718374,0.697596,0.714653,-0.0531636,-0.0544345,-0.05239,-0.0425311,63,211,16.4227,1,47.5431,1,1.904
0.707685,0.718158,0.697386,0.714486,-0.0533345,-0.0543128,-0.0525583,-0.0422313,65,216,16.4162,1,47.632,1,1.908
0.707471,0.717939,0.697176,0.714321,-0.0535054,-0.0544332,-0.0527268,-0.0418875,65,222,16.4113,1,47.7258,1,1.912
0.707257,0.71772,0.696964,0.71416,-0.0536764,-0.0545134,-0.0528953,-0.0413991,66,228,16.4067,1,47.8248,1,1.916
0.707042,0.717499,0.696752,0.714,-0.0538474,-0.0547973,-0.0530638,-0.0409584,65,235,16.4026,1,47.9304,1,1.92
0.706826,0.717271,0.69654,0.713837,-0.0540185,-0.0555047,-0.0532324,-0.0408661,62,238,16.3976,1,48.0419,1,1.924
0.706609,0.717056,0.696327,0.713686,-0.0541896,-0.0549687,-0.053401,-0.0397681,66,251,16.3901,1,48.1567,1,1.928
0.706392,0.716833,0.696113,0.71353,-0.0543608,-0.0552447,-0.0535697,-0.0395832,65,255,16.3863,1,48.2837,1,1.932
0.706175,0.71661,0.695898,0.713375,-0.054532,-0.0554,-0.0537384,-0.0392871,65,260,16.382,1,48.4144,1,1.936
0.705956,0.716384,0.695683,0.713215,-0.0547032,-0.055705,-0.0539072,-0.0395216,65,260,16.3777,1,48.5495,1,1.94
0.705737,0.716159,0.695467,0.713052,-0.0548746,-0.0559371,-0.054076,-0.0399083,64,258,16.3726,1,48.6839,1,1.944
0.705517,0.715937,0.69525,0.71289,-0.0550459,-0.0557752,-0.0542449,-0.0401372,66,258,16.3674,1,48.8163,1,1.948
0.705297,0.715712,0.695033,0.712723,-0.0552173,-0.0559551,-0.0544138,-0.0406354,66,256,16.3639,1,48.9479,1,1.952
0.705075,0.715486,0.694815,0.712552,-0.0553887,-0.0561327,-0.0545827,-0.0413418,66,251,16.3604,1,49.0763,1,1.956
0.704853,0.71526,0.694596,0.712379,-0.0555602,-0.0562511,-0.0547517,-0.0420142,66,247,16.3569,1,49.1992,1,1.96
0.704631,0.715033,0.694377,0.712206,-0.0557317,-0.0564451,-0.0549207,-0.0424049,66,245,16.3536,1,49.3174,1,1.964
0.704408,0.714807,0.694157,0.712035,-0.0559033,-0.0564018,-0.0550897,-0.0425503,67,246,16.3504,1,49.4335,1,1.968
0.704184,0.71458,0.693936,0.711862,-0.0560748,-0.0565456,-0.0552588,-0.0427911,67,246,16.3483,1,49.5498,1,1.972
0.703959,0.714351,0.693715,0.711689,-0.0562465,-0.0568142,-0.055428,-0.0429229,67,246,16.3464,1,49.6655,1,1.976
0.703734,0.714125,0.693493,0.711521,-0.0564181,-0.0566478,-0.0555971,-0.0426364,69,251,16.3441,1,49.7818,1,1.98
0.703508,0.713897,0.69327,0.711351,-0.0565898,-0.0568248,-0.0557663,-0.0425606,69,254,16.3436,1,49.9027,1,1.984
0.703281,0.713665,0.693047,0.71118,-0.0567615,-0.0572019,-0.0559355,-0.042654,68,256,16.343,1,50.026,1,1.988
0.703054,0.713437,0.692822,0.711008,-0.0569333,-0.0571078,-0.0561048,-0.0427739,69,257,16.3414,1,50.15,1,1.992
0.702825,0.71321,0.692598,0.710837,-0.0571051,-0.0570163,-0.0562741,-0.0427387,71,259,16.3414,1,50.2747,1,1.996
0.702597,0.712981,0.692372,0.710664,-0.0572769,-0.0570417,-0.0564434,-0.0428591,71,260,16.3428,1,50.4014,1,2
0.702367,0.712748,0.692146,0.710486,-0.0574487,-0.0574905,-0.0566127,-0.0434289,70,257,16.345,1,50.5284,1,2.004
0.702137,0.712528,0.691919,0.710316,-0.0576206,-0.0566092,-0.0567821,-0.0431465,76,262,16.3461,1,50.6518,1,2.008
0.701906,0.712305,0.691692,0.710142,-0.0577925,-0.056396,-0.0569515,-0.0432462,78,263,16.3531,1,50.7796,1,2.012
0.701675,0.712084,0.691464,0.709969,-0.0579644,-0.0559371,-0.0571209,-0.0432838,82,265,16.3625,1,50.9082,1,2.016
0.701443,0.711866,0.691235,0.709793,-0.0581364,-0.0555161,-0.0572904,-0.0434529,85,265,16.3756,1,51.0381,1,2.02
0.70121,0.711656,0.691005,0.709617,-0.0583084,-0.0545156,-0.0574598,-0.0436807,92,265,16.3924,1,51.168,1,2.024
0.700976,0.711451,0.690775,0.709443,-0.0584804,-0.053388,-0.0576293,-0.0436311,99,268,16.4163,1,51.2975,1,2.028
0.700742,0.711257,0.690544,0.709266,-0.0586524,-0.0518013,-0.0577989,-0.0438284,110,268,16.4479,1,51.4291,1,2.032
0.700507,0.711073,0.690313,0.70909,-0.0588244,-0.049851,-0.0579684,-0.0439023,122,270,16.4902,1,51.5605,1,2.036
0.700271,0.710895,0.690081,0.7089,-0.0589965,-0.0480901,-0.0581379,-0.0450456,133,261,16.5448,1,51.6924,1,2.04
0.700035,0.710739,0.689848,0.70872,-0.0591685,-0.0450448,-0.0583075,-0.0450305,152,263,16.6115,1,51.8151,1,2.044
0.699798,0.7106,0.689614,0.708541,-0.0593406,-0.0416038,-0.0584771,-0.0449916,173,266,16.6973,1,51.9397,1,2.048
0.69956,0.710469,0.68938,0.708357,-0.0595127,-0.0386764,-0.0586467,-0.04534,191,265,16.8042,1,52.0663,1,2.052
0.699322,0.710345,0.689145,0.70817,-0.0596849,-0.0360914,-0.0588163,-0.045745,207,263,16.9293,1,52.1911,1,2.056
0.699083,0.710225,0.688909,0.707988,-0.059857,-0.0340226,-0.058986,-0.0456982,220,266,17.0705,1,52.3139,1,2.06
0.698843,0.710105,0.688673,0.707803,-0.0600292,-0.032701,-0.0591556,-0.0458974,230,266,17.2247,1,52.4387,1,2.064
0.698602,0.709986,0.688436,0.707616,-0.0602013,-0.0317335,-0.0593253,-0.0461742,237,266,17.3876,1,52.5633,1,2.068
0.698361,0.709863,0.688199,0.707426,-0.0603735,-0.0313765,-0.0594949,-0.046589,241,264,17.557,1,52.6867,1,2.072
0.698119,0.709739,0.68796,0.707239,-0.0605457,-0.0312824,-0.0596646,-0.0466352,243,265,17.7295,1,52.808,1,2.076
0.697877,0.709616,0.687721,0.707056,-0.0607179,-0.0311333,-0.0598343,-0.0463493,246,270,17.9037,1,52.9307,1,2.08
0.697634,0.70948,0.687482,0.706865,-0.0608901,-0.0320128,-0.060004,-0.0468497,242,268,18.0794,1,53.0576,1,2.084
0.69739,0.70934,0.687241,0.706673,-0.0610623,-0.0330885,-0.0601737,-0.0472121,238,266,18.2509,1,53.1813,1,2.088
0.697145,0.709192,0.687,0.706478,-0.0612345,-0.034324,-0.0603434,-0.0477128,233,264,18.4171,1,53.3031,1,2.092
0.6969,0.709037,0.686758,0.706285,-0.0614067,-0.0358098,-0.0605131,-0.0479315,226,264,18.5769,1,53.4217,1,2.096
0.696654,0.708875,0.686516,0.706086,-0.061579,-0.0374049,-0.0606828,-0.0484803,219,261,18.729,1,53.5397,1,2.1
0.696407,0.708703,0.686273,0.705891,-0.0617512,-0.0392169,-0.0608526,-0.0486159,210,261,18.8727,1,53.6542,1,2.104
0.69616,0.708528,0.686029,0.705694,-0.0619234,-0.0407992,-0.0610223,-0.0488214,203,262,19.0068,1,53.769,1,2.108
0.695912,0.708343,0.685785,0.705496,-0.0620957,-0.0426026,-0.061192,-0.0490736,194,261,19.1325,1,53.8835,1,2.112
0.695663,0.708153,0.68554,0.705297,-0.0622679,-0.0442367,-0.0613617,-0.0492993,186,261,19.2487,1,53.9972,1,2.116
0.695414,0.707953,0.685294,0.705094,-0.0624401,-0.0461035,-0.0615315,-0.0497089,177,259,19.3561,1,54.1103,1,2.12
0.695164,0.707751,0.685047,0.704895,-0.0626123,-0.047636,-0.0617012,-0.0497804,170,261,19.4538,1,54.2212,1,2.124
0.694913,0.707541,0.6848,0.704688,-0.0627846,-0.0492622,-0.0618709,-0.0504327,162,257,19.5433,1,54.3328,1,2.128
0.694661,0.707324,0.684552,0.704484,-0.0629568,-0.0508646,-0.0620406,-0.0505797,154,257,19.6243,1,54.4399,1,2.132
0.694409,0.707103,0.684304,0.704278,-0.063129,-0.0523359,-0.0622104,-0.050908,147,256,19.6969,1,54.5471,1,2.136
0.694156,0.706875,0.684055,0.70407,-0.0633012,-0.0538638,-0.0623801,-0.051242,139,255,19.7618,1,54.6528,1,2.14
0.693903,0.706636,0.683805,0.703855,-0.0634734,-0.0558901,-0.0625498,-0.0521269,129,249,19.8185,1,54.7566,1,2.144
0.693649,0.706404,0.683554,0.703647,-0.0636456,-0.0565788,-0.0627195,-0.0520834,126,251,19.8648,1,54.8538,1,2.148
0.693394,0.706161,0.683303,0.703435,-0.0638178,-0.0579304,-0.0628891,-0.0523711,120,250,19.9077,1,54.9529,1,2.152
0.693138,0.705905,0.683051,0.70321,-0.06399,-0.0600119,-0.0630588,-0.0536857,109,240,19.9433,1,55.0504,1,2.156
0.692882,0.705661,0.682799,0.702999,-0.0641622,-0.0603344,-0.0632285,-0.0533817,108,245,19.9685,1,55.1372,1,2.16
0.692625,0.7054,0.682545,0.702778,-0.0643344,-0.0619313,-0.0633981,-0.0539852,100,241,19.9921,1,55.2284,1,2.164
0.692367,0.705137,0.682292,0.702555,-0.0645065,-0.0632262,-0.0635678,-0.0545315,94,238,20.0074,1,55.3153,1,2.168
0.692109,0.704871,0.682037,0.702334,-0.0646786,-0.0643486,-0.0637374,-0.0548093,88,237,20.0161,1,55.3986,1,2.172
0.69185,0.704601,0.681782,0.702112,-0.0648508,-0.0653848,-0.063907,-0.0550521,83,237,20.0193,1,55.4808,1,2.176
0.69159,0.704318,0.681526,0.701881,-0.0650229,-0.0671408,-0.0640766,-0.0559625,74,230,20.0169,1,55.562,1,2.18
0.691329,0.70405,0.681269,0.701664,-0.0651949,-0.0670735,-0.0642462,-0.0553315,76,238,20.006,1,55.6366,1,2.184
0.691068,0.703772,0.681012,0.701441,-0.065367,-0.06795,-0.0644158,-0.0555154,72,238,19.9961,1,55.7188,1,2.188
0.690806,0.703493,0.680754,0.701216,-0.0655391,-0.0684767,-0.0645853,-0.0557531,69,238,19.9821,1,55.8009,1,2.192
0.690544,0.703214,0.680495,0.70099,-0.0657111,-0.068943,-0.0647549,-0.055998,68,237,19.9661,1,55.8823,1,2.196
0.690281,0.702932,0.680236,0.700761,-0.0658831,-0.0694266,-0.0649244,-0.0563916,66,236,19.9483,1,55.9629,1,2.2
0.690017,0.70265,0.679976,0.700533,-0.0660551,-0.0697778,-0.0650939,-0.056654,65,235,19.9287,1,56.0414,1,2.204
0.689752,0.702355,0.679715,0.700291,-0.0662271,-0.0711348,-0.0652633,-0.057923,58,225,19.9075,1,56.1185,1,2.208
0.689487,0.702085,0.679453,0.70007,-0.066399,-0.0699665,-0.0654328,-0.0570127,65,235,19.8805,1,56.1856,1,2.212
0.689221,0.701802,0.679191,0.699841,-0.0665709,-0.0701665,-0.0656022,-0.0571257,65,236,19.8608,1,56.2631,1,2.216
0.688955,0.701519,0.678929,0.699612,-0.0667428,-0.070415,-0.0657716,-0.0571434,65,238,19.841,1,56.3412,1,2.22
0.688687,0.701234,0.678665,0.699381,-0.0669147,-0.0706959,-0.065941,-0.0572991,64,239,19.8207,1,56.4209,1,2.224
0.688419,0.700951,0.678401,0.699156,-0.0670866,-0.0706528,-0.0661103,-0.0569999,65,244,19.7999,1,56.5009,1,2.228
0.688151,0.700668,0.678136,0.698925,-0.0672584,-0.0707392,-0.0662796,-0.0572323,66,243,19.7803,1,56.5854,1,2.232
0.687881,0.700383,0.677871,0.698695,-0.0674302,-0.070912,-0.0664489,-0.0573296,65,244,19.7612,1,56.6693,1,2.236
0.687611,0.700095,0.677605,0.698463,-0.0676019,-0.0712575,-0.0666182,-0.0575097,64,245,19.742,1,56.754,1,2.24
0.68734,0.699813,0.677338,0.698233,-0.0677736,-0.0710272,-0.0667874,-0.0575145,67,247,19.722,1,56.8386,1,2.244
0.687069,0.699528,0.67707,0.698,-0.0679453,-0.0710464,-0.0669566,-0.0577769,67,246,19.7043,1,56.9248,1,2.248
0.686797,0.699242,0.676802,0.697766,-0.068117,-0.0712319,-0.0671257,-0.058067,67,245,19.6875,1,57.0101,1,2.252
0.686524,0.698956,0.676533,0.697524,-0.0682886,-0.0712693,-0.0672949,-0.0588362,68,240,19.6706,1,57.0939,1,2.256
0.68625,0.698669,0.676264,0.697284,-0.0684602,-0.0714381,-0.067464,-0.059205,68,238,19.6545,1,57.172,1,2.26
0.685976,0.69838,0.675994,0.697042,-0.0686318,-0.071781,-0.067633,-0.0596237,67,236,19.6384,1,57.2481,1,2.264
0.685701,0.698092,0.675723,0.6968,-0.0688033,-0.0718368,-0.0678021,-0.0599315,67,235,19.6213,1,57.3217,1,2.268
0.685426,0.697804,0.675451,0.696556,-0.0689748,-0.0719029,-0.0679711,-0.0603095,68,233,19.605,1,57.394,1,2.272
0.68515,0.697504,0.675179,0.696303,-0.0691462,-0.0728682,-0.06814,-0.0613101,63,226,19.5888,1,57.4639,1,2.276
0.684873,0.697228,0.674906,0.696066,-0.0693177,-0.0716115,-0.0683089,-0.060624,72,234,19.569,1,57.5263,1,2.28
0.684595,0.696939,0.674633,0.695817,-0.069489,-0.0717814,-0.0684778,-0.0611167,72,231,19.5571,1,57.5967,1,2.284
0.684317,0.696652,0.674358,0.695567,-0.0696603,-0.0718083,-0.0686466,-0.0616467,72,228,19.5452,1,57.6639,1,2.288
0.684038,0.696367,0.674083,0.695314,-0.0698316,-0.0715959,-0.0688154,-0.0621439,75,225,19.5343,1,57.7274,1,2.292
0.683758,0.69608,0.673808,0.695054,-0.0700029,-0.0716847,-0.0689842,-0.0630513,75,218,19.5256,1,57.7875,1,2.296
0.683478,0.695802,0.673532,0.694802,-0.0701741,-0.0709665,-0.0691529,-0.0631091,80,219,19.5178,1,57.8407,1,2.3
0.683197,0.695522,0.673255,0.694547,-0.0703452,-0.0706316,-0.0693215,-0.0633205,83,219,19.5152,1,57.8949,1,2.304
0.682915,0.695242,0.672977,0.694294,-0.0705163,-0.0703796,-0.0694902,-0.0632886,86,221,19.5157,1,57.9489,1,2.308
0.682633,0.694956,0.672699,0.694028,-0.0706874,-0.0708162,-0.0696587,-0.0643038,84,213,19.5183,1,58.0043,1,2.312
0.68235,0.694692,0.67242,0.693784,-0.0708584,-0.0691495,-0.0698273,-0.0631956,95,226,19.5205,1,58.0524,1,2.316
0.682066,0.694423,0.67214,0.693535,-0.0710294,-0.0685566,-0.0699957,-0.0629462,99,230,19.5332,1,58.1128,1,2.32
0.681781,0.694155,0.67186,0.693281,-0.0712003,-0.0680174,-0.0701642,-0.0630967,104,231,19.5505,1,58.1773,1,2.324
0.681496,0.693885,0.671579,0.693024,-0.0713712,-0.0678594,-0.0703325,-0.0635137,106,229,19.5719,1,58.2418,1,2.328
0.68121,0.693631,0.671297,0.692777,-0.071542,-0.0663721,-0.0705009,-0.0628704,115,237,19.596,1,58.3044,1,2.332
0.680924,0.693373,0.671015,0.69252,-0.0717127,-0.0657549,-0.0706691,-0.0633916,120,234,19.6298,1,58.3745,1,2.336
0.680637,0.693117,0.670732,0.692261,-0.0718834,-0.0651707,-0.0708374,-0.0638543,125,231,19.6683,1,58.4412,1,2.34
0.680349,0.692856,0.670448,0.691989,-0.0720541,-0.0652419,-0.0710055,-0.065228,126,220,19.711,1,58.5044,1,2.344
0.68006,0.692618,0.670164,0.691734,-0.0722247,-0.0633315,-0.0711737,-0.0646754,138,227,19.7555,1,58.5566,1,2.348
0.679771,0.692373,0.669879,0.691471,-0.0723952,-0.062605,-0.0713417,-0.0650556,143,225,19.8119,1,58.6156,1,2.352
0.679481,0.692135,0.669593,0.691204,-0.0725657,-0.0616024,-0.0715097,-0.0656546,151,221,19.874,1,58.6723,1,2.356
0.67919,0.691902,0.669307,0.690935,-0.0727361,-0.0604733,-0.0716777,-0.0661403,159,218,19.9434,1,58.7248,1,2.36
0.678899,0.691675,0.66902,0.69067,-0.0729065,-0.05926,-0.0718456,-0.066205,167,220,20.0207,1,58.7744,1,2.364
0.678607,0.691457,0.668732,0.690399,-0.0730768,-0.0576737,-0.0720134,-0.0667375,178,216,20.1066,1,58.8247,1,2.368
0.678315,0.691246,0.668443,0.69013,-0.0732471,-0.0560116,-0.0721812,-0.0669198,189,216,20.2033,1,58.8716,1,2.372
0.678021,0.691041,0.668154,0.689858,-0.0734173,-0.0543853,-0.0723489,-0.0672141,200,215,20.3112,1,58.9183,1,2.376
0.677727,0.690842,0.667865,0.689585,-0.0735874,-0.0528404,-0.0725165,-0.067583,211,213,20.4301,1,58.9638,1,2.38
0.677432,0.690655,0.667574,0.68932,-0.0737575,-0.0508316,-0.0726841,-0.067138,224,220,20.5597,1,59.0076,1,2.384
0.677137,0.69047,0.667283,0.689047,-0.0739275,-0.0492909,-0.0728516,-0.0675035,235,218,20.7024,1,59.0573,1,2.388
0.676841,0.690281,0.666991,0.688764,-0.0740974,-0.0486092,-0.0730191,-0.0685533,241,209,20.8552,1,59.1046,1,2.392
0.676544,0.690113,0.666699,0.688504,-0.0742673,-0.0464561,-0.0731865,-0.0674393,255,222,21.0141,1,59.1442,1,2.396
0.676247,0.689937,0.666406,0.68823,-0.0744371,-0.0455965,-0.0733538,-0.0677332,262,221,21.1865,1,59.1959,1,2.4
0.675949,0.689767,0.666112,0.687956,-0.0746068,-0.0445916,-0.0735211,-0.0680442,270,220,21.3655,1,59.2464,1,2.404
0.67565,0.689595,0.665818,0.687674,-0.0747765,-0.0440656,-0.0736883,-0.0688562,275,214,21.5514,1,59.2952,1,2.408
0.675351,0.689424,0.665523,0.687387,-0.0749461,-0.0436286,-0.0738554,-0.0698294,279,206,21.7417,1,59.3375,1,2.412
0.675051,0.689264,0.665227,0.687117,-0.0751156,-0.0423871,-0.0740225,-0.0690387,288,216,21.9362,1,59.3727,1,2.416
0.67475,0.689104,0.664931,0.686835,-0.075285,-0.0415883,-0.0741895,-0.0694904,295,213,22.1392,1,59.4168,1,2.42
0.674448,0.688943,0.664633,0.68655,-0.0754544,-0.0411709,-0.0743564,-0.0700794,300,209,22.3481,1,59.458,1,2.424
0.674146,0.688785,0.664336,0.686261,-0.0756237,-0.0406335,-0.0745232,-0.0708464,305,203,22.5608,1,59.4949,1,2.428
0.673843,0.688629,0.664037,0.685972,-0.075793,-0.0400737,-0.07469,-0.0712714,310,201,22.7779,1,59.526,1,2.432
0.67354,0.688474,0.663738,0.685683,-0.0759621,-0.0396141,-0.0748567,-0.0716122,315,199,22.9996,1,59.5546,1,2.436
0.673236,0.688322,0.663438,0.685395,-0.0761312,-0.0390486,-0.0750233,-0.0717819,320,200,23.2254,1,59.5815,1,2.44
0.672931,0.68817,0.663138,0.685105,-0.0763002,-0.0387292,-0.0751899,-0.0719526,324,200,23.4556,1,59.6084,1,2.444
0.672625,0.688022,0.662837,0.684813,-0.0764692,-0.038142,-0.0753564,-0.0723543,330,197,23.6892,1,59.6352,1,2.448
0.672319,0.687875,0.662535,0.684524,-0.076638,-0.0376929,-0.0755228,-0.0723342,335,199,23.9274,1,59.6599,1,2.452
0.672012,0.68773,0.662233,0.684234,-0.0768068,-0.037192,-0.0756891,-0.0723208,340,201,24.1697,1,59.6864,1,2.456
0.671704,0.687586,0.66193,0.683947,-0.0769755,-0.0368293,-0.0758553,-0.0721679,344,204,24.4161,1,59.7149,1,2.46
0.671396,0.687442,0.661626,0.68366,-0.0771441,-0.0365587,-0.0760215,-0.0720372,348,207,24.666,1,59.7465,1,2.464
0.671087,0.687303,0.661321,0.683373,-0.0773126,-0.0359464,-0.0761876,-0.0719213,354,210,24.9188,1,59.7811,1,2.468
0.670778,0.687161,0.661016,0.68309,-0.0774811,-0.0357398,-0.0763536,-0.0715561,358,216,25.1764,1,59.8188,1,2.472
0.670467,0.687022,0.660711,0.682805,-0.0776495,-0.0354292,-0.0765195,-0.0714278,362,219,25.4366,1,59.8616,1,2.476
0.670157,0.686885,0.660404,0.682525,-0.0778177,-0.0350207,-0.0766853,-0.070968,366,225,25.6998,1,59.9076,1,2.48
0.669845,0.686746,0.660097,0.682243,-0.0779859,-0.0349499,-0.0768511,-0.0708342,369,228,25.9667,1,59.9597,1,2.484
0.669533,0.68661,0.659789,0.681955,-0.078154,-0.0346148,-0.0770167,-0.0712056,373,226,26.2353,1,60.0145,1,2.488
0.66922,0.686475,0.659481,0.681668,-0.0783221,-0.0343913,-0.0771823,-0.0713957,377,226,26.5071,1,60.0674,1,2.492
0.668906,0.686338,0.659172,0.681369,-0.07849,-0.0343,-0.0773478,-0.0724725,380,218,26.7814,1,60.1196,1,2.496
0.668592,0.68621,0.658862,0.681083,-0.0786579,-0.0335769,-0.0775132,-0.0721827,387,222,27.0578,1,60.1634,1,2.5
0.668277,0.686078,0.658552,0.680788,-0.0788256,-0.0333251,-0.0776785,-0.0726804,390,219,27.3397,1,60.2114,1,2.504
0.667961,0.685952,0.658241,0.68049,-0.0789933,-0.0327542,-0.0778437,-0.0732714,396,215,27.6245,1,60.256,1,2.508
0.667645,0.68582,0.657929,0.680181,-0.0791609,-0.0328055,-0.0780089,-0.0745867,398,204,27.9137,1,60.296,1,2.512
0.667328,0.685695,0.657617,0.679886,-0.0793283,-0.0322926,-0.0781739,-0.0743407,404,208,28.2041,1,60.3253,1,2.516
0.66701,0.68557,0.657304,0.679583,-0.0794957,-0.0319507,-0.0783389,-0.0747813,408,206,28.4989,1,60.3583,1,2.52
0.666692,0.685441,0.65699,0.679282,-0.079663,-0.0320683,-0.0785038,-0.0749887,410,205,28.7967,1,60.3888,1,2.524
0.666373,0.685306,0.656676,0.678971,-0.0798302,-0.0326073,-0.0786685,-0.0759331,409,198,29.0949,1,60.4184,1,2.528
0.666053,0.685177,0.656361,0.678673,-0.0799973,-0.0325348,-0.0788332,-0.0753822,412,205,29.3913,1,60.4411,1,2.532
0.665733,0.685041,0.656045,0.67837,-0.0801644,-0.0330047,-0.0789978,-0.0755333,412,205,29.6891,1,60.4705,1,2.536
0.665412,0.684903,0.655729,0.678067,-0.0803313,-0.0334907,-0.0791623,-0.0755764,411,207,29.9852,1,60.5002,1,2.54
0.66509,0.684756,0.655412,0.677754,-0.0804981,-0.0345345,-0.0793267,-0.0764976,408,199,30.2792,1,60.5306,1,2.544
0.664768,0.684616,0.655094,0.677461,-0.0806648,-0.0347121,-0.0794909,-0.0754419,409,211,30.5685,1,60.5546,1,2.548
0.664445,0.684473,0.654776,0.677158,-0.0808314,-0.0350896,-0.0796551,-0.0754867,409,213,30.8578,1,60.5901,1,2.552
0.664121,0.684326,0.654457,0.676855,-0.0809979,-0.0356292,-0.0798192,-0.0756029,408,213,31.1458,1,60.6269,1,2.556
0.663797,0.684173,0.654137,0.676537,-0.0811644,-0.0364784,-0.0799832,-0.0769471,406,202,31.4316,1,60.6635,1,2.56
0.663472,0.684028,0.653817,0.676231,-0.0813307,-0.0364111,-0.0801471,-0.0767493,408,205,31.7138,1,60.6891,1,2.564
0.663146,0.683886,0.653496,0.675934,-0.0814969,-0.0361072,-0.0803109,-0.0759264,413,215,31.9978,1,60.7187,1,2.568
0.66282,0.683742,0.653174,0.675624,-0.081663,-0.036106,-0.0804746,-0.0764718,415,212,32.2848,1,60.7574,1,2.572
0.662493,0.683595,0.652852,0.67531,-0.081829,-0.0363068,-0.0806382,-0.0770946,416,207,32.5728,1,60.7923,1,2.576
0.662165,0.683448,0.652529,0.674989,-0.0819949,-0.0364407,-0.0808017,-0.078172,418,199,32.8609,1,60.8224,1,2.58
0.661837,0.683307,0.652206,0.674683,-0.0821607,-0.0360117,-0.0809651,-0.0776234,423,206,33.1497,1,60.8441,1,2.584
0.661508,0.68316,0.651882,0.67436,-0.0823264,-0.0362727,-0.0811283,-0.0786397,424,197,33.4421,1,60.8722,1,2.588
0.661178,0.683017,0.651557,0.674042,-0.0824919,-0.0361589,-0.0812915,-0.0789429,427,196,33.7342,1,60.8922,1,2.592
0.660848,0.682874,0.651231,0.673729,-0.0826574,-0.0360253,-0.0814545,-0.0786844,430,200,34.0284,1,60.911,1,2.596
0.660517,0.682735,0.650905,0.673422,-0.0828228,-0.0355908,-0.0816175,-0.0780802,435,208,34.3247,1,60.9343,1,2.6
0.660186,0.682587,0.650578,0.673106,-0.082988,-0.0359922,-0.0817803,-0.0783396,435,207,34.6246,1,60.9648,1,2.604
0.659853,0.68244,0.650251,0.67279,-0.0831531,-0.0363173,-0.0819431,-0.0785701,436,206,34.9233,1,60.9944,1,2.608
0.65952,0.68229,0.649923,0.672473,-0.0833182,-0.0366492,-0.0821057,-0.0788677,436,205,35.2212,1,61.0233,1,2.612
0.659187,0.682139,0.649594,0.672153,-0.0834831,-0.0370432,-0.0822682,-0.0791813,436,204,35.5182,1,61.0508,1,2.616
0.658853,0.681986,0.649265,0.671834,-0.0836479,-0.0374787,-0.0824306,-0.0793903,436,203,35.814,1,61.0769,1,2.62
0.658518,0.681826,0.648935,0.67151,-0.0838125,-0.0382584,-0.0825929,-0.0799328,434,200,36.1081,1,61.1024,1,2.624
0.658182,0.681667,0.648604,0.67118,-0.0839771,-0.0387494,-0.0827551,-0.0808126,433,193,36.3987,1,61.1239,1,2.628
0.657846,0.681515,0.648273,0.670869,-0.0841416,-0.0385585,-0.0829171,-0.0797293,437,205,36.6879,1,61.1392,1,2.632
0.657509,0.681359,0.647941,0.670548,-0.0843059,-0.0387192,-0.083079,-0.0799285,438,205,36.9793,1,61.1664,1,2.636
0.657171,0.6812,0.647608,0.670225,-0.0844701,-0.038999,-0.0832409,-0.0802339,439,204,37.2709,1,61.1931,1,2.64
0.656833,0.681046,0.647275,0.669907,-0.0846342,-0.0388689,-0.0834026,-0.0800057,442,207,37.5622,1,61.2187,1,2.644
0.656494,0.680892,0.646941,0.669586,-0.0847982,-0.0386958,-0.0835642,-0.0800263,446,209,37.8555,1,61.2481,1,2.648
0.656155,0.680738,0.646606,0.669264,-0.084962,-0.0386379,-0.0837256,-0.080184,449,209,38.1512,1,61.2789,1,2.652
0.655815,0.680586,0.646271,0.668944,-0.0851258,-0.0384842,-0.083887,-0.0801164,452,211,38.4485,1,61.3098,1,2.656
0.655474,0.680425,0.645935,0.668611,-0.0852894,-0.0390439,-0.0840482,-0.0811654,451,203,38.7476,1,61.3424,1,2.66
0.655132,0.680275,0.645599,0.668296,-0.0854529,-0.0384958,-0.0842093,-0.0804252,457,212,39.0451,1,61.3671,1,2.664
0.65479,0.680119,0.645261,0.667969,-0.0856162,-0.0386773,-0.0843703,-0.0807954,458,210,39.3469,1,61.4002,1,2.668
0.654447,0.67996,0.644924,0.667637,-0.0857795,-0.0390575,-0.0845312,-0.0815605,459,204,39.6487,1,61.4311,1,2.672
0.654104,0.679803,0.644585,0.667307,-0.0859426,-0.0391382,-0.0846919,-0.0818402,461,203,39.9495,1,61.4562,1,2.676
0.65376,0.67964,0.644246,0.666973,-0.0861056,-0.0396527,-0.0848525,-0.0824585,460,199,40.2508,1,61.4799,1,2.68
0.653415,0.679476,0.643906,0.666633,-0.0862684,-0.040082,-0.085013,-0.083245,460,193,40.5502,1,61.499,1,2.684
0.65307,0.679311,0.643566,0.666295,-0.0864312,-0.0404834,-0.0851734,-0.0837118,460,190,40.8481,1,61.5119,1,2.688
0.652724,0.679138,0.643225,0.665948,-0.0865938,-0.0413844,-0.0853337,-0.0847427,457,181,41.1445,1,61.5215,1,2.692
0.652377,0.678966,0.642883,0.665606,-0.0867563,-0.0419851,-0.0854938,-0.0849694,456,181,41.4367,1,61.5228,1,2.696
0.65203,0.678799,0.642541,0.665277,-0.0869186,-0.0418385,-0.0856538,-0.0840264,459,191,41.7267,1,61.5241,1,2.7
0.651682,0.678625,0.642198,0.664938,-0.0870808,-0.0424605,-0.0858136,-0.0842615,458,191,42.0185,1,61.5358,1,2.704
0.651333,0.67845,0.641854,0.664602,-0.0872429,-0.0428752,-0.0859733,-0.0842167,458,193,42.3077,1,61.5469,1,2.708
0.650984,0.678266,0.64151,0.664255,-0.0874049,-0.0438715,-0.0861329,-0.0850793,454,186,42.5953,1,61.5597,1,2.712
0.650634,0.678094,0.641165,0.663928,-0.0875667,-0.0436143,-0.0862924,-0.0839558,458,198,42.8784,1,61.5664,1,2.716
0.650283,0.677915,0.64082,0.663592,-0.0877284,-0.0439611,-0.0864517,-0.0839553,458,200,43.1641,1,61.5854,1,2.72
0.649932,0.677736,0.640474,0.663257,-0.0878899,-0.0442499,-0.0866109,-0.0838974,459,202,43.4489,1,61.606,1,2.724
0.64958,0.677545,0.640127,0.662906,-0.0880514,-0.0454213,-0.08677,-0.0851832,454,191,43.7326,1,61.6281,1,2.728
0.649227,0.677367,0.63978,0.66258,-0.0882126,-0.0450794,-0.0869289,-0.0839386,459,205,44.011,1,61.6403,1,2.732
0.648874,0.677181,0.639432,0.662241,-0.0883738,-0.0456,-0.0870877,-0.084203,458,204,44.2923,1,61.6657,1,2.736
0.64852,0.676996,0.639083,0.661905,-0.0885348,-0.0458032,-0.0872464,-0.0841201,459,206,44.5718,1,61.6903,1,2.74
0.648166,0.676805,0.638734,0.661566,-0.0886956,-0.0464568,-0.0874049,-0.0843815,457,206,44.8509,1,61.7172,1,2.744
0.647811,0.676611,0.638384,0.661219,-0.0888564,-0.0471517,-0.0875633,-0.0851605,456,200,45.1271,1,61.7427,1,2.748
0.647455,0.676424,0.638033,0.660889,-0.089017,-0.0470392,-0.0877216,-0.084269,459,210,45.4006,1,61.763,1,2.752
0.647099,0.676226,0.637682,0.660546,-0.0891774,-0.0477991,-0.0878797,-0.0847399,456,207,45.6755,1,61.793,1,2.756
0.646742,0.676033,0.63733,0.660213,-0.0893377,-0.0479314,-0.0880376,-0.0842189,458,214,45.9472,1,61.8204,1,2.76
0.646384,0.675837,0.636978,0.659878,-0.0894979,-0.0483363,-0.0881955,-0.0841019,458,216,46.2192,1,61.8545,1,2.764
0.646026,0.675641,0.636625,0.659545,-0.0896579,-0.0485774,-0.0883532,-0.0838512,459,221,46.4899,1,61.8914,1,2.768
0.645667,0.675439,0.636271,0.659206,-0.0898178,-0.0492276,-0.0885107,-0.0841159,457,220,46.76,1,61.9321,1,2.772
0.645307,0.675236,0.635916,0.658867,-0.0899775,-0.0496899,-0.0886681,-0.0842924,456,220,47.0274,1,61.9718,1,2.776
0.644947,0.675026,0.635561,0.65852,-0.0901371,-0.0506603,-0.0888254,-0.0851298,453,213,47.2928,1,62.011,1,2.78
0.644586,0.674814,0.635206,0.658176,-0.0902965,-0.0514224,-0.0889825,-0.0854002,450,212,47.5533,1,62.0437,1,2.784
0.644225,0.674598,0.63485,0.65783,-0.0904558,-0.0522471,-0.0891395,-0.085782,448,210,47.8101,1,62.0752,1,2.788
0.643862,0.674381,0.634493,0.657491,-0.090615,-0.0529697,-0.0892963,-0.0854319,445,215,48.063,1,62.1048,1,2.792
0.6435,0.67415,0.634135,0.657134,-0.090774,-0.0545455,-0.089453,-0.0866956,438,205,48.312,1,62.1387,1,2.796
0.643136,0.673921,0.633777,0.656792,-0.0909328,-0.0553944,-0.0896095,-0.0863289,435,210,48.5526,1,62.1624,1,2.8
0.642772,0.673684,0.633418,0.656438,-0.0910915,-0.0567378,-0.0897659,-0.0870921,429,204,48.7887,1,62.1907,1,2.804
0.642407,0.673442,0.633059,0.656084,-0.0912501,-0.0579788,-0.0899222,-0.0874857,423,202,49.0174,1,62.2132,1,2.808
0.642042,0.673194,0.632699,0.655727,-0.0914084,-0.0593244,-0.0900782,-0.0881224,417,197,49.2394,1,62.2332,1,2.812
0.641676,0.672937,0.632338,0.655363,-0.0915667,-0.0609989,-0.0902342,-0.0890363,409,190,49.4537,1,62.2482,1,2.816
0.64131,0.672688,0.631977,0.655014,-0.0917248,-0.0613666,-0.09039,-0.0884652,409,197,49.6593,1,62.2563,1,2.82
0.640942,0.672431,0.631615,0.65466,-0.0918827,-0.0623315,-0.0905456,-0.0885163,405,198,49.8633,1,62.2715,1,2.824
0.640575,0.672172,0.631253,0.654304,-0.0920405,-0.0631763,-0.0907011,-0.0886655,401,198,50.0625,1,62.2877,1,2.828
0.640206,0.671906,0.63089,0.653947,-0.0921981,-0.064229,-0.0908564,-0.0888802,397,198,50.2572,1,62.3039,1,2.832
0.639837,0.67164,0.630526,0.653586,-0.0923556,-0.0649883,-0.0910116,-0.0892824,394,195,50.4466,1,62.3194,1,2.836
0.639467,0.671372,0.630162,0.653228,-0.0925129,-0.0656385,-0.0911666,-0.0893778,392,196,50.6323,1,62.3326,1,2.84
0.639097,0.671098,0.629797,0.652863,-0.0926701,-0.0665902,-0.0913215,-0.0899596,388,192,50.8149,1,62.3462,1,2.844
0.638726,0.670829,0.629431,0.652505,-0.092827,-0.0668216,-0.0914762,-0.0898868,388,194,50.9929,1,62.3558,1,2.848
0.638354,0.67056,0.629065,0.652142,-0.0929839,-0.0670047,-0.0916308,-0.0900974,389,193,51.1706,1,62.3675,1,2.852
0.637982,0.670289,0.628698,0.651779,-0.0931406,-0.0672131,-0.0917852,-0.0903818,390,192,51.3483,1,62.3787,1,2.856
0.637609,0.67002,0.62833,0.651414,-0.0932971,-0.0672944,-0.0919394,-0.0906578,391,191,51.5259,1,62.3885,1,2.86
0.637236,0.669747,0.627962,0.651047,-0.0934534,-0.0675502,-0.0920935,-0.0910433,392,189,51.7041,1,62.3971,1,2.864
0.636862,0.66948,0.627594,0.650682,-0.0936096,-0.0673176,-0.0922474,-0.0910699,395,190,51.8821,1,62.4036,1,2.868
0.636487,0.669209,0.627224,0.650316,-0.0937657,-0.0674505,-0.0924012,-0.0912317,396,190,52.0625,1,62.4113,1,2.872
0.636111,0.668936,0.626855,0.649949,-0.0939215,-0.0677406,-0.0925548,-0.0913683,396,190,52.2433,1,62.4189,1,2.876
0.635735,0.66866,0.626484,0.649583,-0.0940772,-0.0681068,-0.0927082,-0.0914018,396,191,52.4233,1,62.4268,1,2.88
0.635359,0.668383,0.626113,0.649217,-0.0942328,-0.0685524,-0.0928615,-0.0914529,395,192,52.6021,1,62.4358,1,2.884
0.634982,0.668104,0.625741,0.648852,-0.0943881,-0.0689071,-0.0930146,-0.0914006,395,194,52.7792,1,62.446,1,2.888
0.634604,0.667818,0.625369,0.64848,-0.0945433,-0.069777,-0.0931675,-0.0919128,391,191,52.955,1,62.4579,1,2.892
0.634225,0.667539,0.624996,0.648123,-0.0946984,-0.0697522,-0.0933203,-0.0910738,393,201,53.1268,1,62.467,1,2.896
0.633846,0.667255,0.624622,0.64776,-0.0948533,-0.0702252,-0.0934729,-0.0909751,392,203,53.2996,1,62.4856,1,2.9
0.633466,0.666969,0.624248,0.647394,-0.095008,-0.0705981,-0.0936254,-0.0910821,391,204,53.4706,1,62.5066,1,2.904
0.633086,0.66668,0.623873,0.647026,-0.0951625,-0.0711346,-0.0937777,-0.0914413,390,202,53.6403,1,62.528,1,2.908
0.632705,0.666389,0.623498,0.646652,-0.0953169,-0.071665,-0.0939298,-0.0920839,388,197,53.8076,1,62.5471,1,2.912
0.632323,0.666105,0.623122,0.646289,-0.0954711,-0.0714716,-0.0940817,-0.0916197,392,203,53.9731,1,62.5619,1,2.916
0.631941,0.665817,0.622745,0.645921,-0.0956251,-0.0716882,-0.0942335,-0.0917709,392,203,54.1408,1,62.5826,1,2.92
0.631558,0.665529,0.622368,0.645553,-0.0957789,-0.0717462,-0.0943851,-0.091843,393,204,54.3083,1,62.6033,1,2.924
0.631175,0.665231,0.62199,0.645168,-0.0959326,-0.0726486,-0.0945366,-0.0933593,390,191,54.4761,1,62.6241,1,2.928
0.630791,0.664957,0.621612,0.644812,-0.0960861,-0.0713212,-0.0946878,-0.0918654,400,207,54.6405,1,62.6328,1,2.932
0.630406,0.664674,0.621233,0.644443,-0.0962394,-0.0710984,-0.0948389,-0.0919923,403,207,54.8141,1,62.6571,1,2.936
0.630021,0.664391,0.620853,0.644073,-0.0963926,-0.0709787,-0.0949899,-0.0921633,406,207,54.9903,1,62.6816,1,2.94
0.629635,0.664106,0.620473,0.643699,-0.0965456,-0.0710429,-0.0951406,-0.0926228,407,204,55.1683,1,62.7059,1,2.944
0.629249,0.663823,0.620092,0.643326,-0.0966984,-0.0709993,-0.0952912,-0.0928427,409,203,55.3471,1,62.7271,1,2.948
0.628862,0.663537,0.61971,0.64295,-0.096851,-0.0711141,-0.0954416,-0.0932197,411,201,55.5274,1,62.7476,1,2.952
0.628474,0.663251,0.619328,0.642573,-0.0970034,-0.0713059,-0.0955918,-0.0935286,411,200,55.708,1,62.7659,1,2.956
0.628086,0.662959,0.618946,0.64219,-0.0971557,-0.0718656,-0.0957419,-0.0942815,410,194,55.8883,1,62.7823,1,2.96
0.627697,0.662664,0.618562,0.641808,-0.0973078,-0.0724691,-0.0958917,-0.0946971,408,191,56.0662,1,62.7929,1,2.964
0.627307,0.66238,0.618178,0.641442,-0.0974597,-0.0719788,-0.0960414,-0.0936786,413,203,56.2419,1,62.8016,1,2.968
0.626917,0.662085,0.617794,0.641065,-0.0976114,-0.0725733,-0.096191,-0.0938633,411,202,56.4213,1,62.8214,1,2.972
0.626526,0.661789,0.617409,0.640689,-0.097763,-0.0730561,-0.0963403,-0.0938713,410,204,56.5982,1,62.8409,1,2.976
0.626135,0.661484,0.617023,0.640305,-0.0979143,-0.0741264,-0.0964895,-0.0945963,405,198,56.7726,1,62.8615,1,2.98
0.625743,0.661179,0.616637,0.639927,-0.0980655,-0.0747824,-0.0966384,-0.0945615,403,200,56.9415,1,62.8767,1,2.984
0.62535,0.660873,0.61625,0.639548,-0.0982165,-0.0754213,-0.0967872,-0.0946246,400,201,57.1073,1,62.8938,1,2.988
0.624957,0.660562,0.615863,0.63917,-0.0983673,-0.0761351,-0.0969359,-0.0946092,398,203,57.2699,1,62.9117,1,2.992
0.624563,0.660257,0.615475,0.638797,-0.098518,-0.0762367,-0.0970843,-0.0941094,399,209,57.4294,1,62.9315,1,2.996
0.624169,0.659956,0.615086,0.638432,-0.0986684,-0.0759014,-0.0972326,-0.0931428,403,220,57.5897,1,62.9581,1,3
0.623774,0.659643,0.614697,0.638053,-0.0988187,-0.0766279,-0.0973806,-0.0937076,400,216,57.7526,1,62.9951,1,3.004
0.623379,0.659332,0.614307,0.637675,-0.0989687,-0.0770547,-0.0975285,-0.0939402,399,215,57.9121,1,63.0281,1,3.008
0.622982,0.659019,0.613917,0.637295,-0.0991186,-0.0773968,-0.0976762,-0.0943544,399,213,58.07,1,63.0601,1,3.012
0.622586,0.658708,0.613526,0.636912,-0.0992683,-0.0775385,-0.0978237,-0.0947745,399,210,58.2269,1,63.0894,1,3.016
0.622188,0.658395,0.613134,0.636529,-0.0994178,-0.0777481,-0.0979711,-0.0951409,400,208,58.384,1,63.1161,1,3.02
0.62179,0.658083,0.612742,0.636146,-0.0995671,-0.0778591,-0.0981182,-0.0953564,401,208,58.5409,1,63.1407,1,3.024
0.621392,0.657758,0.612349,0.635746,-0.0997163,-0.0790271,-0.0982652,-0.096882,395,194,58.6977,1,63.1639,1,3.028
0.620993,0.657454,0.611956,0.635373,-0.0998652,-0.0779632,-0.0984119,-0.0956246,404,208,58.8492,1,63.1747,1,3.032
0.620593,0.657139,0.611562,0.634986,-0.100014,-0.0782903,-0.0985585,-0.0959956,404,206,59.008,1,63.1987,1,3.036
0.620192,0.656821,0.611167,0.634599,-0.100163,-0.0786524,-0.0987049,-0.0962429,403,205,59.1658,1,63.2206,1,3.04
0.619791,0.656497,0.610772,0.634205,-0.100311,-0.0794408,-0.0988511,-0.0970124,400,199,59.3222,1,63.2413,1,3.044
0.61939,0.656181,0.610376,0.633823,-0.100459,-0.0793043,-0.0989971,-0.0965465,402,205,59.475,1,63.2563,1,3.048
0.618988,0.65586,0.60998,0.633434,-0.100607,-0.0795875,-0.0991429,-0.0967253,402,205,59.6296,1,63.2771,1,3.052
0.618585,0.655537,0.609583,0.633045,-0.100755,-0.0799778,-0.0992886,-0.0969021,402,205,59.7835,1,63.2976,1,3.056
0.618182,0.655206,0.609186,0.632646,-0.100902,-0.0809003,-0.099434,-0.0978549,398,197,59.9355,1,63.3174,1,3.06
0.617778,0.654887,0.608788,0.632263,-0.10105,-0.0805363,-0.0995792,-0.0972233,402,204,60.0834,1,63.33,1,3.064
0.617373,0.654566,0.608389,0.63188,-0.101197,-0.0804377,-0.0997243,-0.0967159,404,211,60.2347,1,63.3502,1,3.068
0.616968,0.654241,0.60799,0.631494,-0.101344,-0.0807462,-0.0998691,-0.0966367,404,213,60.3875,1,63.3768,1,3.072
0.616563,0.653916,0.60759,0.63111,-0.101491,-0.0808654,-0.100014,-0.0963824,405,217,60.5396,1,63.4058,1,3.076
0.616156,0.653582,0.60719,0.63072,-0.101637,-0.0817799,-0.100158,-0.0968175,401,214,60.6915,1,63.4384,1,3.08
0.615749,0.653264,0.606789,0.630348,-0.101784,-0.0810076,-0.100303,-0.095524,407,229,60.8395,1,63.4689,1,3.084
0.615342,0.652936,0.606387,0.629966,-0.10193,-0.0813564,-0.100447,-0.0954679,407,231,60.9931,1,63.5133,1,3.088
0.614934,0.652603,0.605985,0.62958,-0.102076,-0.0819345,-0.10059,-0.0958047,405,229,61.1453,1,63.5595,1,3.092
0.614525,0.652269,0.605583,0.629195,-0.102222,-0.0824926,-0.100734,-0.0960005,403,229,61.2949,1,63.6039,1,3.096
0.614116,0.651935,0.605179,0.628809,-0.102367,-0.0827783,-0.100878,-0.096131,403,229,61.442,1,63.6477,1,3.1
0.613707,0.651598,0.604776,0.628418,-0.102513,-0.0833431,-0.101021,-0.0966787,401,225,61.5882,1,63.6915,1,3.104
0.613296,0.651257,0.604371,0.628024,-0.102658,-0.0839787,-0.101164,-0.0973317,399,220,61.7317,1,63.7312,1,3.108
0.612885,0.65091,0.603966,0.627622,-0.102803,-0.0848631,-0.101307,-0.0983716,395,212,61.8719,1,63.7656,1,3.112
0.612474,0.650571,0.603561,0.627231,-0.102948,-0.0847905,-0.101449,-0.0981436,397,215,62.0079,1,63.7916,1,3.116
0.612062,0.650226,0.603155,0.626833,-0.103092,-0.0853467,-0.101592,-0.098625,395,212,62.1452,1,63.821,1,3.12
0.611649,0.649877,0.602748,0.626435,-0.103237,-0.0859191,-0.101734,-0.0989172,393,211,62.2799,1,63.8471,1,3.124
0.611236,0.649518,0.602341,0.626022,-0.103381,-0.0872219,-0.101876,-0.100321,386,199,62.4114,1,63.8711,1,3.128
0.610822,0.649184,0.601933,0.625637,-0.103525,-0.0860176,-0.102018,-0.0989538,395,213,62.5368,1,63.8839,1,3.132
0.610408,0.648838,0.601525,0.625237,-0.103668,-0.0861072,-0.10216,-0.0993091,396,211,62.6706,1,63.911,1,3.136
0.609993,0.648493,0.601116,0.624839,-0.103812,-0.0861669,-0.102301,-0.099402,398,212,62.8049,1,63.936,1,3.14
0.609577,0.648141,0.600706,0.624427,-0.103955,-0.0868114,-0.102442,-0.100616,395,202,62.9396,1,63.961,1,3.144
0.609161,0.647807,0.600296,0.624036,-0.104098,-0.0857439,-0.102583,-0.0996108,404,213,63.0722,1,63.9764,1,3.148
0.608744,0.647463,0.599886,0.623636,-0.104241,-0.0858095,-0.102724,-0.0997759,405,213,63.2123,1,64.0026,1,3.152
0.608327,0.647118,0.599475,0.623235,-0.104384,-0.0859109,-0.102865,-0.0999147,406,213,63.3531,1,64.0287,1,3.156
0.607909,0.646759,0.599063,0.622819,-0.104526,-0.0872453,-0.103005,-0.101274,399,201,63.4937,1,64.0541,1,3.16
0.607491,0.646415,0.59865,0.622422,-0.104669,-0.0868105,-0.103145,-0.100597,404,209,63.6274,1,64.0684,1,3.164
0.607072,0.646072,0.598238,0.62203,-0.104811,-0.0864631,-0.103285,-0.0997135,407,219,63.7651,1,64.091,1,3.168
0.606652,0.645718,0.597824,0.621628,-0.104953,-0.0871527,-0.103425,-0.0999883,405,218,63.9057,1,64.1233,1,3.172
0.606232,0.645361,0.59741,0.621226,-0.105094,-0.0878141,-0.103565,-0.1002,402,217,64.0428,1,64.1542,1,3.176
0.605812,0.644994,0.596996,0.620814,-0.105236,-0.0891475,-0.103704,-0.101148,395,209,64.1761,1,64.1841,1,3.18
0.60539,0.644648,0.596581,0.620425,-0.105377,-0.0882801,-0.103843,-0.0998216,402,224,64.3028,1,64.207,1,3.184
0.604969,0.644287,0.596165,0.620024,-0.105518,-0.0888824,-0.103982,-0.100003,400,224,64.4357,1,64.2439,1,3.188
0.604546,0.64391,0.595749,0.619603,-0.105658,-0.0906658,-0.104121,-0.101678,390,209,64.5648,1,64.2796,1,3.192
0.604123,0.643547,0.595332,0.619202,-0.105799,-0.0907607,-0.104259,-0.101212,391,215,64.684,1,64.301,1,3.196
0.6037,0.643191,0.594915,0.618812,-0.105939,-0.0901042,-0.104398,-0.100008,397,228,64.8041,1,64.3288,1,3.2
0.603276,0.64282,0.594497,0.618405,-0.106079,-0.0910197,-0.104536,-0.100559,392,224,64.9288,1,64.3692,1,3.204
0.602851,0.642448,0.594078,0.617998,-0.106219,-0.0916588,-0.104674,-0.100984,390,221,65.0486,1,64.4055,1,3.208
0.602426,0.642063,0.593659,0.617576,-0.106359,-0.093179,-0.104811,-0.102505,381,208,65.1646,1,64.4384,1,3.212
0.602,0.641688,0.59324,0.617165,-0.106498,-0.0934439,-0.104949,-0.102569,381,209,65.2721,1,64.4582,1,3.216
0.601574,0.641306,0.59282,0.616749,-0.106638,-0.0940523,-0.105086,-0.103015,379,206,65.3788,1,64.4785,1,3.22
0.601147,0.640934,0.592399,0.616346,-0.106777,-0.0937094,-0.105223,-0.102276,382,214,65.4829,1,64.4963,1,3.224
0.60072,0.640538,0.591978,0.61592,-0.106915,-0.0955249,-0.10536,-0.103683,372,202,65.5892,1,64.5219,1,3.228
0.600292,0.640165,0.591556,0.615523,-0.107054,-0.0947775,-0.105496,-0.102232,378,218,65.6858,1,64.5361,1,3.232
0.599863,0.639778,0.591134,0.615116,-0.107192,-0.0954308,-0.105632,-0.102012,375,221,65.7877,1,64.5657,1,3.236
0.599434,0.639389,0.590711,0.614711,-0.10733,-0.0959815,-0.105769,-0.101838,373,224,65.8863,1,64.5988,1,3.24
0.599005,0.638992,0.590288,0.614298,-0.107468,-0.0970973,-0.105904,-0.102239,367,222,65.9818,1,64.6348,1,3.244
0.598575,0.638602,0.589864,0.613896,-0.107606,-0.0972077,-0.10604,-0.10173,368,228,66.0715,1,64.6686,1,3.248
0.598144,0.638207,0.58944,0.61349,-0.107743,-0.0977419,-0.106176,-0.10162,366,231,66.1612,1,64.7086,1,3.252
0.597713,0.637809,0.589015,0.613079,-0.107881,-0.0983572,-0.106311,-0.101951,363,229,66.2482,1,64.7509,1,3.256
0.597281,0.637411,0.588589,0.612666,-0.108018,-0.0987386,-0.106446,-0.10243,362,226,66.3322,1,64.7911,1,3.26
0.596849,0.637017,0.588163,0.612252,-0.108154,-0.0986474,-0.10658,-0.102749,364,224,66.415,1,64.8279,1,3.264
0.596416,0.636629,0.587736,0.611836,-0.108291,-0.0980971,-0.106715,-0.103221,369,221,66.4996,1,64.8628,1,3.268
0.595982,0.636242,0.587309,0.611414,-0.108427,-0.0976151,-0.106849,-0.103968,374,215,66.5891,1,64.8941,1,3.272
0.595548,0.635859,0.586882,0.610991,-0.108563,-0.0970059,-0.106983,-0.104552,379,211,66.6829,1,64.9194,1,3.276
0.595114,0.635479,0.586453,0.610568,-0.108699,-0.0963694,-0.107117,-0.104941,385,208,66.7821,1,64.9403,1,3.28
0.594679,0.635096,0.586025,0.610145,-0.108835,-0.0961754,-0.107251,-0.105259,388,207,66.8864,1,64.9587,1,3.284
0.594243,0.634719,0.585595,0.609723,-0.10897,-0.095499,-0.107384,-0.105269,394,208,66.9934,1,64.9754,1,3.288
0.593807,0.634339,0.585166,0.609299,-0.109105,-0.0953648,-0.107517,-0.105506,396,207,67.1058,1,64.9933,1,3.292
0.59337,0.633968,0.584735,0.608881,-0.10924,-0.094498,-0.10765,-0.105203,403,211,67.2207,1,65.0104,1,3.296
0.592933,0.633593,0.584304,0.60846,-0.109375,-0.094208,-0.107783,-0.10526,407,212,67.3422,1,65.0317,1,3.3
0.592495,0.633217,0.583873,0.60804,-0.109509,-0.0941299,-0.107916,-0.105154,409,215,67.4667,1,65.0538,1,3.304
0.592057,0.632838,0.583441,0.607621,-0.109643,-0.0943369,-0.108048,-0.104998,409,217,67.5926,1,65.0784,1,3.308
0.591618,0.632449,0.583009,0.607194,-0.109777,-0.0953098,-0.10818,-0.105584,404,213,67.7178,1,65.1056,1,3.312
0.591179,0.632066,0.582576,0.606777,-0.109911,-0.0954402,-0.108312,-0.105111,405,219,67.8378,1,65.1287,1,3.316
0.590739,0.631674,0.582142,0.606357,-0.110045,-0.0963045,-0.108443,-0.105084,401,221,67.9576,1,65.1577,1,3.32
0.590298,0.631276,0.581708,0.605936,-0.110178,-0.0973702,-0.108574,-0.105123,395,222,68.0723,1,65.1882,1,3.324
0.589857,0.630856,0.581274,0.605495,-0.110311,-0.0998944,-0.108706,-0.106906,380,206,68.1799,1,65.2188,1,3.328
0.589416,0.630471,0.580838,0.605091,-0.110444,-0.0987269,-0.108836,-0.10487,389,227,68.2734,1,65.2348,1,3.332
0.588974,0.630066,0.580403,0.604665,-0.110576,-0.0995321,-0.108967,-0.105441,385,223,68.3748,1,65.2711,1,3.336
0.588531,0.629665,0.579967,0.60424,-0.110708,-0.0998098,-0.109097,-0.105707,385,222,68.4719,1,65.3032,1,3.34
0.588088,0.629262,0.57953,0.603814,-0.110841,-0.10011,-0.109228,-0.105999,384,220,68.5682,1,65.334,1,3.344
0.587644,0.628851,0.579093,0.603375,-0.110972,-0.100944,-0.109357,-0.107259,380,209,68.6631,1,65.3625,1,3.348
0.5872,0.628452,0.578655,0.602943,-0.111104,-0.100607,-0.109487,-0.107437,384,209,68.7539,1,65.3803,1,3.352
0.586756,0.628049,0.578217,0.602505,-0.111235,-0.10067,-0.109617,-0.108189,384,203,68.8479,1,65.3974,1,3.356
0.58631,0.627662,0.577778,0.602079,-0.111366,-0.0993593,-0.109746,-0.107625,395,210,68.9434,1,65.4088,1,3.36
0.585865,0.627264,0.577339,0.601645,-0.111497,-0.0993491,-0.109875,-0.107912,396,208,69.0481,1,65.4268,1,3.364
0.585418,0.626879,0.576899,0.601223,-0.111628,-0.0983058,-0.110003,-0.107124,405,217,69.1547,1,65.4437,1,3.368
0.584972,0.62648,0.576459,0.600787,-0.111758,-0.0988195,-0.110132,-0.10775,403,212,69.2686,1,65.4692,1,3.372
0.584524,0.62608,0.576018,0.60035,-0.111888,-0.0992196,-0.11026,-0.108254,401,209,69.38,1,65.4897,1,3.376
0.584077,0.625671,0.575577,0.599904,-0.112018,-0.100264,-0.110388,-0.109281,396,200,69.4893,1,65.5062,1,3.38
0.583628,0.625268,0.575135,0.599471,-0.112148,-0.100384,-0.110516,-0.108986,397,204,69.593,1,65.5144,1,3.384
0.583179,0.624861,0.574693,0.599029,-0.112277,-0.100867,-0.110643,-0.109452,395,201,69.6967,1,65.5264,1,3.388
0.58273,0.62445,0.57425,0.598588,-0.112406,-0.101448,-0.110771,-0.109763,392,199,69.798,1,65.5352,1,3.392
0.58228,0.624028,0.573807,0.598135,-0.112535,-0.102844,-0.110898,-0.110863,384,190,69.8958,1,65.5416,1,3.396
0.58183,0.623625,0.573363,0.597708,-0.112664,-0.102133,-0.111025,-0.109494,391,204,69.9862,1,65.5396,1,3.4
0.581379,0.623214,0.572918,0.597273,-0.112792,-0.10235,-0.111151,-0.109273,390,208,70.082,1,65.552,1,3.404
0.580927,0.622802,0.572474,0.596838,-0.112921,-0.102523,-0.111277,-0.109096,391,211,70.1774,1,65.5679,1,3.408
0.580475,0.622371,0.572028,0.596381,-0.113048,-0.104309,-0.111403,-0.110821,380,195,70.2716,1,65.5859,1,3.412
0.580023,0.621975,0.571582,0.59596,-0.113176,-0.102533,-0.111529,-0.108948,393,214,70.3565,1,65.5896,1,3.416
0.57957,0.62158,0.571136,0.595539,-0.113304,-0.101264,-0.111655,-0.107757,403,227,70.4545,1,65.613,1,3.42
0.579117,0.621174,0.570689,0.595104,-0.113431,-0.101367,-0.11178,-0.108057,404,226,70.5616,1,65.6489,1,3.424
0.578663,0.620771,0.570242,0.594674,-0.113558,-0.101148,-0.111905,-0.107854,407,229,70.6691,1,65.6833,1,3.428
0.578208,0.620367,0.569794,0.594241,-0.113684,-0.10106,-0.11203,-0.108006,409,229,70.7792,1,65.7208,1,3.432
0.577753,0.619959,0.569346,0.593805,-0.113811,-0.101433,-0.112154,-0.10831,408,227,70.8906,1,65.7579,1,3.436
0.577298,0.619552,0.568897,0.593365,-0.113937,-0.101509,-0.112279,-0.108886,409,223,71.0005,1,65.7932,1,3.44
0.576842,0.619143,0.568447,0.592921,-0.114063,-0.101732,-0.112403,-0.109616,409,217,71.1109,1,65.8238,1,3.444
0.576385,0.618732,0.567997,0.592475,-0.114188,-0.102083,-0.112527,-0.110189,408,213,71.2207,1,65.8484,1,3.448
0.575928,0.618319,0.567547,0.592028,-0.114314,-0.10246,-0.11265,-0.110715,407,209,71.329,1,65.8686,1,3.452
0.575471,0.617903,0.567096,0.591578,-0.114439,-0.102971,-0.112774,-0.111353,405,204,71.4356,1,65.8847,1,3.456
0.575013,0.617487,0.566645,0.591128,-0.114564,-0.103312,-0.112897,-0.11175,404,202,71.5397,1,65.8957,1,3.46
0.574554,0.617071,0.566193,0.590678,-0.114688,-0.103596,-0.113019,-0.111957,403,201,71.6425,1,65.9041,1,3.464
0.574095,0.616656,0.565741,0.590233,-0.114813,-0.103642,-0.113142,-0.111749,405,204,71.7445,1,65.9119,1,3.468
0.573636,0.616239,0.565288,0.589787,-0.114937,-0.103788,-0.113264,-0.111669,405,206,71.8471,1,65.9229,1,3.472
0.573176,0.61582,0.564835,0.589343,-0.115061,-0.104144,-0.113386,-0.111442,404,209,71.9496,1,65.9361,1,3.476
0.572715,0.615397,0.564381,0.5889,-0.115184,-0.104641,-0.113508,-0.111205,402,213,72.0505,1,65.9527,1,3.48
