peachynonah/Fire_monitor_KIRO_CDSL/csv_datas/trial12/cdsl_data_t12_9_u.csv
joint1_pos_desired, joint1_pos, joint2_pos_desired, joint2_pos, joint1_vel_desired, joint1_vel_filtered, joint2_vel_desired, joint2_vel_filtered, target_torque_joint1, target_torque_joint2, estimated_disturbance_joint1, saturated_DOB_joint1, estimated_disturbance_joint2, saturated_DOB_joint2, current_time
0.050346,0.0514004,0.224331,0.0241581,3.76499e-07,0,0.0500001,0,10,-2497,0,0,23.0495,0.1,0.004
0.050346,0.0513991,0.224531,0.0241581,1.50479e-06,-0.000115164,0.0500006,0,9,-2499,0.0104849,0.0104849,20.4587,0.1,0.008
0.050346,0.0513991,0.224731,0.024173,3.38307e-06,-7.67758e-05,0.0500013,0.00123801,9,-2489,0.0198995,0.0198995,17.8783,0.1,0.012
0.050346,0.0513994,0.224931,0.0243506,6.00952e-06,-2.23929e-05,0.0500023,0.0156239,10,-2351,0.0296909,0.0296909,15.3289,0.1,0.016
0.0503461,0.0513987,0.225131,0.024713,9.38236e-06,-7.25105e-05,0.0500036,0.0406176,9,-2110,0.0399291,0.0399291,12.9412,0.1,0.02
0.0503461,0.0513966,0.225331,0.0252257,1.34998e-05,-0.000221086,0.0500052,0.0698041,8,-1827,0.0495529,0.0495529,10.8173,0.1,0.024
0.0503462,0.0513946,0.225531,0.0258465,1.836e-05,-0.000320136,0.050007,0.0982734,7,-1550,0.0576595,0.0576595,8.99564,0.1,0.028
0.0503463,0.0513921,0.225731,0.026542,2.39611e-05,-0.000414961,0.0500092,0.123472,6,-1303,0.0647053,0.0647053,7.46714,0.1,0.032
0.0503464,0.0513901,0.225931,0.0272789,3.03014e-05,-0.000449386,0.0500116,0.143726,5,-1104,0.0707616,0.0707616,6.19748,0.1,0.036
0.0503465,0.0513883,0.226131,0.0280287,3.73792e-05,-0.000443545,0.0500143,0.158293,5,-959,0.0764152,0.0764152,5.13622,0.1,0.04
0.0503467,0.0513873,0.226331,0.0287639,4.51925e-05,-0.00038207,0.0500173,0.166796,6,-872,0.0820764,0.0820764,4.22574,0.1,0.044
0.0503469,0.0513859,0.226531,0.0294642,5.37396e-05,-0.000369877,0.0500205,0.169557,6,-841,0.0882276,0.0882276,3.40511,0.1,0.048
0.0503471,0.0513863,0.226731,0.0301313,6.30187e-05,-0.000217794,0.0500241,0.168633,7,-845,0.0944978,0.0944978,2.61792,0.1,0.052
0.0503474,0.0513863,0.226932,0.030777,7.3028e-05,-0.000145196,0.0500279,0.166232,8,-864,0.102143,0.1,1.8286,0.1,0.056
0.0503477,0.0513863,0.227132,0.0314107,8.37657e-05,-9.67971e-05,0.050032,0.163624,8,-885,0.110386,0.1,1.02312,0.1,0.06
0.050348,0.0513859,0.227332,0.0320408,9.52301e-05,-9.33224e-05,0.0500363,0.161597,8,-901,0.118934,0.1,0.199936,0.1,0.064
0.0503484,0.0513859,0.227532,0.0326676,0.000107419,-6.22149e-05,0.050041,0.159958,8,-913,0.127375,0.1,-0.635267,-0.1,0.068
0.0503489,0.0513859,0.227732,0.0332684,0.000120332,-4.14766e-05,0.0500459,0.156706,8,-940,0.135956,0.1,-1.48091,-0.1,0.072
0.0503494,0.0513859,0.227932,0.0338719,0.000133965,-2.76511e-05,0.0500511,0.154769,8,-955,0.144568,0.1,-2.3503,-0.1,0.076
0.05035,0.0513859,0.228133,0.0344703,0.000148318,-1.8434e-05,0.0500566,0.153045,8,-968,0.153134,0.1,-3.23102,-0.1,0.08
0.0503506,0.0513859,0.228333,0.0350625,0.000163389,-1.22894e-05,0.0500623,0.151378,8,-980,0.161602,0.1,-4.12105,-0.1,0.084
0.0503513,0.0513856,0.228533,0.0356474,0.000179176,-3.69838e-05,0.0500683,0.149661,8,-993,0.169914,0.1,-5.01992,-0.1,0.088
0.050352,0.0513856,0.228733,0.0362237,0.000195676,-2.46559e-05,0.0500746,0.147798,8,-1007,0.177799,0.1,-5.92823,-0.1,0.092
0.0503528,0.0513852,0.228934,0.0367841,0.00021289,-4.52282e-05,0.0500812,0.145231,7,-1029,0.185576,0.1,-6.84788,-0.1,0.096
0.0503537,0.0513852,0.229134,0.0373327,0.000230814,-3.01521e-05,0.050088,0.14254,7,-1051,0.192952,0.1,-7.78558,-0.1,0.1
0.0503547,0.0513859,0.229334,0.0378665,0.000249446,3.74804e-05,0.0500951,0.139509,8,-1077,0.200295,0.1,-8.74273,-0.1,0.104
0.0503557,0.0513859,0.229535,0.0383875,0.000268786,2.4987e-05,0.0501025,0.136423,8,-1104,0.208036,0.1,-9.7226,-0.1,0.108
0.0503568,0.0513859,0.229735,0.038895,0.000288831,1.6658e-05,0.0501101,0.133242,7,-1131,0.215415,0.1,-10.7258,-0.1,0.112
0.050358,0.0513856,0.229936,0.0393936,0.00030958,-1.76856e-05,0.050118,0.130374,7,-1156,0.222447,0.1,-11.753,-0.1,0.116
0.0503593,0.0513856,0.230136,0.0398811,0.00033103,-1.17904e-05,0.0501262,0.12754,7,-1181,0.228909,0.1,-12.8012,-0.1,0.12
0.0503607,0.0513856,0.230337,0.0403641,0.00035318,-7.86027e-06,0.0501346,0.125276,6,-1200,0.235171,0.1,-13.8699,-0.1,0.124
0.0503621,0.0513856,0.230537,0.0408446,0.000376029,-5.24018e-06,0.0501433,0.123566,6,-1213,0.241207,0.1,-14.9532,-0.1,0.128
0.0503637,0.0513856,0.230738,0.0413232,0.000399574,-3.49345e-06,0.0501522,0.122253,6,-1224,0.246999,0.1,-16.0458,-0.1,0.132
0.0503653,0.0513856,0.230938,0.0418065,0.000423814,-2.32897e-06,0.0501615,0.12178,6,-1225,0.252529,0.1,-17.1433,-0.1,0.136
0.0503671,0.0513856,0.231139,0.0422929,0.000448746,-1.55265e-06,0.050171,0.121724,5,-1223,0.257787,0.1,-18.2377,-0.1,0.14
0.0503689,0.0513856,0.23134,0.0427808,0.00047437,-1.0351e-06,0.0501807,0.121802,5,-1220,0.262761,0.1,-19.325,-0.1,0.144
0.0503709,0.0513856,0.23154,0.0432703,0.000500683,-6.90065e-07,0.0501907,0.121998,5,-1215,0.267442,0.1,-20.4038,-0.1,0.148
0.0503729,0.0513856,0.231741,0.0437592,0.000527684,-4.60043e-07,0.050201,0.122071,5,-1212,0.271822,0.1,-21.4732,-0.1,0.152
0.0503751,0.0513856,0.231942,0.0442529,0.000555371,-3.06696e-07,0.0502115,0.122523,4,-1205,0.275893,0.1,-22.5342,-0.1,0.156
0.0503774,0.0513856,0.232143,0.0447504,0.000583742,-2.04464e-07,0.0502223,0.123141,4,-1196,0.279649,0.1,-23.583,-0.1,0.16
0.0503798,0.0513856,0.232344,0.04524,0.000612796,-1.36309e-07,0.0502333,0.122891,4,-1196,0.283081,0.1,-24.6188,-0.1,0.164
0.0503823,0.0513863,0.232545,0.0457337,0.00064253,5.7491e-05,0.0502446,0.123069,4,-1192,0.286224,0.1,-25.6495,-0.1,0.168
0.0503849,0.0513856,0.232746,0.0462257,0.000672943,-1.92545e-05,0.0502562,0.123045,3,-1189,0.289518,0.1,-26.6712,-0.1,0.172
0.0503877,0.0513856,0.232947,0.0467183,0.000704033,-1.28364e-05,0.050268,0.123086,3,-1186,0.29175,0.1,-27.6858,-0.1,0.176
0.0503906,0.0513852,0.233148,0.0472162,0.000735798,-3.73485e-05,0.05028,0.123545,2,-1179,0.293675,0.1,-28.6924,-0.1,0.18
0.0503936,0.0513859,0.233349,0.047714,0.000768238,3.26829e-05,0.0502924,0.123851,2,-1173,0.295062,0.1,-29.6872,-0.1,0.184
0.0503967,0.0513859,0.23355,0.0482171,0.000801349,2.17886e-05,0.0503049,0.124487,2,-1164,0.296738,0.1,-30.6716,-0.1,0.188
0.0504,0.0513859,0.233752,0.0487246,0.00083513,1.45257e-05,0.0503178,0.125285,1,-1154,0.297937,0.1,-31.6423,-0.1,0.192
0.0504034,0.0513859,0.233953,0.0492404,0.00086958,9.68381e-06,0.0503308,0.126508,1,-1139,0.298688,0.1,-32.5976,-0.1,0.196
0.0504069,0.0513859,0.234154,0.0497628,0.000904697,6.45587e-06,0.0503442,0.127871,1,-1123,0.299009,0.1,-33.5334,-0.1,0.2
0.0504106,0.0513859,0.234356,0.0502838,0.000940478,4.30391e-06,0.0503577,0.128664,0,-1113,0.29891,0.1,-34.4488,-0.1,0.204
0.0504145,0.0513859,0.234557,0.0508055,0.000976923,2.86928e-06,0.0503716,0.12925,0,-1104,0.298394,0.1,-35.3494,-0.1,0.208
0.0504184,0.0513859,0.234759,0.0513258,0.00101403,1.91285e-06,0.0503857,0.129526,0,-1099,0.297464,0.1,-36.2374,-0.1,0.212
0.0504226,0.0513859,0.23496,0.0518534,0.0010518,1.27523e-06,0.0504,0.130314,0,-1088,0.296116,0.1,-37.1153,-0.1,0.216
0.0504269,0.0513859,0.235162,0.0523516,0.00109022,8.50156e-07,0.0504145,0.128393,0,-1104,0.294349,0.1,-37.9802,-0.1,0.22
0.0504313,0.0513859,0.235363,0.052856,0.0011293,5.66771e-07,0.0504294,0.12763,-1,-1108,0.292158,0.1,-38.8569,-0.1,0.224
0.0504359,0.0513859,0.235565,0.0533514,0.00116904,3.77847e-07,0.0504444,0.126373,-1,-1118,0.289537,0.1,-39.7347,-0.1,0.228
0.0504406,0.0513859,0.235767,0.0538393,0.00120942,2.51898e-07,0.0504597,0.124901,-2,-1129,0.286483,0.1,-40.6186,-0.1,0.232
0.0504456,0.0513859,0.235969,0.0543257,0.00125046,1.67932e-07,0.0504753,0.123805,-2,-1137,0.282989,0.1,-41.5102,-0.1,0.236
0.0504506,0.0513859,0.236171,0.0548104,0.00129215,1.11955e-07,0.0504911,0.12293,-3,-1143,0.27905,0.1,-42.4059,-0.1,0.24
0.0504559,0.0513859,0.236373,0.0552952,0.00133449,7.46365e-08,0.0505071,0.122347,-3,-1146,0.274659,0.1,-43.3035,-0.1,0.244
0.0504613,0.0513859,0.236575,0.0557771,0.00137747,4.97576e-08,0.0505234,0.121728,-3,-1149,0.269811,0.1,-44.2004,-0.1,0.248
0.0504669,0.0513859,0.236777,0.0562574,0.00142109,3.31718e-08,0.05054,0.121172,-4,-1152,0.264501,0.1,-45.0967,-0.1,0.252
0.0504727,0.0513859,0.236979,0.0567355,0.00146536,2.21145e-08,0.0505567,0.120628,-4,-1155,0.258721,0.1,-45.9921,-0.1,0.256
0.0504786,0.0513859,0.237181,0.0572064,0.00151027,1.4743e-08,0.0505737,0.11966,-5,-1162,0.252465,0.1,-46.8866,-0.1,0.26
0.0504848,0.0513863,0.237384,0.057679,0.00155582,2.88008e-05,0.050591,0.11916,-5,-1164,0.24575,0.1,-47.7839,-0.1,0.264
0.0504911,0.0513866,0.237586,0.058152,0.00160201,4.79914e-05,0.0506085,0.118855,-5,-1165,0.238831,0.1,-48.6796,-0.1,0.268
0.0504976,0.051387,0.237789,0.0586219,0.00164883,6.07852e-05,0.0506262,0.118392,-6,-1167,0.231609,0.1,-49.5719,-0.1,0.272
0.0505043,0.0513866,0.237991,0.0590931,0.00169629,1.17325e-05,0.0506441,0.118199,-7,-1166,0.223973,0.1,-50.4623,-0.1,0.276
0.0505112,0.0513866,0.238194,0.0595658,0.00174437,7.8217e-06,0.0506623,0.118185,-7,-1164,0.215368,0.1,-51.348,-0.1,0.28
0.0505182,0.051387,0.238397,0.0600353,0.00179309,3.40054e-05,0.0506808,0.117917,-8,-1164,0.206233,0.1,-52.2276,-0.1,0.284
0.0505255,0.051387,0.238599,0.0605114,0.00184244,2.26703e-05,0.0506994,0.118285,-8,-1158,0.19682,0.1,-53.1031,-0.1,0.288
0.050533,0.051387,0.238802,0.0609906,0.00189241,1.51135e-05,0.0507183,0.11879,-9,-1151,0.186772,0.1,-53.9684,-0.1,0.292
0.0505407,0.051387,0.239005,0.061457,0.00194301,1.00757e-05,0.0507375,0.118061,-10,-1155,0.176121,0.1,-54.8231,-0.1,0.296
0.0505485,0.051387,0.239208,0.0619231,0.00199424,6.71711e-06,0.0507569,0.117546,-10,-1158,0.164886,0.1,-55.6788,-0.1,0.3
0.0505566,0.0513866,0.239411,0.0623881,0.00204608,-2.43128e-05,0.0507765,0.117117,-11,-1160,0.153056,0.1,-56.5333,-0.1,0.304
0.0505649,0.0513877,0.239614,0.0628469,0.00209855,7.01642e-05,0.0507963,0.116312,-11,-1165,0.140456,0.1,-57.3861,-0.1,0.308
0.0505734,0.051388,0.239817,0.0633074,0.00215163,7.55671e-05,0.0508163,0.11592,-11,-1167,0.128195,0.1,-58.2406,-0.1,0.312
0.0505821,0.0513883,0.240021,0.0637618,0.00220534,7.9169e-05,0.0508366,0.11514,-12,-1172,0.115431,0.1,-59.0931,-0.1,0.316
0.050591,0.0513883,0.240224,0.0642133,0.00225965,5.27793e-05,0.0508572,0.11439,-13,-1177,0.102117,0.1,-59.9472,-0.1,0.32
0.0506002,0.0513883,0.240428,0.0646638,0.00231458,3.51862e-05,0.0508779,0.113803,-14,-1180,0.087974,0.087974,-60.8027,-0.1,0.324
0.0506096,0.0513883,0.240631,0.0651168,0.00237012,2.34575e-05,0.0508989,0.113614,-14,-1180,0.0730285,0.0730285,-61.6577,-0.1,0.328
0.0506191,0.0513883,0.240835,0.0655694,0.00242628,1.56383e-05,0.0509201,0.113459,-15,-1179,0.0573207,0.0573207,-62.5085,-0.1,0.332
0.050629,0.0513883,0.241039,0.0660227,0.00248304,1.04255e-05,0.0509415,0.113413,-16,-1178,0.0408803,0.0408803,-63.3547,-0.1,0.336
0.050639,0.0513883,0.241242,0.0664742,0.00254041,6.95036e-06,0.0509632,0.113238,-17,-1177,0.0237246,0.0237246,-64.1955,-0.1,0.34
0.0506493,0.0513887,0.241446,0.0669278,0.00259838,3.34245e-05,0.0509851,0.113295,-17,-1174,0.00588252,0.00588252,-65.0319,-0.1,0.344
0.0506598,0.0513887,0.24165,0.0673797,0.00265695,2.2283e-05,0.0510072,0.113188,-18,-1173,-0.0123992,-0.0123992,-65.8619,-0.1,0.348
0.0506705,0.051389,0.241854,0.0678282,0.00271613,4.36463e-05,0.0510295,0.112829,-18,-1175,-0.0314585,-0.0314585,-66.6872,-0.1,0.352
0.0506815,0.0513894,0.242058,0.0682722,0.00277591,5.78884e-05,0.0510521,0.112216,-19,-1178,-0.0510036,-0.0510036,-67.5104,-0.1,0.356
0.0506928,0.0513897,0.242263,0.0687199,0.00283629,6.73832e-05,0.0510749,0.112124,-20,-1177,-0.0711122,-0.0711122,-68.3335,-0.1,0.36
0.0507042,0.0513901,0.242467,0.0691663,0.00289726,7.37131e-05,0.0510979,0.111947,-21,-1177,-0.0918389,-0.0918389,-69.1517,-0.1,0.364
0.0507159,0.0513904,0.242671,0.0696109,0.00295883,7.7933e-05,0.0511211,0.111685,-21,-1177,-0.113223,-0.1,-69.966,-0.1,0.368
0.0507279,0.0513904,0.242876,0.0700521,0.00302099,5.19553e-05,0.0511445,0.111223,-22,-1180,-0.135255,-0.1,-70.7773,-0.1,0.372
0.0507401,0.0513911,0.243081,0.0704975,0.00308374,9.22187e-05,0.0511682,0.11126,-22,-1177,-0.158141,-0.1,-71.5871,-0.1,0.376
0.0507526,0.0513911,0.243285,0.0709421,0.00314708,6.14791e-05,0.051192,0.111227,-24,-1175,-0.181314,-0.1,-72.3909,-0.1,0.38
0.0507653,0.0513918,0.24349,0.0713871,0.00321101,9.85679e-05,0.0512161,0.111234,-24,-1173,-0.2054,-0.1,-73.1892,-0.1,0.384
0.0507783,0.0513915,0.243695,0.0718355,0.00327553,3.6921e-05,0.0512405,0.111527,-25,-1168,-0.229835,-0.1,-73.9816,-0.1,0.388
0.0507915,0.0513918,0.2439,0.0722871,0.00334064,5.3405e-05,0.051265,0.111981,-26,-1162,-0.255498,-0.1,-74.7653,-0.1,0.392
0.050805,0.0513921,0.244105,0.0727355,0.00340632,6.43942e-05,0.0512897,0.112025,-26,-1159,-0.281664,-0.1,-75.5391,-0.1,0.396
0.0508187,0.0513921,0.24431,0.0731868,0.00347259,4.29295e-05,0.0513147,0.112284,-27,-1155,-0.308412,-0.1,-76.3068,-0.1,0.4
0.0508328,0.0513932,0.244516,0.0736359,0.00353944,0.000114992,0.0513399,0.112284,-28,-1153,-0.335988,-0.1,-77.0664,-0.1,0.404
0.0508471,0.0513932,0.244721,0.0740919,0.00360686,7.66616e-05,0.0513653,0.11286,-29,-1145,-0.363596,-0.1,-77.8201,-0.1,0.408
0.0508616,0.0513935,0.244927,0.074547,0.00367487,7.98987e-05,0.0513909,0.113158,-29,-1140,-0.392248,-0.1,-78.5627,-0.1,0.412
0.0508765,0.0513939,0.245132,0.0750002,0.00374344,8.20567e-05,0.0514167,0.113212,-30,-1137,-0.421561,-0.1,-79.297,-0.1,0.416
0.0508916,0.0513942,0.245338,0.0754539,0.00381259,8.34954e-05,0.0514427,0.113277,-31,-1134,-0.45155,-0.1,-80.0253,-0.1,0.42
0.050907,0.0513946,0.245544,0.0759072,0.00388232,8.44545e-05,0.0514689,0.113292,-32,-1132,-0.482228,-0.1,-80.7475,-0.1,0.424
0.0509226,0.0513953,0.24575,0.0763573,0.00395261,0.000113885,0.0514954,0.113042,-32,-1132,-0.513584,-0.1,-81.4644,-0.1,0.428
0.0509386,0.051397,0.245956,0.0768075,0.00402347,0.000219878,0.051522,0.112876,-32,-1132,-0.545303,-0.1,-82.1784,-0.1,0.432
0.0509548,0.0513987,0.246162,0.0772611,0.0040949,0.00029054,0.0515489,0.113053,-32,-1128,-0.576695,-0.1,-82.8885,-0.1,0.436
0.0509713,0.0514004,0.246368,0.0777106,0.00416689,0.000337648,0.051576,0.112826,-33,-1128,-0.608116,-0.1,-83.5918,-0.1,0.44
0.0509881,0.0514022,0.246575,0.0781587,0.00423945,0.000369053,0.0516032,0.112559,-33,-1129,-0.639803,-0.1,-84.2921,-0.1,0.444
0.0510053,0.0514039,0.246781,0.0786058,0.00431256,0.00038999,0.0516307,0.112295,-34,-1129,-0.671916,-0.1,-84.9898,-0.1,0.448
0.0510227,0.0514049,0.246988,0.0790504,0.00438624,0.000346366,0.0516584,0.111917,-35,-1131,-0.704603,-0.1,-85.685,-0.1,0.452
0.0510403,0.0514073,0.247194,0.0794934,0.00446048,0.000432447,0.0516863,0.111521,-35,-1133,-0.738385,-0.1,-86.3789,-0.1,0.456
0.0510583,0.0514094,0.247401,0.0799345,0.00453527,0.000461044,0.0517144,0.111114,-36,-1135,-0.77209,-0.1,-87.0715,-0.1,0.46
0.0510766,0.0514115,0.247608,0.080374,0.00461062,0.000480108,0.0517427,0.110698,-36,-1137,-0.80627,-0.1,-87.7631,-0.1,0.464
0.0510952,0.0514139,0.247815,0.0808114,0.00468652,0.000521608,0.0517712,0.110248,-37,-1139,-0.841003,-0.1,-88.4537,-0.1,0.468
0.0511141,0.051417,0.248022,0.0812467,0.00476298,0.000606857,0.0518,0.109775,-37,-1142,-0.876054,-0.1,-89.1438,-0.1,0.472
0.0511333,0.0514212,0.248229,0.0816834,0.00483998,0.000750063,0.0518289,0.109575,-37,-1142,-0.910976,-0.1,-89.8334,-0.1,0.476
0.0511528,0.0514257,0.248437,0.0821222,0.00491753,0.000874324,0.051858,0.109615,-36,-1139,-0.945246,-0.1,-90.5197,-0.1,0.48
0.0511727,0.0514305,0.248644,0.0825644,0.00499563,0.000985955,0.0518873,0.109929,-36,-1134,-0.979054,-0.1,-91.2004,-0.1,0.484
0.0511928,0.0514367,0.248852,0.0830094,0.00507428,0.00117554,0.0519168,0.110369,-35,-1128,-1.01247,-0.1,-91.8729,-0.1,0.488
0.0512133,0.0514443,0.24906,0.0834548,0.00515347,0.00141709,0.0519465,0.110691,-34,-1123,-1.04474,-0.1,-92.536,-0.1,0.492
0.051234,0.0514523,0.249267,0.0839056,0.0052332,0.00160692,0.0519765,0.111366,-33,-1114,-1.0754,-0.1,-93.1907,-0.1,0.496
0.0512551,0.0514609,0.249475,0.084353,0.00531347,0.00179105,0.0520066,0.111528,-32,-1111,-1.10496,-0.1,-93.834,-0.1,0.5
0.0512765,0.0514695,0.249683,0.0848015,0.00539428,0.00191381,0.0520369,0.111723,-32,-1107,-1.13353,-0.1,-94.4708,-0.1,0.504
0.0512983,0.0514789,0.249892,0.0852613,0.00547563,0.00205323,0.0520674,0.112803,-31,-1095,-1.16166,-0.1,-95.1001,-0.1,0.508
0.0513203,0.0514872,0.2501,0.085717,0.00555751,0.0020598,0.0520981,0.113177,-32,-1089,-1.1893,-0.1,-95.7141,-0.1,0.512
0.0513427,0.0514958,0.250308,0.0861734,0.00563993,0.00209297,0.052129,0.113484,-33,-1084,-1.21769,-0.1,-96.3197,-0.1,0.516
0.0513655,0.0515048,0.250517,0.0866322,0.00572288,0.00214388,0.0521601,0.11389,-33,-1078,-1.24656,-0.1,-96.9172,-0.1,0.52
0.0513885,0.0515148,0.250726,0.0870931,0.00580636,0.00226419,0.0521913,0.114334,-33,-1071,-1.27572,-0.1,-97.5059,-0.1,0.524
0.0514119,0.0515265,0.250935,0.0875557,0.00589036,0.00248835,0.0522228,0.114774,-32,-1065,-1.30443,-0.1,-98.0854,-0.1,0.528
0.0514357,0.0515386,0.251144,0.0880156,0.0059749,0.00266658,0.0522545,0.114837,-31,-1062,-1.33176,-0.1,-98.656,-0.1,0.532
0.0514597,0.0515535,0.251353,0.0884747,0.00605996,0.00301573,0.0522863,0.114821,-28,-1060,-1.35804,-0.1,-99.2213,-0.1,0.536
0.0514841,0.0515694,0.251562,0.0889336,0.00614555,0.00333487,0.0523184,0.114782,-26,-1059,-1.38168,-0.1,-99.7822,-0.1,0.54
0.0515089,0.0515867,0.251771,0.089391,0.00623166,0.00366279,0.0523506,0.11464,-24,-1058,-1.40297,-0.1,-100.339,-0.1,0.544
0.051534,0.0516029,0.251981,0.0898453,0.00631829,0.00379504,0.0523831,0.114287,-24,-1059,-1.42196,-0.1,-100.892,-0.1,0.548
0.0515594,0.0516164,0.25219,0.0903052,0.00640544,0.00365287,0.0524157,0.114512,-26,-1055,-1.4407,-0.1,-101.445,-0.1,0.552
0.0515852,0.0516295,0.2524,0.0907674,0.00649311,0.0035293,0.0524485,0.114864,-28,-1050,-1.46174,-0.1,-101.99,-0.1,0.556
0.0516114,0.0516426,0.25261,0.0912376,0.00658129,0.00344692,0.0524815,0.11576,-30,-1039,-1.48489,-0.1,-102.527,-0.1,0.56
0.0516379,0.0516551,0.25282,0.0916978,0.00666999,0.00333442,0.0525147,0.115523,-32,-1039,-1.50977,-0.1,-103.051,-0.1,0.564
0.0516647,0.0516682,0.25303,0.0921649,0.0067592,0.003317,0.052548,0.115941,-33,-1033,-1.53662,-0.1,-103.572,-0.1,0.568
0.051692,0.0516817,0.25324,0.0926265,0.00684892,0.00333418,0.0525816,0.115758,-34,-1033,-1.56452,-0.1,-104.085,-0.1,0.572
0.0517195,0.0516955,0.253451,0.0930936,0.00693915,0.00337442,0.0526153,0.116098,-34,-1027,-1.59314,-0.1,-104.595,-0.1,0.576
0.0517475,0.05171,0.253661,0.0935479,0.00702989,0.00345884,0.0526493,0.115258,-35,-1033,-1.62223,-0.1,-105.098,-0.1,0.58
0.0517758,0.0517255,0.253872,0.0939801,0.00712114,0.00360148,0.0526834,0.112856,-34,-1054,-1.65135,-0.1,-105.607,-0.1,0.584
0.0518044,0.0517418,0.254083,0.0944113,0.00721289,0.00375416,0.0527177,0.111169,-34,-1069,-1.67994,-0.1,-106.134,-0.1,0.588
0.0518335,0.0517597,0.254294,0.0948363,0.00730515,0.0039999,0.0527521,0.109525,-32,-1083,-1.70786,-0.1,-106.674,-0.1,0.592
0.0518629,0.0517788,0.254505,0.0952616,0.0073979,0.0042501,0.0527868,0.108458,-31,-1091,-1.73423,-0.1,-107.226,-0.1,0.596
0.0518927,0.0517991,0.254716,0.0956845,0.00749116,0.00453207,0.0528216,0.107546,-29,-1098,-1.759,-0.1,-107.784,-0.1,0.6
0.0519228,0.0518192,0.254927,0.0961094,0.00758492,0.00469125,0.0528566,0.10711,-29,-1101,-1.78196,-0.1,-108.347,-0.1,0.604
0.0519533,0.0518389,0.255139,0.0965399,0.00767917,0.00476858,0.0528918,0.10728,-29,-1097,-1.80433,-0.1,-108.909,-0.1,0.608
0.0519842,0.0518586,0.25535,0.0969842,0.00777392,0.00482014,0.0529272,0.108545,-29,-1083,-1.82689,-0.1,-109.465,-0.1,0.612
0.0520155,0.0518772,0.255562,0.0974205,0.00786916,0.00476814,0.0529627,0.108726,-31,-1080,-1.84995,-0.1,-110.004,-0.1,0.616
0.0520472,0.0518962,0.255774,0.0978635,0.00796489,0.00476226,0.0529985,0.109394,-32,-1072,-1.87448,-0.1,-110.537,-0.1,0.62
0.0520793,0.0519149,0.255986,0.0983109,0.00806112,0.00472955,0.0530344,0.110214,-33,-1062,-1.90004,-0.1,-111.059,-0.1,0.624
0.0521117,0.0519359,0.256198,0.0987707,0.00815783,0.00490928,0.0530704,0.111797,-33,-1045,-1.92676,-0.1,-111.568,-0.1,0.628
0.0521445,0.0519581,0.256411,0.0992313,0.00825503,0.00511547,0.0531067,0.112909,-32,-1032,-1.95262,-0.1,-112.057,-0.1,0.632
0.0521777,0.0519798,0.256623,0.0996921,0.00835272,0.00522414,0.0531431,0.11368,-32,-1022,-1.97746,-0.1,-112.531,-0.1,0.636
0.0522113,0.052003,0.256836,0.100165,0.00845089,0.00541175,0.0531797,0.11523,-31,-1005,-2.00213,-0.1,-112.993,-0.1,0.64
0.0522453,0.0520258,0.257049,0.100635,0.00854955,0.00550804,0.0532165,0.115918,-31,-997,-2.02598,-0.1,-113.435,-0.1,0.644
0.0522797,0.0520482,0.257262,0.101097,0.00864868,0.00554343,0.0532535,0.115801,-32,-996,-2.04989,-0.1,-113.868,-0.1,0.648
0.0523145,0.0520717,0.257475,0.101569,0.0087483,0.00565341,0.0532906,0.116558,-32,-986,-2.07439,-0.1,-114.296,-0.1,0.652
0.0523497,0.0520956,0.257688,0.102047,0.00884839,0.00575551,0.0533279,0.117552,-32,-975,-2.0988,-0.1,-114.713,-0.1,0.656
0.0523853,0.0521187,0.257901,0.102519,0.00894896,0.005766,0.0533653,0.117668,-33,-971,-2.12325,-0.1,-115.117,-0.1,0.66
0.0524213,0.0521429,0.258115,0.102983,0.00905,0.00585936,0.053403,0.117111,-33,-975,-2.14855,-0.1,-115.516,-0.1,0.664
0.0524577,0.0521698,0.258328,0.10345,0.00915152,0.00615194,0.0534408,0.116999,-31,-974,-2.17379,-0.1,-115.916,-0.1,0.668
0.0524945,0.0521964,0.258542,0.103913,0.00925351,0.00631819,0.0534787,0.116551,-31,-976,-2.1972,-0.1,-116.313,-0.1,0.672
0.0525317,0.0522227,0.258756,0.104376,0.00935597,0.00640024,0.0535169,0.11628,-31,-977,-2.22003,-0.1,-116.711,-0.1,0.676
0.0525694,0.0522497,0.25897,0.104831,0.0094589,0.00651252,0.0535552,0.115467,-31,-982,-2.24304,-0.1,-117.109,-0.1,0.68
0.0526074,0.0522763,0.259185,0.105277,0.00956229,0.00655858,0.0535937,0.114176,-32,-993,-2.26601,-0.1,-117.511,-0.1,0.684
0.0526459,0.0523032,0.259399,0.105722,0.00966615,0.00661808,0.0536323,0.1132,-32,-1000,-2.28954,-0.1,-117.922,-0.1,0.688
0.0526847,0.0523291,0.259614,0.106152,0.00977048,0.00657137,0.0536711,0.111282,-34,-1017,-2.3136,-0.1,-118.339,-0.1,0.692
0.052724,0.0523561,0.259829,0.106585,0.00987527,0.00662661,0.0537101,0.110235,-35,-1026,-2.3391,-0.1,-118.772,-0.1,0.696
0.0527637,0.0523847,0.260043,0.107015,0.00998051,0.00680738,0.0537492,0.109334,-34,-1032,-2.36502,-0.1,-119.211,-0.1,0.7
0.0528039,0.0524134,0.260259,0.107441,0.0100862,0.0069279,0.0537885,0.108389,-34,-1040,-2.39022,-0.1,-119.655,-0.1,0.704
0.0528444,0.0524435,0.260474,0.107874,0.0101924,0.00712341,0.053828,0.108363,-33,-1038,-2.41522,-0.1,-120.104,-0.1,0.708
0.0528854,0.0524718,0.260689,0.108295,0.010299,0.0071098,0.0538676,0.107309,-34,-1047,-2.43947,-0.1,-120.551,-0.1,0.712
0.0529268,0.0525015,0.260905,0.108719,0.0104061,0.00721588,0.0539074,0.106924,-35,-1049,-2.46484,-0.1,-121.004,-0.1,0.716
0.0529687,0.0525312,0.26112,0.109142,0.0105136,0.00728661,0.0539473,0.106523,-35,-1051,-2.49025,-0.1,-121.457,-0.1,0.72
0.0530109,0.0525623,0.261336,0.109565,0.0106216,0.00744892,0.0539874,0.106226,-35,-1052,-2.51597,-0.1,-121.91,-0.1,0.724
0.0530536,0.0525934,0.261552,0.109979,0.01073,0.00755713,0.0540277,0.105338,-35,-1059,-2.54118,-0.1,-122.363,-0.1,0.728
0.0530968,0.0526249,0.261769,0.110391,0.0108389,0.00765806,0.0540681,0.104573,-35,-1065,-2.5664,-0.1,-122.822,-0.1,0.732
0.0531404,0.0526556,0.261985,0.110801,0.0109482,0.00766777,0.0541087,0.103832,-36,-1071,-2.59176,-0.1,-123.284,-0.1,0.736
0.0531844,0.0526864,0.262201,0.11121,0.011058,0.00767424,0.0541494,0.10331,-37,-1074,-2.61812,-0.1,-123.75,-0.1,0.74
0.0532288,0.0527168,0.262418,0.111614,0.0111682,0.00764976,0.0541903,0.102559,-39,-1080,-2.64553,-0.1,-124.218,-0.1,0.744
0.0532737,0.0527472,0.262635,0.112017,0.0112789,0.00763344,0.0542314,0.101914,-40,-1085,-2.6743,-0.1,-124.689,-0.1,0.748
0.0533191,0.0527779,0.262852,0.112417,0.01139,0.00765135,0.0542726,0.101283,-41,-1090,-2.70431,-0.1,-125.164,-0.1,0.752
0.0533648,0.052808,0.263069,0.112821,0.0115015,0.00760571,0.054314,0.101265,-43,-1089,-2.73529,-0.1,-125.64,-0.1,0.756
0.0534111,0.0528346,0.263286,0.113222,0.0116135,0.00728738,0.0543555,0.100878,-47,-1091,-2.76804,-0.1,-126.114,-0.1,0.76
0.0534577,0.0528581,0.263504,0.113608,0.0117259,0.00681603,0.0543972,0.0994118,-53,-1104,-2.80519,-0.1,-126.589,-0.1,0.764
0.0535049,0.0528788,0.263722,0.113997,0.0118387,0.00627148,0.054439,0.0986931,-59,-1109,-2.84825,-0.1,-127.074,-0.1,0.768
0.0535525,0.0528961,0.263939,0.114391,0.011952,0.00562053,0.054481,0.0986458,-67,-1109,-2.89795,-0.1,-127.563,-0.1,0.772
0.0536005,0.0529089,0.264157,0.114778,0.0120657,0.00481229,0.0545231,0.0979809,-76,-1114,-2.95541,-0.1,-128.049,-0.1,0.776
0.053649,0.0529192,0.264376,0.115157,0.0121799,0.00407192,0.0545654,0.0969331,-84,-1123,-3.02203,-0.1,-128.539,-0.1,0.78
0.0536979,0.0529279,0.264594,0.115544,0.0122944,0.00343439,0.0546078,0.0968391,-92,-1122,-3.09712,-0.1,-129.035,-0.1,0.784
0.0537473,0.0529358,0.264813,0.115924,0.0124094,0.00295178,0.0546504,0.0962294,-98,-1127,-3.17961,-0.1,-129.529,-0.1,0.788
0.0537972,0.0529431,0.265031,0.116314,0.0125248,0.00257246,0.0546931,0.0967155,-103,-1121,-3.26798,-0.1,-130.024,-0.1,0.792
0.0538475,0.0529517,0.26525,0.116687,0.0126407,0.00243475,0.054736,0.0954848,-106,-1132,-3.3611,-0.1,-130.513,-0.1,0.796
0.0538983,0.0529614,0.265469,0.117059,0.0127569,0.00242931,0.054779,0.0946644,-107,-1139,-3.45662,-0.1,-131.01,-0.1,0.8
0.0539496,0.0529721,0.265688,0.117432,0.0128736,0.00251206,0.0548222,0.0942038,-108,-1142,-3.55327,-0.1,-131.512,-0.1,0.804
0.0540013,0.0529831,0.265908,0.117806,0.0129907,0.00259602,0.0548655,0.0939831,-109,-1143,-3.65022,-0.1,-132.015,-0.1,0.808
0.0540535,0.0529945,0.266127,0.118184,0.0131083,0.00268078,0.054909,0.0941527,-110,-1140,-3.74746,-0.1,-132.517,-0.1,0.812
0.0541062,0.0530049,0.266347,0.118562,0.0132262,0.00265091,0.0549526,0.0942945,-111,-1138,-3.84506,-0.1,-133.014,-0.1,0.816
0.0541593,0.0530139,0.266567,0.118942,0.0133446,0.00251584,0.0549963,0.0945042,-114,-1135,-3.94418,-0.1,-133.505,-0.1,0.82
0.0542129,0.0530215,0.266787,0.119321,0.0134633,0.00231063,0.0550402,0.0946153,-118,-1133,-4.04584,-0.1,-133.992,-0.1,0.824
0.054267,0.0530277,0.267007,0.119702,0.0135825,0.00205865,0.0550843,0.0948044,-122,-1130,-4.15073,-0.1,-134.474,-0.1,0.828
0.0543216,0.0530329,0.267228,0.120081,0.0137021,0.0018043,0.0551285,0.0947578,-126,-1129,-4.25929,-0.1,-134.951,-0.1,0.832
0.0543767,0.053037,0.267448,0.120463,0.0138221,0.00154836,0.0551728,0.0950434,-130,-1125,-4.37155,-0.1,-135.425,-0.1,0.836
0.0544322,0.0530412,0.267669,0.120844,0.0139425,0.00137773,0.0552173,0.0950899,-133,-1124,-4.48746,-0.1,-135.893,-0.1,0.84
0.0544882,0.053045,0.26789,0.121228,0.0140633,0.00123519,0.0552619,0.09538,-136,-1120,-4.60622,-0.1,-136.357,-0.1,0.844
0.0545447,0.0530495,0.268111,0.121609,0.0141845,0.00119774,0.0553066,0.095343,-138,-1119,-4.72748,-0.1,-136.816,-0.1,0.848
0.0546017,0.0530543,0.268332,0.121989,0.0143061,0.00120157,0.0553515,0.095232,-140,-1119,-4.85025,-0.1,-137.271,-0.1,0.852
0.0546591,0.0530602,0.268554,0.12237,0.0144282,0.00129049,0.0553966,0.0952444,-140,-1118,-4.97408,-0.1,-137.725,-0.1,0.856
0.0547171,0.0530667,0.268776,0.122757,0.0145506,0.00140735,0.0554417,0.0957421,-141,-1112,-5.09817,-0.1,-138.175,-0.1,0.86
0.0547755,0.0530737,0.268997,0.123145,0.0146734,0.00151405,0.055487,0.0962179,-142,-1106,-5.22226,-0.1,-138.616,-0.1,0.864
0.0548345,0.0530816,0.269219,0.123539,0.0147966,0.00167156,0.0555325,0.0969093,-142,-1098,-5.34643,-0.1,-139.05,-0.1,0.868
0.0548939,0.0530895,0.269442,0.123935,0.0149202,0.00177657,0.0555781,0.0976582,-142,-1090,-5.47023,-0.1,-139.474,-0.1,0.872
0.0549538,0.0530978,0.269664,0.124336,0.0150442,0.00187536,0.0556238,0.0984741,-143,-1081,-5.59417,-0.1,-139.887,-0.1,0.876
0.0550143,0.0531058,0.269887,0.124726,0.0151686,0.00191243,0.0556696,0.0981832,-144,-1082,-5.71835,-0.1,-140.289,-0.1,0.88
0.0550752,0.053113,0.270109,0.125119,0.0152934,0.00187956,0.0557156,0.0982195,-146,-1081,-5.84339,-0.1,-140.691,-0.1,0.884
0.0551366,0.0531196,0.270332,0.125504,0.0154186,0.00180007,0.0557617,0.0975816,-149,-1086,-5.96999,-0.1,-141.091,-0.1,0.888
0.0551985,0.0531251,0.270556,0.12589,0.0155441,0.0016607,0.055808,0.097185,-152,-1088,-6.09861,-0.1,-141.493,-0.1,0.892
0.055261,0.05313,0.270779,0.126276,0.0156701,0.00151021,0.0558544,0.0969207,-155,-1090,-6.22984,-0.1,-141.897,-0.1,0.896
0.0553239,0.0531345,0.271002,0.126659,0.0157964,0.00138109,0.0559009,0.0965717,-158,-1092,-6.36375,-0.1,-142.3,-0.1,0.9
0.0553873,0.0531383,0.271226,0.127047,0.0159231,0.00123742,0.0559475,0.0967422,-161,-1089,-6.50016,-0.1,-142.703,-0.1,0.904
0.0554513,0.0531424,0.27145,0.127424,0.0160502,0.00117044,0.0559943,0.0958769,-164,-1096,-6.63915,-0.1,-143.103,-0.1,0.908
0.0555157,0.0531472,0.271674,0.1278,0.0161777,0.00118337,0.0560412,0.0952712,-165,-1101,-6.77997,-0.1,-143.508,-0.1,0.912
0.0555807,0.0531524,0.271898,0.128179,0.0163056,0.00122078,0.0560883,0.095069,-167,-1102,-6.92185,-0.1,-143.916,-0.1,0.916
0.0556462,0.0531586,0.272123,0.128559,0.0164338,0.00133209,0.0561354,0.0950781,-167,-1101,-7.06452,-0.1,-144.323,-0.1,0.92
0.0557122,0.0531656,0.272347,0.128941,0.0165624,0.00146388,0.0561827,0.0952282,-168,-1099,-7.20728,-0.1,-144.727,-0.1,0.924
0.0557787,0.0531735,0.272572,0.129325,0.0166914,0.00163811,0.0562302,0.0954434,-168,-1095,-7.34991,-0.1,-145.126,-0.1,0.928
0.0558457,0.0531818,0.272797,0.129709,0.0168208,0.00178305,0.0562777,0.0956444,-168,-1092,-7.49204,-0.1,-145.52,-0.1,0.932
0.0559133,0.0531904,0.273022,0.130091,0.0169505,0.00190848,0.0563254,0.0955769,-169,-1092,-7.63397,-0.1,-145.91,-0.1,0.936
0.0559813,0.0531987,0.273248,0.130473,0.0170806,0.0019633,0.0563732,0.0955895,-170,-1091,-7.77593,-0.1,-146.298,-0.1,0.94
0.0560499,0.053207,0.273473,0.130855,0.0172111,0.00199985,0.0564211,0.0955403,-172,-1090,-7.91858,-0.1,-146.683,-0.1,0.944
0.056119,0.0532139,0.273699,0.131238,0.0173419,0.00190905,0.0564692,0.0955939,-174,-1089,-8.0622,-0.1,-147.065,-0.1,0.948
0.0561886,0.0532208,0.273925,0.131618,0.0174731,0.00184852,0.0565174,0.0953993,-177,-1090,-8.20794,-0.1,-147.444,-0.1,0.952
0.0562588,0.053227,0.274151,0.132,0.0176047,0.00175058,0.0565657,0.0954423,-180,-1088,-8.35555,-0.1,-147.823,-0.1,0.956
0.0563295,0.0532319,0.274378,0.132384,0.0177366,0.00157013,0.0566141,0.0956149,-183,-1085,-8.50544,-0.1,-148.198,-0.1,0.96
0.0564007,0.0532367,0.274604,0.132768,0.0178689,0.00144983,0.0566627,0.09573,-186,-1083,-8.65834,-0.1,-148.568,-0.1,0.964
0.0564724,0.0532405,0.274831,0.133153,0.0180015,0.00128325,0.0567113,0.0959219,-190,-1080,-8.81371,-0.1,-148.935,-0.1,0.968
0.0565447,0.053244,0.275058,0.133536,0.0181345,0.00114341,0.0567601,0.0959058,-193,-1079,-8.97198,-0.1,-149.297,-0.1,0.972
0.0566175,0.0532474,0.275285,0.133923,0.0182679,0.00105018,0.056809,0.0961543,-196,-1076,-9.13287,-0.1,-149.657,-0.1,0.976
0.0566908,0.0532505,0.275512,0.134312,0.0184016,0.00095924,0.0568581,0.0964926,-198,-1072,-9.29594,-0.1,-150.011,-0.1,0.98
0.0567647,0.0532547,0.27574,0.134703,0.0185357,0.000984984,0.0569072,0.0969485,-200,-1066,-9.46109,-0.1,-150.359,-0.1,0.984
0.0568391,0.0532592,0.275968,0.135092,0.0186701,0.00103094,0.0569565,0.0970509,-202,-1064,-9.62722,-0.1,-150.7,-0.1,0.988
0.0569141,0.0532651,0.276196,0.135481,0.0188049,0.00117674,0.0570059,0.0971192,-202,-1062,-9.7941,-0.1,-151.038,-0.1,0.992
0.0569896,0.0532723,0.276424,0.135866,0.01894,0.0013891,0.0570554,0.0967904,-202,-1065,-9.96074,-0.1,-151.373,-0.1,0.996
0.0570656,0.0532813,0.276652,0.136247,0.0190755,0.00167463,0.057105,0.0963121,-201,-1068,-10.1265,-0.1,-151.708,-0.1,1
0.0571422,0.0532934,0.276881,0.136634,0.0192113,0.0021241,0.0571547,0.0964827,-199,-1065,-10.2905,-0.1,-152.045,-0.1,1.004
0.0572193,0.0533079,0.277109,0.137011,0.0193475,0.00262529,0.0572046,0.0956751,-196,-1072,-10.4514,-0.1,-152.379,-0.1,1.008
0.057297,0.0533255,0.277338,0.137387,0.019484,0.00321853,0.0572546,0.0951655,-192,-1076,-10.6084,-0.1,-152.718,-0.1,1.012
0.0573752,0.0533456,0.277567,0.137768,0.0196208,0.00381556,0.0573046,0.0952001,-188,-1075,-10.7608,-0.1,-153.059,-0.1,1.016
0.0574539,0.0533687,0.277797,0.138155,0.019758,0.0044727,0.0573548,0.0957126,-184,-1069,-10.9086,-0.1,-153.397,-0.1,1.02
0.0575332,0.0533939,0.278026,0.138535,0.0198956,0.00508354,0.0574051,0.0954784,-180,-1070,-11.0511,-0.1,-153.728,-0.1,1.024
0.0576131,0.0534195,0.278256,0.138915,0.0200334,0.00551955,0.0574556,0.0953223,-177,-1071,-11.1889,-0.1,-154.059,-0.1,1.028
0.0576935,0.0534475,0.278486,0.1393,0.0201717,0.00601177,0.0575061,0.0955925,-175,-1067,-11.3237,-0.1,-154.388,-0.1,1.032
0.0577745,0.0534768,0.278716,0.139687,0.0203102,0.00645507,0.0575568,0.0959454,-172,-1063,-11.455,-0.1,-154.713,-0.1,1.036
0.057856,0.0535066,0.278946,0.140073,0.0204491,0.0067794,0.0576075,0.0961518,-171,-1060,-11.5832,-0.1,-155.031,-0.1,1.04
0.0579381,0.053539,0.279177,0.140464,0.0205883,0.00722595,0.0576584,0.0966638,-168,-1054,-11.7095,-0.1,-155.345,-0.1,1.044
0.0580207,0.0535732,0.279407,0.140842,0.0207278,0.0076676,0.0577093,0.0959974,-166,-1059,-11.8326,-0.1,-155.652,-0.1,1.048
0.0581039,0.0536112,0.279638,0.141221,0.0208677,0.00827874,0.0577604,0.0955819,-162,-1062,-11.9526,-0.1,-155.963,-0.1,1.052
0.0581876,0.053651,0.27987,0.141597,0.0210079,0.00883011,0.0578116,0.0950746,-158,-1066,-12.0678,-0.1,-156.276,-0.1,1.056
0.0582719,0.0536942,0.280101,0.141973,0.0211484,0.00948561,0.0578629,0.09465,-154,-1069,-12.1789,-0.1,-156.591,-0.1,1.06
0.0583568,0.053738,0.280332,0.142336,0.0212893,0.00998019,0.0579143,0.093388,-151,-1081,-12.2849,-0.1,-156.909,-0.1,1.064
0.0584423,0.0537854,0.280564,0.142709,0.0214304,0.0105978,0.0579659,0.0932953,-147,-1081,-12.3872,-0.1,-157.237,-0.1,1.068
0.0585283,0.0538365,0.280796,0.143077,0.0215719,0.0113263,0.0580175,0.0928592,-142,-1084,-12.4847,-0.1,-157.563,-0.1,1.072
0.0586148,0.0538914,0.281028,0.143447,0.0217137,0.0121286,0.0580692,0.0927412,-136,-1084,-12.5763,-0.1,-157.891,-0.1,1.076
0.058702,0.0539505,0.281261,0.143817,0.0218559,0.013009,0.058121,0.0926914,-129,-1084,-12.6612,-0.1,-158.218,-0.1,1.08
0.0587897,0.054013,0.281493,0.144183,0.0219983,0.0138838,0.058173,0.0923126,-122,-1087,-12.7388,-0.1,-158.544,-0.1,1.084
0.058878,0.054079,0.281726,0.144552,0.0221411,0.0147549,0.058225,0.0922617,-115,-1087,-12.8091,-0.1,-158.871,-0.1,1.088
0.0589668,0.0541488,0.281959,0.144922,0.0222842,0.0156524,0.0582771,0.0923429,-108,-1085,-12.872,-0.1,-159.196,-0.1,1.092
0.0590562,0.0542207,0.282192,0.145281,0.0224276,0.0164234,0.0583294,0.0915333,-103,-1092,-12.9276,-0.1,-159.518,-0.1,1.096
0.0591462,0.0542974,0.282426,0.145643,0.0225713,0.0173405,0.0583817,0.0911663,-95,-1095,-12.9768,-0.1,-159.846,-0.1,1.1
0.0592368,0.0543772,0.282659,0.146005,0.0227153,0.0182111,0.0584342,0.0908928,-89,-1097,-13.0183,-0.1,-160.176,-0.1,1.104
0.059328,0.0544598,0.282893,0.146366,0.0228596,0.0190217,0.0584867,0.0907105,-82,-1098,-13.0527,-0.1,-160.505,-0.1,1.108
0.0594197,0.0545406,0.283127,0.146712,0.0230043,0.0194182,0.0585394,0.0893222,-80,-1111,-13.0807,-0.1,-160.836,-0.1,1.112
0.059512,0.0546266,0.283362,0.147061,0.0231492,0.0201144,0.0585921,0.0886557,-75,-1116,-13.106,-0.1,-161.177,-0.1,1.116
0.0596049,0.0547154,0.283596,0.147413,0.0232945,0.0208089,0.058645,0.0883842,-70,-1118,-13.1258,-0.1,-161.523,-0.1,1.12
0.0596983,0.0548042,0.283831,0.147761,0.02344,0.0212719,0.0586979,0.0879153,-67,-1122,-13.1404,-0.1,-161.869,-0.1,1.124
0.0597924,0.054894,0.284066,0.148113,0.0235859,0.0216669,0.0587509,0.0879769,-65,-1121,-13.1518,-0.1,-162.218,-0.1,1.128
0.059887,0.0549859,0.284301,0.148467,0.023732,0.022103,0.0588041,0.088162,-62,-1119,-13.1608,-0.1,-162.564,-0.1,1.132
0.0599822,0.055081,0.284536,0.148825,0.0238785,0.0226528,0.0588573,0.0885733,-58,-1114,-13.1668,-0.1,-162.905,-0.1,1.136
0.0600781,0.0551753,0.284772,0.149183,0.0240253,0.0229618,0.0589107,0.0888762,-56,-1110,-13.169,-0.1,-163.241,-0.1,1.14
0.0601745,0.0552699,0.285007,0.149541,0.0241723,0.0231966,0.0589641,0.0891358,-56,-1107,-13.1697,-0.1,-163.571,-0.1,1.144
0.0602714,0.0553663,0.285243,0.149899,0.0243197,0.0234971,0.0590176,0.0891937,-54,-1106,-13.1694,-0.1,-163.896,-0.1,1.148
0.060369,0.0554634,0.285479,0.150254,0.0244673,0.023755,0.0590712,0.0891171,-53,-1106,-13.1677,-0.1,-164.219,-0.1,1.152
0.0604672,0.0555602,0.285716,0.150608,0.0246152,0.0238981,0.0591249,0.0888357,-53,-1108,-13.165,-0.1,-164.541,-0.1,1.156
0.0605659,0.0556583,0.285952,0.150959,0.0247635,0.0241087,0.0591787,0.0884754,-53,-1111,-13.1623,-0.1,-164.864,-0.1,1.16
0.0606653,0.0557581,0.286189,0.151306,0.024912,0.024393,0.0592326,0.0879185,-51,-1116,-13.159,-0.1,-165.188,-0.1,1.164
0.0607652,0.0558576,0.286426,0.151653,0.0250608,0.0245538,0.0592866,0.0875184,-51,-1119,-13.1544,-0.1,-165.516,-0.1,1.168
0.0608658,0.0559582,0.286664,0.152004,0.0252099,0.0247474,0.0593407,0.0876548,-51,-1117,-13.1497,-0.1,-165.845,-0.1,1.172
0.0609669,0.056059,0.286901,0.152351,0.0253593,0.0249052,0.0593948,0.087285,-51,-1120,-13.1446,-0.1,-166.171,-0.1,1.176
0.0610686,0.056161,0.287139,0.152697,0.0255089,0.0250968,0.0594491,0.0870673,-50,-1122,-13.1394,-0.1,-166.499,-0.1,1.18
0.061171,0.0562625,0.287377,0.153049,0.0256589,0.0251957,0.0595035,0.0873828,-51,-1118,-13.1339,-0.1,-166.827,-0.1,1.184
0.0612739,0.0563651,0.287615,0.153404,0.0258091,0.0253481,0.0595579,0.0877947,-51,-1114,-13.1289,-0.1,-167.149,-0.1,1.188
0.0613775,0.0564722,0.287853,0.153769,0.0259596,0.0258239,0.0596124,0.0889618,-48,-1102,-13.1236,-0.1,-167.465,-0.1,1.192
0.0614816,0.0565762,0.288092,0.154125,0.0261104,0.025882,0.059667,0.0889913,-49,-1101,-13.1155,-0.1,-167.768,-0.1,1.196
0.0615863,0.0566823,0.28833,0.154496,0.0262615,0.0260935,0.0597217,0.0902202,-48,-1088,-13.1082,-0.1,-168.068,-0.1,1.2
0.0616917,0.0567873,0.288569,0.154858,0.0264128,0.0261481,0.0597765,0.0903485,-49,-1086,-13.1004,-0.1,-168.354,-0.1,1.204
0.0617976,0.0568937,0.288809,0.155227,0.0265644,0.0262997,0.0598314,0.0910098,-49,-1079,-13.0935,-0.1,-168.637,-0.1,1.208
0.0619042,0.0570002,0.289048,0.155595,0.0267163,0.0264007,0.0598863,0.0913068,-49,-1076,-13.0866,-0.1,-168.911,-0.1,1.212
0.0620114,0.0571086,0.289288,0.155964,0.0268685,0.0266408,0.0599414,0.0915911,-48,-1072,-13.0802,-0.1,-169.18,-0.1,1.216
0.0621191,0.0572178,0.289528,0.156332,0.0270209,0.0268585,0.0599965,0.0917519,-48,-1070,-13.073,-0.1,-169.445,-0.1,1.22
0.0622275,0.0573263,0.289768,0.156702,0.0271736,0.026946,0.0600517,0.0919742,-48,-1067,-13.0652,-0.1,-169.706,-0.1,1.224
0.0623365,0.0574351,0.290008,0.157068,0.0273266,0.0270331,0.060107,0.0918345,-49,-1068,-13.0581,-0.1,-169.964,-0.1,1.228
0.0624461,0.0575464,0.290249,0.15743,0.0274798,0.0272928,0.0601624,0.0913671,-48,-1072,-13.0516,-0.1,-170.221,-0.1,1.232
0.0625564,0.0576566,0.290489,0.157785,0.0276333,0.0273795,0.0602179,0.0905085,-49,-1079,-13.0441,-0.1,-170.481,-0.1,1.236
0.0626672,0.0577692,0.29073,0.158144,0.0277871,0.0276388,0.0602734,0.0903103,-48,-1081,-13.0372,-0.1,-170.748,-0.1,1.24
0.0627787,0.0578815,0.290972,0.158491,0.0279411,0.0277829,0.060329,0.0890554,-48,-1092,-13.0293,-0.1,-171.015,-0.1,1.244
0.0628907,0.0579938,0.291213,0.158836,0.0280954,0.027879,0.0603847,0.08819,-48,-1100,-13.0216,-0.1,-171.293,-0.1,1.248
0.0630034,0.0581061,0.291455,0.159186,0.0282499,0.0279431,0.0604405,0.0879297,-49,-1102,-13.0145,-0.1,-171.578,-0.1,1.252
0.0631167,0.0582201,0.291696,0.159536,0.0284047,0.0281297,0.0604964,0.0878138,-49,-1103,-13.0083,-0.1,-171.863,-0.1,1.256
0.0632307,0.0583348,0.291939,0.159885,0.0285598,0.0283117,0.0605523,0.0875638,-49,-1105,-13.0017,-0.1,-172.148,-0.1,1.26
0.0633452,0.0584495,0.292181,0.160233,0.0287151,0.0284331,0.0606083,0.0873971,-49,-1106,-12.995,-0.1,-172.433,-0.1,1.264
0.0634604,0.0585666,0.292423,0.16058,0.0288707,0.0287155,0.0606644,0.0871996,-48,-1107,-12.9884,-0.1,-172.718,-0.1,1.268
0.0635762,0.0586844,0.292666,0.160929,0.0290265,0.0289614,0.0607206,0.0872407,-47,-1106,-12.9807,-0.1,-173.004,-0.1,1.272
0.0636926,0.0588009,0.292909,0.161278,0.0291826,0.0290101,0.0607768,0.0871817,-48,-1106,-12.9723,-0.1,-173.287,-0.1,1.276
0.0638097,0.0589207,0.293152,0.161629,0.0293389,0.0293305,0.0608332,0.0873727,-46,-1104,-12.9647,-0.1,-173.569,-0.1,1.28
0.0639273,0.0590396,0.293396,0.161978,0.0294955,0.0294578,0.0608896,0.0873849,-46,-1103,-12.9557,-0.1,-173.847,-0.1,1.284
0.0640456,0.0591567,0.29364,0.162329,0.0296523,0.0293986,0.060946,0.0874794,-48,-1102,-12.9471,-0.1,-174.124,-0.1,1.288
0.0641645,0.0592783,0.293883,0.16268,0.0298094,0.0297335,0.0610026,0.0875712,-47,-1101,-12.9404,-0.1,-174.398,-0.1,1.292
0.0642841,0.0593992,0.294128,0.163029,0.0299667,0.0298992,0.0610592,0.0874596,-47,-1101,-12.932,-0.1,-174.669,-0.1,1.296
0.0644043,0.0595181,0.294372,0.163378,0.0301242,0.0298368,0.0611159,0.0873852,-49,-1102,-12.9238,-0.1,-174.94,-0.1,1.3
0.0645251,0.0596397,0.294616,0.163731,0.030282,0.0300256,0.0611727,0.0876812,-48,-1098,-12.9176,-0.1,-175.209,-0.1,1.304
0.0646465,0.0597613,0.294861,0.164085,0.0304401,0.0301515,0.0612295,0.0879648,-49,-1095,-12.9111,-0.1,-175.474,-0.1,1.308
0.0647686,0.0598822,0.295106,0.164434,0.0305984,0.0301778,0.0612864,0.087722,-50,-1097,-12.9051,-0.1,-175.735,-0.1,1.312
0.0648913,0.060008,0.295352,0.164788,0.0307569,0.0305984,0.0613434,0.0879633,-47,-1094,-12.9001,-0.1,-175.996,-0.1,1.316
0.0650147,0.0601289,0.295597,0.165126,0.0309156,0.0304758,0.0614004,0.0867997,-50,-1105,-12.8928,-0.1,-176.254,-0.1,1.32
0.0651386,0.060253,0.295843,0.165465,0.0310746,0.0306531,0.0614576,0.0861104,-50,-1111,-12.8882,-0.1,-176.522,-0.1,1.324
0.0652633,0.0603777,0.296089,0.165797,0.0312339,0.0308289,0.0615148,0.0851038,-50,-1120,-12.8834,-0.1,-176.795,-0.1,1.328
0.0653885,0.0605021,0.296335,0.166128,0.0313933,0.0309174,0.061572,0.0843176,-50,-1128,-12.8785,-0.1,-177.077,-0.1,1.332
0.0655144,0.0606268,0.296581,0.166459,0.031553,0.0310051,0.0616293,0.0838222,-51,-1132,-12.8744,-0.1,-177.365,-0.1,1.336
0.0656409,0.060757,0.296828,0.166796,0.0317129,0.0315242,0.0616867,0.0839526,-48,-1131,-12.8707,-0.1,-177.656,-0.1,1.34
0.0657681,0.0609194,0.297075,0.167225,0.0318731,0.0345479,0.0617442,0.0916692,-20,-1055,-12.8618,-0.1,-177.939,-0.1,1.344
0.0658959,0.0610079,0.297322,0.167462,0.0320335,0.0304024,0.0618017,0.0808633,-61,-1160,-12.8294,-0.1,-178.155,-0.1,1.348
0.0660244,0.061135,0.297569,0.1678,0.0321941,0.0308633,0.0618593,0.0820952,-59,-1148,-12.8364,-0.1,-178.47,-0.1,1.352
0.0661535,0.0612614,0.297817,0.168143,0.0323549,0.031113,0.061917,0.0832907,-58,-1136,-12.8407,-0.1,-178.771,-0.1,1.356
0.0662832,0.061391,0.298065,0.168492,0.0325159,0.0315386,0.0619747,0.084606,-55,-1123,-12.844,-0.1,-179.058,-0.1,1.36
0.0664136,0.0615216,0.298313,0.168843,0.0326772,0.0319087,0.0620325,0.0857132,-53,-1112,-12.8447,-0.1,-179.331,-0.1,1.364
0.0665446,0.0616508,0.298561,0.169194,0.0328387,0.0320403,0.0620903,0.0863649,-54,-1105,-12.8436,-0.1,-179.592,-0.1,1.368
0.0666763,0.0617831,0.298809,0.169545,0.0330004,0.0323871,0.0621482,0.086857,-52,-1100,-12.8426,-0.1,-179.844,-0.1,1.372
0.0668086,0.0619155,0.299058,0.169898,0.0331623,0.0326183,0.0622062,0.0873002,-51,-1095,-12.8398,-0.1,-180.09,-0.1,1.376
0.0669416,0.0620478,0.299307,0.170254,0.0333245,0.0327725,0.0622643,0.0878548,-51,-1089,-12.8365,-0.1,-180.33,-0.1,1.38
0.0670752,0.0621832,0.299556,0.170607,0.0334869,0.0331344,0.0623224,0.088023,-49,-1087,-12.833,-0.1,-180.564,-0.1,1.384
0.0672095,0.0623162,0.299806,0.170961,0.0336494,0.0331741,0.0623805,0.0881351,-50,-1086,-12.8279,-0.1,-180.794,-0.1,1.388
0.0673444,0.0624506,0.300055,0.171312,0.0338122,0.0333157,0.0624387,0.0880371,-51,-1086,-12.8239,-0.1,-181.022,-0.1,1.392
0.06748,0.0625847,0.300305,0.171661,0.0339752,0.0333814,0.062497,0.0877702,-52,-1088,-12.8202,-0.1,-181.249,-0.1,1.396
0.0676162,0.0627198,0.300555,0.17201,0.0341385,0.0335115,0.0625554,0.0876211,-52,-1089,-12.8174,-0.1,-181.477,-0.1,1.4
0.0677531,0.0628559,0.300805,0.172359,0.0343019,0.0336846,0.0626138,0.0874641,-52,-1091,-12.8149,-0.1,-181.706,-0.1,1.404
0.0678906,0.0629934,0.301056,0.172715,0.0344655,0.0339152,0.0626722,0.0879641,-51,-1085,-12.8124,-0.1,-181.934,-0.1,1.408
0.0680288,0.0631295,0.301307,0.173065,0.0346294,0.0339538,0.0627307,0.0878367,-52,-1086,-12.8092,-0.1,-182.157,-0.1,1.412
0.0681677,0.0632677,0.301558,0.173416,0.0347934,0.0341522,0.0627893,0.0878382,-52,-1086,-12.8073,-0.1,-182.379,-0.1,1.416
0.0683072,0.0634045,0.301809,0.173766,0.0349576,0.0341693,0.0628479,0.087724,-53,-1086,-12.8051,-0.1,-182.6,-0.1,1.42
0.0684473,0.0635448,0.302061,0.174113,0.0351221,0.0344687,0.0629066,0.0873887,-52,-1089,-12.8042,-0.1,-182.82,-0.1,1.424
0.0685882,0.0636854,0.302312,0.174458,0.0352867,0.034697,0.0629654,0.0869637,-52,-1093,-12.802,-0.1,-183.043,-0.1,1.428
0.0687296,0.0638257,0.302564,0.1748,0.0354516,0.0348205,0.0630242,0.0865076,-52,-1097,-12.7993,-0.1,-183.269,-0.1,1.432
0.0688718,0.0639673,0.302817,0.175147,0.0356167,0.0350179,0.063083,0.0865778,-52,-1096,-12.7969,-0.1,-183.497,-0.1,1.436
0.0690146,0.0641079,0.303069,0.175491,0.0357819,0.0350632,0.0631419,0.0863655,-53,-1098,-12.7944,-0.1,-183.724,-0.1,1.44
0.069158,0.064252,0.303322,0.175837,0.0359473,0.0353813,0.0632009,0.0864255,-51,-1097,-12.7929,-0.1,-183.951,-0.1,1.444
0.0693021,0.0643944,0.303575,0.176182,0.036113,0.0354494,0.0632599,0.0863791,-52,-1097,-12.79,-0.1,-184.176,-0.1,1.448
0.0694469,0.064537,0.303828,0.176526,0.0362788,0.0355236,0.0633189,0.0862619,-53,-1098,-12.7881,-0.1,-184.401,-0.1,1.452
0.0695924,0.0646832,0.304081,0.176869,0.0364448,0.0358609,0.0633781,0.0860973,-52,-1099,-12.7869,-0.1,-184.625,-0.1,1.456
0.0697385,0.064829,0.304335,0.177216,0.0366111,0.0360571,0.0634372,0.0862467,-51,-1097,-12.7842,-0.1,-184.85,-0.1,1.46
0.0698853,0.064971,0.304589,0.177544,0.0367775,0.0358711,0.0634964,0.0848492,-55,-1111,-12.7814,-0.1,-185.073,-0.1,1.464
0.0700327,0.0651161,0.304843,0.177881,0.0369441,0.0360063,0.0635557,0.0846373,-55,-1112,-12.7819,-0.1,-185.307,-0.1,1.468
0.0701808,0.0652633,0.305097,0.178222,0.0371109,0.0362691,0.063615,0.0848415,-54,-1110,-12.7827,-0.1,-185.543,-0.1,1.472
0.0703296,0.0654111,0.305352,0.178563,0.0372778,0.0365019,0.0636744,0.0849776,-53,-1109,-12.7825,-0.1,-185.775,-0.1,1.476
0.070479,0.0655569,0.305607,0.178896,0.037445,0.0364844,0.0637338,0.084435,-55,-1114,-12.7818,-0.1,-186.005,-0.1,1.48
0.0706292,0.0657052,0.305862,0.179228,0.0376123,0.0366742,0.0637933,0.0839869,-55,-1118,-12.7829,-0.1,-186.239,-0.1,1.484
0.0707799,0.0658523,0.306117,0.179561,0.0377798,0.0367144,0.0638528,0.0837457,-56,-1120,-12.7838,-0.1,-186.476,-0.1,1.488
0.0709314,0.0660023,0.306372,0.179898,0.0379475,0.0369715,0.0639123,0.0838728,-55,-1118,-12.7858,-0.1,-186.714,-0.1,1.492
0.0710835,0.0661533,0.306628,0.180238,0.0381154,0.0372293,0.0639719,0.0842455,-54,-1115,-12.787,-0.1,-186.949,-0.1,1.496
0.0712363,0.0663032,0.306884,0.180577,0.0382835,0.0373148,0.0640316,0.0844076,-55,-1113,-12.7874,-0.1,-187.179,-0.1,1.5
0.0713898,0.0664566,0.30714,0.180918,0.0384517,0.0376597,0.0640913,0.0847171,-54,-1110,-12.7885,-0.1,-187.407,-0.1,1.504
0.0715439,0.0666086,0.307397,0.181263,0.0386201,0.0377745,0.064151,0.0852114,-54,-1105,-12.788,-0.1,-187.63,-0.1,1.508
0.0716988,0.0667606,0.307654,0.181602,0.0387887,0.037851,0.0642108,0.0850803,-55,-1106,-12.788,-0.1,-187.847,-0.1,1.512
0.0718542,0.0669137,0.307911,0.181944,0.0389575,0.0379884,0.0642706,0.0851944,-55,-1104,-12.7889,-0.1,-188.064,-0.1,1.516
0.0720104,0.0670685,0.308168,0.182284,0.0391264,0.0382239,0.0643305,0.0851553,-55,-1104,-12.7901,-0.1,-188.279,-0.1,1.52
0.0721673,0.0672236,0.308425,0.182627,0.0392955,0.0384097,0.0643904,0.085302,-55,-1103,-12.7907,-0.1,-188.493,-0.1,1.524
0.0723248,0.0673777,0.308683,0.182964,0.0394648,0.0384472,0.0644503,0.0850256,-56,-1105,-12.7912,-0.1,-188.705,-0.1,1.528
0.072483,0.0675342,0.308941,0.183304,0.0396342,0.0386738,0.0645103,0.0849564,-55,-1106,-12.7929,-0.1,-188.918,-0.1,1.532
0.0726419,0.067689,0.309199,0.183646,0.0398038,0.0386809,0.0645704,0.0851406,-57,-1104,-12.7942,-0.1,-189.131,-0.1,1.536
0.0728014,0.0678482,0.309457,0.183991,0.0399736,0.0390599,0.0646304,0.0855513,-55,-1099,-12.7968,-0.1,-189.34,-0.1,1.54
0.0729616,0.0680047,0.309716,0.184339,0.0401435,0.0390822,0.0646906,0.0859979,-56,-1095,-12.7976,-0.1,-189.544,-0.1,1.544
0.0731226,0.0681633,0.309975,0.184688,0.0403136,0.0392698,0.0647507,0.0864396,-56,-1090,-12.7998,-0.1,-189.743,-0.1,1.548
0.0732841,0.0683219,0.310234,0.185038,0.0404839,0.0393949,0.0648109,0.0867916,-57,-1087,-12.8019,-0.1,-189.936,-0.1,1.552
0.0734464,0.0684846,0.310493,0.18539,0.0406543,0.0398238,0.0648711,0.087199,-54,-1082,-12.8042,-0.1,-190.124,-0.1,1.556
0.0736094,0.0686453,0.310753,0.185737,0.0408249,0.039937,0.0649314,0.08701,-55,-1084,-12.8041,-0.1,-190.307,-0.1,1.56
0.073773,0.0688032,0.311013,0.186075,0.0409956,0.0397821,0.0649917,0.0861642,-58,-1092,-12.8049,-0.1,-190.492,-0.1,1.564
0.0739373,0.0689642,0.311273,0.18642,0.0411665,0.039938,0.0650521,0.0862337,-58,-1091,-12.8086,-0.1,-190.684,-0.1,1.568
0.0741024,0.0691252,0.311533,0.186766,0.0413376,0.0400419,0.0651125,0.0863089,-59,-1090,-12.8125,-0.1,-190.873,-0.1,1.572
0.0742681,0.0692886,0.311794,0.187112,0.0415088,0.0403127,0.0651729,0.0864165,-58,-1089,-12.817,-0.1,-191.061,-0.1,1.576
0.0744344,0.0694513,0.312055,0.187459,0.0416801,0.0404357,0.0652333,0.0865171,-58,-1088,-12.8206,-0.1,-191.247,-0.1,1.58
0.0746015,0.0696154,0.312316,0.187804,0.0418517,0.0406328,0.0652938,0.0863826,-58,-1089,-12.8246,-0.1,-191.431,-0.1,1.584
0.0747692,0.0697813,0.312577,0.18815,0.0420233,0.0409082,0.0653544,0.0864657,-57,-1088,-12.8283,-0.1,-191.615,-0.1,1.588
0.0749377,0.0699478,0.312839,0.188493,0.0421951,0.0411493,0.0654149,0.0862332,-56,-1090,-12.8311,-0.1,-191.797,-0.1,1.592
0.0751068,0.0701102,0.3131,0.188833,0.0423671,0.0409646,0.0654755,0.0857903,-60,-1094,-12.8334,-0.1,-191.981,-0.1,1.596
0.0752766,0.0702777,0.313362,0.189183,0.0425392,0.0412734,0.0655361,0.0863299,-58,-1088,-12.8389,-0.1,-192.167,-0.1,1.6
0.0754471,0.070447,0.313625,0.189536,0.0427115,0.0416231,0.0655968,0.0870064,-57,-1081,-12.8431,-0.1,-192.347,-0.1,1.604
0.0756183,0.0706135,0.313887,0.189883,0.0428839,0.041626,0.0656575,0.0869391,-58,-1082,-12.8458,-0.1,-192.52,-0.1,1.608
0.0757902,0.0707815,0.31415,0.19023,0.0430564,0.041743,0.0657182,0.0868655,-59,-1082,-12.85,-0.1,-192.692,-0.1,1.612
0.0759628,0.0709504,0.314413,0.190578,0.0432291,0.0419075,0.0657789,0.086874,-59,-1082,-12.8548,-0.1,-192.864,-0.1,1.616
0.076136,0.0711193,0.314676,0.190923,0.0434019,0.0420171,0.0658397,0.0866494,-60,-1084,-12.8597,-0.1,-193.035,-0.1,1.62
0.07631,0.0712914,0.31494,0.19127,0.0435749,0.0423493,0.0659005,0.0867011,-58,-1083,-12.865,-0.1,-193.207,-0.1,1.624
0.0764846,0.0714638,0.315203,0.191616,0.043748,0.0425995,0.0659614,0.086678,-58,-1083,-12.8689,-0.1,-193.378,-0.1,1.628
0.07666,0.0716362,0.315467,0.191962,0.0439212,0.0427663,0.0660223,0.0866051,-58,-1084,-12.8721,-0.1,-193.548,-0.1,1.632
0.076836,0.0718093,0.315732,0.192308,0.0440946,0.0429351,0.0660832,0.0865852,-58,-1084,-12.8753,-0.1,-193.718,-0.1,1.636
0.0770127,0.0719824,0.315996,0.192653,0.0442681,0.0430477,0.0661441,0.086428,-58,-1085,-12.8787,-0.1,-193.887,-0.1,1.64
0.0771901,0.07216,0.316261,0.192997,0.0444418,0.043497,0.066205,0.0863232,-56,-1086,-12.8824,-0.1,-194.056,-0.1,1.644
0.0773682,0.0723337,0.316526,0.193332,0.0446156,0.0434798,0.066266,0.0854184,-58,-1094,-12.8837,-0.1,-194.226,-0.1,1.648
0.0775471,0.0725093,0.316791,0.193664,0.0447895,0.0436123,0.066327,0.0846425,-58,-1102,-12.8868,-0.1,-194.405,-0.1,1.652
0.0777266,0.0726906,0.317056,0.194004,0.0449635,0.0441901,0.066388,0.0847586,-54,-1101,-12.89,-0.1,-194.589,-0.1,1.656
0.0779068,0.0728699,0.317322,0.194334,0.0451377,0.0444026,0.0664491,0.0839723,-54,-1108,-12.8895,-0.1,-194.772,-0.1,1.66
0.0780877,0.0730451,0.317588,0.194652,0.045312,0.0441987,0.0665102,0.0825555,-57,-1122,-12.8889,-0.1,-194.963,-0.1,1.664
0.0782693,0.0732217,0.317854,0.194972,0.0454864,0.044178,0.0665713,0.0816974,-59,-1130,-12.8919,-0.1,-195.166,-0.1,1.668
0.0784516,0.0734003,0.31812,0.195297,0.0456609,0.0443369,0.0666324,0.0815284,-59,-1132,-12.8967,-0.1,-195.377,-0.1,1.672
0.0786346,0.0735813,0.318387,0.195626,0.0458356,0.0446444,0.0666936,0.0817324,-58,-1130,-12.9016,-0.1,-195.588,-0.1,1.676
0.0788182,0.0737613,0.318654,0.195955,0.0460104,0.044763,0.0667548,0.0819548,-59,-1128,-12.9053,-0.1,-195.797,-0.1,1.68
0.0790026,0.0739417,0.318921,0.196289,0.0461853,0.0448709,0.066816,0.0824198,-59,-1123,-12.9095,-0.1,-196.001,-0.1,1.684
0.0791877,0.0741244,0.319188,0.196622,0.0463604,0.0451443,0.0668772,0.0827298,-58,-1120,-12.9144,-0.1,-196.201,-0.1,1.688
0.0793735,0.0743068,0.319456,0.196958,0.0465355,0.0452978,0.0669384,0.0831668,-59,-1116,-12.9183,-0.1,-196.396,-0.1,1.692
0.07956,0.0744906,0.319724,0.197297,0.0467108,0.0455153,0.0669997,0.0836596,-58,-1111,-12.9224,-0.1,-196.586,-0.1,1.696
0.0797472,0.0746762,0.319992,0.197642,0.0468862,0.0458043,0.067061,0.0845352,-57,-1102,-12.9261,-0.1,-196.77,-0.1,1.7
0.0799351,0.0748596,0.32026,0.197983,0.0470617,0.0458242,0.0671223,0.0847447,-59,-1100,-12.9288,-0.1,-196.945,-0.1,1.704
0.0801237,0.0750462,0.320529,0.19833,0.0472373,0.0460965,0.0671836,0.0854313,-58,-1094,-12.9329,-0.1,-197.116,-0.1,1.708
0.080313,0.0752307,0.320798,0.198669,0.0474131,0.0461054,0.0672449,0.0851981,-59,-1096,-12.9362,-0.1,-197.281,-0.1,1.712
0.080503,0.0754162,0.321067,0.199009,0.0475889,0.0461976,0.0673063,0.0851866,-60,-1096,-12.9411,-0.1,-197.446,-0.1,1.716
0.0806937,0.0756049,0.321336,0.199347,0.0477649,0.0465183,0.0673677,0.0849198,-59,-1098,-12.9466,-0.1,-197.612,-0.1,1.72
0.0808851,0.075789,0.321606,0.199683,0.0479409,0.0463577,0.0674291,0.0846268,-62,-1101,-12.9511,-0.1,-197.779,-0.1,1.724
0.0810772,0.0759776,0.321876,0.20002,0.0481171,0.046625,0.0674905,0.0845178,-61,-1102,-12.9586,-0.1,-197.948,-0.1,1.728
0.0812701,0.0761632,0.322146,0.20036,0.0482934,0.0465441,0.0675519,0.0846467,-64,-1101,-12.9654,-0.1,-198.117,-0.1,1.732
0.0814636,0.0763525,0.322416,0.2007,0.0484698,0.0468068,0.0676134,0.0847614,-63,-1099,-12.9745,-0.1,-198.284,-0.1,1.736
0.0816578,0.0765398,0.322687,0.201042,0.0486463,0.0468092,0.0676748,0.0849818,-65,-1097,-12.9829,-0.1,-198.449,-0.1,1.74
0.0818528,0.0767277,0.322958,0.201382,0.0488229,0.0468684,0.0677363,0.0850424,-66,-1097,-12.993,-0.1,-198.611,-0.1,1.744
0.0820484,0.0769167,0.323229,0.201721,0.0489996,0.0469942,0.0677978,0.0848812,-66,-1098,-13.0042,-0.1,-198.772,-0.1,1.748
0.0822448,0.0771108,0.3235,0.202066,0.0491764,0.04751,0.0678593,0.0854072,-63,-1093,-13.0157,-0.1,-198.933,-0.1,1.752
0.0824418,0.0772974,0.323772,0.202398,0.0493533,0.0472204,0.0679208,0.0845774,-68,-1101,-13.0243,-0.1,-199.089,-0.1,1.756
0.0826396,0.077494,0.324043,0.202748,0.0495303,0.0478623,0.0679823,0.085579,-63,-1091,-13.0369,-0.1,-199.251,-0.1,1.76
0.0828381,0.0776799,0.324315,0.20308,0.0497074,0.0473977,0.0680439,0.0846631,-69,-1100,-13.0457,-0.1,-199.404,-0.1,1.764
0.0830372,0.0778723,0.324588,0.203423,0.0498846,0.047635,0.0681054,0.0850603,-69,-1096,-13.0603,-0.1,-199.565,-0.1,1.768
0.0832371,0.0780641,0.32486,0.203764,0.0500619,0.0477357,0.068167,0.0851235,-70,-1095,-13.0744,-0.1,-199.721,-0.1,1.772
0.0834377,0.0782555,0.325133,0.204104,0.0502392,0.0477739,0.0682286,0.0851081,-71,-1095,-13.0892,-0.1,-199.875,-0.1,1.776
0.083639,0.07845,0.325406,0.204444,0.0504167,0.0480586,0.0682902,0.085069,-70,-1096,-13.1053,-0.1,-200.029,-0.1,1.78
0.0838411,0.0786414,0.325679,0.204783,0.0505943,0.0479892,0.0683518,0.0849565,-72,-1097,-13.1205,-0.1,-200.183,-0.1,1.784
0.0840438,0.0788369,0.325953,0.205121,0.0507719,0.0482885,0.0684134,0.0847952,-71,-1098,-13.1379,-0.1,-200.337,-0.1,1.788
0.0842472,0.0790294,0.326227,0.20546,0.0509497,0.0482289,0.068475,0.0847453,-74,-1099,-13.1544,-0.1,-200.492,-0.1,1.792
0.0844514,0.0792259,0.326501,0.205799,0.0511275,0.0485346,0.0685366,0.0847407,-73,-1099,-13.1729,-0.1,-200.647,-0.1,1.796
0.0846563,0.0794205,0.326775,0.20614,0.0513055,0.0485657,0.0685982,0.0849393,-74,-1097,-13.1903,-0.1,-200.801,-0.1,1.8
0.0848618,0.0796181,0.32705,0.206484,0.0514835,0.0488455,0.0686599,0.0853307,-73,-1093,-13.209,-0.1,-200.952,-0.1,1.804
0.0850681,0.0798157,0.327324,0.206828,0.0516616,0.0490321,0.0687215,0.0854765,-73,-1091,-13.2268,-0.1,-201.098,-0.1,1.808
0.0852751,0.0800116,0.327599,0.20717,0.0518398,0.0490125,0.0687832,0.0854874,-75,-1091,-13.2446,-0.1,-201.243,-0.1,1.812
0.0854828,0.0802102,0.327875,0.207513,0.052018,0.0492298,0.0688449,0.0856098,-75,-1090,-13.2642,-0.1,-201.386,-0.1,1.816
0.0856913,0.0804079,0.32815,0.207855,0.0521964,0.0492883,0.0689065,0.085605,-76,-1090,-13.2835,-0.1,-201.528,-0.1,1.82
0.0859004,0.0806083,0.328426,0.208196,0.0523748,0.0495576,0.0689682,0.0854578,-75,-1091,-13.3038,-0.1,-201.67,-0.1,1.824
0.0861103,0.0808076,0.328702,0.208536,0.0525533,0.0496508,0.0690299,0.0852734,-76,-1093,-13.3234,-0.1,-201.812,-0.1,1.828
0.0863208,0.0810073,0.328978,0.208873,0.0527319,0.0497417,0.0690916,0.0849489,-77,-1096,-13.3437,-0.1,-201.955,-0.1,1.832
0.0865321,0.081208,0.329255,0.209208,0.0529105,0.0498886,0.0691532,0.0845886,-77,-1100,-13.3649,-0.1,-202.101,-0.1,1.836
0.0867441,0.0814063,0.329531,0.209541,0.0530893,0.0497851,0.0692149,0.0840892,-80,-1104,-13.3865,-0.1,-202.25,-0.1,1.84
0.0869568,0.0816074,0.329808,0.209874,0.0532681,0.0499464,0.0692766,0.0838715,-80,-1107,-13.4107,-0.1,-202.403,-0.1,1.844
0.0871703,0.0818043,0.330085,0.210203,0.053447,0.0497084,0.0693383,0.0832657,-84,-1113,-13.4354,-0.1,-202.559,-0.1,1.848
0.0873844,0.0820058,0.330363,0.210535,0.0536259,0.049924,0.0694,0.0832361,-84,-1113,-13.4637,-0.1,-202.719,-0.1,1.852
0.0875993,0.0821992,0.330641,0.210856,0.053805,0.0494056,0.0694617,0.0822375,-91,-1123,-13.4922,-0.1,-202.879,-0.1,1.856
0.0878149,0.0823965,0.330919,0.211182,0.0539841,0.0493767,0.0695234,0.0819749,-93,-1125,-13.5271,-0.1,-203.048,-0.1,1.86
0.0880312,0.0825934,0.331197,0.211508,0.0541632,0.0493286,0.0695851,0.0817998,-95,-1127,-13.5641,-0.1,-203.22,-0.1,1.864
0.0882482,0.08279,0.331475,0.211834,0.0543425,0.0492678,0.0696468,0.0817118,-97,-1128,-13.6032,-0.1,-203.392,-0.1,1.868
0.0884659,0.0829904,0.331754,0.212166,0.0545218,0.0495439,0.0697085,0.0821426,-97,-1124,-13.6444,-0.1,-203.564,-0.1,1.872
0.0886843,0.0831839,0.332033,0.21249,0.0547011,0.0491522,0.0697702,0.0817964,-102,-1127,-13.6851,-0.1,-203.732,-0.1,1.876
0.0889035,0.0833822,0.332312,0.212816,0.0548806,0.0492941,0.0698319,0.081652,-103,-1129,-13.731,-0.1,-203.902,-0.1,1.88
0.0891234,0.0835774,0.332592,0.213138,0.0550601,0.0491296,0.0698936,0.081239,-106,-1133,-13.7774,-0.1,-204.074,-0.1,1.884
0.089344,0.0837733,0.332871,0.21346,0.0552396,0.0490775,0.0699553,0.0809925,-108,-1136,-13.8271,-0.1,-204.249,-0.1,1.888
0.0895653,0.0839688,0.333151,0.213785,0.0554193,0.049014,0.070017,0.0810873,-111,-1135,-13.879,-0.1,-204.425,-0.1,1.892
0.0897873,0.0841665,0.333431,0.214116,0.0555989,0.0491444,0.0700787,0.0816687,-112,-1129,-13.9331,-0.1,-204.6,-0.1,1.896
0.0900101,0.0843613,0.333712,0.21445,0.0557787,0.049001,0.0701404,0.0822866,-115,-1124,-13.9878,-0.1,-204.768,-0.1,1.9
0.0902336,0.0845576,0.333993,0.214788,0.0559585,0.0490206,0.0702021,0.083044,-117,-1116,-14.0455,-0.1,-204.93,-0.1,1.904
0.0904578,0.0847559,0.334274,0.215129,0.0561383,0.0492064,0.0702637,0.0837218,-117,-1110,-14.1047,-0.1,-205.083,-0.1,1.908
0.0906827,0.08495,0.334555,0.21546,0.0563182,0.0489848,0.0703254,0.0833962,-121,-1113,-14.164,-0.1,-205.23,-0.1,1.912
0.0909083,0.0851473,0.334836,0.215797,0.0564982,0.0490961,0.0703871,0.0836686,-122,-1110,-14.227,-0.1,-205.378,-0.1,1.916
0.0911347,0.0853404,0.335118,0.216127,0.0566782,0.0488249,0.0704487,0.0833608,-126,-1114,-14.2908,-0.1,-205.524,-0.1,1.92
0.0913617,0.0855346,0.3354,0.216456,0.0568583,0.0487304,0.0705104,0.0829252,-129,-1118,-14.3588,-0.1,-205.673,-0.1,1.924
0.0915895,0.0857222,0.335682,0.216785,0.0570384,0.0481204,0.070572,0.0826925,-136,-1120,-14.4299,-0.1,-205.825,-0.1,1.928
0.091818,0.085905,0.335964,0.217108,0.0572186,0.0473107,0.0706337,0.0820478,-146,-1127,-14.5086,-0.1,-205.979,-0.1,1.932
0.0920473,0.0860805,0.336247,0.217432,0.0573988,0.0461662,0.0706953,0.0817044,-159,-1130,-14.5972,-0.1,-206.139,-0.1,1.936
0.0922772,0.086255,0.33653,0.217756,0.057579,0.0453169,0.0707569,0.0814755,-169,-1132,-14.6983,-0.1,-206.302,-0.1,1.94
0.0925079,0.0864139,0.336813,0.218073,0.0577594,0.0434551,0.0708185,0.0807183,-188,-1140,-14.81,-0.1,-206.467,-0.1,1.944
0.0927393,0.0865666,0.337096,0.218393,0.0579397,0.0416957,0.0708801,0.0804726,-207,-1143,-14.9413,-0.1,-206.639,-0.1,1.948
0.0929714,0.0867172,0.33738,0.218715,0.0581201,0.0403499,0.0709417,0.0805391,-222,-1142,-15.0911,-0.1,-206.812,-0.1,1.952
0.0932043,0.0868748,0.337664,0.219043,0.0583006,0.0400286,0.0710033,0.0810153,-227,-1138,-15.2548,-0.1,-206.984,-0.1,1.956
0.0934378,0.0870382,0.337948,0.219372,0.058481,0.0403039,0.0710649,0.0813904,-227,-1134,-15.4229,-0.1,-207.151,-0.1,1.96
0.0936721,0.0872109,0.338232,0.219704,0.0586616,0.0412647,0.0711265,0.0819283,-220,-1129,-15.5896,-0.1,-207.313,-0.1,1.964
0.0939071,0.0873937,0.338517,0.220035,0.0588421,0.0427402,0.071188,0.0822582,-208,-1126,-15.7483,-0.1,-207.47,-0.1,1.968
0.0941429,0.0875865,0.338802,0.220368,0.0590228,0.0445588,0.0712496,0.0825644,-194,-1123,-15.8941,-0.1,-207.622,-0.1,1.972
0.0943793,0.087791,0.339087,0.220701,0.0592034,0.0467501,0.0713111,0.0827974,-175,-1121,-16.0238,-0.1,-207.771,-0.1,1.976
0.0946165,0.0880031,0.339372,0.221035,0.0593841,0.0488444,0.0713726,0.0830391,-158,-1119,-16.134,-0.1,-207.918,-0.1,1.98
0.0948544,0.0882191,0.339658,0.221364,0.0595648,0.0505572,0.0714341,0.0827972,-144,-1122,-16.226,-0.1,-208.061,-0.1,1.984
0.095093,0.088445,0.339944,0.221695,0.0597455,0.0525341,0.0714956,0.0827222,-128,-1123,-16.3028,-0.1,-208.207,-0.1,1.988
0.0953323,0.0886786,0.34023,0.222026,0.0599263,0.0544854,0.0715571,0.0827299,-111,-1123,-16.3624,-0.1,-208.353,-0.1,1.992
0.0955724,0.0889083,0.340516,0.222347,0.0601072,0.0554696,0.0716186,0.0819576,-104,-1130,-16.4054,-0.1,-208.498,-0.1,1.996
0.0958132,0.0891464,0.340803,0.222669,0.060288,0.0568167,0.07168,0.0814715,-93,-1135,-16.4404,-0.1,-208.651,-0.1,2
0.0960547,0.0893848,0.34109,0.22299,0.0604689,0.0577435,0.0717414,0.0810035,-86,-1140,-16.4643,-0.1,-208.808,-0.1,2.004
0.096297,0.0896238,0.341377,0.223311,0.0606498,0.058419,0.0718028,0.0807491,-82,-1143,-16.4813,-0.1,-208.97,-0.1,2.008
0.0965399,0.0898653,0.341664,0.223634,0.0608307,0.0590709,0.0718642,0.0808099,-78,-1142,-16.4935,-0.1,-209.133,-0.1,2.012
0.0967836,0.0901072,0.341952,0.223958,0.0610117,0.0595342,0.0719256,0.0808791,-75,-1142,-16.5013,-0.1,-209.295,-0.1,2.016
0.097028,0.0903476,0.34224,0.224288,0.0611927,0.059728,0.071987,0.0813572,-75,-1137,-16.5065,-0.1,-209.456,-0.1,2.02
0.0972731,0.0905891,0.342528,0.224617,0.0613737,0.0599435,0.0720483,0.0816759,-75,-1135,-16.5116,-0.1,-209.611,-0.1,2.024
0.097519,0.090831,0.342816,0.224945,0.0615547,0.060116,0.0721097,0.0818307,-75,-1133,-16.5164,-0.1,-209.763,-0.1,2.028
0.0977656,0.0910721,0.343105,0.225275,0.0617358,0.0601734,0.072171,0.0820492,-76,-1131,-16.5213,-0.1,-209.913,-0.1,2.032
0.0980129,0.091314,0.343393,0.225606,0.0619169,0.0602692,0.0722323,0.0822811,-77,-1129,-16.5275,-0.1,-210.061,-0.1,2.036
0.0982609,0.0915589,0.343682,0.225938,0.062098,0.0605923,0.0722936,0.0824934,-75,-1127,-16.5343,-0.1,-210.205,-0.1,2.04
0.0985097,0.0918022,0.343972,0.226265,0.0622791,0.0606636,0.0723548,0.0822606,-77,-1130,-16.5399,-0.1,-210.348,-0.1,2.044
0.0987591,0.0920464,0.344261,0.226589,0.0624602,0.0607976,0.072416,0.0817887,-77,-1135,-16.5465,-0.1,-210.492,-0.1,2.048
0.0990093,0.0922928,0.344551,0.226911,0.0626414,0.0610597,0.0724773,0.0813877,-76,-1139,-16.5535,-0.1,-210.641,-0.1,2.052
0.0992603,0.0925408,0.344841,0.227229,0.0628226,0.0613783,0.0725385,0.0807461,-75,-1145,-16.5597,-0.1,-210.793,-0.1,2.056
0.0995119,0.0927882,0.345131,0.227549,0.0630037,0.0615332,0.0725996,0.0805487,-75,-1147,-16.5646,-0.1,-210.951,-0.1,2.06
0.0997643,0.0930383,0.345422,0.227872,0.0631849,0.0618668,0.0726608,0.0805899,-74,-1147,-16.5697,-0.1,-211.111,-0.1,2.064
0.100017,0.0932892,0.345713,0.2282,0.0633662,0.0621467,0.0727219,0.081078,-73,-1143,-16.5734,-0.1,-211.269,-0.1,2.068
0.100271,0.0935431,0.346004,0.228533,0.0635474,0.0625925,0.072783,0.0818064,-71,-1136,-16.5761,-0.1,-211.422,-0.1,2.072
0.100526,0.0937929,0.346295,0.228862,0.0637286,0.0625442,0.0728441,0.081889,-73,-1135,-16.5765,-0.1,-211.568,-0.1,2.076
0.100781,0.0940496,0.346586,0.229189,0.0639099,0.0630878,0.0729051,0.0819153,-69,-1135,-16.5787,-0.1,-211.712,-0.1,2.08
0.101037,0.0943052,0.346878,0.229521,0.0640911,0.0633638,0.0729662,0.0822207,-68,-1133,-16.5776,-0.1,-211.856,-0.1,2.084
0.101294,0.0945606,0.34717,0.229857,0.0642724,0.063519,0.0730272,0.0828561,-69,-1127,-16.5758,-0.1,-211.996,-0.1,2.088
0.101551,0.0948176,0.347462,0.230196,0.0644537,0.0637665,0.0730882,0.0834525,-68,-1121,-16.5741,-0.1,-212.129,-0.1,2.092
0.101809,0.0950743,0.347755,0.230542,0.0646349,0.0639026,0.0731491,0.0844835,-69,-1111,-16.5718,-0.1,-212.256,-0.1,2.096
0.102068,0.0953286,0.348048,0.230889,0.0648162,0.0637919,0.0732101,0.0852572,-71,-1104,-16.5702,-0.1,-212.372,-0.1,2.1
0.102328,0.0955811,0.348341,0.231235,0.0649975,0.0635741,0.073271,0.0856579,-75,-1100,-16.5714,-0.1,-212.48,-0.1,2.104
0.102588,0.0958313,0.348634,0.231579,0.0651788,0.0632274,0.0733318,0.085781,-80,-1099,-16.5766,-0.1,-212.584,-0.1,2.108
0.102849,0.0960787,0.348927,0.231922,0.0653601,0.0627659,0.0733927,0.0857191,-86,-1100,-16.5869,-0.1,-212.687,-0.1,2.112
0.103111,0.0963222,0.349221,0.232265,0.0655414,0.0621415,0.0734535,0.0857931,-93,-1099,-16.6035,-0.1,-212.79,-0.1,2.116
0.103374,0.0965637,0.349515,0.232611,0.0657227,0.0615525,0.0735143,0.0859575,-101,-1098,-16.6279,-0.1,-212.891,-0.1,2.12
0.103637,0.0968063,0.349809,0.232964,0.0659039,0.0612463,0.0735751,0.0867581,-105,-1090,-16.6594,-0.1,-212.99,-0.1,2.124
0.103901,0.0970402,0.350103,0.233309,0.0660852,0.0603223,0.0736358,0.0866009,-116,-1092,-16.696,-0.1,-213.082,-0.1,2.128
0.104166,0.0972751,0.350398,0.233659,0.0662665,0.0597927,0.0736965,0.0868703,-122,-1089,-16.743,-0.1,-213.174,-0.1,2.132
0.104431,0.097508,0.350693,0.234005,0.0664478,0.0592669,0.0737572,0.0867333,-129,-1090,-16.7968,-0.1,-213.264,-0.1,2.136
0.104697,0.0977408,0.350988,0.234347,0.066629,0.0589163,0.0738178,0.086354,-134,-1094,-16.8572,-0.1,-213.355,-0.1,2.14
0.104964,0.0979747,0.351284,0.234688,0.0668103,0.058769,0.0738785,0.085986,-138,-1098,-16.9226,-0.1,-213.449,-0.1,2.144
0.105232,0.09821,0.351579,0.235027,0.0669916,0.058786,0.0739391,0.0855679,-139,-1102,-16.9909,-0.1,-213.547,-0.1,2.148
0.1055,0.0984449,0.351875,0.235363,0.0671728,0.0587685,0.0739996,0.0850588,-141,-1107,-17.0609,-0.1,-213.649,-0.1,2.152
0.105769,0.0986837,0.352171,0.235695,0.067354,0.0590735,0.0740601,0.0844027,-141,-1114,-17.1324,-0.1,-213.756,-0.1,2.156
0.106039,0.0989262,0.352468,0.236029,0.0675353,0.0595936,0.0741206,0.0841093,-138,-1117,-17.2027,-0.1,-213.868,-0.1,2.16
0.106309,0.0991701,0.352764,0.236357,0.0677165,0.0600554,0.0741811,0.0833379,-135,-1124,-17.2696,-0.1,-213.984,-0.1,2.164
0.106581,0.0994178,0.353061,0.236684,0.0678977,0.0606801,0.0742415,0.0827948,-132,-1130,-17.3338,-0.1,-214.107,-0.1,2.168
0.106853,0.0996704,0.353358,0.23701,0.0680788,0.0614995,0.0743019,0.0824328,-126,-1134,-17.3935,-0.1,-214.235,-0.1,2.172
0.107125,0.0999274,0.353655,0.237342,0.06826,0.0624201,0.0743623,0.0825945,-119,-1132,-17.447,-0.1,-214.366,-0.1,2.176
0.107399,0.100181,0.353953,0.237665,0.0684412,0.062746,0.0744226,0.0820113,-118,-1138,-17.4938,-0.1,-214.495,-0.1,2.18
0.107673,0.100442,0.354251,0.237995,0.0686223,0.063539,0.0744829,0.0821695,-113,-1137,-17.5388,-0.1,-214.63,-0.1,2.184
0.107948,0.100707,0.354549,0.238334,0.0688034,0.0644996,0.0745431,0.0829948,-106,-1129,-17.5779,-0.1,-214.762,-0.1,2.188
0.108223,0.100973,0.354847,0.238674,0.0689845,0.0651111,0.0746034,0.0836601,-102,-1123,-17.6097,-0.1,-214.886,-0.1,2.192
0.108499,0.101237,0.355146,0.239015,0.0691656,0.0654325,0.0746635,0.0841901,-100,-1118,-17.6376,-0.1,-215.003,-0.1,2.196
0.108777,0.101506,0.355444,0.239364,0.0693466,0.0660498,0.0747237,0.0852055,-97,-1108,-17.6639,-0.1,-215.114,-0.1,2.2
0.109054,0.101776,0.355743,0.239714,0.0695277,0.0665189,0.0747838,0.0859689,-94,-1101,-17.6861,-0.1,-215.215,-0.1,2.204
0.109333,0.102051,0.356043,0.240071,0.0697087,0.0672635,0.0748439,0.0871112,-89,-1090,-17.7054,-0.1,-215.307,-0.1,2.208
0.109612,0.102325,0.356342,0.240428,0.0698897,0.0676735,0.0749039,0.0878152,-87,-1084,-17.7195,-0.1,-215.389,-0.1,2.212
0.109892,0.102596,0.356642,0.240781,0.0700706,0.0676878,0.0749639,0.0879678,-88,-1082,-17.7316,-0.1,-215.463,-0.1,2.216
0.110172,0.102866,0.356942,0.241138,0.0702516,0.0676685,0.0750239,0.0883286,-90,-1079,-17.7454,-0.1,-215.535,-0.1,2.22
0.110454,0.103134,0.357242,0.241501,0.0704325,0.0674541,0.0750838,0.0892026,-94,-1070,-17.7612,-0.1,-215.603,-0.1,2.224
0.110736,0.103403,0.357543,0.241872,0.0706134,0.0673399,0.0751437,0.0903611,-97,-1059,-17.7807,-0.1,-215.662,-0.1,2.228
0.111019,0.103668,0.357843,0.242247,0.0707942,0.0670047,0.0752035,0.0915076,-102,-1048,-17.8032,-0.1,-215.709,-0.1,2.232
0.111302,0.103933,0.358144,0.242624,0.070975,0.0667812,0.0752633,0.0923872,-105,-1039,-17.8305,-0.1,-215.744,-0.1,2.236
0.111587,0.104196,0.358445,0.243007,0.0711558,0.0664307,0.0753231,0.0934918,-110,-1028,-17.8618,-0.1,-215.771,-0.1,2.24
0.111872,0.10445,0.358747,0.243381,0.0713366,0.0653909,0.0753828,0.0934797,-122,-1028,-17.8986,-0.1,-215.786,-0.1,2.244
0.112157,0.104707,0.359048,0.243765,0.0715173,0.0650144,0.0754425,0.0943641,-127,-1020,-17.9466,-0.1,-215.801,-0.1,2.248
0.112444,0.104952,0.35935,0.244141,0.071698,0.0637845,0.0755021,0.0942627,-140,-1021,-18.0004,-0.1,-215.808,-0.1,2.252
0.112731,0.105197,0.359652,0.244525,0.0718786,0.0629645,0.0755617,0.0948573,-150,-1015,-18.0675,-0.1,-215.815,-0.1,2.256
0.113019,0.105441,0.359955,0.244909,0.0720592,0.0623028,0.0756212,0.0952249,-158,-1011,-18.144,-0.1,-215.816,-0.1,2.26
0.113307,0.105677,0.360257,0.245283,0.0722398,0.0611994,0.0756808,0.0946063,-170,-1017,-18.2287,-0.1,-215.814,-0.1,2.264
0.113597,0.105908,0.36056,0.245657,0.0724204,0.0600031,0.0757402,0.0942514,-183,-1020,-18.3257,-0.1,-215.817,-0.1,2.268
0.113887,0.106142,0.360863,0.246037,0.0726009,0.0595511,0.0757996,0.0944755,-189,-1018,-18.4354,-0.1,-215.824,-0.1,2.272
0.114177,0.106367,0.361167,0.246412,0.0727813,0.0584724,0.075859,0.0942218,-201,-1020,-18.5514,-0.1,-215.829,-0.1,2.276
0.114469,0.106593,0.36147,0.246793,0.0729617,0.0577533,0.0759183,0.0946285,-210,-1016,-18.6791,-0.1,-215.835,-0.1,2.28
0.114761,0.106815,0.361774,0.247174,0.0731421,0.0570723,0.0759776,0.0948421,-218,-1014,-18.8154,-0.1,-215.837,-0.1,2.284
0.115054,0.107037,0.362078,0.247556,0.0733225,0.0564744,0.0760369,0.0950708,-226,-1011,-18.9597,-0.1,-215.837,-0.1,2.288
0.115348,0.107255,0.362382,0.247935,0.0735027,0.0558167,0.0760961,0.0949354,-234,-1012,-19.1114,-0.1,-215.835,-0.1,2.292
0.115642,0.107474,0.362687,0.248311,0.073683,0.0554934,0.0761552,0.0946148,-240,-1015,-19.2707,-0.1,-215.834,-0.1,2.296
0.115937,0.10769,0.362992,0.248682,0.0738632,0.0549611,0.0762143,0.0940268,-247,-1021,-19.435,-0.1,-215.837,-0.1,2.3
0.116233,0.107903,0.363297,0.249045,0.0740433,0.0544047,0.0762734,0.092915,-254,-1032,-19.6059,-0.1,-215.845,-0.1,2.304
0.11653,0.108115,0.363602,0.249401,0.0742234,0.0539762,0.0763324,0.091598,-260,-1044,-19.7836,-0.1,-215.865,-0.1,2.308
0.116827,0.108323,0.363907,0.249746,0.0744035,0.0532875,0.0763914,0.0898275,-269,-1061,-19.9672,-0.1,-215.898,-0.1,2.312
0.117125,0.10853,0.364213,0.250084,0.0745835,0.0527996,0.0764503,0.0880713,-276,-1079,-20.1588,-0.1,-215.948,-0.1,2.316
0.117423,0.108731,0.364519,0.250414,0.0747634,0.0518984,0.0765091,0.0861519,-287,-1097,-20.357,-0.1,-216.017,-0.1,2.32
0.117723,0.108934,0.364825,0.250742,0.0749433,0.0515568,0.076568,0.0848148,-292,-1110,-20.565,-0.1,-216.104,-0.1,2.324
0.118023,0.109128,0.365131,0.251064,0.0751232,0.0505229,0.0766267,0.0833475,-304,-1125,-20.7783,-0.1,-216.204,-0.1,2.328
0.118324,0.109322,0.365438,0.25139,0.075303,0.0498337,0.0766854,0.0827149,-313,-1131,-21.0028,-0.1,-216.318,-0.1,2.332
0.118625,0.109517,0.365745,0.251725,0.0754827,0.0495181,0.0767441,0.0830992,-318,-1128,-21.2352,-0.1,-216.438,-0.1,2.336
0.118928,0.109709,0.366052,0.252067,0.0756624,0.048991,0.0768027,0.0838737,-326,-1121,-21.4724,-0.1,-216.553,-0.1,2.34
0.119231,0.109899,0.366359,0.252414,0.075842,0.0485245,0.0768613,0.0848507,-333,-1112,-21.7161,-0.1,-216.661,-0.1,2.344
0.119534,0.110088,0.366667,0.252773,0.0760216,0.0480983,0.0769198,0.0864521,-339,-1096,-21.9657,-0.1,-216.758,-0.1,2.348
0.119839,0.110281,0.366975,0.253138,0.0762011,0.0481309,0.0769783,0.0880955,-341,-1080,-22.2207,-0.1,-216.839,-0.1,2.352
0.120144,0.110475,0.367283,0.253519,0.0763806,0.0482677,0.0770367,0.0904292,-343,-1058,-22.4769,-0.1,-216.902,-0.1,2.356
0.12045,0.110666,0.367591,0.253892,0.0765599,0.0480711,0.077095,0.0914379,-347,-1048,-22.7335,-0.1,-216.943,-0.1,2.36
0.120757,0.110856,0.367899,0.254272,0.0767393,0.0478536,0.0771533,0.092571,-352,-1037,-22.9936,-0.1,-216.974,-0.1,2.364
0.121064,0.111047,0.368208,0.254652,0.0769185,0.0478238,0.0772116,0.093384,-354,-1029,-23.2571,-0.1,-216.993,-0.1,2.368
0.121372,0.111238,0.368517,0.255042,0.0770977,0.0478615,0.0772698,0.0947322,-357,-1016,-23.5224,-0.1,-217.003,-0.1,2.372
0.121681,0.111433,0.368826,0.255435,0.0772769,0.0481169,0.0773279,0.0959477,-357,-1004,-23.7888,-0.1,-217.001,-0.1,2.376
0.12199,0.111629,0.369136,0.255834,0.0774559,0.0484024,0.077386,0.0971898,-357,-992,-24.0542,-0.1,-216.985,-0.1,2.38
0.1223,0.111829,0.369445,0.256235,0.077635,0.0489382,0.0774441,0.0981907,-355,-982,-24.3183,-0.1,-216.958,-0.1,2.384
0.122611,0.112032,0.369755,0.256637,0.0778139,0.0495258,0.077502,0.0989731,-352,-974,-24.5788,-0.1,-216.92,-0.1,2.388
0.122923,0.112241,0.370065,0.257048,0.0779928,0.0504933,0.07756,0.100243,-346,-962,-24.835,-0.1,-216.874,-0.1,2.392
0.123235,0.112451,0.370376,0.257445,0.0781716,0.0511383,0.0776178,0.0999672,-342,-964,-25.0837,-0.1,-216.816,-0.1,2.396
0.123548,0.112666,0.370686,0.25785,0.0783503,0.0520001,0.0776756,0.100359,-337,-960,-25.3278,-0.1,-216.761,-0.1,2.4
0.123862,0.112887,0.370997,0.258257,0.0785289,0.0530642,0.0777334,0.100822,-330,-955,-25.565,-0.1,-216.701,-0.1,2.404
0.124176,0.113109,0.371308,0.258658,0.0787075,0.0538599,0.0777911,0.100612,-325,-957,-25.7938,-0.1,-216.637,-0.1,2.408
0.124492,0.11333,0.371619,0.259056,0.078886,0.0543616,0.0778487,0.100242,-323,-960,-26.0169,-0.1,-216.576,-0.1,2.412
0.124807,0.113552,0.371931,0.259451,0.0790645,0.0547248,0.0779063,0.0997935,-322,-964,-26.2368,-0.1,-216.518,-0.1,2.416
0.125124,0.113774,0.372243,0.259845,0.0792428,0.0549958,0.0779639,0.0993506,-322,-968,-26.4548,-0.1,-216.464,-0.1,2.42
0.125441,0.113992,0.372555,0.260235,0.0794211,0.0548309,0.0780213,0.0987099,-326,-974,-26.6722,-0.1,-216.415,-0.1,2.424
0.125759,0.114209,0.372867,0.260624,0.0795993,0.0546347,0.0780787,0.0982252,-330,-978,-26.8926,-0.1,-216.372,-0.1,2.428
0.126078,0.11442,0.373179,0.261008,0.0797775,0.0540431,0.0781361,0.0974702,-338,-986,-27.1167,-0.1,-216.335,-0.1,2.432
0.126398,0.114632,0.373492,0.26139,0.0799555,0.05362,0.0781934,0.0967941,-344,-992,-27.3479,-0.1,-216.305,-0.1,2.436
0.126718,0.114842,0.373805,0.261771,0.0801335,0.0533091,0.0782506,0.0963146,-349,-996,-27.5846,-0.1,-216.281,-0.1,2.44
0.127039,0.115045,0.374118,0.26214,0.0803114,0.0524109,0.0783078,0.0949872,-360,-1009,-27.8261,-0.1,-216.263,-0.1,2.444
0.12736,0.115254,0.374431,0.262515,0.0804892,0.0523879,0.0783649,0.094563,-363,-1013,-28.0771,-0.1,-216.257,-0.1,2.448
0.127683,0.115457,0.374745,0.262882,0.0806669,0.0518255,0.0784219,0.0936467,-371,-1022,-28.3301,-0.1,-216.256,-0.1,2.452
0.128006,0.115665,0.375059,0.263252,0.0808446,0.0518537,0.0784789,0.0932662,-373,-1026,-28.5897,-0.1,-216.263,-0.1,2.456
0.128329,0.115873,0.375373,0.263623,0.0810222,0.0519301,0.0785358,0.0930414,-375,-1028,-28.8505,-0.1,-216.275,-0.1,2.46
0.128654,0.116083,0.375687,0.26399,0.0811996,0.0521249,0.0785927,0.0926611,-376,-1031,-29.112,-0.1,-216.288,-0.1,2.464
0.128979,0.116295,0.376002,0.264357,0.081377,0.0524276,0.0786495,0.09235,-375,-1034,-29.3731,-0.1,-216.306,-0.1,2.468
0.129305,0.116508,0.376316,0.264718,0.0815543,0.0526869,0.0787062,0.0916244,-376,-1041,-29.6329,-0.1,-216.326,-0.1,2.472
0.129631,0.116723,0.376631,0.265075,0.0817316,0.0530614,0.0787629,0.0908528,-375,-1049,-29.8917,-0.1,-216.354,-0.1,2.476
0.129959,0.116939,0.376946,0.26543,0.0819087,0.0533974,0.0788195,0.0901368,-374,-1056,-30.1485,-0.1,-216.39,-0.1,2.48
0.130287,0.117155,0.377262,0.26578,0.0820857,0.0535926,0.078876,0.0892852,-375,-1064,-30.4037,-0.1,-216.432,-0.1,2.484
0.130615,0.117374,0.377577,0.26613,0.0822627,0.0539242,0.0789325,0.0886599,-375,-1071,-30.6585,-0.1,-216.483,-0.1,2.488
0.130945,0.117595,0.377893,0.266486,0.0824395,0.0544333,0.0789889,0.0887324,-372,-1070,-30.9116,-0.1,-216.54,-0.1,2.492
0.131275,0.117808,0.378209,0.266826,0.0826163,0.0539665,0.0790453,0.0874852,-379,-1082,-31.162,-0.1,-216.597,-0.1,2.496
0.131606,0.118026,0.378526,0.267174,0.082793,0.0541735,0.0791016,0.0873735,-380,-1084,-31.4179,-0.1,-216.666,-0.1,2.5
0.131937,0.118243,0.378842,0.267523,0.0829695,0.0542252,0.0791578,0.0872991,-382,-1085,-31.6735,-0.1,-216.735,-0.1,2.504
0.13227,0.118466,0.379159,0.26788,0.083146,0.054749,0.0792139,0.087998,-380,-1078,-31.9298,-0.1,-216.805,-0.1,2.508
0.132602,0.11868,0.379476,0.268226,0.0833224,0.0542634,0.07927,0.0874562,-387,-1083,-32.1833,-0.1,-216.869,-0.1,2.512
0.132936,0.118898,0.379793,0.268581,0.0834987,0.0543714,0.079326,0.08793,-388,-1079,-32.4426,-0.1,-216.937,-0.1,2.516
0.13327,0.119118,0.38011,0.268943,0.0836749,0.0545587,0.079382,0.0887929,-389,-1071,-32.7022,-0.1,-217,-0.1,2.52
0.133606,0.119333,0.380428,0.269304,0.083851,0.054338,0.0794379,0.0892818,-394,-1066,-32.9619,-0.1,-217.055,-0.1,2.524
0.133941,0.11954,0.380746,0.269651,0.084027,0.0534711,0.0794937,0.0883985,-404,-1075,-33.2256,-0.1,-217.105,-0.1,2.528
0.134278,0.119748,0.381064,0.270004,0.0842029,0.0529795,0.0795494,0.0883279,-411,-1076,-33.4987,-0.1,-217.164,-0.1,2.532
0.134615,0.119956,0.381382,0.270355,0.0843787,0.0526518,0.0796051,0.0881944,-417,-1077,-33.7778,-0.1,-217.224,-0.1,2.536
0.134953,0.120169,0.381701,0.270713,0.0845544,0.0528364,0.0796607,0.0885661,-418,-1074,-34.0612,-0.1,-217.284,-0.1,2.54
0.135291,0.120378,0.38202,0.27106,0.0847299,0.0526428,0.0797162,0.0879789,-422,-1080,-34.3446,-0.1,-217.341,-0.1,2.544
0.135631,0.120588,0.382339,0.271404,0.0849054,0.0526001,0.0797717,0.0872996,-425,-1087,-34.6312,-0.1,-217.405,-0.1,2.548
0.135971,0.120804,0.382658,0.271748,0.0850808,0.0530323,0.0798271,0.0869331,-424,-1090,-34.9193,-0.1,-217.475,-0.1,2.552
0.136311,0.121025,0.382977,0.272092,0.0852561,0.0538098,0.0798824,0.0866024,-420,-1094,-35.2047,-0.1,-217.548,-0.1,2.556
0.136653,0.121257,0.383297,0.272441,0.0854312,0.0551919,0.0799377,0.0867849,-410,-1092,-35.4838,-0.1,-217.624,-0.1,2.56
0.136995,0.121483,0.383617,0.272775,0.0856063,0.0556527,0.0799929,0.0856687,-408,-1103,-35.752,-0.1,-217.7,-0.1,2.564
0.137337,0.121723,0.383937,0.273112,0.0857812,0.0571115,0.080048,0.0852412,-397,-1108,-36.0167,-0.1,-217.786,-0.1,2.568
0.137681,0.121961,0.384257,0.273442,0.0859561,0.0579113,0.080103,0.084294,-393,-1117,-36.2695,-0.1,-217.876,-0.1,2.572
0.138025,0.12221,0.384578,0.27378,0.0861308,0.0592794,0.080158,0.0843535,-383,-1117,-36.516,-0.1,-217.976,-0.1,2.576
0.13837,0.12246,0.384898,0.274116,0.0863054,0.0603642,0.0802129,0.084278,-375,-1118,-36.7513,-0.1,-218.074,-0.1,2.58
0.138716,0.122712,0.385219,0.274449,0.0864799,0.0612314,0.0802677,0.083911,-370,-1122,-36.978,-0.1,-218.174,-0.1,2.584
0.139062,0.122975,0.38554,0.274797,0.0866543,0.0627596,0.0803224,0.0849619,-358,-1112,-37.1977,-0.1,-218.277,-0.1,2.588
0.139409,0.123232,0.385862,0.275135,0.0868286,0.063289,0.0803771,0.08477,-356,-1115,-37.4051,-0.1,-218.369,-0.1,2.592
0.139756,0.1235,0.386183,0.275482,0.0870028,0.0645344,0.0804317,0.0854482,-347,-1108,-37.6087,-0.1,-218.463,-0.1,2.596
0.140105,0.123774,0.386505,0.275829,0.0871768,0.0657966,0.0804862,0.0858716,-338,-1105,-37.802,-0.1,-218.55,-0.1,2.6
0.140454,0.12405,0.386827,0.27618,0.0873508,0.0669259,0.0805407,0.0865281,-330,-1099,-37.9851,-0.1,-218.633,-0.1,2.604
0.140804,0.12433,0.38715,0.276535,0.0875246,0.0679667,0.0805951,0.0872825,-323,-1091,-38.1591,-0.1,-218.709,-0.1,2.608
0.141154,0.12461,0.387472,0.276888,0.0876983,0.0685742,0.0806494,0.0876126,-319,-1089,-38.3252,-0.1,-218.778,-0.1,2.612
0.141505,0.124889,0.387795,0.277243,0.0878718,0.069008,0.0807036,0.0879479,-318,-1086,-38.4872,-0.1,-218.844,-0.1,2.616
0.141857,0.125169,0.388118,0.2776,0.0880453,0.069326,0.0807577,0.0884018,-317,-1081,-38.6467,-0.1,-218.906,-0.1,2.62
0.14221,0.125449,0.388441,0.277957,0.0882186,0.0695092,0.0808118,0.0887043,-317,-1079,-38.8049,-0.1,-218.963,-0.1,2.624
0.142563,0.125725,0.388764,0.278314,0.0883919,0.069401,0.0808658,0.0888484,-321,-1077,-38.9631,-0.1,-219.018,-0.1,2.628
0.142917,0.126003,0.389088,0.278669,0.088565,0.0694152,0.0809197,0.0888582,-323,-1078,-39.1238,-0.1,-219.071,-0.1,2.632
0.143271,0.12628,0.389412,0.279029,0.0887379,0.0693959,0.0809736,0.0892101,-325,-1074,-39.2859,-0.1,-219.124,-0.1,2.636
0.143627,0.126563,0.389736,0.279396,0.0889108,0.0697861,0.0810273,0.0900206,-324,-1067,-39.4494,-0.1,-219.173,-0.1,2.64
0.143983,0.126844,0.39006,0.279765,0.0890835,0.0699311,0.081081,0.0907912,-324,-1059,-39.611,-0.1,-219.214,-0.1,2.644
0.144339,0.127123,0.390384,0.280136,0.0892561,0.0699414,0.0811346,0.0914489,-327,-1053,-39.7729,-0.1,-219.247,-0.1,2.648
0.144697,0.127401,0.390709,0.280503,0.0894286,0.0697467,0.0811881,0.0915707,-330,-1052,-39.9362,-0.1,-219.274,-0.1,2.652
0.145055,0.127686,0.391034,0.280879,0.0896009,0.0702215,0.0812416,0.0924005,-328,-1044,-40.1026,-0.1,-219.299,-0.1,2.656
0.145413,0.127967,0.391359,0.281248,0.0897731,0.0702502,0.0812949,0.0923202,-330,-1045,-40.2662,-0.1,-219.317,-0.1,2.66
0.145773,0.12825,0.391684,0.281616,0.0899452,0.0704132,0.0813482,0.0922379,-331,-1046,-40.431,-0.1,-219.335,-0.1,2.664
0.146133,0.128531,0.39201,0.281982,0.0901172,0.0703492,0.0814014,0.091924,-334,-1049,-40.596,-0.1,-219.355,-0.1,2.668
0.146494,0.128812,0.392335,0.282344,0.090289,0.070364,0.0814546,0.0914843,-336,-1053,-40.763,-0.1,-219.377,-0.1,2.672
0.146855,0.129093,0.392661,0.282707,0.0904607,0.0703452,0.0815076,0.0912776,-338,-1055,-40.9314,-0.1,-219.404,-0.1,2.676
0.147217,0.129377,0.392987,0.28307,0.0906322,0.0705053,0.0815606,0.0910534,-339,-1058,-41.1014,-0.1,-219.433,-0.1,2.68
0.14758,0.12966,0.393314,0.283432,0.0908037,0.0705833,0.0816134,0.090904,-340,-1059,-41.2715,-0.1,-219.464,-0.1,2.684
0.147944,0.129943,0.39364,0.283791,0.0909749,0.0706353,0.0816662,0.0905164,-342,-1063,-41.4423,-0.1,-219.497,-0.1,2.688
0.148308,0.130235,0.393967,0.284156,0.0911461,0.0714185,0.0817189,0.0907763,-337,-1061,-41.6137,-0.1,-219.533,-0.1,2.692
0.148673,0.130518,0.394294,0.28451,0.0913171,0.0712209,0.0817716,0.0899706,-341,-1069,-41.7799,-0.1,-219.568,-0.1,2.696
0.149039,0.130807,0.394621,0.284869,0.091488,0.0715786,0.0818241,0.089923,-340,-1069,-41.9491,-0.1,-219.61,-0.1,2.7
0.149405,0.131097,0.394949,0.285229,0.0916588,0.0718747,0.0818766,0.08992,-339,-1070,-42.1165,-0.1,-219.653,-0.1,2.704
0.149772,0.13139,0.395276,0.285593,0.0918294,0.0723311,0.081929,0.0902923,-338,-1066,-42.2826,-0.1,-219.695,-0.1,2.708
0.15014,0.131687,0.395604,0.285959,0.0919998,0.072981,0.0819813,0.0906845,-334,-1063,-42.4457,-0.1,-219.734,-0.1,2.712
0.150508,0.131989,0.395932,0.286328,0.0921702,0.0737885,0.0820335,0.091205,-329,-1058,-42.6042,-0.1,-219.768,-0.1,2.716
0.150877,0.132286,0.39626,0.286686,0.0923403,0.0739525,0.0820856,0.0906595,-329,-1063,-42.7571,-0.1,-219.798,-0.1,2.72
0.151247,0.132591,0.396589,0.287051,0.0925104,0.0747528,0.0821377,0.0908717,-324,-1061,-42.9095,-0.1,-219.833,-0.1,2.724
0.151617,0.132896,0.396917,0.287418,0.0926803,0.0752,0.0821896,0.0911283,-322,-1059,-43.0561,-0.1,-219.866,-0.1,2.728
0.151988,0.133204,0.397246,0.287791,0.09285,0.0758437,0.0822415,0.0918464,-318,-1052,-43.2,-0.1,-219.896,-0.1,2.732
0.15236,0.133503,0.397575,0.288158,0.0930197,0.0754954,0.0822933,0.0918357,-324,-1052,-43.34,-0.1,-219.92,-0.1,2.736
0.152732,0.133806,0.397905,0.288531,0.0931891,0.0755511,0.082345,0.0922892,-325,-1048,-43.4845,-0.1,-219.943,-0.1,2.74
0.153105,0.13411,0.398234,0.288911,0.0933585,0.0757322,0.0823966,0.0931961,-326,-1039,-43.6299,-0.1,-219.962,-0.1,2.744
0.153479,0.134412,0.398564,0.289288,0.0935276,0.0755938,0.0824481,0.0935129,-329,-1036,-43.7753,-0.1,-219.971,-0.1,2.748
0.153854,0.134711,0.398894,0.289668,0.0936967,0.0753864,0.0824996,0.0940407,-333,-1031,-43.9236,-0.1,-219.978,-0.1,2.752
0.154229,0.135012,0.399224,0.290048,0.0938655,0.0752769,0.0825509,0.094335,-336,-1028,-44.0751,-0.1,-219.979,-0.1,2.756
0.154605,0.135312,0.399554,0.290432,0.0940343,0.0752327,0.0826022,0.0949343,-338,-1023,-44.2292,-0.1,-219.978,-0.1,2.76
0.154981,0.135613,0.399885,0.290818,0.0942029,0.0752032,0.0826533,0.095449,-341,-1018,-44.3852,-0.1,-219.97,-0.1,2.764
0.155358,0.135912,0.400215,0.291202,0.0943713,0.0750972,0.0827044,0.0956482,-344,-1016,-44.5429,-0.1,-219.957,-0.1,2.768
0.155736,0.136212,0.400546,0.291584,0.0945396,0.0750553,0.0827554,0.0956082,-346,-1016,-44.7031,-0.1,-219.943,-0.1,2.772
0.156114,0.136515,0.400877,0.291963,0.0947077,0.075229,0.0828063,0.0953225,-347,-1019,-44.865,-0.1,-219.929,-0.1,2.776
0.156494,0.136822,0.401209,0.292341,0.0948757,0.0757478,0.0828572,0.094988,-344,-1022,-45.0265,-0.1,-219.919,-0.1,2.78
0.156873,0.137125,0.40154,0.292709,0.0950435,0.0758057,0.0829079,0.0939877,-346,-1032,-45.1849,-0.1,-219.912,-0.1,2.784
0.157254,0.137435,0.401872,0.293078,0.0952112,0.0763338,0.0829585,0.0934647,-343,-1037,-45.344,-0.1,-219.915,-0.1,2.788
0.157635,0.137746,0.402204,0.293445,0.0953787,0.076801,0.0830091,0.0928858,-341,-1043,-45.4997,-0.1,-219.923,-0.1,2.792
0.158017,0.138061,0.402536,0.293812,0.095546,0.0774292,0.0830595,0.0924998,-338,-1046,-45.6524,-0.1,-219.937,-0.1,2.796
0.1584,0.138376,0.402868,0.294179,0.0957132,0.0779056,0.0831099,0.0922137,-335,-1049,-45.8008,-0.1,-219.955,-0.1,2.8
0.158783,0.138692,0.403201,0.294548,0.0958803,0.0782232,0.0831602,0.0922245,-335,-1049,-45.9464,-0.1,-219.975,-0.1,2.804
0.159167,0.139007,0.403534,0.294919,0.0960471,0.0784637,0.0832103,0.0924045,-334,-1048,-46.0905,-0.1,-219.996,-0.1,2.808
0.159551,0.139322,0.403867,0.295291,0.0962139,0.0785377,0.0832604,0.0926108,-336,-1046,-46.234,-0.1,-220.014,-0.1,2.812
0.159936,0.139637,0.4042,0.295664,0.0963804,0.078587,0.0833104,0.0928059,-337,-1044,-46.3782,-0.1,-220.031,-0.1,2.816
0.160322,0.139951,0.404533,0.296041,0.0965468,0.0785623,0.0833603,0.0932815,-340,-1040,-46.5236,-0.1,-220.045,-0.1,2.82
0.160709,0.140267,0.404867,0.296419,0.0967131,0.0787185,0.0834101,0.0937425,-340,-1035,-46.6705,-0.1,-220.055,-0.1,2.824
0.161096,0.140585,0.4052,0.296802,0.0968791,0.0789667,0.0834599,0.0944242,-340,-1029,-46.8174,-0.1,-220.06,-0.1,2.828
0.161484,0.140905,0.405534,0.297184,0.0970451,0.0793048,0.0835095,0.0947346,-339,-1026,-46.9633,-0.1,-220.059,-0.1,2.832
0.161872,0.141229,0.405868,0.297569,0.0972108,0.0799046,0.083559,0.0952871,-336,-1020,-47.1074,-0.1,-220.054,-0.1,2.836
0.162261,0.141552,0.406203,0.29795,0.0973764,0.0801604,0.0836085,0.0952235,-335,-1021,-47.2476,-0.1,-220.045,-0.1,2.84
0.162651,0.141872,0.406537,0.298326,0.0975418,0.0801007,0.0836578,0.0948645,-338,-1024,-47.3871,-0.1,-220.036,-0.1,2.844
0.163042,0.142196,0.406872,0.298708,0.097707,0.0804351,0.083707,0.0950282,-337,-1023,-47.5283,-0.1,-220.03,-0.1,2.848
0.163433,0.142522,0.407207,0.299091,0.0978721,0.0807733,0.0837562,0.0952524,-336,-1021,-47.6679,-0.1,-220.023,-0.1,2.852
0.163825,0.142856,0.407542,0.299484,0.098037,0.0817185,0.0838052,0.0963233,-329,-1010,-47.8055,-0.1,-220.013,-0.1,2.856
0.164217,0.143188,0.407877,0.299875,0.0982018,0.0821183,0.0838542,0.0967781,-328,-1006,-47.936,-0.1,-219.993,-0.1,2.86
0.16461,0.143509,0.408213,0.300254,0.0983664,0.0814635,0.0839031,0.0960736,-336,-1013,-48.0649,-0.1,-219.97,-0.1,2.864
0.165004,0.143845,0.408549,0.300648,0.0985308,0.0823514,0.0839518,0.0968995,-330,-1005,-48.2005,-0.1,-219.952,-0.1,2.868
0.165399,0.144177,0.408885,0.301037,0.098695,0.0825114,0.0840005,0.097047,-330,-1003,-48.3296,-0.1,-219.927,-0.1,2.872
0.165794,0.14451,0.409221,0.301428,0.0988591,0.0828196,0.0840491,0.097203,-329,-1002,-48.4587,-0.1,-219.9,-0.1,2.876
0.166189,0.144842,0.409557,0.301818,0.099023,0.0828236,0.0840975,0.0973069,-331,-1001,-48.5865,-0.1,-219.871,-0.1,2.88
0.166586,0.145176,0.409893,0.30221,0.0991867,0.0830853,0.0841459,0.0976066,-331,-998,-48.7156,-0.1,-219.842,-0.1,2.884
0.166983,0.145511,0.41023,0.302602,0.0993502,0.0832886,0.0841942,0.0976912,-331,-997,-48.8437,-0.1,-219.81,-0.1,2.888
0.167381,0.145847,0.410567,0.302991,0.0995136,0.0835393,0.0842424,0.0975172,-331,-998,-48.9713,-0.1,-219.777,-0.1,2.892
0.167779,0.146184,0.410904,0.303377,0.0996768,0.0837352,0.0842905,0.0971997,-331,-1001,-49.0981,-0.1,-219.746,-0.1,2.896
0.168178,0.146521,0.411241,0.30376,0.0998398,0.083981,0.0843385,0.0967002,-331,-1006,-49.2245,-0.1,-219.719,-0.1,2.9
0.168578,0.146859,0.411579,0.304139,0.100003,0.0841161,0.0843863,0.0960792,-331,-1012,-49.3501,-0.1,-219.697,-0.1,2.904
0.168978,0.147197,0.411916,0.304519,0.100165,0.0842637,0.0844341,0.095694,-332,-1016,-49.4759,-0.1,-219.681,-0.1,2.908
0.169379,0.147534,0.412254,0.304897,0.100328,0.0842757,0.0844818,0.0952933,-334,-1020,-49.6018,-0.1,-219.669,-0.1,2.912
0.169781,0.147871,0.412592,0.305273,0.10049,0.0842262,0.0845294,0.094911,-336,-1024,-49.7291,-0.1,-219.661,-0.1,2.916
0.170183,0.148208,0.41293,0.305646,0.100652,0.0842219,0.0845769,0.0943682,-338,-1029,-49.8582,-0.1,-219.657,-0.1,2.92
0.170586,0.148549,0.413269,0.306025,0.100814,0.0845934,0.0846243,0.0944382,-337,-1028,-49.9886,-0.1,-219.658,-0.1,2.924
0.17099,0.148882,0.413607,0.306396,0.100976,0.0841788,0.0846715,0.0938802,-342,-1034,-50.1175,-0.1,-219.659,-0.1,2.928
0.171394,0.14922,0.413946,0.30677,0.101137,0.0842768,0.0847187,0.0937674,-343,-1035,-50.2513,-0.1,-219.665,-0.1,2.932
0.171799,0.149559,0.414285,0.307142,0.101299,0.0843708,0.0847658,0.0935482,-344,-1037,-50.3856,-0.1,-219.673,-0.1,2.936
0.172204,0.149897,0.414624,0.307514,0.10146,0.0844623,0.0848128,0.0933445,-346,-1039,-50.5204,-0.1,-219.683,-0.1,2.94
0.17261,0.150239,0.414964,0.307882,0.101621,0.0847536,0.0848596,0.0929208,-345,-1044,-50.6557,-0.1,-219.695,-0.1,2.944
0.173017,0.15058,0.415303,0.308249,0.101782,0.0849767,0.0849064,0.0924944,-345,-1048,-50.7897,-0.1,-219.711,-0.1,2.948
0.173425,0.150924,0.415643,0.308615,0.101943,0.0853269,0.0849531,0.0921813,-344,-1051,-50.9231,-0.1,-219.732,-0.1,2.952
0.173833,0.151271,0.415983,0.308984,0.102103,0.0857907,0.0849997,0.0922029,-341,-1051,-51.0545,-0.1,-219.756,-0.1,2.956
0.174241,0.151619,0.416323,0.309354,0.102263,0.086215,0.0850461,0.0922749,-340,-1050,-51.1831,-0.1,-219.78,-0.1,2.96
0.174651,0.151973,0.416663,0.309729,0.102423,0.0869586,0.0850925,0.0927835,-335,-1046,-51.309,-0.1,-219.802,-0.1,2.964
0.175061,0.15232,0.417004,0.3101,0.102583,0.0868785,0.0851387,0.0927771,-337,-1046,-51.4299,-0.1,-219.82,-0.1,2.968
0.175471,0.152671,0.417344,0.310479,0.102743,0.0871418,0.0851849,0.0934639,-337,-1039,-51.5528,-0.1,-219.838,-0.1,2.972
0.175883,0.153021,0.417685,0.310864,0.102902,0.0872597,0.0852309,0.0943535,-338,-1031,-51.6748,-0.1,-219.849,-0.1,2.976
0.176295,0.153374,0.418026,0.311255,0.103062,0.0876263,0.0852769,0.0954649,-336,-1020,-51.797,-0.1,-219.851,-0.1,2.98
0.176707,0.153719,0.418367,0.311637,0.103221,0.0871796,0.0853227,0.0955436,-342,-1019,-51.9176,-0.1,-219.842,-0.1,2.984
0.17712,0.154069,0.418709,0.312025,0.10338,0.0872274,0.0853684,0.0960279,-344,-1015,-52.0434,-0.1,-219.832,-0.1,2.988
0.177534,0.154421,0.41905,0.312416,0.103539,0.0875471,0.0854141,0.0965236,-343,-1010,-52.17,-0.1,-219.818,-0.1,2.992
0.177949,0.154776,0.419392,0.312806,0.103697,0.0879042,0.0854596,0.0969116,-341,-1006,-52.2951,-0.1,-219.799,-0.1,2.996
0.178364,0.155134,0.419734,0.313197,0.103856,0.0884302,0.085505,0.0971991,-339,-1003,-52.4181,-0.1,-219.776,-0.1,3
0.17878,0.155492,0.420076,0.313588,0.104014,0.0887809,0.0855503,0.0973331,-337,-1002,-52.5378,-0.1,-219.75,-0.1,3.004
0.179196,0.155851,0.420418,0.313973,0.104172,0.0891586,0.0855955,0.0969906,-336,-1005,-52.6556,-0.1,-219.724,-0.1,3.008
0.179613,0.156206,0.420761,0.31435,0.104329,0.0890074,0.0856406,0.0960425,-339,-1014,-52.7716,-0.1,-219.701,-0.1,3.012
0.180031,0.156564,0.421104,0.314722,0.104487,0.0891368,0.0856856,0.0950938,-340,-1024,-52.8902,-0.1,-219.688,-0.1,3.016
0.180449,0.15692,0.421446,0.315094,0.104644,0.0891368,0.0857305,0.0943749,-342,-1031,-53.0091,-0.1,-219.684,-0.1,3.02
0.180868,0.157277,0.421789,0.315465,0.104801,0.0891656,0.0857752,0.093838,-343,-1036,-53.1294,-0.1,-219.688,-0.1,3.024
0.181287,0.157637,0.422133,0.315841,0.104958,0.0894438,0.0858199,0.093912,-343,-1035,-53.2506,-0.1,-219.697,-0.1,3.028
0.181707,0.157997,0.422476,0.316215,0.105115,0.0895718,0.0858644,0.093731,-343,-1037,-53.3707,-0.1,-219.705,-0.1,3.032
0.182128,0.158355,0.422819,0.316588,0.105272,0.0895707,0.0859089,0.0936103,-345,-1039,-53.4911,-0.1,-219.715,-0.1,3.036
0.18255,0.158714,0.423163,0.31696,0.105428,0.0896276,0.0859532,0.0933859,-346,-1041,-53.6129,-0.1,-219.727,-0.1,3.04
0.182972,0.159074,0.423507,0.317335,0.105584,0.0897807,0.0859975,0.0934954,-347,-1040,-53.7354,-0.1,-219.74,-0.1,3.044
0.183394,0.159436,0.423851,0.317712,0.10574,0.0899979,0.0860416,0.0937124,-347,-1038,-53.8579,-0.1,-219.753,-0.1,3.048
0.183817,0.159798,0.424195,0.318091,0.105896,0.0902003,0.0860856,0.0940874,-347,-1034,-53.9798,-0.1,-219.763,-0.1,3.052
0.184241,0.160164,0.42454,0.318472,0.106052,0.0906519,0.0861295,0.0944813,-345,-1031,-54.1009,-0.1,-219.77,-0.1,3.056
0.184666,0.160532,0.424884,0.318852,0.106207,0.0910393,0.0861733,0.0946576,-343,-1029,-54.2194,-0.1,-219.773,-0.1,3.06
0.185091,0.160897,0.425229,0.319228,0.106362,0.0910961,0.0862169,0.0944008,-344,-1032,-54.3358,-0.1,-219.774,-0.1,3.064
0.185517,0.161262,0.425574,0.319601,0.106517,0.0912203,0.0862605,0.0940568,-345,-1035,-54.4531,-0.1,-219.779,-0.1,3.068
0.185943,0.161629,0.425919,0.319976,0.106672,0.0913607,0.0863039,0.0939715,-346,-1036,-54.5705,-0.1,-219.786,-0.1,3.072
0.18637,0.161998,0.426265,0.32035,0.106826,0.0916846,0.0863473,0.0938282,-345,-1038,-54.6879,-0.1,-219.795,-0.1,3.076
0.186798,0.162368,0.42661,0.320724,0.10698,0.0919582,0.0863905,0.0936751,-344,-1039,-54.8037,-0.1,-219.805,-0.1,3.08
0.187226,0.16274,0.426956,0.321096,0.107135,0.0923133,0.0864336,0.0934867,-343,-1041,-54.9183,-0.1,-219.817,-0.1,3.084
0.187655,0.163121,0.427302,0.321475,0.107288,0.093241,0.0864766,0.0938793,-336,-1037,-55.0306,-0.1,-219.83,-0.1,3.088
0.188084,0.163498,0.427648,0.321842,0.107442,0.0936291,0.0865195,0.093191,-335,-1044,-55.1361,-0.1,-219.841,-0.1,3.092
0.188514,0.163869,0.427994,0.322198,0.107596,0.0932833,0.0865623,0.0918108,-339,-1058,-55.2399,-0.1,-219.858,-0.1,3.096
0.188945,0.164248,0.42834,0.322556,0.107749,0.0937725,0.086605,0.0910346,-337,-1065,-55.3476,-0.1,-219.89,-0.1,3.1
0.189376,0.16463,0.428687,0.322915,0.107902,0.0943578,0.0866475,0.0905747,-333,-1070,-55.4522,-0.1,-219.928,-0.1,3.104
0.189808,0.165021,0.429033,0.323278,0.108055,0.0954677,0.08669,0.0906712,-325,-1069,-55.5524,-0.1,-219.972,-0.1,3.108
0.190241,0.165404,0.42938,0.323636,0.108207,0.0955743,0.0867323,0.0902749,-326,-1074,-55.6445,-0.1,-220.014,-0.1,3.112
0.190674,0.165793,0.429727,0.324002,0.10836,0.096106,0.0867745,0.0906728,-323,-1070,-55.7367,-0.1,-220.061,-0.1,3.116
0.191108,0.166189,0.430074,0.324382,0.108512,0.0971226,0.0868166,0.092061,-316,-1057,-55.8252,-0.1,-220.102,-0.1,3.12
0.191542,0.166578,0.430422,0.324758,0.108664,0.0971382,0.0868586,0.0927273,-317,-1050,-55.9062,-0.1,-220.131,-0.1,3.124
0.191977,0.166963,0.430769,0.325136,0.108815,0.0968607,0.0869004,0.0933443,-321,-1045,-55.9887,-0.1,-220.152,-0.1,3.128
0.192413,0.167351,0.431117,0.325517,0.108967,0.096906,0.0869422,0.0939283,-323,-1039,-56.0748,-0.1,-220.168,-0.1,3.132
0.192849,0.167741,0.431465,0.325899,0.109118,0.097109,0.0869838,0.0944616,-322,-1034,-56.1618,-0.1,-220.178,-0.1,3.136
0.193286,0.168141,0.431813,0.32629,0.109269,0.0980504,0.0870253,0.0955945,-316,-1023,-56.2478,-0.1,-220.182,-0.1,3.14
0.193723,0.168529,0.432161,0.32667,0.10942,0.0976991,0.0870667,0.0953709,-321,-1025,-56.3273,-0.1,-220.176,-0.1,3.144
0.194161,0.168918,0.432509,0.327052,0.109571,0.0975226,0.087108,0.0954234,-324,-1025,-56.4112,-0.1,-220.172,-0.1,3.148
0.194599,0.169308,0.432858,0.327434,0.109721,0.0975488,0.0871492,0.0954296,-325,-1025,-56.4979,-0.1,-220.168,-0.1,3.152
0.195039,0.1697,0.433206,0.327817,0.109871,0.0976814,0.0871903,0.0956064,-326,-1023,-56.5857,-0.1,-220.164,-0.1,3.156
0.195478,0.170098,0.433555,0.328205,0.110021,0.0982881,0.0872312,0.096041,-322,-1019,-56.6733,-0.1,-220.157,-0.1,3.16
0.195919,0.170483,0.433904,0.32858,0.110171,0.0976561,0.087272,0.0952943,-329,-1026,-56.7574,-0.1,-220.148,-0.1,3.164
0.19636,0.170868,0.434253,0.328956,0.110321,0.0972059,0.0873127,0.0948253,-335,-1031,-56.8484,-0.1,-220.145,-0.1,3.168
0.196801,0.171255,0.434603,0.329334,0.11047,0.097021,0.0873533,0.0947429,-338,-1032,-56.9447,-0.1,-220.147,-0.1,3.172
0.197244,0.171643,0.434952,0.329714,0.110619,0.0969841,0.0873938,0.0947744,-340,-1032,-57.0439,-0.1,-220.151,-0.1,3.176
0.197686,0.172029,0.435302,0.33009,0.110768,0.0968731,0.0874341,0.094565,-343,-1034,-57.1448,-0.1,-220.154,-0.1,3.18
0.19813,0.172416,0.435652,0.330465,0.110917,0.0967703,0.0874743,0.0942527,-345,-1037,-57.248,-0.1,-220.159,-0.1,3.184
0.198574,0.172804,0.436002,0.330841,0.111065,0.0969033,0.0875144,0.0941597,-346,-1038,-57.3532,-0.1,-220.167,-0.1,3.188
0.199018,0.173195,0.436352,0.331217,0.111213,0.0971936,0.0875544,0.094184,-345,-1038,-57.4585,-0.1,-220.177,-0.1,3.192
0.199463,0.17359,0.436702,0.331596,0.111361,0.0976461,0.0875943,0.094373,-343,-1036,-57.5623,-0.1,-220.186,-0.1,3.196
0.199909,0.173984,0.437053,0.331976,0.111509,0.0979767,0.087634,0.0945278,-341,-1035,-57.6633,-0.1,-220.193,-0.1,3.2
0.200355,0.174378,0.437403,0.332354,0.111656,0.0981106,0.0876737,0.0945446,-342,-1035,-57.7628,-0.1,-220.199,-0.1,3.204
0.200802,0.174781,0.437754,0.332741,0.111803,0.0990349,0.0877132,0.0953043,-335,-1027,-57.8618,-0.1,-220.204,-0.1,3.208
0.20125,0.175172,0.438105,0.333111,0.11195,0.098557,0.0877526,0.0943425,-341,-1037,-57.9546,-0.1,-220.203,-0.1,3.212
0.201698,0.17557,0.438456,0.333485,0.112097,0.0989006,0.0877918,0.0940468,-340,-1040,-58.0524,-0.1,-220.211,-0.1,3.216
0.202147,0.175971,0.438807,0.333853,0.112244,0.0993312,0.087831,0.093389,-338,-1046,-58.1484,-0.1,-220.223,-0.1,3.22
0.202596,0.176375,0.439159,0.334222,0.11239,0.0999062,0.08787,0.0929792,-334,-1050,-58.2416,-0.1,-220.241,-0.1,3.224
0.203046,0.176782,0.43951,0.334589,0.112536,0.10052,0.0879089,0.0926197,-331,-1054,-58.3309,-0.1,-220.263,-0.1,3.228
0.203496,0.177188,0.439862,0.334959,0.112682,0.100843,0.0879477,0.0925815,-329,-1055,-58.4161,-0.1,-220.289,-0.1,3.232
0.203947,0.177596,0.440214,0.335331,0.112828,0.101259,0.0879864,0.0926713,-327,-1054,-58.4996,-0.1,-220.315,-0.1,3.236
0.204399,0.178007,0.440566,0.335707,0.112973,0.101739,0.0880249,0.093163,-325,-1049,-58.5806,-0.1,-220.34,-0.1,3.24
0.204851,0.178417,0.440918,0.336084,0.113118,0.102029,0.0880633,0.0934907,-324,-1046,-58.6586,-0.1,-220.361,-0.1,3.244
0.205304,0.178829,0.44127,0.336464,0.113263,0.102281,0.0881016,0.0939684,-323,-1042,-58.7352,-0.1,-220.378,-0.1,3.248
0.205757,0.179238,0.441623,0.33684,0.113408,0.102333,0.0881398,0.0939701,-324,-1042,-58.811,-0.1,-220.39,-0.1,3.252
0.206211,0.179648,0.441975,0.337217,0.113552,0.102397,0.0881778,0.0940864,-325,-1041,-58.8876,-0.1,-220.403,-0.1,3.256
0.206666,0.180055,0.442328,0.337594,0.113696,0.10218,0.0882158,0.0941064,-329,-1041,-58.965,-0.1,-220.415,-0.1,3.26
0.207121,0.18046,0.442681,0.337969,0.11384,0.101834,0.0882536,0.0940621,-333,-1041,-59.0457,-0.1,-220.426,-0.1,3.264
0.207576,0.18087,0.443034,0.338349,0.113984,0.102093,0.0882912,0.0943781,-332,-1039,-59.1304,-0.1,-220.438,-0.1,3.268
0.208032,0.181274,0.443388,0.338718,0.114127,0.101719,0.0883288,0.0936099,-337,-1046,-59.2144,-0.1,-220.448,-0.1,3.272
0.208489,0.181682,0.443741,0.339085,0.11427,0.101786,0.0883662,0.0930401,-338,-1052,-59.3027,-0.1,-220.465,-0.1,3.276
0.208947,0.182092,0.444094,0.339448,0.114413,0.102003,0.0884035,0.092286,-338,-1059,-59.3916,-0.1,-220.488,-0.1,3.28
0.209405,0.1825,0.444448,0.339811,0.114556,0.102062,0.0884407,0.0916969,-339,-1065,-59.4799,-0.1,-220.519,-0.1,3.284
0.209863,0.182908,0.444802,0.340172,0.114699,0.102015,0.0884778,0.0912466,-341,-1070,-59.5689,-0.1,-220.555,-0.1,3.288
0.210322,0.183316,0.445156,0.340536,0.114841,0.102012,0.0885147,0.0911479,-343,-1071,-59.6596,-0.1,-220.596,-0.1,3.292
0.210782,0.183725,0.44551,0.340901,0.114983,0.102096,0.0885515,0.0911685,-343,-1071,-59.7515,-0.1,-220.638,-0.1,3.296
