peachynonah/Fire_monitor_KIRO_CDSL/csv_datas/trial12/cdsl_data_t12_12_u.csv
joint1_pos_desired, joint1_pos, joint2_pos_desired, joint2_pos, joint1_vel_desired, joint1_vel_filtered, joint2_vel_desired, joint2_vel_filtered, target_torque_joint1, target_torque_joint2, estimated_disturbance_joint1, saturated_DOB_joint1, estimated_disturbance_joint2, saturated_DOB_joint2, current_time
0.036817,0.0377767,0.218691,0.0185159,3.76499e-07,0,0.0500001,0,10,-2500,0,0,23.0523,1,0.004
0.036817,0.0377767,0.218891,0.0185166,1.50479e-06,0,0.0500006,5.75818e-05,10,-2500,0.0109946,0.0109946,20.1809,1,0.008
0.036817,0.0377774,0.219091,0.0185249,3.38307e-06,5.75818e-05,0.0500013,0.00072937,11,-2500,0.0220186,0.0220186,17.321,1,0.012
0.036817,0.037777,0.219291,0.018688,6.00952e-06,9.59697e-06,0.0500023,0.0140756,10,-2500,0.0335328,0.0335328,14.4872,1,0.016
0.0368171,0.037777,0.219491,0.0190379,9.38236e-06,6.39798e-06,0.0500036,0.0385489,10,-2401,0.0445668,0.0445668,11.8061,1,0.02
0.0368171,0.037777,0.219691,0.0195368,1.34998e-05,4.26532e-06,0.0500052,0.0672734,10,-2122,0.0555346,0.0555346,9.38504,1,0.024
0.0368172,0.037777,0.219891,0.0201473,1.836e-05,2.84355e-06,0.050007,0.0957225,10,-1845,0.066439,0.066439,7.26363,1,0.028
0.0368173,0.037777,0.220091,0.0208362,2.39611e-05,1.8957e-06,0.0500092,0.121224,10,-1595,0.0772792,0.0772792,5.43718,1,0.032
0.0368174,0.037777,0.220291,0.0215666,3.03014e-05,1.2638e-06,0.0500116,0.14168,10,-1393,0.0880522,0.0880522,3.87448,1,0.036
0.0368175,0.0377763,0.220491,0.0223149,3.73792e-05,-5.67393e-05,0.0500143,0.156815,10,-1242,0.0987124,0.0987124,2.52444,1,0.04
0.0368177,0.0377767,0.220691,0.0230453,4.51925e-05,-9.03529e-06,0.0500173,0.165407,10,-1153,0.108785,0.108785,1.33251,1,0.044
0.0368179,0.0377767,0.220891,0.0237463,5.37396e-05,-6.02352e-06,0.0500205,0.168688,10,-1120,0.119227,0.119227,0.233586,0.233586,0.048
0.0368181,0.0377767,0.221091,0.0244065,6.30187e-05,-4.01568e-06,0.0500241,0.167478,10,-1131,0.129609,0.129609,-0.828736,-0.828736,0.052
0.0368184,0.0377767,0.221292,0.0250567,7.3028e-05,-2.67712e-06,0.0500279,0.165837,10,-1142,0.139915,0.139915,-1.89821,-1,0.056
0.0368187,0.0377767,0.221492,0.0256921,8.37657e-05,-1.78475e-06,0.050032,0.163504,10,-1160,0.150129,0.150129,-2.97546,-1,0.06
0.036819,0.0377767,0.221692,0.0263278,9.52301e-05,-1.18983e-06,0.0500363,0.161978,10,-1170,0.16024,0.16024,-4.06567,-1,0.064
0.0368194,0.0377767,0.221892,0.0269535,0.000107419,-7.93221e-07,0.050041,0.160126,10,-1183,0.170237,0.170237,-5.16158,-1,0.068
0.0368199,0.0377767,0.222092,0.0275899,0.000120332,-5.28814e-07,0.0500459,0.159783,10,-1182,0.18011,0.18011,-6.26521,-1,0.072
0.0368204,0.0377767,0.222292,0.0282277,0.000133965,-3.52543e-07,0.0500511,0.15967,10,-1178,0.189851,0.189851,-7.3623,-1,0.076
0.036821,0.0377767,0.222493,0.0288651,0.000148318,-2.35029e-07,0.0500566,0.159566,9,-1174,0.199449,0.199449,-8.45075,-1,0.08
0.0368216,0.0377767,0.222693,0.0295132,0.000163389,-1.56686e-07,0.0500623,0.160389,9,-1162,0.208898,0.208898,-9.52985,-1,0.084
0.0368223,0.0377767,0.222893,0.0301379,0.000179176,-1.04457e-07,0.0500683,0.15898,9,-1170,0.218188,0.218188,-10.5925,-1,0.088
0.036823,0.0377767,0.223093,0.0307708,0.000195676,-6.96381e-08,0.0500746,0.158732,9,-1168,0.227312,0.227312,-11.659,-1,0.092
0.0368238,0.0377767,0.223294,0.0314152,0.00021289,-4.64254e-08,0.0500812,0.159516,9,-1156,0.236261,0.236261,-12.7176,-1,0.096
0.0368247,0.0377767,0.223494,0.032008,0.000230814,-3.09503e-08,0.050088,0.155749,9,-1188,0.245028,0.245028,-13.7619,-1,0.1
0.0368257,0.0377767,0.223694,0.0326023,0.000249446,-2.06335e-08,0.0500951,0.153353,9,-1206,0.253605,0.253605,-14.8337,-1,0.104
0.0368267,0.0377767,0.223895,0.0331937,0.000268786,-1.37557e-08,0.0501025,0.151526,8,-1220,0.261983,0.261983,-15.9199,-1,0.108
0.0368278,0.0377767,0.224095,0.0337762,0.000288831,-9.17045e-09,0.0501101,0.149559,8,-1235,0.270154,0.270154,-17.0151,-1,0.112
0.036829,0.0377767,0.224296,0.0343467,0.00030958,-6.11363e-09,0.050118,0.14724,8,-1253,0.278112,0.278112,-18.121,-1,0.116
0.0368303,0.0377767,0.224496,0.0349139,0.00033103,-4.07575e-09,0.0501262,0.145434,8,-1266,0.285846,0.285846,-19.2407,-1,0.12
0.0368317,0.0377767,0.224697,0.0354781,0.00035318,-2.71717e-09,0.0501346,0.143972,8,-1276,0.293351,0.293351,-20.369,-1,0.124
0.0368331,0.0377767,0.224897,0.0360368,0.000376029,-1.81145e-09,0.0501433,0.142536,8,-1286,0.300617,0.300617,-21.5028,-1,0.128
0.0368347,0.0377767,0.225098,0.0365989,0.000399574,-1.20763e-09,0.0501522,0.141867,7,-1289,0.307636,0.307636,-22.6414,-1,0.132
0.0368363,0.0377767,0.225298,0.0371659,0.000423814,-8.05087e-10,0.0501615,0.141824,7,-1285,0.314402,0.314402,-23.7771,-1,0.136
0.0368381,0.0377767,0.225499,0.0377432,0.000448746,-5.36725e-10,0.050171,0.142659,7,-1273,0.320904,0.320904,-24.9035,-1,0.14
0.0368399,0.0377767,0.2257,0.0383198,0.00047437,-3.57817e-10,0.0501807,0.143158,7,-1264,0.327136,0.327136,-26.0127,-1,0.144
0.0368419,0.0377767,0.2259,0.0388961,0.000500683,-2.38544e-10,0.0501907,0.143462,6,-1257,0.33309,0.33309,-27.108,-1,0.148
0.0368439,0.0377767,0.226101,0.0394748,0.000527684,-1.5903e-10,0.050201,0.143866,6,-1249,0.338757,0.338757,-28.1912,-1,0.152
0.0368461,0.0377767,0.226302,0.0400517,0.000555371,-1.0602e-10,0.0502115,0.143992,6,-1244,0.344129,0.344129,-29.2616,-1,0.156
0.0368484,0.0377767,0.226503,0.0406228,0.000583742,-7.06798e-11,0.0502223,0.143586,6,-1244,0.349199,0.349199,-30.3222,-1,0.16
0.0368508,0.0377767,0.226704,0.0411915,0.000612796,-4.71199e-11,0.0502333,0.143114,5,-1245,0.353957,0.353957,-31.3781,-1,0.164
0.0368533,0.0377767,0.226905,0.0417502,0.00064253,-3.14133e-11,0.0502446,0.141964,5,-1252,0.358397,0.358397,-32.4305,-1,0.168
0.0368559,0.0377767,0.227106,0.0423071,0.000672943,-2.09422e-11,0.0502562,0.141054,5,-1257,0.362509,0.362509,-33.4855,-1,0.172
0.0368587,0.0377767,0.227307,0.0428609,0.000704033,-1.39614e-11,0.050268,0.140188,4,-1262,0.366286,0.366286,-34.5409,-1,0.176
0.0368616,0.0377767,0.227508,0.0434054,0.000735798,-9.30763e-12,0.05028,0.138833,4,-1271,0.369719,0.369719,-35.5967,-1,0.18
0.0368646,0.0377774,0.227709,0.0439568,0.000768238,5.75818e-05,0.0502924,0.138506,4,-1270,0.372842,0.372842,-36.6569,-1,0.184
0.0368677,0.0377774,0.22791,0.04451,0.000801349,3.83879e-05,0.0503049,0.138431,4,-1267,0.376135,0.376135,-37.7116,-1,0.188
0.036871,0.0377774,0.228112,0.0450686,0.00083513,2.55919e-05,0.0503178,0.138842,3,-1259,0.378872,0.378872,-38.7581,-1,0.192
0.0368744,0.0377763,0.228313,0.0456328,0.00086958,-6.93115e-05,0.0503308,0.139577,2,-1249,0.381046,0.381046,-39.7918,-1,0.196
0.0368779,0.037777,0.228514,0.0462008,0.000904697,1.13742e-05,0.0503442,0.140384,2,-1237,0.381999,0.381999,-40.8095,-1,0.2
0.0368816,0.037777,0.228716,0.0467695,0.000940478,7.58279e-06,0.0503577,0.140979,2,-1227,0.383314,0.383314,-41.8108,-1,0.204
0.0368855,0.037777,0.228917,0.0473482,0.000976923,5.0552e-06,0.0503716,0.142211,2,-1212,0.384192,0.384192,-42.7973,-1,0.208
0.0368894,0.037777,0.229119,0.0479283,0.00101403,3.37013e-06,0.0503857,0.143147,1,-1199,0.384636,0.384636,-43.7633,-1,0.212
0.0368936,0.037777,0.22932,0.0485114,0.0010518,2.24675e-06,0.0504,0.144031,1,-1186,0.384646,0.384646,-44.7115,-1,0.216
0.0368979,0.037777,0.229522,0.0490988,0.00109022,1.49784e-06,0.0504145,0.144965,0,-1173,0.384219,0.384219,-45.6426,-1,0.22
0.0369023,0.037777,0.229723,0.0496941,0.0011293,9.98557e-07,0.0504294,0.14625,0,-1156,0.383351,0.383351,-46.5557,-1,0.224
0.0369069,0.0377774,0.229925,0.0502804,0.00116904,2.94566e-05,0.0504444,0.146358,0,-1151,0.382056,0.382056,-47.4486,-1,0.228
0.0369116,0.037777,0.230127,0.0508667,0.00120942,-9.15317e-06,0.0504597,0.14643,0,-1147,0.380551,0.380551,-48.3322,-1,0.232
0.0369166,0.037777,0.230329,0.0514754,0.00125046,-6.10211e-06,0.0504753,0.14835,-1,-1124,0.378227,0.378227,-49.2057,-1,0.236
0.0369216,0.037777,0.230531,0.0520437,0.00129215,-4.06808e-06,0.0504911,0.146261,-1,-1140,0.375466,0.375466,-50.0545,-1,0.24
0.0369269,0.037777,0.230733,0.0526238,0.00133449,-2.71205e-06,0.0505071,0.145847,-1,-1140,0.372249,0.372249,-50.9152,-1,0.244
0.0369323,0.037777,0.230935,0.0532198,0.00137747,-1.80803e-06,0.0505234,0.146896,-2,-1126,0.368562,0.368562,-51.7711,-1,0.248
0.0369379,0.037777,0.231137,0.0537899,0.00142109,-1.20536e-06,0.05054,0.145436,-2,-1136,0.364391,0.364391,-52.6102,-1,0.252
0.0369437,0.037777,0.231339,0.0543582,0.00146536,-8.03571e-07,0.0505567,0.144318,-3,-1143,0.359725,0.359725,-53.4558,-1,0.256
0.0369496,0.037777,0.231541,0.0549034,0.00151027,-5.35714e-07,0.0505737,0.141644,-3,-1165,0.354554,0.354554,-54.3059,-1,0.26
0.0369558,0.0377774,0.231744,0.0554765,0.00155582,2.84338e-05,0.050591,0.142194,-4,-1156,0.348889,0.348889,-55.1729,-1,0.264
0.0369621,0.0377774,0.231946,0.0560086,0.00160201,1.89559e-05,0.0506085,0.139134,-4,-1182,0.342965,0.342965,-56.0291,-1,0.268
0.0369686,0.0377774,0.232149,0.0565711,0.00164883,1.26372e-05,0.0506262,0.139627,-5,-1173,0.336414,0.336414,-56.9058,-1,0.272
0.0369753,0.0377774,0.232351,0.0570931,0.00169629,8.42482e-06,0.0506441,0.136588,-6,-1199,0.329258,0.329258,-57.7723,-1,0.276
0.0369822,0.0377774,0.232554,0.0576317,0.00174437,5.61655e-06,0.0506623,0.135944,-6,-1202,0.321511,0.321511,-58.6601,-1,0.28
0.0369892,0.0377777,0.232757,0.0581772,0.00179309,3.25353e-05,0.0506808,0.13609,-6,-1197,0.313197,0.313197,-59.5462,-1,0.284
0.0369965,0.0377774,0.232959,0.0587176,0.00184244,-7.10073e-06,0.0506994,0.135756,-7,-1196,0.304541,0.304541,-60.4235,-1,0.288
0.037004,0.0377781,0.233162,0.0592652,0.00189241,5.2848e-05,0.0507183,0.136137,-7,-1189,0.294979,0.294979,-61.2962,-1,0.292
0.0370117,0.0377784,0.233365,0.0598073,0.00194301,6.40229e-05,0.0507375,0.135931,-8,-1187,0.285405,0.285405,-62.1578,-1,0.296
0.0370195,0.0377784,0.233568,0.0603569,0.00199424,4.2682e-05,0.0507569,0.136427,-9,-1179,0.275331,0.275331,-63.0136,-1,0.3
0.0370276,0.0377784,0.233771,0.0609021,0.00204608,2.84546e-05,0.0507765,0.136384,-10,-1176,0.264446,0.264446,-63.8572,-1,0.304
0.0370359,0.0377784,0.233974,0.0614349,0.00209855,1.89698e-05,0.0507963,0.135318,-10,-1183,0.252813,0.252813,-64.6946,-1,0.308
0.0370444,0.0377784,0.234177,0.0619718,0.00215163,1.26465e-05,0.0508163,0.134953,-11,-1183,0.240468,0.240468,-65.5349,-1,0.312
0.0370531,0.0377791,0.234381,0.062498,0.00220534,6.60129e-05,0.0508366,0.133817,-11,-1190,0.227475,0.227475,-66.372,-1,0.316
0.037062,0.0377788,0.234584,0.063021,0.00225965,1.52176e-05,0.0508572,0.132801,-12,-1197,0.214313,0.214313,-67.2131,-1,0.32
0.0370712,0.0377788,0.234788,0.0635455,0.00231458,1.01451e-05,0.0508779,0.132239,-13,-1199,0.200029,0.200029,-68.0569,-1,0.324
0.0370806,0.0377788,0.234991,0.064063,0.00237012,6.7634e-06,0.0508989,0.131288,-14,-1205,0.185041,0.185041,-68.8994,-1,0.328
0.0370901,0.0377788,0.235195,0.0645816,0.00242628,4.50893e-06,0.0509201,0.13074,-15,-1207,0.16936,0.16936,-69.744,-1,0.332
0.0371,0.0377788,0.235399,0.0650995,0.00248304,3.00595e-06,0.0509415,0.130318,-15,-1207,0.152987,0.152987,-70.5868,-1,0.336
0.03711,0.0377791,0.235602,0.0656209,0.00254041,3.07949e-05,0.0509632,0.130324,-16,-1204,0.13594,0.13594,-71.4265,-1,0.34
0.0371203,0.0377798,0.235806,0.0661391,0.00259838,7.81118e-05,0.0509851,0.130069,-16,-1203,0.118502,0.118502,-72.2591,-1,0.344
0.0371308,0.0377805,0.23601,0.0666604,0.00265695,0.000109656,0.0510072,0.130158,-16,-1199,0.100838,0.100838,-73.0871,-1,0.348
0.0371415,0.0377812,0.236214,0.0671769,0.00271613,0.000130686,0.0510295,0.129815,-17,-1199,0.0827854,0.0827854,-73.9074,-1,0.352
0.0371525,0.0377808,0.236418,0.0676976,0.00277591,5.83331e-05,0.0510521,0.129931,-19,-1195,0.064172,0.064172,-74.7238,-1,0.356
0.0371638,0.0377808,0.236623,0.0682141,0.00283629,3.88888e-05,0.0510749,0.129663,-19,-1194,0.0441479,0.0441479,-75.5324,-1,0.36
0.0371752,0.0377815,0.236827,0.0687296,0.00289726,8.35077e-05,0.0510979,0.129398,-20,-1194,0.0232446,0.0232446,-76.3367,-1,0.364
0.0371869,0.0377815,0.237031,0.0692568,0.00295883,5.56718e-05,0.0511211,0.1302,-21,-1183,0.00200517,0.00200517,-77.1361,-1,0.368
0.0371989,0.0377819,0.237236,0.0697591,0.00302099,6.59055e-05,0.0511445,0.128662,-22,-1194,-0.0202327,-0.0202327,-77.9221,-1,0.372
0.0372111,0.0377833,0.237441,0.0702687,0.00308374,0.000159101,0.0511682,0.128241,-22,-1195,-0.0430621,-0.0430621,-78.7161,-1,0.376
0.0372236,0.0377839,0.237645,0.0707794,0.00314708,0.000163649,0.051192,0.128047,-22,-1194,-0.0657722,-0.0657722,-79.5073,-1,0.38
0.0372363,0.0377857,0.23785,0.0712921,0.00321101,0.000253054,0.0512161,0.128091,-22,-1190,-0.0891427,-0.0891427,-80.2936,-1,0.384
0.0372493,0.0377874,0.238055,0.0718093,0.00327553,0.000312657,0.0512405,0.128494,-23,-1183,-0.112404,-0.112404,-81.0724,-1,0.388
0.0372625,0.0377888,0.23826,0.072323,0.00334064,0.000323602,0.051265,0.128475,-23,-1180,-0.135875,-0.135875,-81.8408,-1,0.392
0.037276,0.0377912,0.238465,0.0728361,0.00340632,0.000417271,0.0512897,0.128404,-23,-1178,-0.159963,-0.159963,-82.6027,-1,0.396
0.0372897,0.0377936,0.23867,0.0733668,0.00347259,0.000479717,0.0513147,0.129826,-24,-1161,-0.183919,-0.183919,-83.3577,-1,0.4
0.0373038,0.0377964,0.238876,0.0738695,0.00353944,0.000550139,0.0513399,0.128441,-24,-1171,-0.208034,-0.208034,-84.0938,-1,0.404
0.0373181,0.0377998,0.239081,0.0743918,0.00360686,0.000654668,0.0513653,0.129159,-24,-1161,-0.232218,-0.232218,-84.8357,-1,0.408
0.0373326,0.0378033,0.239287,0.0749111,0.00367487,0.000724355,0.0513909,0.129379,-24,-1156,-0.256177,-0.256177,-85.5642,-1,0.412
0.0373475,0.0378071,0.239492,0.0754401,0.00374344,0.000799603,0.0514167,0.130332,-24,-1143,-0.280242,-0.280242,-86.2835,-1,0.416
0.0373626,0.0378109,0.239698,0.0759579,0.00381259,0.000849769,0.0514427,0.130045,-24,-1143,-0.304381,-0.304381,-86.9876,-1,0.42
0.037378,0.0378147,0.239904,0.0764596,0.00388232,0.000883213,0.0514689,0.128501,-25,-1155,-0.328849,-0.328849,-87.689,-1,0.424
0.0373936,0.0378188,0.24011,0.076973,0.00395261,0.0009343,0.0514954,0.128451,-25,-1152,-0.353797,-0.353797,-88.3985,-1,0.428
0.0374096,0.0378226,0.240316,0.0774854,0.00402347,0.000939567,0.051522,0.128331,-26,-1150,-0.379099,-0.379099,-89.1022,-1,0.432
0.0374258,0.0378264,0.240522,0.0779953,0.0040949,0.000943078,0.0515489,0.128049,-27,-1150,-0.405193,-0.405193,-89.8009,-1,0.436
0.0374423,0.0378295,0.240728,0.0785035,0.00416689,0.000887837,0.051576,0.127718,-29,-1150,-0.432145,-0.432145,-90.4961,-1,0.44
0.0374591,0.0378327,0.240935,0.0790072,0.00423945,0.00085101,0.0516032,0.127122,-30,-1153,-0.460504,-0.460504,-91.1886,-1,0.444
0.0374763,0.0378358,0.241141,0.0795079,0.00431256,0.000826458,0.0516307,0.126466,-31,-1156,-0.490099,-0.490099,-91.8809,-1,0.448
0.0374937,0.0378392,0.241348,0.0800068,0.00438624,0.000838881,0.0516584,0.125885,-32,-1159,-0.5208,-0.5208,-92.5735,-1,0.452
0.0375113,0.0378427,0.241554,0.0805167,0.00446048,0.000847163,0.0516863,0.126419,-33,-1150,-0.552271,-0.552271,-93.2651,-1,0.456
0.0375293,0.0378461,0.241761,0.0809942,0.00453527,0.000852685,0.0517144,0.124068,-34,-1170,-0.584561,-0.584561,-93.947,-1,0.46
0.0375476,0.0378489,0.241968,0.0814841,0.00461062,0.000798784,0.0517427,0.123538,-36,-1172,-0.617747,-0.617747,-94.6453,-1,0.464
0.0375662,0.037852,0.242175,0.0819757,0.00468652,0.000791641,0.0517712,0.123328,-37,-1172,-0.652362,-0.652362,-95.3427,-1,0.468
0.0375851,0.0378558,0.242382,0.0824629,0.00476298,0.000844461,0.0518,0.122814,-37,-1174,-0.687938,-0.687938,-96.0362,-1,0.472
0.0376043,0.0378603,0.242589,0.0829524,0.00483998,0.000937256,0.0518289,0.122673,-37,-1172,-0.72389,-0.72389,-96.7287,-1,0.476
0.0376238,0.0378644,0.242797,0.0834437,0.00491753,0.000970328,0.051858,0.122722,-38,-1169,-0.759892,-0.759892,-97.4165,-1,0.48
0.0376437,0.0378707,0.243004,0.0839547,0.00499563,0.00116512,0.0518873,0.124397,-37,-1150,-0.796397,-0.796397,-98.0967,-1,0.484
0.0376638,0.0378765,0.243212,0.0844453,0.00507428,0.00126619,0.0519168,0.123814,-37,-1153,-0.831956,-0.831956,-98.7556,-1,0.488
0.0376843,0.0378834,0.24342,0.0849442,0.00515347,0.00141995,0.0519465,0.124117,-37,-1147,-0.867416,-0.867416,-99.4139,-1,0.492
0.037705,0.0378917,0.243627,0.0854534,0.0052332,0.00163761,0.0519765,0.125182,-36,-1134,-0.90224,-0.90224,-100.063,-1,0.496
0.0377261,0.0379007,0.243835,0.0859658,0.00531347,0.00184031,0.0520066,0.126152,-35,-1121,-0.93584,-0.93584,-100.695,-1,0.5
0.0377475,0.0379107,0.244043,0.0864878,0.00539428,0.00206181,0.0520369,0.127604,-34,-1104,-0.968344,-0.968344,-101.311,-1,0.504
0.0377693,0.0379208,0.244252,0.0869998,0.00547563,0.00220948,0.0520674,0.127738,-34,-1100,-0.999625,-0.999625,-101.908,-1,0.508
0.0377913,0.0379311,0.24446,0.0875219,0.00555751,0.00233671,0.0520981,0.128662,-33,-1088,-1.03039,-1,-102.497,-1,0.512
0.0378137,0.0379415,0.244668,0.0880408,0.00563993,0.00242154,0.052129,0.129018,-33,-1081,-1.06073,-1,-103.072,-1,0.516
0.0378365,0.0379519,0.244877,0.0885642,0.00572288,0.00247808,0.0521601,0.12963,-34,-1072,-1.09107,-1,-103.637,-1,0.52
0.0378595,0.0379633,0.245086,0.089079,0.00580636,0.00260216,0.0521913,0.129319,-33,-1072,-1.12162,-1,-104.191,-1,0.524
0.0378829,0.037976,0.245295,0.0895948,0.00589036,0.00280004,0.0522228,0.129197,-32,-1070,-1.15172,-1,-104.742,-1,0.528
0.0379067,0.0379905,0.245504,0.090111,0.0059749,0.00307591,0.0522545,0.129145,-31,-1068,-1.18061,-1,-105.289,-1,0.532
0.0379307,0.0380054,0.245713,0.0906406,0.00605996,0.00328862,0.0522863,0.130233,-30,-1054,-1.20762,-1,-105.83,-1,0.536
0.0379551,0.0380209,0.245922,0.0911444,0.00614555,0.003488,0.0523184,0.128799,-29,-1065,-1.23335,-1,-106.356,-1,0.54
0.0379799,0.0380368,0.246131,0.0916588,0.00623166,0.00364972,0.0523506,0.128736,-28,-1062,-1.25796,-1,-106.89,-1,0.544
0.038005,0.0380531,0.246341,0.0921712,0.00631829,0.00378632,0.0523831,0.128521,-28,-1061,-1.28182,-1,-107.419,-1,0.548
0.0380304,0.0380683,0.24655,0.0926953,0.00640544,0.00379101,0.0524157,0.129356,-28,-1050,-1.30527,-1,-107.944,-1,0.552
0.0380562,0.0380814,0.24676,0.093189,0.00649311,0.0036214,0.0524485,0.12738,-31,-1066,-1.32968,-1,-108.458,-1,0.556
0.0380824,0.0380945,0.24697,0.0936879,0.00658129,0.00350832,0.0524815,0.126494,-33,-1072,-1.35664,-1,-108.985,-1,0.56
0.0381089,0.0381073,0.24718,0.0941785,0.00666999,0.00340414,0.0525147,0.125212,-35,-1082,-1.38561,-1,-109.515,-1,0.564
0.0381357,0.0381215,0.24739,0.0946639,0.0067592,0.00344986,0.052548,0.123926,-36,-1091,-1.41643,-1,-110.054,-1,0.568
0.038163,0.0381357,0.2476,0.0951434,0.00684892,0.00348033,0.0525816,0.122579,-36,-1102,-1.4477,-1,-110.6,-1,0.572
0.0381905,0.0381505,0.247811,0.0956326,0.00693915,0.00355823,0.0526153,0.122487,-37,-1100,-1.47953,-1,-111.153,-1,0.576
0.0382185,0.0381647,0.248021,0.0960977,0.00702989,0.00355258,0.0526493,0.120411,-38,-1117,-1.51154,-1,-111.704,-1,0.58
0.0382468,0.0381802,0.248232,0.0965786,0.00712114,0.00366398,0.0526834,0.120351,-38,-1115,-1.54444,-1,-112.268,-1,0.584
0.0382754,0.0381972,0.248443,0.0970668,0.00721289,0.00385341,0.0527177,0.120916,-37,-1107,-1.57708,-1,-112.828,-1,0.588
0.0383045,0.0382155,0.248654,0.0975577,0.00730515,0.00409486,0.0527521,0.121522,-36,-1098,-1.6087,-1,-113.376,-1,0.592
0.0383339,0.0382352,0.248865,0.0980549,0.0073979,0.00437099,0.0527868,0.122445,-34,-1087,-1.6388,-1,-113.914,-1,0.596
0.0383637,0.0382559,0.249076,0.0985762,0.00749116,0.00464145,0.0528216,0.125075,-32,-1058,-1.66705,-1,-114.435,-1,0.6
0.0383938,0.0382749,0.249287,0.0990696,0.00758492,0.0046778,0.0528566,0.124497,-33,-1061,-1.69367,-1,-114.927,-1,0.604
0.0384243,0.0382932,0.249499,0.0995861,0.00767917,0.00464445,0.0528918,0.12604,-34,-1043,-1.72093,-1,-115.419,-1,0.608
0.0384552,0.0383119,0.24971,0.100105,0.00777392,0.00465101,0.0529272,0.127271,-35,-1029,-1.74943,-1,-115.89,-1,0.612
0.0384865,0.0383312,0.249922,0.100626,0.00786916,0.00471297,0.0529627,0.128293,-36,-1016,-1.77879,-1,-116.343,-1,0.616
0.0385182,0.0383505,0.250134,0.101148,0.00796489,0.00475427,0.0529985,0.128974,-36,-1006,-1.80849,-1,-116.782,-1,0.62
0.0385503,0.0383702,0.250346,0.101676,0.00806112,0.0048106,0.0530344,0.130033,-37,-993,-1.83873,-1,-117.208,-1,0.624
0.0385827,0.038391,0.250558,0.102198,0.00815783,0.00493452,0.0530704,0.130163,-37,-989,-1.86932,-1,-117.62,-1,0.628
0.0386155,0.0384127,0.250771,0.10272,0.00825503,0.00510351,0.0531067,0.130278,-36,-984,-1.8996,-1,-118.025,-1,0.632
0.0386487,0.0384359,0.250983,0.103254,0.00835272,0.00533133,0.0531431,0.131334,-35,-971,-1.92912,-1,-118.423,-1,0.636
0.0386823,0.038458,0.251196,0.103759,0.00845089,0.00539684,0.0531797,0.12962,-36,-985,-1.95744,-1,-118.808,-1,0.64
0.0387163,0.0384808,0.251409,0.104269,0.00854955,0.00549809,0.0532165,0.128937,-36,-988,-1.98606,-1,-119.205,-1,0.644
0.0387507,0.0385039,0.251622,0.104771,0.00864868,0.00559439,0.0532535,0.127763,-36,-997,-2.01465,-1,-119.603,-1,0.648
0.0387855,0.0385281,0.251835,0.105281,0.0087483,0.00574496,0.0532906,0.127699,-35,-994,-2.04324,-1,-120.009,-1,0.652
0.0388207,0.0385506,0.252048,0.105757,0.00884839,0.00570138,0.0533279,0.124778,-37,-1020,-2.07144,-1,-120.411,-1,0.656
0.0388563,0.0385741,0.252261,0.106238,0.00894896,0.0057587,0.0533653,0.12332,-37,-1031,-2.10101,-1,-120.838,-1,0.66
0.0388923,0.0385986,0.252475,0.106712,0.00905,0.00588329,0.053403,0.121714,-37,-1044,-2.13097,-1,-121.274,-1,0.664
0.0389287,0.0386245,0.252688,0.107184,0.00915152,0.00608151,0.0534408,0.120471,-37,-1054,-2.16064,-1,-121.722,-1,0.668
0.0389655,0.0386508,0.252902,0.107659,0.00925351,0.00624245,0.0534787,0.119873,-36,-1057,-2.18936,-1,-122.177,-1,0.672
0.0390027,0.0386767,0.253116,0.108118,0.00935597,0.00632095,0.0535169,0.11815,-36,-1071,-2.21755,-1,-122.634,-1,0.676
0.0390404,0.0387029,0.25333,0.108577,0.0094589,0.00640208,0.0535552,0.117087,-37,-1079,-2.24596,-1,-123.104,-1,0.68
0.0390784,0.0387306,0.253545,0.109051,0.00956229,0.00657133,0.0535937,0.117502,-36,-1073,-2.27454,-1,-123.579,-1,0.684
0.0391169,0.0387568,0.253759,0.109495,0.00966615,0.006569,0.0536323,0.115388,-37,-1091,-2.30257,-1,-124.046,-1,0.688
0.0391557,0.0387838,0.253974,0.109952,0.00977048,0.00662502,0.0536711,0.11493,-38,-1093,-2.33162,-1,-124.529,-1,0.692
0.039195,0.0388111,0.254189,0.110406,0.00987527,0.00669116,0.0537101,0.114509,-38,-1095,-2.36115,-1,-125.012,-1,0.696
0.0392347,0.0388401,0.254403,0.11087,0.00998051,0.00687921,0.0537492,0.115005,-38,-1087,-2.39098,-1,-125.494,-1,0.7
0.0392749,0.0388684,0.254619,0.11132,0.0100862,0.006947,0.0537885,0.114156,-38,-1093,-2.42005,-1,-125.968,-1,0.704
0.0393154,0.0388961,0.254834,0.111762,0.0101924,0.00693461,0.053828,0.112956,-40,-1103,-2.44956,-1,-126.446,-1,0.708
0.0393564,0.0389248,0.255049,0.112207,0.010299,0.00701272,0.0538676,0.112358,-40,-1106,-2.4802,-1,-126.931,-1,0.712
0.0393978,0.0389548,0.255265,0.112661,0.0104061,0.00717996,0.0539074,0.112708,-39,-1101,-2.51105,-1,-127.417,-1,0.716
0.0394397,0.0389849,0.25548,0.113102,0.0105136,0.00729145,0.0539473,0.111933,-40,-1106,-2.54134,-1,-127.896,-1,0.72
0.0394819,0.0390149,0.255696,0.113529,0.0106216,0.00736578,0.0539874,0.110237,-40,-1120,-2.57161,-1,-128.379,-1,0.724
0.0395246,0.0390471,0.255912,0.113972,0.01073,0.00758807,0.0540277,0.110372,-39,-1117,-2.60211,-1,-128.874,-1,0.728
0.0395678,0.0390785,0.256129,0.114392,0.0108389,0.00767869,0.0540681,0.108562,-39,-1133,-2.63155,-1,-129.364,-1,0.732
0.0396114,0.0391106,0.256345,0.114819,0.0109482,0.00779668,0.0541087,0.107989,-39,-1136,-2.66116,-1,-129.867,-1,0.736
0.0396554,0.0391421,0.256561,0.115247,0.011058,0.00781776,0.0541494,0.107636,-40,-1138,-2.69074,-1,-130.371,-1,0.74
0.0396998,0.0391728,0.256778,0.115674,0.0111682,0.00777423,0.0541903,0.107372,-42,-1138,-2.72126,-1,-130.875,-1,0.744
0.0397447,0.0392025,0.256995,0.116097,0.0112789,0.00765884,0.0542314,0.106821,-44,-1142,-2.75336,-1,-131.377,-1,0.748
0.0397901,0.0392316,0.257212,0.116519,0.01139,0.00752433,0.0542726,0.106397,-47,-1144,-2.78774,-1,-131.881,-1,0.752
0.0398358,0.0392578,0.257429,0.116934,0.0115015,0.00720433,0.054314,0.105451,-51,-1151,-2.8247,-1,-132.385,-1,0.756
0.0398821,0.0392813,0.257646,0.117343,0.0116135,0.00676067,0.0543555,0.104447,-57,-1159,-2.86608,-1,-132.894,-1,0.76
0.0399287,0.0393013,0.257864,0.117753,0.0117259,0.00617699,0.0543972,0.103777,-64,-1164,-2.91312,-1,-133.409,-1,0.764
0.0399759,0.0393193,0.258082,0.118162,0.0118387,0.00561512,0.054439,0.103245,-70,-1167,-2.96712,-1,-133.927,-1,0.768
0.0400235,0.0393349,0.258299,0.118576,0.011952,0.005039,0.054481,0.103379,-77,-1164,-3.02789,-1,-134.445,-1,0.772
0.0400715,0.0393476,0.258517,0.118979,0.0120657,0.0044246,0.0545231,0.102461,-85,-1171,-3.09559,-1,-134.959,-1,0.776
0.04012,0.0393594,0.258736,0.119388,0.0121799,0.00392863,0.0545654,0.102424,-91,-1170,-3.17051,-1,-135.477,-1,0.78
0.0401689,0.0393694,0.258954,0.119798,0.0122944,0.00345402,0.0546078,0.1024,-97,-1169,-3.25152,-1,-135.991,-1,0.784
0.0402183,0.0393791,0.259173,0.120191,0.0124094,0.00310883,0.0546504,0.101031,-102,-1180,-3.33834,-1,-136.503,-1,0.788
0.0402682,0.0393898,0.259391,0.120597,0.0125248,0.00296507,0.0546931,0.101241,-105,-1176,-3.42963,-1,-137.023,-1,0.792
0.0403185,0.0394012,0.25961,0.121008,0.0126407,0.00292681,0.054736,0.101726,-106,-1170,-3.52344,-1,-137.538,-1,0.796
0.0403693,0.039414,0.259829,0.121419,0.0127569,0.00301647,0.054779,0.102021,-107,-1166,-3.6187,-1,-138.043,-1,0.8
0.0404206,0.0394278,0.260048,0.121829,0.0128736,0.00316262,0.0548222,0.102247,-107,-1162,-3.71418,-1,-138.541,-1,0.804
0.0404723,0.0394413,0.260268,0.122241,0.0129907,0.00323126,0.0548655,0.102454,-108,-1158,-3.80941,-1,-139.034,-1,0.808
0.0405245,0.039454,0.260487,0.122654,0.0131083,0.00321944,0.054909,0.102737,-110,-1154,-3.90518,-1,-139.52,-1,0.812
0.0405772,0.0394654,0.260707,0.123081,0.0132262,0.00309639,0.0549526,0.104048,-112,-1139,-4.00231,-1,-139.999,-1,0.816
0.0406303,0.0394741,0.260927,0.123492,0.0133446,0.00278403,0.0549963,0.103598,-117,-1142,-4.10198,-1,-140.462,-1,0.82
0.0406839,0.039481,0.261147,0.123919,0.0134633,0.00243184,0.0550402,0.104651,-122,-1130,-4.20599,-1,-140.925,-1,0.824
0.040738,0.0394862,0.261367,0.124346,0.0135825,0.00205309,0.0550843,0.105353,-127,-1121,-4.31472,-1,-141.373,-1,0.828
0.0407926,0.03949,0.261588,0.12477,0.0137021,0.00168543,0.0551285,0.105619,-132,-1117,-4.42842,-1,-141.811,-1,0.832
0.0408477,0.0394927,0.261808,0.125207,0.0138221,0.00135395,0.0551728,0.106833,-137,-1103,-4.54696,-1,-142.242,-1,0.836
0.0409032,0.0394952,0.262029,0.125621,0.0139425,0.00110417,0.0552173,0.105714,-141,-1112,-4.66996,-1,-142.658,-1,0.84
0.0409592,0.0394976,0.26225,0.126046,0.0140633,0.000937648,0.0552619,0.105831,-145,-1109,-4.7966,-1,-143.081,-1,0.844
0.0410157,0.0395003,0.262471,0.12647,0.0141845,0.000855426,0.0553066,0.105938,-147,-1107,-4.92605,-1,-143.5,-1,0.848
0.0410727,0.0395038,0.262692,0.1269,0.0143061,0.000858193,0.0553515,0.106441,-149,-1100,-5.05746,-1,-143.913,-1,0.852
0.0411301,0.0395083,0.262914,0.12731,0.0144282,0.000946411,0.0553966,0.105107,-150,-1111,-5.19,-1,-144.318,-1,0.856
0.0411881,0.0395135,0.263136,0.127724,0.0145506,0.0010628,0.0554417,0.104563,-150,-1115,-5.32284,-1,-144.733,-1,0.86
0.0412465,0.0395193,0.263357,0.128141,0.0146734,0.00119798,0.055487,0.104459,-151,-1114,-5.45573,-1,-145.15,-1,0.864
0.0413055,0.0395252,0.263579,0.128559,0.0147966,0.0012881,0.0555325,0.104505,-152,-1112,-5.58851,-1,-145.563,-1,0.868
0.0413649,0.0395318,0.263802,0.128975,0.0149202,0.00140576,0.0555781,0.104334,-152,-1112,-5.7216,-1,-145.973,-1,0.872
0.0414248,0.0395383,0.264024,0.129392,0.0150442,0.0014842,0.0556238,0.104336,-153,-1110,-5.85476,-1,-146.381,-1,0.876
0.0414853,0.0395449,0.264247,0.129812,0.0151686,0.0015365,0.0556696,0.104567,-155,-1106,-5.98838,-1,-146.785,-1,0.88
0.0415462,0.0395511,0.264469,0.130229,0.0152934,0.00154257,0.0557156,0.104462,-156,-1105,-6.12275,-1,-147.184,-1,0.884
0.0416076,0.039557,0.264692,0.130649,0.0154186,0.00151782,0.0557617,0.104622,-158,-1102,-6.25832,-1,-147.58,-1,0.888
0.0416695,0.0395625,0.264916,0.131068,0.0155441,0.00147254,0.055808,0.104672,-161,-1100,-6.39539,-1,-147.97,-1,0.892
0.041732,0.0395677,0.265139,0.131485,0.0156701,0.00141356,0.0558544,0.104503,-163,-1100,-6.53416,-1,-148.357,-1,0.896
0.0417949,0.0395726,0.265362,0.131902,0.0157964,0.00134544,0.0559009,0.10439,-165,-1099,-6.67478,-1,-148.742,-1,0.9
0.0418583,0.039577,0.265586,0.13232,0.0159231,0.00127124,0.0559475,0.104488,-168,-1097,-6.81733,-1,-149.125,-1,0.904
0.0419223,0.0395819,0.26581,0.132739,0.0160502,0.00125057,0.0559943,0.104553,-170,-1094,-6.96184,-1,-149.503,-1,0.908
0.0419867,0.0395871,0.266034,0.133157,0.0161777,0.00126558,0.0560412,0.104511,-172,-1093,-7.1078,-1,-149.878,-1,0.912
0.0420517,0.0395929,0.266258,0.133572,0.0163056,0.00133316,0.0560883,0.104252,-173,-1094,-7.25483,-1,-150.249,-1,0.916
0.0421172,0.0395998,0.266483,0.133991,0.0164338,0.00146459,0.0561354,0.104482,-173,-1090,-7.4024,-1,-150.62,-1,0.92
0.0421832,0.0396085,0.266707,0.134414,0.0165624,0.00169617,0.0561827,0.104866,-173,-1085,-7.54986,-1,-150.984,-1,0.924
0.0422497,0.0396192,0.266932,0.134839,0.0166914,0.0020233,0.0562302,0.105352,-172,-1078,-7.69622,-1,-151.342,-1,0.928
0.0423167,0.0396316,0.267157,0.135264,0.0168208,0.00238534,0.0562777,0.105619,-170,-1074,-7.84056,-1,-151.691,-1,0.932
0.0423843,0.0396461,0.267382,0.135686,0.0169505,0.00279944,0.0563254,0.105566,-168,-1073,-7.98253,-1,-152.034,-1,0.936
0.0424523,0.039662,0.267608,0.136105,0.0170806,0.00319068,0.0563732,0.10533,-166,-1073,-8.12166,-1,-152.375,-1,0.94
0.0425209,0.0396786,0.267833,0.136521,0.0172111,0.00350908,0.0564211,0.104884,-165,-1076,-8.25822,-1,-152.715,-1,0.944
0.04259,0.0396973,0.268059,0.136936,0.0173419,0.0038941,0.0564692,0.104529,-163,-1078,-8.39285,-1,-153.057,-1,0.948
0.0426596,0.0397187,0.268285,0.137362,0.0174731,0.0043811,0.0565174,0.105157,-160,-1070,-8.52486,-1,-153.398,-1,0.952
0.0427298,0.0397415,0.268511,0.137765,0.0176047,0.00482094,0.0565657,0.103646,-158,-1083,-8.65334,-1,-153.731,-1,0.956
0.0428005,0.0397691,0.268738,0.138179,0.0177366,0.00551723,0.0566141,0.103618,-153,-1082,-8.77856,-1,-154.074,-1,0.96
0.0428717,0.0398016,0.268964,0.138601,0.0178689,0.0063845,0.0566627,0.104232,-146,-1074,-8.89801,-1,-154.415,-1,0.964
0.0429434,0.0398365,0.269191,0.139013,0.0180015,0.00716422,0.0567113,0.103864,-140,-1076,-9.01019,-1,-154.747,-1,0.968
0.0430157,0.0398762,0.269418,0.139429,0.0181345,0.0080871,0.0567601,0.103936,-133,-1074,-9.11579,-1,-155.079,-1,0.972
0.0430885,0.0399194,0.269645,0.139849,0.0182679,0.00899027,0.056809,0.104272,-126,-1069,-9.21353,-1,-155.407,-1,0.976
0.0431618,0.0399664,0.269872,0.140275,0.0184016,0.00990908,0.0568581,0.105014,-119,-1060,-9.30356,-1,-155.729,-1,0.98
0.0432357,0.0400151,0.2701,0.140689,0.0185357,0.0106656,0.0569072,0.104501,-113,-1063,-9.38587,-1,-156.04,-1,0.984
0.0433101,0.040069,0.270328,0.141109,0.0186701,0.0116018,0.0569565,0.104648,-106,-1060,-9.46183,-1,-156.354,-1,0.988
0.0433851,0.040125,0.270556,0.141519,0.0188049,0.0123986,0.0570059,0.10394,-100,-1066,-9.52989,-1,-156.663,-1,0.992
0.0434606,0.0401841,0.270784,0.141929,0.01894,0.013189,0.0570554,0.103497,-94,-1068,-9.59133,-1,-156.976,-1,0.996
0.0435366,0.0402456,0.271012,0.142337,0.0190755,0.0139175,0.057105,0.102943,-88,-1072,-9.64628,-1,-157.291,-1,1
0.0436132,0.0403078,0.271241,0.142741,0.0192113,0.0144607,0.0571547,0.102314,-85,-1077,-9.69544,-1,-157.608,-1,1.004
0.0436903,0.0403717,0.271469,0.143146,0.0193475,0.0149668,0.0572046,0.101952,-81,-1079,-9.74055,-1,-157.929,-1,1.008
0.043768,0.0404394,0.271698,0.143555,0.019484,0.0156209,0.0572546,0.102085,-77,-1076,-9.78186,-1,-158.25,-1,1.012
0.0438462,0.0405068,0.271927,0.143947,0.0196208,0.0160281,0.0573046,0.100735,-74,-1088,-9.81818,-1,-158.567,-1,1.016
0.0439249,0.0405776,0.272157,0.144347,0.019758,0.0165876,0.0573548,0.100467,-70,-1089,-9.85168,-1,-158.895,-1,1.02
0.0440042,0.0406481,0.272386,0.144743,0.0198956,0.0169317,0.0574051,0.0999439,-68,-1092,-9.88112,-1,-159.223,-1,1.024
0.0440841,0.0407199,0.272616,0.145139,0.0200334,0.0172763,0.0574556,0.0996237,-66,-1094,-9.90849,-1,-159.552,-1,1.028
0.0441645,0.0407932,0.272846,0.145533,0.0201717,0.0176212,0.0575061,0.0992662,-64,-1096,-9.93379,-1,-159.882,-1,1.032
0.0442455,0.0408695,0.273076,0.145925,0.0203102,0.0181103,0.0575568,0.098884,-61,-1099,-9.95692,-1,-160.213,-1,1.036
0.044327,0.040948,0.273306,0.146315,0.0204491,0.0186091,0.0576075,0.0984276,-58,-1102,-9.97654,-1,-160.545,-1,1.04
0.0444091,0.041025,0.273537,0.1467,0.0205883,0.0188264,0.0576584,0.0976339,-57,-1108,-9.99276,-1,-160.879,-1,1.044
0.0444917,0.0411031,0.273767,0.14708,0.0207278,0.0190577,0.0577093,0.0967593,-56,-1115,-10.0082,-1,-161.218,-1,1.048
0.0445749,0.0411829,0.273998,0.147461,0.0208677,0.0193558,0.0577604,0.0962914,-55,-1119,-10.0226,-1,-161.563,-1,1.052
0.0446586,0.0412644,0.27423,0.147844,0.0210079,0.0196985,0.0578116,0.0960946,-53,-1119,-10.0355,-1,-161.909,-1,1.056
0.0447429,0.041346,0.274461,0.148225,0.0211484,0.019927,0.0578629,0.0957907,-52,-1121,-10.0464,-1,-162.255,-1,1.06
0.0448278,0.0414282,0.274692,0.148608,0.0212893,0.0201369,0.0579143,0.0957896,-52,-1120,-10.0564,-1,-162.601,-1,1.064
0.0449133,0.0415125,0.274924,0.148994,0.0214304,0.0204496,0.0579659,0.0960768,-50,-1116,-10.0656,-1,-162.944,-1,1.068
0.0449993,0.0415982,0.275156,0.149383,0.0215719,0.0207732,0.0580175,0.0964122,-48,-1112,-10.0732,-1,-163.282,-1,1.072
0.0450858,0.0416838,0.275388,0.149772,0.0217137,0.020989,0.0580692,0.0967509,-47,-1107,-10.079,-1,-163.613,-1,1.076
0.045173,0.0417685,0.275621,0.150163,0.0218559,0.0210464,0.058121,0.0970344,-48,-1103,-10.0841,-1,-163.938,-1,1.08
0.0452607,0.0418569,0.275853,0.15056,0.0219983,0.0214014,0.058173,0.0977991,-46,-1094,-10.0899,-1,-164.257,-1,1.084
0.045349,0.0419454,0.276086,0.15095,0.0221411,0.0216381,0.058225,0.0977044,-45,-1094,-10.0936,-1,-164.567,-1,1.088
0.0454378,0.0420304,0.276319,0.151321,0.0222842,0.021508,0.0582771,0.0960001,-48,-1109,-10.0966,-1,-164.876,-1,1.092
0.0455272,0.0421167,0.276552,0.151703,0.0224276,0.0215364,0.0583294,0.0959004,-49,-1109,-10.1023,-1,-165.198,-1,1.096
0.0456172,0.0422062,0.276786,0.15209,0.0225713,0.0218144,0.0583817,0.0961795,-48,-1105,-10.1088,-1,-165.519,-1,1.1
0.0457078,0.0422964,0.277019,0.152472,0.0227153,0.0220574,0.0584342,0.0959624,-47,-1106,-10.1141,-1,-165.834,-1,1.104
0.045799,0.0423859,0.277253,0.152848,0.0228596,0.0221618,0.0584867,0.0952995,-47,-1112,-10.1185,-1,-166.15,-1,1.108
0.0458907,0.0424754,0.277487,0.153233,0.0230043,0.0222314,0.0585394,0.0955773,-48,-1108,-10.1233,-1,-166.469,-1,1.112
0.045983,0.0425669,0.277722,0.153621,0.0231492,0.0224505,0.0585921,0.0960216,-47,-1102,-10.1287,-1,-166.782,-1,1.116
0.0460759,0.0426578,0.277956,0.154008,0.0232945,0.022539,0.058645,0.0963178,-48,-1098,-10.1334,-1,-167.088,-1,1.12
0.0461693,0.0427504,0.278191,0.154405,0.02344,0.022742,0.0586979,0.0972927,-47,-1088,-10.1387,-1,-167.389,-1,1.124
0.0462634,0.0428423,0.278426,0.154801,0.0235859,0.0228197,0.0587509,0.0978274,-48,-1081,-10.1434,-1,-167.677,-1,1.128
0.046358,0.0429356,0.278661,0.155199,0.023732,0.0229867,0.0588041,0.0984142,-48,-1074,-10.1487,-1,-167.958,-1,1.132
0.0464532,0.0430333,0.278896,0.155611,0.0238785,0.0234723,0.0588573,0.0998994,-45,-1059,-10.1536,-1,-168.229,-1,1.136
0.0465491,0.0431256,0.279132,0.155999,0.0240253,0.0233354,0.0589107,0.0989894,-47,-1066,-10.1556,-1,-168.485,-1,1.14
0.0466455,0.0432192,0.279367,0.156397,0.0241723,0.0233593,0.0589641,0.0991601,-48,-1063,-10.1602,-1,-168.747,-1,1.144
0.0467424,0.0433153,0.279603,0.156797,0.0243197,0.0235767,0.0590176,0.0994178,-48,-1060,-10.166,-1,-169.004,-1,1.148
0.04684,0.0434148,0.279839,0.157203,0.0244673,0.0240096,0.0590712,0.100079,-45,-1052,-10.1708,-1,-169.256,-1,1.152
0.0469382,0.0435087,0.280076,0.157582,0.0246152,0.0238375,0.0591249,0.098303,-48,-1068,-10.1733,-1,-169.501,-1,1.156
0.0470369,0.0436055,0.280312,0.157966,0.0247635,0.0239531,0.0591787,0.0976085,-49,-1074,-10.1787,-1,-169.761,-1,1.16
0.0471363,0.0437043,0.280549,0.158345,0.024912,0.024203,0.0592326,0.0966272,-48,-1082,-10.1843,-1,-170.025,-1,1.164
0.0472362,0.0438069,0.280786,0.158736,0.0250608,0.0246862,0.0592866,0.0969806,-44,-1077,-10.1887,-1,-170.296,-1,1.168
0.0473368,0.0439026,0.281024,0.159108,0.0252099,0.0244326,0.0593407,0.0956616,-48,-1089,-10.1904,-1,-170.562,-1,1.172
0.0474379,0.0440024,0.281261,0.159491,0.0253593,0.024609,0.0593948,0.0957035,-48,-1088,-10.1957,-1,-170.838,-1,1.176
0.0475396,0.044104,0.281499,0.159873,0.0255089,0.0248705,0.0594491,0.0956163,-47,-1087,-10.2007,-1,-171.111,-1,1.18
0.047642,0.0442049,0.281737,0.160253,0.0256589,0.0249873,0.0595035,0.095443,-47,-1088,-10.2046,-1,-171.383,-1,1.184
0.0477449,0.0443068,0.281975,0.160634,0.0258091,0.0251515,0.0595579,0.0953275,-47,-1088,-10.2089,-1,-171.655,-1,1.188
0.0478485,0.0444112,0.282213,0.161016,0.0259596,0.0254625,0.0596124,0.0953944,-46,-1086,-10.2129,-1,-171.925,-1,1.192
0.0479526,0.0445165,0.282452,0.161402,0.0261104,0.0257563,0.059667,0.0957557,-44,-1082,-10.2153,-1,-172.192,-1,1.196
0.0480573,0.0446195,0.28269,0.16178,0.0262615,0.0257505,0.0597217,0.095392,-46,-1084,-10.2165,-1,-172.454,-1,1.2
0.0481627,0.0447252,0.282929,0.162168,0.0264128,0.025977,0.0597765,0.0959269,-45,-1078,-10.219,-1,-172.716,-1,1.204
0.0482686,0.0448295,0.283169,0.16254,0.0265644,0.0260129,0.0598314,0.0949591,-46,-1086,-10.221,-1,-172.972,-1,1.208
0.0483752,0.0449346,0.283408,0.162919,0.0267163,0.0260944,0.0598863,0.0948609,-47,-1086,-10.224,-1,-173.235,-1,1.212
0.0484824,0.0450393,0.283648,0.163295,0.0268685,0.0261199,0.0599414,0.0945939,-48,-1088,-10.2278,-1,-173.497,-1,1.216
0.0485901,0.0451477,0.283888,0.163677,0.0270209,0.0264536,0.0599965,0.0948478,-46,-1084,-10.2326,-1,-173.758,-1,1.22
0.0486985,0.0452555,0.284128,0.164058,0.0271736,0.0266185,0.0600517,0.0949883,-46,-1082,-10.2357,-1,-174.016,-1,1.224
0.0488075,0.0453626,0.284368,0.164442,0.0273266,0.0266709,0.060107,0.0953122,-47,-1078,-10.2388,-1,-174.269,-1,1.228
0.0489171,0.0454697,0.284609,0.164818,0.0274798,0.0267058,0.0601624,0.094866,-48,-1081,-10.2428,-1,-174.518,-1,1.232
0.0490274,0.0455775,0.284849,0.165192,0.0276333,0.0267866,0.0602179,0.0944534,-49,-1084,-10.248,-1,-174.769,-1,1.236
0.0491382,0.0456867,0.28509,0.165562,0.0277871,0.0269557,0.0602734,0.0938328,-49,-1089,-10.2538,-1,-175.022,-1,1.24
0.0492497,0.0457973,0.285332,0.165929,0.0279411,0.0271835,0.060329,0.0931024,-48,-1095,-10.2594,-1,-175.279,-1,1.244
0.0493617,0.0459092,0.285573,0.166293,0.0280954,0.0274506,0.0603847,0.0923851,-47,-1101,-10.2643,-1,-175.541,-1,1.248
0.0494744,0.0460194,0.285815,0.166659,0.0282499,0.0274847,0.0604405,0.0920796,-48,-1104,-10.2682,-1,-175.809,-1,1.252
0.0495877,0.0461317,0.286056,0.167021,0.0284047,0.0276802,0.0604964,0.0916169,-48,-1107,-10.2732,-1,-176.077,-1,1.256
0.0497017,0.0462454,0.286299,0.167388,0.0285598,0.0279257,0.0605523,0.0915963,-47,-1107,-10.2777,-1,-176.348,-1,1.26
0.0498162,0.046358,0.286541,0.167759,0.0287151,0.028003,0.0606083,0.0919857,-48,-1102,-10.2814,-1,-176.616,-1,1.264
0.0499314,0.0464727,0.286783,0.168137,0.0288707,0.0282272,0.0606644,0.0928498,-47,-1093,-10.2858,-1,-176.879,-1,1.268
0.0500472,0.0465891,0.287026,0.168515,0.0290265,0.0285207,0.0607206,0.0933972,-46,-1087,-10.2895,-1,-177.131,-1,1.272
0.0501636,0.0467042,0.287269,0.168893,0.0291826,0.0286012,0.0607768,0.0937908,-46,-1082,-10.2919,-1,-177.375,-1,1.276
0.0502807,0.0468199,0.287512,0.169273,0.0293389,0.0287124,0.0608332,0.0941972,-47,-1077,-10.295,-1,-177.614,-1,1.28
0.0503983,0.046937,0.287756,0.169652,0.0294955,0.0289017,0.0608896,0.0943242,-47,-1075,-10.2986,-1,-177.846,-1,1.284
0.0505166,0.0470535,0.288,0.170033,0.0296523,0.0289704,0.060946,0.0946392,-47,-1071,-10.3018,-1,-178.075,-1,1.288
0.0506355,0.047172,0.288243,0.170413,0.0298094,0.0291889,0.0610026,0.0948204,-47,-1068,-10.3059,-1,-178.299,-1,1.292
0.0507551,0.0472915,0.288488,0.170792,0.0299667,0.0294209,0.0610592,0.0947397,-46,-1068,-10.3093,-1,-178.52,-1,1.296
0.0508753,0.0474104,0.288732,0.17117,0.0301242,0.029518,0.0611159,0.094657,-47,-1068,-10.312,-1,-178.739,-1,1.3
0.0509961,0.0475327,0.288976,0.171553,0.030282,0.0298707,0.0611727,0.0950338,-45,-1063,-10.3152,-1,-178.957,-1,1.304
0.0511175,0.0476498,0.289221,0.171913,0.0304401,0.0296739,0.0612295,0.093356,-48,-1079,-10.3168,-1,-179.171,-1,1.308
0.0512396,0.047769,0.289466,0.172285,0.0305984,0.0297155,0.0612864,0.093274,-49,-1078,-10.3217,-1,-179.398,-1,1.312
0.0513623,0.0478899,0.289712,0.172661,0.0307569,0.0298871,0.0613434,0.0934496,-49,-1076,-10.3277,-1,-179.624,-1,1.316
0.0514857,0.0480139,0.289957,0.17304,0.0309156,0.0302607,0.0614004,0.093941,-47,-1070,-10.3334,-1,-179.847,-1,1.32
0.0516096,0.0481352,0.290203,0.173416,0.0310746,0.0302794,0.0614576,0.0939518,-49,-1069,-10.3372,-1,-180.063,-1,1.324
0.0517343,0.0482582,0.290449,0.173793,0.0312339,0.0304358,0.0615148,0.0940742,-49,-1067,-10.3423,-1,-180.277,-1,1.328
0.0518595,0.0483822,0.290695,0.174168,0.0313933,0.0306265,0.061572,0.0938967,-48,-1068,-10.3474,-1,-180.488,-1,1.332
0.0519854,0.0485076,0.290941,0.174544,0.031553,0.0308688,0.0616293,0.0939799,-48,-1066,-10.3521,-1,-180.698,-1,1.336
0.0521119,0.0486331,0.291188,0.174916,0.0317129,0.0310303,0.0616867,0.0936323,-48,-1069,-10.3561,-1,-180.907,-1,1.34
0.0522391,0.0487598,0.291435,0.175288,0.0318731,0.0312531,0.0617442,0.0934006,-47,-1070,-10.3599,-1,-181.117,-1,1.344
0.0523669,0.0488849,0.291682,0.175663,0.0320335,0.0312577,0.0618017,0.093534,-48,-1068,-10.3634,-1,-181.327,-1,1.348
0.0524954,0.0490121,0.291929,0.176033,0.0321941,0.0314335,0.0618593,0.0931911,-48,-1071,-10.3682,-1,-181.535,-1,1.352
0.0526245,0.0491402,0.292177,0.176404,0.0323549,0.0316371,0.061917,0.0930776,-48,-1071,-10.3728,-1,-181.743,-1,1.356
0.0527542,0.049267,0.292425,0.176772,0.0325159,0.0316577,0.0619747,0.0926565,-49,-1074,-10.3772,-1,-181.952,-1,1.36
0.0528846,0.0493976,0.292673,0.177138,0.0326772,0.0319881,0.0620325,0.0923182,-48,-1077,-10.3827,-1,-182.163,-1,1.364
0.0530156,0.0495279,0.292921,0.177502,0.0328387,0.0321796,0.0620903,0.0918623,-47,-1080,-10.3866,-1,-182.376,-1,1.368
0.0531473,0.0496561,0.293169,0.177861,0.0330004,0.0321345,0.0621482,0.0911841,-49,-1086,-10.3903,-1,-182.591,-1,1.372
0.0532796,0.0497866,0.293418,0.178222,0.0331623,0.032306,0.0622062,0.0908471,-49,-1089,-10.396,-1,-182.812,-1,1.376
0.0534126,0.0499169,0.293667,0.178584,0.0333245,0.0323915,0.0622643,0.0907088,-50,-1089,-10.4016,-1,-183.034,-1,1.38
0.0535462,0.0500492,0.293916,0.178944,0.0334869,0.0326212,0.0623224,0.0905303,-49,-1090,-10.4078,-1,-183.256,-1,1.384
0.0536805,0.0501815,0.294166,0.179302,0.0336494,0.0327744,0.0623805,0.0901521,-50,-1093,-10.4135,-1,-183.478,-1,1.388
0.0538154,0.0503132,0.294415,0.179661,0.0338122,0.032819,0.0624387,0.0899864,-51,-1094,-10.4192,-1,-183.702,-1,1.392
0.053951,0.0504479,0.294665,0.180022,0.0339752,0.0331078,0.062497,0.0900775,-49,-1093,-10.426,-1,-183.926,-1,1.396
0.0540872,0.0505809,0.294915,0.180383,0.0341385,0.0331563,0.0625554,0.0901382,-51,-1092,-10.4317,-1,-184.147,-1,1.4
0.0542241,0.050715,0.295165,0.180749,0.0343019,0.0332751,0.0626138,0.0905817,-51,-1087,-10.4385,-1,-184.366,-1,1.404
0.0543616,0.0508504,0.295416,0.181106,0.0344655,0.0334695,0.0626722,0.0901576,-51,-1090,-10.4456,-1,-184.579,-1,1.408
0.0544998,0.0509848,0.295667,0.181467,0.0346294,0.0335126,0.0627307,0.0902204,-52,-1089,-10.4525,-1,-184.795,-1,1.412
0.0546387,0.0511216,0.295918,0.181834,0.0347934,0.033743,0.0627893,0.0907229,-51,-1083,-10.4605,-1,-185.008,-1,1.416
0.0547782,0.0512584,0.296169,0.182196,0.0349576,0.0338965,0.0628479,0.090626,-51,-1084,-10.4679,-1,-185.215,-1,1.42
0.0549183,0.0513935,0.296421,0.182552,0.0351221,0.0338549,0.0629066,0.0901008,-53,-1088,-10.4754,-1,-185.421,-1,1.424
0.0550592,0.0515324,0.296672,0.182912,0.0352867,0.0341439,0.0629654,0.0900961,-52,-1087,-10.4848,-1,-185.631,-1,1.428
0.0552006,0.0516696,0.296924,0.183271,0.0354516,0.0341926,0.0630242,0.0899779,-53,-1088,-10.4931,-1,-185.84,-1,1.432
0.0553428,0.0518088,0.297177,0.183634,0.0356167,0.0343978,0.063083,0.0902445,-53,-1085,-10.5025,-1,-186.047,-1,1.436
0.0554856,0.0519487,0.297429,0.184,0.0357819,0.0345922,0.0631419,0.090595,-53,-1081,-10.5114,-1,-186.251,-1,1.44
0.055629,0.0520876,0.297682,0.184366,0.0359473,0.0346354,0.0632009,0.0909151,-54,-1077,-10.5202,-1,-186.449,-1,1.444
0.0557731,0.0522293,0.297935,0.184732,0.036113,0.0348946,0.0632599,0.0911572,-53,-1074,-10.53,-1,-186.643,-1,1.448
0.0559179,0.0523702,0.298188,0.1851,0.0362788,0.0350097,0.0633189,0.091405,-54,-1071,-10.5389,-1,-186.832,-1,1.452
0.0560634,0.0525126,0.298441,0.185465,0.0364448,0.0352017,0.0633781,0.0913687,-53,-1070,-10.5483,-1,-187.018,-1,1.456
0.0562095,0.0526549,0.298695,0.185828,0.0366111,0.0353297,0.0634372,0.0911141,-54,-1072,-10.5575,-1,-187.203,-1,1.46
0.0563563,0.0527973,0.298949,0.186188,0.0367775,0.035415,0.0634964,0.0907429,-55,-1075,-10.567,-1,-187.389,-1,1.464
0.0565037,0.0529444,0.299203,0.186554,0.0369441,0.0358749,0.0635557,0.0910424,-52,-1072,-10.5771,-1,-187.577,-1,1.468
0.0566518,0.0530861,0.299457,0.186913,0.0371109,0.0357209,0.063615,0.0906375,-55,-1075,-10.5848,-1,-187.761,-1,1.472
0.0568006,0.0532312,0.299712,0.187276,0.0372778,0.0359061,0.0636744,0.0905979,-55,-1075,-10.5953,-1,-187.947,-1,1.476
0.05695,0.0533773,0.299967,0.187634,0.037445,0.036116,0.0637338,0.0903124,-54,-1077,-10.6056,-1,-188.132,-1,1.48
0.0571002,0.0535245,0.300222,0.187995,0.0376123,0.0363422,0.0637933,0.0902372,-54,-1077,-10.6155,-1,-188.319,-1,1.484
0.0572509,0.0536738,0.300477,0.188353,0.0377798,0.0366658,0.0638528,0.0900143,-52,-1079,-10.6247,-1,-188.505,-1,1.488
0.0574024,0.0538192,0.300732,0.188707,0.0379475,0.0365649,0.0639123,0.0894627,-55,-1083,-10.6327,-1,-188.692,-1,1.492
0.0575545,0.0539695,0.300988,0.18907,0.0381154,0.0369006,0.0639719,0.0899586,-53,-1078,-10.643,-1,-188.882,-1,1.496
0.0577073,0.0541201,0.301244,0.189439,0.0382835,0.0371533,0.0640316,0.0906923,-53,-1070,-10.6517,-1,-189.066,-1,1.5
0.0578608,0.054268,0.3015,0.189801,0.0384517,0.0370914,0.0640913,0.0906056,-55,-1071,-10.6598,-1,-189.242,-1,1.504
0.0580149,0.0544193,0.301757,0.190165,0.0386201,0.037338,0.064151,0.0907782,-54,-1068,-10.6699,-1,-189.417,-1,1.508
0.0581698,0.0545703,0.302014,0.190533,0.0387887,0.0374736,0.0642108,0.0911523,-55,-1064,-10.6793,-1,-189.588,-1,1.512
0.0583252,0.0547244,0.302271,0.190899,0.0389575,0.0378232,0.0642706,0.0912578,-53,-1062,-10.6889,-1,-189.755,-1,1.516
0.0584814,0.0548785,0.302528,0.19127,0.0391264,0.0380562,0.0643305,0.0918176,-52,-1056,-10.6968,-1,-189.919,-1,1.52
0.0586383,0.0550295,0.302785,0.191627,0.0392955,0.0379524,0.0643904,0.0908952,-55,-1065,-10.7042,-1,-190.077,-1,1.524
0.0587958,0.0551843,0.303043,0.191992,0.0394648,0.0382,0.0644503,0.0910288,-54,-1063,-10.7141,-1,-190.243,-1,1.528
0.058954,0.0553383,0.303301,0.192357,0.0396342,0.0383074,0.0645103,0.0910891,-55,-1062,-10.7233,-1,-190.405,-1,1.532
0.0591129,0.0554952,0.303559,0.192723,0.0398038,0.0386093,0.0645704,0.0912156,-54,-1060,-10.733,-1,-190.566,-1,1.536
0.0592724,0.055651,0.303817,0.193083,0.0399736,0.0387243,0.0646304,0.0908106,-54,-1063,-10.7415,-1,-190.724,-1,1.54
0.0594326,0.0558092,0.304076,0.193439,0.0401435,0.0390024,0.0646906,0.0902814,-53,-1068,-10.7504,-1,-190.885,-1,1.544
0.0595936,0.0559658,0.304335,0.193792,0.0403136,0.0390439,0.0647507,0.0895543,-54,-1074,-10.7584,-1,-191.051,-1,1.548
0.0597551,0.0561243,0.304594,0.194141,0.0404839,0.0392443,0.0648109,0.0888393,-54,-1081,-10.7675,-1,-191.222,-1,1.552
0.0599174,0.056284,0.304853,0.194489,0.0406543,0.0394643,0.0648711,0.0882187,-54,-1086,-10.7763,-1,-191.4,-1,1.556
0.0600804,0.0564432,0.305113,0.194833,0.0408249,0.0395821,0.0649314,0.0874306,-54,-1093,-10.7847,-1,-191.582,-1,1.56
0.060244,0.0566063,0.305373,0.19518,0.0409956,0.0399774,0.0649917,0.087222,-52,-1095,-10.7934,-1,-191.771,-1,1.564
0.0604083,0.0567694,0.305633,0.195529,0.0411665,0.0402409,0.0650521,0.0872268,-51,-1095,-10.8,-1,-191.96,-1,1.568
0.0605734,0.0569273,0.305893,0.195866,0.0413376,0.0399847,0.0651125,0.0862224,-55,-1104,-10.806,-1,-192.149,-1,1.572
0.0607391,0.0570896,0.306154,0.196212,0.0415088,0.0401882,0.0651729,0.0863301,-55,-1103,-10.8159,-1,-192.345,-1,1.576
0.0609054,0.0572531,0.306415,0.196558,0.0416801,0.0404103,0.0652333,0.0864019,-55,-1102,-10.8255,-1,-192.54,-1,1.58
0.0610725,0.0574161,0.306676,0.19691,0.0418517,0.0405295,0.0652938,0.0868816,-55,-1097,-10.8346,-1,-192.732,-1,1.584
0.0612402,0.0575799,0.306937,0.197258,0.0420233,0.0406666,0.0653544,0.0869423,-55,-1096,-10.8442,-1,-192.919,-1,1.588
0.0614087,0.0577433,0.307199,0.197614,0.0421951,0.0407291,0.0654149,0.0876738,-56,-1088,-10.8542,-1,-193.103,-1,1.592
0.0615778,0.0579088,0.30746,0.197972,0.0423671,0.0409436,0.0654755,0.088219,-56,-1082,-10.8651,-1,-193.279,-1,1.596
0.0617476,0.0580733,0.307722,0.198331,0.0425392,0.0410002,0.0655361,0.0887264,-57,-1077,-10.8758,-1,-193.449,-1,1.6
0.0619181,0.0582419,0.307985,0.198695,0.0427115,0.0413835,0.0655968,0.0894966,-55,-1069,-10.8873,-1,-193.611,-1,1.604
0.0620893,0.0584049,0.308247,0.199045,0.0428839,0.0411783,0.0656575,0.0888872,-59,-1075,-10.8971,-1,-193.766,-1,1.608
0.0622612,0.0585735,0.30851,0.199399,0.0430564,0.0415022,0.0657182,0.08874,-57,-1076,-10.9103,-1,-193.926,-1,1.612
0.0624338,0.0587421,0.308773,0.199758,0.0432291,0.0417181,0.0657789,0.089045,-57,-1072,-10.922,-1,-194.085,-1,1.616
0.062607,0.0589097,0.309036,0.200108,0.0434019,0.0417757,0.0658397,0.0885861,-58,-1076,-10.9334,-1,-194.241,-1,1.62
0.062781,0.0590786,0.3093,0.200464,0.0435749,0.0419292,0.0659005,0.0886833,-58,-1075,-10.9459,-1,-194.4,-1,1.624
0.0629556,0.0592472,0.309563,0.200819,0.043748,0.0420028,0.0659614,0.088748,-59,-1074,-10.9586,-1,-194.557,-1,1.628
0.063131,0.0594189,0.309827,0.201177,0.0439212,0.0423109,0.0660223,0.0889352,-58,-1071,-10.9721,-1,-194.712,-1,1.632
0.063307,0.059591,0.310092,0.201535,0.0440946,0.0425452,0.0660832,0.0891175,-58,-1069,-10.9844,-1,-194.864,-1,1.636
0.0634837,0.0597617,0.310356,0.201885,0.0442681,0.0425862,0.0661441,0.0886057,-59,-1074,-10.9961,-1,-195.013,-1,1.64
0.0636611,0.0599348,0.310621,0.202238,0.0444418,0.042815,0.066205,0.088466,-59,-1075,-11.009,-1,-195.166,-1,1.644
0.0638392,0.0601075,0.310886,0.202588,0.0446156,0.0429388,0.066266,0.0881713,-59,-1077,-11.0214,-1,-195.32,-1,1.648
0.0640181,0.0602803,0.311151,0.202941,0.0447895,0.0430213,0.066327,0.0882052,-60,-1077,-11.0344,-1,-195.476,-1,1.652
0.0641976,0.0604561,0.311416,0.203298,0.0449635,0.0433355,0.066388,0.0885157,-59,-1073,-11.0481,-1,-195.629,-1,1.656
0.0643778,0.0606292,0.311682,0.203649,0.0451377,0.0433146,0.0664491,0.0883196,-61,-1075,-11.0606,-1,-195.779,-1,1.66
0.0645587,0.0608068,0.311948,0.204002,0.045312,0.0436749,0.0665102,0.0882753,-59,-1075,-11.0747,-1,-195.93,-1,1.664
0.0647403,0.0609823,0.312214,0.204353,0.0454864,0.0437424,0.0665713,0.0881306,-60,-1076,-11.0872,-1,-196.08,-1,1.668
0.0649226,0.0611599,0.31248,0.204705,0.0456609,0.0439601,0.0666324,0.0880629,-60,-1076,-11.1007,-1,-196.231,-1,1.672
0.0651056,0.0613378,0.312747,0.205054,0.0458356,0.0441341,0.0666936,0.0877874,-60,-1078,-11.1137,-1,-196.381,-1,1.676
0.0652892,0.0615175,0.313014,0.205406,0.0460104,0.044394,0.0667548,0.0878053,-59,-1078,-11.1267,-1,-196.533,-1,1.68
0.0654736,0.0616964,0.313281,0.205755,0.0461853,0.0445097,0.066816,0.0877021,-59,-1078,-11.139,-1,-196.684,-1,1.684
0.0656587,0.0618781,0.313548,0.206111,0.0463604,0.0448172,0.0668772,0.0880651,-58,-1075,-11.1516,-1,-196.834,-1,1.688
0.0658445,0.0620592,0.313816,0.206465,0.0465355,0.0449646,0.0669384,0.0882496,-59,-1072,-11.1631,-1,-196.98,-1,1.692
0.066031,0.062243,0.314084,0.206825,0.0467108,0.0452931,0.0669997,0.0888044,-57,-1067,-11.1748,-1,-197.123,-1,1.696
0.0662182,0.0624278,0.314352,0.20719,0.0468862,0.0455986,0.067061,0.0896062,-56,-1059,-11.1849,-1,-197.259,-1,1.7
0.0664061,0.062612,0.31462,0.207554,0.0470617,0.0457446,0.0671223,0.0900831,-56,-1054,-11.1939,-1,-197.387,-1,1.704
0.0665947,0.0627923,0.314889,0.207906,0.0472373,0.0455253,0.0671836,0.0894221,-60,-1060,-11.2034,-1,-197.509,-1,1.708
0.066784,0.0629761,0.315158,0.208266,0.0474131,0.045667,0.0672449,0.0896149,-60,-1057,-11.2165,-1,-197.636,-1,1.712
0.066974,0.0631661,0.315427,0.208632,0.0475889,0.0462796,0.0673063,0.0902329,-56,-1051,-11.2296,-1,-197.761,-1,1.716
0.0671647,0.0633461,0.315696,0.208977,0.0477649,0.0458532,0.0673677,0.0889174,-62,-1063,-11.2391,-1,-197.879,-1,1.72
0.0673561,0.0635313,0.315966,0.209329,0.0479409,0.0460007,0.0674291,0.0885586,-62,-1066,-11.254,-1,-198.009,-1,1.724
0.0675482,0.0637189,0.316236,0.209681,0.0481171,0.0463006,0.0674905,0.0884346,-61,-1067,-11.2692,-1,-198.141,-1,1.728
0.0677411,0.0639031,0.316506,0.210024,0.0482934,0.0462126,0.0675519,0.0874882,-64,-1076,-11.2834,-1,-198.275,-1,1.732
0.0679346,0.0640876,0.316776,0.210366,0.0484698,0.0461828,0.0676134,0.0868861,-66,-1082,-11.3001,-1,-198.417,-1,1.736
0.0681288,0.0642762,0.317047,0.210708,0.0486463,0.0465084,0.0676748,0.0863695,-64,-1086,-11.3186,-1,-198.563,-1,1.74
0.0683238,0.0644617,0.317318,0.211047,0.0488229,0.0464663,0.0677363,0.0858811,-67,-1091,-11.3358,-1,-198.714,-1,1.744
0.0685194,0.0646504,0.317589,0.211386,0.0489996,0.0466974,0.0677978,0.0854692,-66,-1095,-11.355,-1,-198.869,-1,1.748
0.0687158,0.0648376,0.31786,0.211728,0.0491764,0.0467363,0.0678593,0.0854537,-67,-1095,-11.3738,-1,-199.028,-1,1.752
0.0689128,0.0650266,0.318132,0.212066,0.0493533,0.0469061,0.0679208,0.0851842,-68,-1097,-11.3939,-1,-199.185,-1,1.756
0.0691106,0.0652146,0.318403,0.212409,0.0495303,0.046933,0.0679823,0.0853213,-69,-1096,-11.414,-1,-199.344,-1,1.76
0.0693091,0.065406,0.318675,0.21275,0.0497074,0.0472389,0.0680439,0.0853551,-68,-1095,-11.4355,-1,-199.501,-1,1.764
0.0695082,0.0655929,0.318948,0.213084,0.0498846,0.0470685,0.0681054,0.0846866,-71,-1101,-11.456,-1,-199.657,-1,1.768
0.0697081,0.065785,0.31922,0.213419,0.0500619,0.0473867,0.068167,0.0844137,-70,-1104,-11.4795,-1,-199.819,-1,1.772
0.0699087,0.065975,0.319493,0.213757,0.0502392,0.0474262,0.0682286,0.0844334,-71,-1104,-11.5019,-1,-199.982,-1,1.776
0.07011,0.0661671,0.319766,0.214102,0.0504167,0.0476252,0.0682902,0.0850222,-71,-1098,-11.5255,-1,-200.144,-1,1.78
0.0703121,0.0663637,0.320039,0.214457,0.0505943,0.0481322,0.0683518,0.0863074,-68,-1085,-11.5486,-1,-200.299,-1,1.784
0.0705148,0.066553,0.320313,0.214801,0.0507719,0.0478655,0.0684134,0.0861564,-73,-1086,-11.5691,-1,-200.441,-1,1.788
0.0707182,0.0667454,0.320587,0.215148,0.0509497,0.0479469,0.068475,0.0863725,-74,-1084,-11.5936,-1,-200.583,-1,1.792
0.0709224,0.0669396,0.320861,0.215497,0.0511275,0.0481451,0.0685366,0.0866605,-73,-1081,-11.619,-1,-200.723,-1,1.796
0.0711273,0.0671358,0.321135,0.21584,0.0513055,0.04845,0.0685982,0.0863918,-72,-1083,-11.6441,-1,-200.859,-1,1.8
0.0713328,0.0673272,0.32141,0.216179,0.0514835,0.0482502,0.0686599,0.0858385,-76,-1089,-11.6682,-1,-200.997,-1,1.804
0.0715391,0.0675242,0.321684,0.216518,0.0516616,0.0485776,0.0687215,0.0854695,-75,-1092,-11.6957,-1,-201.14,-1,1.808
0.0717461,0.067719,0.321959,0.216855,0.0518398,0.0486231,0.0687832,0.0850508,-76,-1096,-11.7219,-1,-201.285,-1,1.812
0.0719538,0.0679194,0.322235,0.217195,0.052018,0.0491142,0.0688449,0.0850308,-73,-1096,-11.7491,-1,-201.434,-1,1.816
0.0721623,0.0681143,0.32251,0.217526,0.0521964,0.0489809,0.0689065,0.0842689,-76,-1103,-11.7737,-1,-201.583,-1,1.82
0.0723714,0.0683102,0.322786,0.217853,0.0523748,0.0489784,0.0689682,0.0834155,-78,-1112,-11.8012,-1,-201.739,-1,1.824
0.0725813,0.0685157,0.323062,0.218195,0.0525533,0.0497828,0.0690299,0.0840846,-72,-1105,-11.8299,-1,-201.901,-1,1.828
0.0727918,0.0687085,0.323338,0.21852,0.0527319,0.0492539,0.0690916,0.0832062,-79,-1114,-11.8534,-1,-202.057,-1,1.832
0.0730031,0.0689051,0.323615,0.218852,0.0529105,0.049218,0.0691532,0.0831101,-81,-1114,-11.8834,-1,-202.221,-1,1.836
0.0732151,0.0691034,0.323891,0.219191,0.0530893,0.049338,0.0692149,0.0836794,-82,-1109,-11.9154,-1,-202.384,-1,1.84
0.0734278,0.0693017,0.324168,0.219532,0.0532681,0.049418,0.0692766,0.0841453,-83,-1104,-11.9479,-1,-202.541,-1,1.844
0.0736413,0.0695024,0.324445,0.219879,0.053447,0.0496728,0.0693383,0.0850318,-82,-1096,-11.9814,-1,-202.693,-1,1.848
0.0738554,0.0696983,0.324723,0.220219,0.0536259,0.0494397,0.0694,0.0850181,-86,-1096,-12.0143,-1,-202.835,-1,1.852
0.0740703,0.0698915,0.325001,0.220554,0.053805,0.0490539,0.0694617,0.0846347,-92,-1099,-12.0514,-1,-202.977,-1,1.856
0.0742859,0.0700853,0.325279,0.220893,0.0539841,0.0488543,0.0695234,0.0846671,-95,-1099,-12.0938,-1,-203.122,-1,1.86
0.0745022,0.0702781,0.325557,0.221231,0.0541632,0.0486349,0.0695851,0.0846022,-99,-1099,-12.1398,-1,-203.265,-1,1.864
0.0747192,0.0704684,0.325835,0.221571,0.0543425,0.0482871,0.0696468,0.0847318,-104,-1098,-12.1898,-1,-203.409,-1,1.868
0.0749369,0.0706567,0.326114,0.221903,0.0545218,0.0478824,0.0697085,0.0841271,-110,-1104,-12.2449,-1,-203.551,-1,1.872
0.0751553,0.0708423,0.326393,0.222233,0.0547011,0.0473823,0.0697702,0.0836377,-117,-1109,-12.3058,-1,-203.698,-1,1.876
0.0753745,0.071025,0.326672,0.222561,0.0548806,0.0468186,0.0698319,0.0830522,-124,-1114,-12.3732,-1,-203.85,-1,1.88
0.0755944,0.0712033,0.326952,0.222886,0.0550601,0.0460685,0.0698936,0.0824892,-133,-1120,-12.4479,-1,-204.007,-1,1.884
0.075815,0.071383,0.327231,0.223217,0.0552396,0.0456836,0.0699553,0.0825169,-138,-1119,-12.5313,-1,-204.169,-1,1.888
0.0760363,0.0715519,0.327511,0.22354,0.0554193,0.0445345,0.070017,0.0819884,-151,-1125,-12.6207,-1,-204.33,-1,1.892
0.0762583,0.0717198,0.327791,0.22387,0.0555989,0.0436821,0.0700787,0.0820967,-161,-1124,-12.7228,-1,-204.495,-1,1.896
0.0764811,0.0718808,0.328072,0.2242,0.0557787,0.042538,0.0701404,0.082284,-174,-1122,-12.835,-1,-204.658,-1,1.9
0.0767046,0.072037,0.328353,0.224532,0.0559585,0.0413721,0.0702021,0.0824953,-187,-1120,-12.96,-1,-204.819,-1,1.904
0.0769288,0.0721917,0.328634,0.224865,0.0561383,0.0404798,0.0702637,0.0827801,-198,-1117,-13.0978,-1,-204.977,-1,1.908
0.0771537,0.0723507,0.328915,0.225201,0.0563182,0.0402303,0.0703254,0.0831715,-202,-1113,-13.2455,-1,-205.131,-1,1.912
0.0773793,0.0725148,0.329196,0.225538,0.0564982,0.0404959,0.0703871,0.08349,-202,-1110,-13.3971,-1,-205.281,-1,1.916
0.0776057,0.0726868,0.329478,0.225877,0.0566782,0.0413352,0.0704487,0.0839039,-197,-1106,-13.5473,-1,-205.427,-1,1.92
0.0778327,0.0728651,0.32976,0.226204,0.0568583,0.0424129,0.0705104,0.0832297,-189,-1113,-13.6911,-1,-205.569,-1,1.924
0.0780605,0.0730544,0.330042,0.226537,0.0570384,0.0440527,0.070572,0.0832122,-176,-1113,-13.8258,-1,-205.717,-1,1.928
0.078289,0.0732489,0.330324,0.226859,0.0572186,0.0455777,0.0706337,0.0823367,-164,-1122,-13.9464,-1,-205.864,-1,1.932
0.0785183,0.0734545,0.330607,0.227184,0.0573988,0.0475158,0.0706953,0.0819258,-148,-1126,-14.0538,-1,-206.02,-1,1.936
0.0787482,0.073667,0.33089,0.227511,0.057579,0.0493836,0.0707569,0.081911,-132,-1126,-14.1442,-1,-206.179,-1,1.94
0.0789789,0.0738836,0.331173,0.22784,0.0577594,0.0509743,0.0708185,0.0820163,-120,-1125,-14.2185,-1,-206.337,-1,1.944
0.0792103,0.0741068,0.331456,0.228175,0.0579397,0.0525818,0.0708801,0.0826047,-107,-1119,-14.2792,-1,-206.494,-1,1.948
0.0794424,0.0743317,0.33174,0.228511,0.0581201,0.0537974,0.0709417,0.0830546,-97,-1115,-14.3263,-1,-206.644,-1,1.952
0.0796753,0.0745618,0.332024,0.22885,0.0583006,0.0550397,0.0710033,0.0835848,-87,-1110,-14.3634,-1,-206.789,-1,1.956
0.0799088,0.0747902,0.332308,0.229185,0.058481,0.0557239,0.0710649,0.0836792,-83,-1109,-14.3907,-1,-206.928,-1,1.96
0.0801431,0.075022,0.332592,0.229523,0.0586616,0.056468,0.0711265,0.0839725,-78,-1106,-14.413,-1,-207.065,-1,1.964
0.0803781,0.0752559,0.332877,0.229869,0.0588421,0.0571368,0.071188,0.0847726,-73,-1099,-14.4299,-1,-207.199,-1,1.968
0.0806139,0.0754836,0.333162,0.23021,0.0590228,0.0570644,0.0712496,0.0849893,-76,-1096,-14.4426,-1,-207.325,-1,1.972
0.0808503,0.0757151,0.333447,0.230558,0.0592034,0.0573329,0.0713111,0.085652,-75,-1090,-14.4575,-1,-207.447,-1,1.976
0.0810875,0.0759521,0.333732,0.230916,0.0593841,0.0579725,0.0713726,0.0868711,-71,-1078,-14.4713,-1,-207.562,-1,1.98
0.0813254,0.0761791,0.334018,0.23126,0.0595648,0.057564,0.0714341,0.0866186,-76,-1080,-14.4813,-1,-207.665,-1,1.984
0.081564,0.0764143,0.334304,0.23161,0.0597455,0.0579826,0.0714956,0.0869398,-74,-1077,-14.4965,-1,-207.77,-1,1.988
0.0818033,0.0766489,0.33459,0.231959,0.0599263,0.0582041,0.0715571,0.0869811,-74,-1077,-14.5095,-1,-207.871,-1,1.992
0.0820434,0.0768828,0.334876,0.232308,0.0601072,0.0582942,0.0716186,0.087095,-75,-1075,-14.5221,-1,-207.971,-1,1.996
0.0822842,0.0771223,0.335163,0.232664,0.060288,0.0588149,0.07168,0.087718,-71,-1069,-14.5354,-1,-208.069,-1,2
0.0825257,0.0773579,0.33545,0.233016,0.0604689,0.0588453,0.0717414,0.0878454,-73,-1068,-14.5456,-1,-208.16,-1,2.004
0.082768,0.0775938,0.335737,0.233369,0.0606498,0.0588944,0.0718028,0.0879591,-74,-1067,-14.5574,-1,-208.25,-1,2.008
0.0830109,0.0778329,0.336024,0.233723,0.0608307,0.0591863,0.0718642,0.0881501,-73,-1065,-14.5702,-1,-208.338,-1,2.012
0.0832546,0.078072,0.336312,0.234072,0.0610117,0.0593808,0.0719256,0.0878168,-73,-1068,-14.5819,-1,-208.424,-1,2.016
0.083499,0.0783104,0.3366,0.234418,0.0611927,0.059453,0.071987,0.0874218,-74,-1072,-14.5936,-1,-208.513,-1,2.02
0.0837441,0.078554,0.336888,0.234763,0.0613737,0.0599329,0.0720483,0.0870146,-71,-1075,-14.6061,-1,-208.606,-1,2.024
0.08399,0.0787975,0.337176,0.235107,0.0615547,0.0602529,0.0721097,0.0866855,-70,-1079,-14.6158,-1,-208.702,-1,2.028
0.0842366,0.079038,0.337465,0.235445,0.0617358,0.0602071,0.072171,0.085919,-72,-1086,-14.6244,-1,-208.801,-1,2.032
0.0844839,0.0792836,0.337753,0.235784,0.0619169,0.0606084,0.0722323,0.0855233,-70,-1090,-14.6349,-1,-208.907,-1,2.036
0.0847319,0.0795269,0.338042,0.236115,0.062098,0.0606744,0.0722936,0.084626,-71,-1099,-14.6434,-1,-209.016,-1,2.04
0.0849807,0.0797715,0.338332,0.236444,0.0622791,0.0608336,0.0723548,0.0838839,-72,-1106,-14.653,-1,-209.135,-1,2.044
0.0852301,0.0800199,0.338621,0.236775,0.0624602,0.0612564,0.072416,0.0835043,-69,-1110,-14.6626,-1,-209.26,-1,2.048
0.0854803,0.0802666,0.338911,0.237101,0.0626414,0.0613943,0.0724773,0.0827618,-70,-1117,-14.6701,-1,-209.388,-1,2.052
0.0857313,0.0805153,0.339201,0.237428,0.0628226,0.061659,0.0725385,0.0824683,-69,-1120,-14.6779,-1,-209.524,-1,2.056
0.0859829,0.0807637,0.339491,0.237756,0.0630037,0.0618067,0.0725996,0.0822727,-69,-1122,-14.6849,-1,-209.662,-1,2.06
0.0862353,0.0810125,0.339782,0.238086,0.0631849,0.0619339,0.0726608,0.0823726,-70,-1121,-14.6923,-1,-209.801,-1,2.064
0.0864884,0.0812637,0.340073,0.23842,0.0633662,0.0622203,0.0727219,0.0827847,-69,-1117,-14.7001,-1,-209.938,-1,2.068
0.0867422,0.0815121,0.340364,0.238763,0.0635474,0.0621809,0.072783,0.0837216,-71,-1108,-14.7071,-1,-210.071,-1,2.072
0.0869968,0.0817601,0.340655,0.23911,0.0637286,0.0621258,0.0728441,0.0847205,-73,-1099,-14.7162,-1,-210.193,-1,2.076
0.0872521,0.0820075,0.340946,0.23946,0.0639099,0.0620315,0.0729051,0.0856455,-76,-1090,-14.7276,-1,-210.306,-1,2.08
0.0875081,0.0822504,0.341238,0.239811,0.0640911,0.0615944,0.0729662,0.0863774,-82,-1083,-14.7419,-1,-210.408,-1,2.084
0.0877648,0.0824908,0.34153,0.240163,0.0642724,0.0611014,0.0730272,0.0869517,-88,-1077,-14.7621,-1,-210.503,-1,2.088
0.0880222,0.0827334,0.341822,0.240516,0.0644537,0.0609455,0.0730882,0.0873921,-91,-1073,-14.7885,-1,-210.592,-1,2.092
0.0882804,0.0829711,0.342115,0.240872,0.0646349,0.0604385,0.0731491,0.0879161,-98,-1068,-14.8184,-1,-210.676,-1,2.096
0.0885393,0.083207,0.342408,0.241234,0.0648162,0.0599565,0.0732101,0.088726,-104,-1060,-14.8549,-1,-210.754,-1,2.1
0.088799,0.0834437,0.342701,0.241601,0.0649975,0.0596928,0.073271,0.0897554,-108,-1049,-14.8976,-1,-210.823,-1,2.104
0.0890593,0.0836783,0.342994,0.241973,0.0651788,0.0593442,0.0733318,0.0908448,-113,-1039,-14.9445,-1,-210.882,-1,2.108
0.0893204,0.0839091,0.343287,0.242347,0.0653601,0.0587952,0.0733927,0.091715,-120,-1030,-14.9967,-1,-210.929,-1,2.112
0.0895822,0.0841399,0.343581,0.242721,0.0655414,0.0584291,0.0734535,0.0923239,-125,-1024,-15.0558,-1,-210.968,-1,2.116
0.0898447,0.0843669,0.343875,0.243096,0.0657227,0.0578684,0.0735143,0.0927874,-133,-1019,-15.1201,-1,-210.999,-1,2.12
0.090108,0.0845931,0.344169,0.243473,0.0659039,0.057437,0.0735751,0.093298,-138,-1014,-15.1915,-1,-211.026,-1,2.124
0.0903719,0.0848177,0.344463,0.24385,0.0660852,0.0570054,0.0736358,0.0936383,-144,-1010,-15.2688,-1,-211.048,-1,2.128
0.0906366,0.0850385,0.344758,0.24423,0.0662665,0.056401,0.0736965,0.094038,-152,-1006,-15.352,-1,-211.065,-1,2.132
0.0909021,0.0852586,0.345053,0.244609,0.0664478,0.0559405,0.0737572,0.0942756,-158,-1004,-15.4426,-1,-211.079,-1,2.136
0.0911682,0.0854814,0.345348,0.244991,0.066629,0.0558638,0.0738178,0.0946932,-161,-999,-15.5391,-1,-211.089,-1,2.14
0.0914351,0.0856994,0.345644,0.245367,0.0668103,0.0554096,0.0738785,0.0944533,-167,-1001,-15.6383,-1,-211.095,-1,2.144
0.0917027,0.0859205,0.345939,0.245745,0.0669916,0.0553659,0.0739391,0.0944662,-170,-1001,-15.7432,-1,-211.103,-1,2.148
0.091971,0.0861392,0.346235,0.246122,0.0671728,0.0551353,0.0739996,0.0944459,-174,-1001,-15.8505,-1,-211.111,-1,2.152
0.0922401,0.0863593,0.346531,0.246501,0.067354,0.0550967,0.0740601,0.0945476,-177,-999,-15.9615,-1,-211.118,-1,2.156
0.0925099,0.0865808,0.346828,0.246886,0.0675353,0.0551861,0.0741206,0.0950472,-178,-994,-16.0745,-1,-211.124,-1,2.16
0.0927804,0.0868022,0.347124,0.247271,0.0677165,0.0552457,0.0741811,0.0954667,-179,-990,-16.1884,-1,-211.125,-1,2.164
0.0930516,0.0870268,0.347421,0.247653,0.0678977,0.0555446,0.0742415,0.0954584,-179,-989,-16.3032,-1,-211.121,-1,2.168
0.0933236,0.0872548,0.347718,0.248032,0.0680788,0.0560317,0.0743019,0.0952226,-176,-991,-16.4168,-1,-211.117,-1,2.172
0.0935962,0.0874835,0.348015,0.248406,0.06826,0.0564141,0.0743623,0.0947199,-175,-996,-16.5275,-1,-211.115,-1,2.176
0.0938696,0.0877185,0.348313,0.248777,0.0684412,0.0571872,0.0744226,0.0940105,-170,-1002,-16.636,-1,-211.118,-1,2.18
0.0941438,0.087952,0.348611,0.24914,0.0686223,0.0575875,0.0744829,0.0929617,-168,-1012,-16.7391,-1,-211.128,-1,2.184
0.0944186,0.0881869,0.348909,0.249498,0.0688034,0.0579695,0.0745431,0.0918019,-167,-1023,-16.84,-1,-211.149,-1,2.188
0.0946942,0.0884202,0.349207,0.249844,0.0689845,0.0580802,0.0746034,0.0900497,-168,-1040,-16.9392,-1,-211.181,-1,2.192
0.0949705,0.0886516,0.349506,0.250184,0.0691656,0.05801,0.0746635,0.0883346,-171,-1057,-17.0391,-1,-211.23,-1,2.196
0.0952475,0.0888828,0.349804,0.250522,0.0693466,0.0579345,0.0747237,0.0870473,-174,-1069,-17.1415,-1,-211.296,-1,2.2
0.0955253,0.0891091,0.350103,0.250846,0.0695277,0.0574811,0.0747838,0.0850374,-180,-1089,-17.2465,-1,-211.375,-1,2.204
0.0958037,0.0893319,0.350403,0.251172,0.0697087,0.0568908,0.0748439,0.083899,-187,-1100,-17.3576,-1,-211.474,-1,2.208
0.0960829,0.0895534,0.350702,0.251502,0.0698897,0.0563822,0.0749039,0.0833992,-194,-1105,-17.476,-1,-211.583,-1,2.212
0.0963629,0.0897759,0.351002,0.251837,0.0700706,0.0561295,0.0749639,0.0835555,-199,-1104,-17.6009,-1,-211.697,-1,2.216
0.0966435,0.0899935,0.351302,0.252179,0.0702516,0.0555579,0.0750239,0.0841779,-206,-1098,-17.73,-1,-211.808,-1,2.22
0.0969249,0.0902139,0.351602,0.252532,0.0704325,0.0554072,0.0750838,0.0855429,-210,-1085,-17.8661,-1,-211.913,-1,2.224
0.097207,0.0904333,0.351903,0.252893,0.0706134,0.0552204,0.0751437,0.0871151,-214,-1070,-18.0053,-1,-212.003,-1,2.228
0.0974898,0.0906558,0.352203,0.253262,0.0707942,0.055355,0.0752035,0.0887967,-215,-1053,-18.1478,-1,-212.077,-1,2.232
0.0977733,0.0908742,0.352504,0.253626,0.070975,0.0550992,0.0752633,0.0895434,-219,-1046,-18.2909,-1,-212.135,-1,2.236
0.0980576,0.0910984,0.352805,0.254002,0.0711558,0.0554181,0.0753231,0.0910201,-219,-1032,-18.4378,-1,-212.184,-1,2.24
0.0983426,0.0913216,0.353107,0.25438,0.0713366,0.0555443,0.0753828,0.0921774,-220,-1020,-18.5835,-1,-212.218,-1,2.244
0.0986283,0.0915482,0.353408,0.254765,0.0715173,0.0559164,0.0754425,0.0935822,-219,-1006,-18.7295,-1,-212.24,-1,2.248
0.0989147,0.0917731,0.35371,0.255158,0.071698,0.0560205,0.0755021,0.0951234,-220,-991,-18.8739,-1,-212.248,-1,2.252
0.0992019,0.0919908,0.354012,0.255541,0.0718786,0.0554853,0.0755617,0.0952872,-227,-989,-19.0193,-1,-212.241,-1,2.256
0.0994897,0.0922092,0.354315,0.255935,0.0720592,0.055186,0.0756212,0.0963464,-232,-979,-19.1714,-1,-212.232,-1,2.26
0.0997783,0.0924241,0.354617,0.256331,0.0722398,0.0546987,0.0756808,0.0972829,-239,-969,-19.3281,-1,-212.211,-1,2.264
0.100068,0.0926396,0.35492,0.256729,0.0724204,0.0544313,0.0757402,0.0980224,-244,-962,-19.491,-1,-212.181,-1,2.268
0.100358,0.09285,0.355223,0.257131,0.0726009,0.0538212,0.0757996,0.0988321,-251,-953,-19.6583,-1,-212.143,-1,2.272
0.100648,0.0930573,0.355527,0.257531,0.0727813,0.0531554,0.075859,0.0991992,-260,-949,-19.8332,-1,-212.098,-1,2.276
0.10094,0.0932636,0.35583,0.257933,0.0729617,0.0526251,0.0759183,0.0996742,-267,-944,-20.016,-1,-212.048,-1,2.28
0.101232,0.0934688,0.356134,0.258338,0.0731421,0.0521852,0.0759776,0.100192,-274,-939,-20.2054,-1,-211.993,-1,2.284
0.101525,0.0936716,0.356438,0.258738,0.0733225,0.0516904,0.0760369,0.100077,-281,-939,-20.4008,-1,-211.933,-1,2.288
0.101819,0.0938713,0.356742,0.259133,0.0735027,0.0511014,0.0760961,0.099655,-289,-943,-20.6025,-1,-211.874,-1,2.292
0.102113,0.0940727,0.357047,0.259524,0.073683,0.0508527,0.0761552,0.0990568,-293,-948,-20.8113,-1,-211.819,-1,2.296
0.102408,0.0942707,0.357352,0.259913,0.0738632,0.050399,0.0762143,0.0984276,-300,-954,-21.0243,-1,-211.77,-1,2.3
0.102704,0.0944662,0.357657,0.260293,0.0740433,0.049895,0.0762734,0.0972884,-307,-965,-21.2433,-1,-211.728,-1,2.304
0.103001,0.0946628,0.357962,0.260675,0.0742234,0.0496454,0.0763324,0.0967305,-312,-970,-21.4686,-1,-211.696,-1,2.308
0.103298,0.0948539,0.358267,0.261047,0.0744035,0.0490183,0.0763914,0.0954373,-320,-982,-21.6981,-1,-211.67,-1,2.312
0.103596,0.0950463,0.358573,0.261421,0.0745835,0.0487154,0.0764503,0.0948054,-326,-988,-21.9351,-1,-211.657,-1,2.316
0.103894,0.0952357,0.358879,0.261788,0.0747634,0.0482544,0.0765091,0.0937796,-333,-998,-22.1767,-1,-211.65,-1,2.32
0.104194,0.0954264,0.359185,0.262151,0.0749433,0.0480622,0.076568,0.0927502,-337,-1007,-22.4241,-1,-211.653,-1,2.324
0.104494,0.0956129,0.359491,0.262511,0.0751232,0.0475885,0.0766267,0.0918624,-344,-1016,-22.6753,-1,-211.666,-1,2.328
0.104795,0.095803,0.359798,0.262872,0.075303,0.0475607,0.0766854,0.0912993,-347,-1021,-22.9323,-1,-211.688,-1,2.332
0.105096,0.0959906,0.360105,0.263233,0.0754827,0.0473406,0.0767441,0.0909815,-352,-1024,-23.1914,-1,-211.715,-1,2.336
0.105399,0.0961809,0.360412,0.263596,0.0756624,0.0474242,0.0768027,0.0908848,-354,-1025,-23.454,-1,-211.745,-1,2.34
0.105702,0.0963678,0.360719,0.263956,0.075842,0.047192,0.0768613,0.0905612,-358,-1028,-23.7177,-1,-211.776,-1,2.344
0.106005,0.0965575,0.361027,0.264318,0.0760216,0.0472676,0.0769198,0.0906046,-360,-1028,-23.985,-1,-211.809,-1,2.348
0.10631,0.096743,0.361335,0.264667,0.0762011,0.0469724,0.0769783,0.0894531,-366,-1039,-24.2535,-1,-211.843,-1,2.352
0.106615,0.0969313,0.361643,0.265018,0.0763806,0.047006,0.0770367,0.088887,-368,-1044,-24.5263,-1,-211.888,-1,2.356
0.106921,0.0971172,0.361951,0.265364,0.0765599,0.0468269,0.077095,0.0881065,-373,-1052,-24.8005,-1,-211.938,-1,2.36
0.107228,0.0973089,0.362259,0.26572,0.0767393,0.0471969,0.0771533,0.0883923,-372,-1049,-25.0777,-1,-211.996,-1,2.364
0.107535,0.0974945,0.362568,0.266063,0.0769185,0.0469253,0.0772116,0.0875176,-377,-1058,-25.3535,-1,-212.051,-1,2.368
0.107843,0.0976772,0.362877,0.266396,0.0770977,0.0465139,0.0772698,0.0861283,-384,-1071,-25.6336,-1,-212.115,-1,2.372
0.108152,0.0978655,0.363186,0.26674,0.0772769,0.0467003,0.0773279,0.0860371,-385,-1072,-25.9188,-1,-212.192,-1,2.376
0.108461,0.098058,0.363496,0.267088,0.0774559,0.0471701,0.077386,0.0863793,-384,-1069,-26.2038,-1,-212.269,-1,2.38
0.108771,0.0982542,0.363805,0.26743,0.077635,0.0478,0.0774441,0.086118,-381,-1072,-26.4858,-1,-212.344,-1,2.384
0.109082,0.0984546,0.364115,0.267778,0.0778139,0.0485654,0.077502,0.0863757,-376,-1070,-26.7635,-1,-212.42,-1,2.388
0.109394,0.0986612,0.364425,0.268124,0.0779928,0.0495939,0.07756,0.0864323,-370,-1069,-27.0354,-1,-212.494,-1,2.392
0.109706,0.0988695,0.364736,0.268472,0.0781716,0.0504235,0.0776178,0.0865852,-365,-1068,-27.2993,-1,-212.567,-1,2.396
0.110019,0.0990855,0.365046,0.26882,0.0783503,0.05161,0.0776756,0.0867159,-357,-1067,-27.5568,-1,-212.638,-1,2.4
0.110333,0.0993028,0.365357,0.269165,0.0785289,0.0525162,0.0777334,0.0866015,-351,-1068,-27.8049,-1,-212.708,-1,2.404
0.110647,0.0995229,0.365668,0.269511,0.0787075,0.0533506,0.0777911,0.0865829,-346,-1068,-28.0461,-1,-212.779,-1,2.408
0.110963,0.0997443,0.365979,0.269855,0.078886,0.054022,0.0778487,0.0863977,-343,-1070,-28.2812,-1,-212.851,-1,2.412
0.111278,0.0999696,0.366291,0.270204,0.0790645,0.0547864,0.0779063,0.0866773,-338,-1068,-28.5116,-1,-212.923,-1,2.416
0.111595,0.100191,0.366603,0.270554,0.0792428,0.0549792,0.0779639,0.0868925,-339,-1066,-28.7367,-1,-212.993,-1,2.42
0.111912,0.100402,0.366915,0.270885,0.0794211,0.0542729,0.0780213,0.0855388,-348,-1079,-28.9621,-1,-213.061,-1,2.424
0.11223,0.100615,0.367227,0.271227,0.0795993,0.0539171,0.0780787,0.0855577,-354,-1079,-29.1957,-1,-213.142,-1,2.428
0.112549,0.100825,0.367539,0.271567,0.0797775,0.0534496,0.0781361,0.0853687,-361,-1081,-29.4343,-1,-213.223,-1,2.432
0.112869,0.101036,0.367852,0.271912,0.0799555,0.0532243,0.0781934,0.0856458,-365,-1079,-29.6789,-1,-213.306,-1,2.436
0.113189,0.101243,0.368165,0.272251,0.0801335,0.0526999,0.0782506,0.0853699,-373,-1082,-29.9273,-1,-213.385,-1,2.44
0.11351,0.101452,0.368478,0.272591,0.0803114,0.0525518,0.0783078,0.085186,-377,-1084,-30.1822,-1,-213.468,-1,2.444
0.113831,0.101659,0.368791,0.272923,0.0804892,0.0522515,0.0783649,0.0845163,-382,-1090,-30.4401,-1,-213.552,-1,2.448
0.114154,0.101871,0.369105,0.273258,0.0806669,0.0525407,0.0784219,0.0842426,-382,-1093,-30.7021,-1,-213.643,-1,2.452
0.114477,0.10208,0.369419,0.273585,0.0808446,0.0524457,0.0784789,0.0834267,-386,-1102,-30.9633,-1,-213.737,-1,2.456
0.1148,0.102292,0.369733,0.273915,0.0810222,0.0525838,0.0785358,0.0830844,-387,-1105,-31.2268,-1,-213.838,-1,2.46
0.115125,0.102507,0.370047,0.274248,0.0811996,0.0529926,0.0785927,0.0831152,-386,-1105,-31.4905,-1,-213.943,-1,2.464
0.11545,0.102719,0.370362,0.27458,0.081377,0.0530348,0.0786495,0.083107,-388,-1106,-31.7522,-1,-214.047,-1,2.468
0.115776,0.102935,0.370676,0.274918,0.0815543,0.0533221,0.0787062,0.0835334,-388,-1102,-32.015,-1,-214.151,-1,2.472
0.116102,0.10315,0.370991,0.275259,0.0817316,0.0534848,0.0787629,0.0841056,-390,-1097,-32.2768,-1,-214.251,-1,2.476
0.11643,0.103364,0.371306,0.275601,0.0819087,0.0535069,0.0788195,0.0845734,-392,-1092,-32.5387,-1,-214.344,-1,2.48
0.116758,0.103579,0.371622,0.275946,0.0820857,0.0535792,0.078876,0.0851444,-394,-1087,-32.802,-1,-214.433,-1,2.484
0.117086,0.103795,0.371937,0.276294,0.0822627,0.053685,0.0789325,0.085813,-396,-1081,-33.0663,-1,-214.516,-1,2.488
0.117416,0.104009,0.372253,0.276639,0.0824395,0.0536116,0.0789889,0.0859132,-399,-1080,-33.3312,-1,-214.593,-1,2.492
0.117746,0.104224,0.372569,0.276987,0.0826163,0.0536778,0.0790453,0.0863255,-401,-1076,-33.5984,-1,-214.668,-1,2.496
0.118077,0.104437,0.372886,0.277333,0.082793,0.0535204,0.0791016,0.0863413,-405,-1076,-33.8667,-1,-214.739,-1,2.5
0.118408,0.104653,0.373202,0.277679,0.0829695,0.0537034,0.0791578,0.0864381,-407,-1076,-34.1378,-1,-214.81,-1,2.504
0.118741,0.104868,0.373519,0.278027,0.083146,0.053739,0.0792139,0.0865891,-409,-1074,-34.4089,-1,-214.88,-1,2.508
0.119073,0.105084,0.373836,0.278374,0.0833224,0.0538203,0.07927,0.0866609,-411,-1074,-34.6813,-1,-214.948,-1,2.512
0.119407,0.105304,0.374153,0.278725,0.0834987,0.0541625,0.079326,0.0869968,-410,-1071,-34.9543,-1,-215.016,-1,2.516
0.119741,0.105519,0.37447,0.279074,0.0836749,0.0540163,0.079382,0.0870479,-414,-1071,-35.2261,-1,-215.08,-1,2.52
0.120077,0.105738,0.374788,0.279429,0.083851,0.0542931,0.0794379,0.0876578,-415,-1065,-35.5005,-1,-215.143,-1,2.524
0.120412,0.105957,0.375106,0.279791,0.084027,0.0544776,0.0794937,0.0885826,-416,-1056,-35.774,-1,-215.2,-1,2.528
0.120749,0.106184,0.375424,0.280162,0.0842029,0.0551765,0.0795494,0.0899765,-412,-1043,-36.047,-1,-215.247,-1,2.532
0.121086,0.106403,0.375742,0.280522,0.0843787,0.0550953,0.0796051,0.0899845,-415,-1043,-36.3156,-1,-215.281,-1,2.536
0.121424,0.106632,0.376061,0.280892,0.0845544,0.055761,0.0796607,0.0908535,-412,-1034,-36.586,-1,-215.314,-1,2.54
0.121762,0.106862,0.37638,0.281258,0.0847299,0.0563776,0.0797162,0.0910874,-409,-1032,-36.8517,-1,-215.339,-1,2.544
0.122102,0.107096,0.376699,0.281621,0.0849054,0.0571053,0.0797717,0.0908978,-405,-1034,-37.1132,-1,-215.361,-1,2.548
0.122442,0.107335,0.377018,0.281983,0.0850808,0.0579359,0.0798271,0.0908002,-400,-1035,-37.3694,-1,-215.386,-1,2.552
0.122782,0.107576,0.377337,0.282339,0.0852561,0.0586912,0.0798824,0.0902457,-396,-1040,-37.6194,-1,-215.411,-1,2.556
0.123124,0.107821,0.377657,0.282699,0.0854312,0.0595978,0.0799377,0.0901064,-390,-1042,-37.8638,-1,-215.442,-1,2.56
0.123466,0.108068,0.377977,0.283055,0.0856063,0.0603174,0.0799929,0.0897832,-387,-1045,-38.1014,-1,-215.474,-1,2.564
0.123808,0.108321,0.378297,0.283416,0.0857812,0.0612866,0.080048,0.089942,-380,-1043,-38.3337,-1,-215.51,-1,2.568
0.124152,0.108571,0.378617,0.283767,0.0859561,0.0616448,0.080103,0.0891553,-380,-1051,-38.5588,-1,-215.544,-1,2.572
0.124496,0.108822,0.378938,0.28412,0.0861308,0.0620563,0.080158,0.0889188,-378,-1054,-38.7822,-1,-215.586,-1,2.576
0.124841,0.109074,0.379258,0.284471,0.0863054,0.0623882,0.0802129,0.0884732,-378,-1058,-39.0033,-1,-215.63,-1,2.58
0.125187,0.109331,0.379579,0.284827,0.0864799,0.0629838,0.0802677,0.0886368,-375,-1057,-39.2227,-1,-215.678,-1,2.584
0.125533,0.109586,0.3799,0.285175,0.0866543,0.0632369,0.0803224,0.0881124,-375,-1062,-39.4383,-1,-215.725,-1,2.588
0.12588,0.109847,0.380222,0.285531,0.0868286,0.0638951,0.0803771,0.0884539,-371,-1059,-39.6529,-1,-215.777,-1,2.592
0.126227,0.110113,0.380543,0.285888,0.0870028,0.0647657,0.0804317,0.0887103,-366,-1056,-39.8628,-1,-215.825,-1,2.596
0.126576,0.110384,0.380865,0.286245,0.0871768,0.065778,0.0804862,0.0888236,-359,-1055,-40.0659,-1,-215.87,-1,2.6
0.126925,0.110653,0.381187,0.286592,0.0873508,0.0662226,0.0805407,0.0881506,-358,-1062,-40.2616,-1,-215.916,-1,2.604
0.127275,0.11093,0.38151,0.286946,0.0875246,0.0672387,0.0805951,0.088249,-351,-1061,-40.4543,-1,-215.967,-1,2.608
0.127625,0.111207,0.381832,0.287297,0.0876983,0.0679449,0.0806494,0.0881418,-347,-1063,-40.6392,-1,-216.017,-1,2.612
0.127976,0.111487,0.382155,0.287653,0.0878718,0.0685885,0.0807036,0.0883871,-343,-1060,-40.8191,-1,-216.068,-1,2.616
0.128328,0.111767,0.382478,0.288011,0.0880453,0.0691039,0.0807577,0.0887521,-341,-1057,-40.9947,-1,-216.117,-1,2.62
0.128681,0.11205,0.382801,0.288377,0.0882186,0.0696778,0.0808118,0.0896865,-338,-1048,-41.167,-1,-216.162,-1,2.624
0.129034,0.112334,0.383124,0.288743,0.0883919,0.0700892,0.0808658,0.0903381,-336,-1042,-41.3356,-1,-216.197,-1,2.628
0.129388,0.112618,0.383448,0.289112,0.088565,0.0703923,0.0809197,0.0909166,-336,-1036,-41.502,-1,-216.226,-1,2.632
0.129742,0.112908,0.383772,0.289488,0.0887379,0.071055,0.0809736,0.0919644,-332,-1026,-41.6669,-1,-216.249,-1,2.636
0.130098,0.113193,0.384096,0.289859,0.0889108,0.0711513,0.0810273,0.092231,-333,-1024,-41.8274,-1,-216.261,-1,2.64
0.130454,0.113477,0.38442,0.290235,0.0890835,0.0711003,0.081081,0.0928119,-336,-1018,-41.9888,-1,-216.271,-1,2.644
0.13081,0.113762,0.384744,0.290616,0.0892561,0.0711815,0.0811346,0.0936022,-338,-1010,-42.1521,-1,-216.275,-1,2.648
0.131168,0.114042,0.385069,0.290996,0.0894286,0.070775,0.0811881,0.0940715,-343,-1006,-42.3165,-1,-216.271,-1,2.652
0.131526,0.114319,0.385394,0.291371,0.0896009,0.0702737,0.0812416,0.0939525,-350,-1007,-42.4862,-1,-216.262,-1,2.656
0.131884,0.114599,0.385719,0.291748,0.0897731,0.0701698,0.0812949,0.0940747,-353,-1006,-42.662,-1,-216.255,-1,2.66
0.132244,0.11488,0.386044,0.292123,0.0899452,0.0701869,0.0813482,0.0939834,-355,-1006,-42.8402,-1,-216.247,-1,2.664
0.132604,0.115158,0.38637,0.292489,0.0901172,0.0699391,0.0814014,0.0931452,-360,-1015,-43.0199,-1,-216.24,-1,2.668
0.132965,0.115442,0.386695,0.292856,0.090289,0.070321,0.0814546,0.092644,-359,-1019,-43.2031,-1,-216.241,-1,2.672
0.133326,0.11573,0.387021,0.293219,0.0904607,0.0708923,0.0815076,0.0920795,-356,-1025,-43.3842,-1,-216.247,-1,2.676
0.133688,0.116023,0.387347,0.293581,0.0906322,0.0716475,0.0815606,0.0915016,-351,-1031,-43.5613,-1,-216.259,-1,2.68
0.134051,0.11632,0.387674,0.293946,0.0908037,0.072554,0.0816134,0.0914043,-345,-1032,-43.7329,-1,-216.276,-1,2.684
0.134415,0.116621,0.388,0.294309,0.0909749,0.0734462,0.0816662,0.0911955,-339,-1034,-43.8976,-1,-216.295,-1,2.688
0.134779,0.11692,0.388327,0.294669,0.0911461,0.0738395,0.0817189,0.0907971,-338,-1038,-44.0558,-1,-216.316,-1,2.692
0.135144,0.117221,0.388654,0.295031,0.0913171,0.074332,0.0817716,0.0907619,-336,-1038,-44.2118,-1,-216.34,-1,2.696
0.13551,0.117525,0.388981,0.295398,0.091488,0.0748907,0.0818241,0.0910551,-333,-1035,-44.3647,-1,-216.365,-1,2.7
0.135876,0.117833,0.389309,0.29577,0.0916588,0.0755798,0.0818766,0.0917112,-329,-1029,-44.5139,-1,-216.386,-1,2.704
0.136243,0.118138,0.389636,0.296139,0.0918294,0.0757802,0.081929,0.0919183,-329,-1027,-44.6585,-1,-216.401,-1,2.708
0.136611,0.118445,0.389964,0.296515,0.0919998,0.0761152,0.0819813,0.0925458,-328,-1021,-44.8027,-1,-216.414,-1,2.712
0.136979,0.118751,0.390292,0.296893,0.0921702,0.0762523,0.0820335,0.0932233,-329,-1014,-44.9454,-1,-216.421,-1,2.716
0.137348,0.119057,0.39062,0.297274,0.0923403,0.0763724,0.0820856,0.0939052,-330,-1008,-45.0884,-1,-216.42,-1,2.72
0.137718,0.119358,0.390949,0.29765,0.0925104,0.0759342,0.0821377,0.0939568,-336,-1007,-45.2321,-1,-216.414,-1,2.724
0.138088,0.119655,0.391277,0.298027,0.0926803,0.0754406,0.0821896,0.09402,-343,-1007,-45.3815,-1,-216.406,-1,2.728
0.138459,0.119951,0.391606,0.298403,0.09285,0.0749676,0.0822415,0.0940621,-349,-1006,-45.5369,-1,-216.398,-1,2.732
0.138831,0.120246,0.391935,0.298781,0.0930197,0.0745082,0.0822933,0.0941765,-355,-1005,-45.6983,-1,-216.39,-1,2.736
0.139203,0.12054,0.392265,0.299163,0.0931891,0.0742308,0.082345,0.0945983,-360,-1001,-45.8653,-1,-216.38,-1,2.74
0.139576,0.120835,0.392594,0.299546,0.0933585,0.0740459,0.0823966,0.0949659,-364,-997,-46.0363,-1,-216.367,-1,2.744
0.13995,0.121132,0.392924,0.299929,0.0935276,0.0740953,0.0824481,0.0952685,-365,-994,-46.2105,-1,-216.349,-1,2.748
0.140325,0.121441,0.393254,0.300326,0.0936967,0.075136,0.0824996,0.0965931,-358,-981,-46.3851,-1,-216.328,-1,2.752
0.1407,0.121737,0.393584,0.3007,0.0938655,0.0747645,0.0825509,0.0955472,-364,-991,-46.5523,-1,-216.295,-1,2.756
0.141076,0.122042,0.393914,0.301084,0.0940343,0.0752366,0.0826022,0.0957424,-362,-989,-46.724,-1,-216.272,-1,2.76
0.141452,0.12235,0.394245,0.301467,0.0942029,0.075868,0.0826533,0.0957286,-358,-989,-46.8927,-1,-216.247,-1,2.764
0.141829,0.122668,0.394575,0.301861,0.0943713,0.0770663,0.0827044,0.096612,-350,-981,-47.0568,-1,-216.221,-1,2.768
0.142207,0.122982,0.394906,0.302246,0.0945396,0.0775197,0.0827554,0.0964811,-348,-982,-47.2116,-1,-216.188,-1,2.772
0.142585,0.123293,0.395237,0.302623,0.0947077,0.0776204,0.0828063,0.0957316,-349,-989,-47.364,-1,-216.156,-1,2.776
0.142965,0.123611,0.395569,0.303004,0.0948757,0.0782634,0.0828572,0.0955775,-345,-990,-47.5165,-1,-216.131,-1,2.78
0.143344,0.123935,0.3959,0.303385,0.0950435,0.0791815,0.0829079,0.0955323,-339,-991,-47.6645,-1,-216.108,-1,2.784
0.143725,0.124255,0.396232,0.303761,0.0952112,0.0794481,0.0829585,0.0949839,-339,-996,-47.8058,-1,-216.086,-1,2.788
0.144106,0.124574,0.396564,0.304133,0.0953787,0.0795106,0.0830091,0.0943592,-340,-1002,-47.9463,-1,-216.069,-1,2.792
0.144488,0.124888,0.396896,0.304507,0.095546,0.0792068,0.0830595,0.0940579,-345,-1005,-48.0879,-1,-216.058,-1,2.796
0.144871,0.125199,0.397228,0.304879,0.0957132,0.0787452,0.0831099,0.0936555,-351,-1009,-48.2339,-1,-216.051,-1,2.8
0.145254,0.125508,0.397561,0.305251,0.0958803,0.0782359,0.0831602,0.0934448,-358,-1011,-48.3857,-1,-216.047,-1,2.804
0.145638,0.125814,0.397894,0.305622,0.0960471,0.0776084,0.0832103,0.093218,-366,-1013,-48.5438,-1,-216.046,-1,2.808
0.146022,0.12612,0.398227,0.305994,0.0962139,0.0772477,0.0832604,0.0931532,-371,-1014,-48.709,-1,-216.047,-1,2.812
0.146407,0.126425,0.39856,0.306365,0.0963804,0.0768921,0.0833104,0.0930236,-376,-1015,-48.879,-1,-216.048,-1,2.816
0.146793,0.126734,0.398893,0.30674,0.0965468,0.0770868,0.0833603,0.0933114,-377,-1012,-49.0534,-1,-216.051,-1,2.82
0.14718,0.127043,0.399227,0.307107,0.0967131,0.0771015,0.0834101,0.0927836,-379,-1018,-49.2276,-1,-216.051,-1,2.824
0.147567,0.127355,0.39956,0.307472,0.0968791,0.0773992,0.0834599,0.0922589,-378,-1023,-49.403,-1,-216.057,-1,2.828
0.147955,0.127673,0.399894,0.307839,0.0970451,0.0781159,0.0835095,0.0920531,-374,-1025,-49.5768,-1,-216.068,-1,2.832
0.148343,0.127992,0.400228,0.3082,0.0972108,0.0786513,0.083559,0.0914553,-371,-1031,-49.7456,-1,-216.081,-1,2.836
0.148732,0.12831,0.400563,0.308559,0.0973764,0.0789219,0.0836085,0.0909127,-371,-1036,-49.911,-1,-216.1,-1,2.84
0.149122,0.128628,0.400897,0.308919,0.0975418,0.079131,0.0836578,0.0906374,-371,-1039,-50.0755,-1,-216.124,-1,2.844
0.149513,0.128947,0.401232,0.309283,0.097707,0.079328,0.083707,0.090713,-372,-1038,-50.2395,-1,-216.152,-1,2.848
0.149904,0.129267,0.401567,0.309648,0.0978721,0.079517,0.0837562,0.0909073,-372,-1037,-50.4032,-1,-216.178,-1,2.852
0.150296,0.129589,0.401902,0.310019,0.098037,0.0798444,0.0838052,0.0915263,-371,-1031,-50.5665,-1,-216.202,-1,2.856
0.150688,0.12991,0.402237,0.310393,0.0982018,0.0800052,0.0838542,0.0921693,-372,-1025,-50.7284,-1,-216.22,-1,2.86
0.151081,0.130231,0.402573,0.31077,0.0983664,0.0800836,0.0839031,0.0928859,-373,-1018,-50.8903,-1,-216.232,-1,2.864
0.151475,0.130549,0.402909,0.311148,0.0985308,0.0799055,0.0839518,0.0934212,-377,-1013,-51.053,-1,-216.236,-1,2.868
0.15187,0.130869,0.403245,0.311531,0.098695,0.0799019,0.0840005,0.0941524,-379,-1005,-51.2188,-1,-216.235,-1,2.872
0.152265,0.131187,0.403581,0.31191,0.0988591,0.0798132,0.0840491,0.0943807,-382,-1003,-51.3861,-1,-216.227,-1,2.876
0.15266,0.131504,0.403917,0.312288,0.099023,0.0795813,0.0840975,0.0944465,-386,-1003,-51.5557,-1,-216.217,-1,2.88
0.153057,0.131821,0.404253,0.312666,0.0991867,0.079513,0.0841459,0.0944328,-389,-1003,-51.7287,-1,-216.207,-1,2.884
0.153454,0.132137,0.40459,0.313044,0.0993502,0.0793236,0.0841942,0.0944237,-393,-1003,-51.904,-1,-216.196,-1,2.888
0.153852,0.132454,0.404927,0.31342,0.0995136,0.0793125,0.0842424,0.0942737,-395,-1004,-52.0823,-1,-216.186,-1,2.892
0.15425,0.132773,0.405264,0.313793,0.0996768,0.0794202,0.0842905,0.0939721,-396,-1007,-52.262,-1,-216.178,-1,2.896
0.154649,0.133094,0.405601,0.314164,0.0998398,0.0797512,0.0843385,0.0935407,-395,-1011,-52.4421,-1,-216.173,-1,2.9
0.155049,0.133413,0.405939,0.314528,0.100003,0.0797703,0.0843863,0.0927349,-397,-1019,-52.6207,-1,-216.172,-1,2.904
0.155449,0.13373,0.406276,0.314888,0.100165,0.0795239,0.0844341,0.0917946,-402,-1029,-52.8007,-1,-216.18,-1,2.908
0.15585,0.134047,0.406614,0.31525,0.100328,0.0795036,0.0844818,0.0913981,-404,-1033,-52.9843,-1,-216.196,-1,2.912
0.156252,0.134367,0.406952,0.315617,0.10049,0.079634,0.0845294,0.091508,-405,-1032,-53.1694,-1,-216.217,-1,2.916
0.156654,0.134685,0.40729,0.315986,0.100652,0.079577,0.0845769,0.0917541,-408,-1029,-53.3549,-1,-216.236,-1,2.92
0.157057,0.134997,0.407629,0.316348,0.100814,0.0790495,0.0846243,0.0912847,-415,-1034,-53.5426,-1,-216.254,-1,2.924
0.157461,0.135312,0.407967,0.316713,0.100976,0.078957,0.0846715,0.091346,-418,-1034,-53.7363,-1,-216.276,-1,2.928
0.157865,0.135626,0.408306,0.317079,0.101137,0.0788377,0.0847187,0.091387,-421,-1033,-53.9322,-1,-216.297,-1,2.932
0.15827,0.135941,0.408645,0.317448,0.101299,0.0788158,0.0847658,0.0916733,-423,-1031,-54.1307,-1,-216.318,-1,2.936
0.158675,0.136258,0.408984,0.317822,0.10146,0.0789164,0.0848128,0.0922961,-425,-1025,-54.3306,-1,-216.336,-1,2.94
0.159081,0.136573,0.409324,0.318195,0.101621,0.0788682,0.0848596,0.0925674,-427,-1022,-54.5312,-1,-216.348,-1,2.944
0.159488,0.136889,0.409663,0.31857,0.101782,0.0789513,0.0849064,0.0929785,-429,-1018,-54.7335,-1,-216.357,-1,2.948
0.159896,0.137209,0.410003,0.318945,0.101943,0.0792658,0.0849531,0.0932238,-428,-1016,-54.9363,-1,-216.362,-1,2.952
0.160304,0.137528,0.410343,0.319316,0.102103,0.0793891,0.0849997,0.0930995,-429,-1017,-55.1377,-1,-216.365,-1,2.956
0.160712,0.137845,0.410683,0.319682,0.102263,0.0793561,0.0850461,0.0924983,-432,-1023,-55.3394,-1,-216.37,-1,2.96
0.161122,0.138165,0.411023,0.320051,0.102423,0.0795645,0.0850925,0.0924718,-432,-1024,-55.5428,-1,-216.38,-1,2.964
0.161532,0.138488,0.411364,0.320426,0.102583,0.0799625,0.0851387,0.0928573,-431,-1020,-55.7455,-1,-216.391,-1,2.968
0.161942,0.138801,0.411704,0.320791,0.102743,0.0793929,0.0851849,0.0923656,-438,-1025,-55.9465,-1,-216.398,-1,2.972
0.162354,0.139115,0.412045,0.32116,0.102902,0.0791571,0.0852309,0.092297,-442,-1026,-56.1539,-1,-216.41,-1,2.976
0.162766,0.139433,0.412386,0.321529,0.103062,0.0792015,0.0852769,0.0923088,-444,-1026,-56.3647,-1,-216.423,-1,2.98
0.163178,0.13975,0.412727,0.321895,0.103221,0.0792311,0.0853227,0.0920288,-446,-1029,-56.5764,-1,-216.436,-1,2.984
0.163591,0.140064,0.413069,0.322253,0.10338,0.0789917,0.0853684,0.0911511,-450,-1037,-56.7895,-1,-216.452,-1,2.988
0.164005,0.140381,0.41341,0.32261,0.103539,0.0790912,0.0854141,0.0905372,-452,-1043,-57.0059,-1,-216.477,-1,2.992
0.16442,0.140699,0.413752,0.322965,0.103697,0.0792151,0.0854596,0.0899552,-453,-1049,-57.2227,-1,-216.508,-1,2.996
0.164835,0.141018,0.414094,0.323324,0.103856,0.0794417,0.085505,0.0899127,-453,-1050,-57.4397,-1,-216.545,-1,3
0.165251,0.141334,0.414436,0.323684,0.104014,0.0792472,0.0855503,0.089942,-457,-1050,-57.6563,-1,-216.582,-1,3.004
0.165667,0.141645,0.414778,0.324043,0.104172,0.0788009,0.0855955,0.0898751,-463,-1051,-57.8762,-1,-216.619,-1,3.008
0.166084,0.141957,0.415121,0.32441,0.104329,0.0785321,0.0856406,0.0904927,-468,-1045,-58.1015,-1,-216.657,-1,3.012
0.166502,0.142269,0.415464,0.324782,0.104487,0.0783242,0.0856856,0.0912787,-472,-1037,-58.3305,-1,-216.688,-1,3.016
0.16692,0.142582,0.415806,0.325157,0.104644,0.0783007,0.0857305,0.0921194,-475,-1029,-58.5627,-1,-216.711,-1,3.02
0.167339,0.142898,0.416149,0.325534,0.104801,0.0784866,0.0857752,0.0928238,-475,-1023,-58.7963,-1,-216.726,-1,3.024
0.167758,0.143212,0.416493,0.32591,0.104958,0.0784953,0.0858199,0.0932647,-477,-1019,-59.0297,-1,-216.735,-1,3.028
0.168178,0.143529,0.416836,0.326289,0.105115,0.0788179,0.0858644,0.0937025,-477,-1014,-59.2642,-1,-216.739,-1,3.032
0.168599,0.143845,0.417179,0.326665,0.105272,0.0788602,0.0859089,0.0938504,-479,-1013,-59.4972,-1,-216.738,-1,3.036
0.169021,0.144165,0.417523,0.327048,0.105428,0.079205,0.0859532,0.0944385,-478,-1007,-59.7309,-1,-216.736,-1,3.04
0.169443,0.144484,0.417867,0.327425,0.105584,0.0794062,0.0859975,0.0943987,-479,-1008,-59.963,-1,-216.729,-1,3.044
0.169865,0.144805,0.418211,0.327802,0.10574,0.0796842,0.0860416,0.0943722,-478,-1008,-60.1945,-1,-216.722,-1,3.048
0.170288,0.145136,0.418555,0.328188,0.105896,0.0807333,0.0860856,0.0950167,-471,-1002,-60.4244,-1,-216.715,-1,3.052
0.170712,0.145449,0.4189,0.328552,0.106052,0.079878,0.0861295,0.0936901,-481,-1015,-60.6471,-1,-216.703,-1,3.056
0.171137,0.145773,0.419244,0.328926,0.106207,0.0802867,0.0861733,0.0936694,-480,-1015,-60.8782,-1,-216.704,-1,3.06
0.171562,0.146097,0.419589,0.329301,0.106362,0.0805303,0.0862169,0.0937132,-480,-1015,-61.107,-1,-216.705,-1,3.064
0.171988,0.146423,0.419934,0.329676,0.106517,0.0808367,0.0862605,0.0936848,-480,-1015,-61.3349,-1,-216.705,-1,3.068
0.172414,0.146749,0.420279,0.330051,0.106672,0.081041,0.0863039,0.0936947,-480,-1015,-61.5614,-1,-216.706,-1,3.072
0.172841,0.147074,0.420625,0.330425,0.106826,0.0810908,0.0863473,0.0936149,-482,-1016,-61.7874,-1,-216.707,-1,3.076
0.173269,0.147397,0.42097,0.330798,0.10698,0.08098,0.0863905,0.0935617,-485,-1017,-62.0144,-1,-216.709,-1,3.08
0.173697,0.147722,0.421316,0.331176,0.107135,0.081079,0.0864336,0.093843,-486,-1014,-62.2436,-1,-216.711,-1,3.084
0.174126,0.148045,0.421662,0.331552,0.107288,0.0810009,0.0864766,0.0938865,-489,-1014,-62.4733,-1,-216.711,-1,3.088
0.174555,0.148364,0.422008,0.331927,0.107442,0.0805747,0.0865195,0.0938292,-495,-1014,-62.7052,-1,-216.71,-1,3.092
0.174985,0.148686,0.422354,0.332303,0.107596,0.080492,0.0865623,0.0939349,-498,-1013,-62.9421,-1,-216.71,-1,3.096
0.175416,0.149004,0.4227,0.332681,0.107749,0.0802354,0.086605,0.0940629,-503,-1012,-63.1812,-1,-216.709,-1,3.1
0.175847,0.149325,0.423047,0.333057,0.107902,0.080237,0.0866475,0.0940619,-505,-1012,-63.4238,-1,-216.707,-1,3.104
0.176279,0.149641,0.423393,0.333424,0.108055,0.0797775,0.08669,0.0933415,-511,-1019,-63.6678,-1,-216.705,-1,3.108
0.176712,0.149962,0.42374,0.333794,0.108207,0.0799893,0.0867323,0.0930052,-512,-1023,-63.917,-1,-216.711,-1,3.112
0.177145,0.150284,0.424087,0.334163,0.10836,0.0801306,0.0867745,0.0927809,-513,-1025,-64.1656,-1,-216.72,-1,3.116
0.177579,0.1506,0.424434,0.334522,0.108512,0.0797641,0.0868166,0.0917965,-518,-1035,-64.4145,-1,-216.732,-1,3.12
0.178013,0.150915,0.424782,0.33488,0.108664,0.0794046,0.0868586,0.0909963,-524,-1043,-64.6679,-1,-216.753,-1,3.124
0.178448,0.151235,0.425129,0.335245,0.108815,0.0796256,0.0869004,0.0910386,-524,-1042,-64.9257,-1,-216.782,-1,3.128
0.178884,0.151564,0.425477,0.335621,0.108967,0.0804927,0.0869422,0.0920745,-519,-1032,-65.1823,-1,-216.811,-1,3.132
0.17932,0.151882,0.425825,0.335985,0.109118,0.0801206,0.0869838,0.0916999,-525,-1036,-65.4331,-1,-216.83,-1,3.136
0.179757,0.152208,0.426173,0.336358,0.109269,0.0806212,0.0870253,0.0922274,-523,-1031,-65.688,-1,-216.852,-1,3.14
0.180194,0.152533,0.426521,0.336729,0.10942,0.0807821,0.0870667,0.0923776,-523,-1030,-65.9398,-1,-216.869,-1,3.144
0.180632,0.152858,0.426869,0.337101,0.109571,0.080947,0.087108,0.0925929,-524,-1028,-66.1914,-1,-216.885,-1,3.148
0.18107,0.153183,0.427218,0.337476,0.109721,0.0811145,0.0871492,0.0929668,-525,-1025,-66.4429,-1,-216.898,-1,3.152
0.18151,0.153506,0.427566,0.337847,0.109871,0.0809383,0.0871903,0.0929569,-529,-1025,-66.6942,-1,-216.909,-1,3.156
0.181949,0.153828,0.427915,0.338217,0.110021,0.0808208,0.0872312,0.0928063,-532,-1026,-66.9484,-1,-216.919,-1,3.16
0.18239,0.154154,0.428264,0.338584,0.110171,0.0810016,0.087272,0.0924468,-533,-1030,-67.2047,-1,-216.931,-1,3.164
0.182831,0.15448,0.428613,0.338949,0.110321,0.0812085,0.0873127,0.0919769,-534,-1035,-67.4606,-1,-216.947,-1,3.168
0.183272,0.154811,0.428963,0.339309,0.11047,0.0817207,0.0873533,0.0913756,-531,-1041,-67.7158,-1,-216.968,-1,3.172
0.183715,0.15514,0.429312,0.339662,0.110619,0.0818606,0.0873938,0.0903414,-532,-1051,-67.9677,-1,-216.996,-1,3.176
0.184157,0.155466,0.429662,0.340015,0.110768,0.0817524,0.0874341,0.0896519,-536,-1058,-68.2198,-1,-217.033,-1,3.18
0.184601,0.1558,0.430012,0.340379,0.110917,0.0823712,0.0874743,0.0900848,-533,-1054,-68.4737,-1,-217.077,-1,3.184
0.185045,0.156121,0.430362,0.340732,0.111065,0.0816321,0.0875144,0.0894809,-541,-1060,-68.7241,-1,-217.118,-1,3.188
0.185489,0.156442,0.430712,0.341087,0.111213,0.081197,0.0875544,0.089251,-547,-1063,-68.9822,-1,-217.164,-1,3.192
0.185934,0.156766,0.431062,0.341445,0.111361,0.0810796,0.0875943,0.0892705,-551,-1063,-69.2453,-1,-217.212,-1,3.196
0.18638,0.15709,0.431413,0.341798,0.111509,0.0811165,0.087634,0.0889956,-553,-1066,-69.5107,-1,-217.261,-1,3.2
0.186826,0.157415,0.431763,0.342153,0.111656,0.0811124,0.0876737,0.0888986,-555,-1067,-69.7769,-1,-217.313,-1,3.204
0.187273,0.15774,0.432114,0.342509,0.111803,0.081196,0.0877132,0.0888916,-557,-1067,-70.0444,-1,-217.365,-1,3.208
0.187721,0.158066,0.432465,0.342869,0.11195,0.0812517,0.0877526,0.08929,-558,-1064,-70.3124,-1,-217.417,-1,3.212
0.188169,0.158391,0.432816,0.343232,0.112097,0.0812888,0.0877918,0.0897572,-560,-1060,-70.5811,-1,-217.466,-1,3.216
0.188618,0.15872,0.433167,0.343601,0.112244,0.0816015,0.087831,0.0906156,-560,-1052,-70.8505,-1,-217.509,-1,3.22
0.189067,0.159048,0.433519,0.343965,0.11239,0.0816948,0.08787,0.0906985,-562,-1051,-71.1185,-1,-217.545,-1,3.224
0.189517,0.159381,0.43387,0.344334,0.112536,0.0822177,0.0879089,0.0912143,-559,-1046,-71.3866,-1,-217.58,-1,3.228
0.189967,0.159711,0.434222,0.3447,0.112682,0.0823071,0.0879477,0.0913567,-561,-1045,-71.6514,-1,-217.609,-1,3.232
0.190418,0.160047,0.434574,0.34507,0.112828,0.0829138,0.0879864,0.0917108,-558,-1042,-71.9163,-1,-217.638,-1,3.236
0.19087,0.160384,0.434926,0.345443,0.112973,0.0833758,0.0880249,0.0922347,-556,-1037,-72.1771,-1,-217.662,-1,3.24
0.191322,0.160722,0.435278,0.345816,0.113118,0.0837126,0.0880633,0.0925264,-555,-1034,-72.435,-1,-217.682,-1,3.244
0.191775,0.161062,0.43563,0.346195,0.113263,0.0841962,0.0881016,0.0933255,-554,-1027,-72.6909,-1,-217.699,-1,3.248
0.192228,0.161401,0.435983,0.346571,0.113408,0.0843459,0.0881398,0.0935703,-554,-1024,-72.9439,-1,-217.708,-1,3.252
0.192682,0.161728,0.436335,0.346936,0.113552,0.0834668,0.0881778,0.0927834,-564,-1032,-73.1974,-1,-217.715,-1,3.256
0.193137,0.162065,0.436688,0.34731,0.113696,0.0837157,0.0882158,0.0929786,-564,-1030,-73.4592,-1,-217.73,-1,3.26
0.193592,0.162404,0.437041,0.347683,0.11384,0.0840544,0.0882536,0.0931087,-564,-1029,-73.72,-1,-217.743,-1,3.264
0.194047,0.162745,0.437394,0.348055,0.113984,0.0844817,0.0882912,0.0930227,-562,-1030,-73.9789,-1,-217.754,-1,3.268
0.194503,0.16309,0.437748,0.348429,0.114127,0.0850833,0.0883288,0.0932533,-559,-1028,-74.235,-1,-217.767,-1,3.272
0.19496,0.163433,0.438101,0.348796,0.11427,0.0852828,0.0883662,0.0927448,-560,-1033,-74.4871,-1,-217.778,-1,3.276
0.195418,0.163779,0.438454,0.349166,0.114413,0.0857325,0.0884035,0.0926362,-558,-1034,-74.7384,-1,-217.793,-1,3.28
0.195876,0.164133,0.438808,0.349537,0.114556,0.0866081,0.0884407,0.0926501,-553,-1034,-74.9867,-1,-217.81,-1,3.284
0.196334,0.164485,0.439162,0.349903,0.114699,0.0870767,0.0884778,0.0922563,-551,-1038,-75.2285,-1,-217.827,-1,3.288
0.196793,0.164847,0.439516,0.350272,0.114841,0.0881952,0.0885147,0.0922529,-543,-1039,-75.4668,-1,-217.848,-1,3.292
0.197253,0.16521,0.43987,0.350637,0.114983,0.0890849,0.0885515,0.091934,-538,-1042,-75.6965,-1,-217.87,-1,3.296
0.197713,0.165579,0.440224,0.350999,0.115125,0.0901386,0.0885882,0.0914622,-531,-1047,-75.9192,-1,-217.894,-1,3.3
0.198174,0.165949,0.440579,0.351363,0.115266,0.0908987,0.0886247,0.0913492,-526,-1048,-76.1338,-1,-217.924,-1,3.304
0.198635,0.166317,0.440933,0.351726,0.115407,0.0912615,0.0886611,0.09113,-525,-1050,-76.343,-1,-217.954,-1,3.308
0.199097,0.166682,0.441288,0.35209,0.115548,0.0913018,0.0886974,0.0910701,-527,-1051,-76.5503,-1,-217.987,-1,3.312
0.19956,0.16705,0.441643,0.352456,0.115689,0.0915302,0.0887336,0.091203,-527,-1050,-76.7583,-1,-218.02,-1,3.316
0.200023,0.167421,0.441998,0.352825,0.11583,0.0919416,0.0887697,0.0915507,-525,-1047,-76.9653,-1,-218.053,-1,3.32
0.200486,0.167783,0.442353,0.353187,0.11597,0.0914385,0.0888056,0.0911779,-531,-1051,-77.1703,-1,-218.082,-1,3.324
0.20095,0.168151,0.442708,0.353553,0.11611,0.0916213,0.0888414,0.0913037,-532,-1050,-77.3806,-1,-218.114,-1,3.328
0.201415,0.168519,0.443064,0.353925,0.11625,0.091772,0.088877,0.0918481,-533,-1045,-77.5905,-1,-218.146,-1,3.332
0.20188,0.168886,0.443419,0.354297,0.116389,0.0917285,0.0889126,0.0922687,-535,-1041,-77.8002,-1,-218.172,-1,3.336
0.202346,0.169259,0.443775,0.354676,0.116529,0.0922177,0.088948,0.0930673,-533,-1033,-78.0112,-1,-218.193,-1,3.34
0.202813,0.169627,0.444131,0.355049,0.116668,0.0921696,0.0889832,0.0931391,-535,-1033,-78.2192,-1,-218.207,-1,3.344
0.20328,0.17,0.444487,0.355423,0.116806,0.0925118,0.0890184,0.0933021,-534,-1031,-78.4286,-1,-218.221,-1,3.348
0.203747,0.170374,0.444843,0.355796,0.116945,0.0928839,0.0890534,0.0932956,-533,-1031,-78.6361,-1,-218.233,-1,3.352
0.204215,0.170746,0.445199,0.356166,0.117083,0.0929016,0.0890883,0.0929746,-535,-1035,-78.8415,-1,-218.245,-1,3.356
0.204684,0.17112,0.445556,0.356538,0.117221,0.0930862,0.0891231,0.0929909,-535,-1035,-79.0478,-1,-218.261,-1,3.36
0.205153,0.171491,0.445912,0.356912,0.117359,0.0930365,0.0891577,0.0931457,-538,-1033,-79.2538,-1,-218.276,-1,3.364
0.205623,0.171867,0.446269,0.357291,0.117496,0.0933201,0.0891922,0.0937384,-537,-1028,-79.4611,-1,-218.29,-1,3.368
0.206093,0.172231,0.446626,0.357661,0.117634,0.092559,0.0892266,0.0932985,-546,-1032,-79.6677,-1,-218.298,-1,3.372
0.206564,0.172599,0.446983,0.358033,0.11777,0.0923971,0.0892608,0.0932356,-549,-1033,-79.8817,-1,-218.311,-1,3.376
0.207035,0.172969,0.44734,0.35841,0.117907,0.0924332,0.0892949,0.0935392,-551,-1030,-80.0983,-1,-218.324,-1,3.38
0.207507,0.173524,0.447697,0.358966,0.118044,0.10786,0.0893289,0.108684,-420,-883,-80.3072,-1,-218.325,-1,3.384
