peachynonah/Fire_monitor_KIRO_CDSL/csv_datas/trial10/cdsl_data_t10_9.csv
joint1_pos_desired, joint1_pos, joint2_pos_desired, joint2_pos, joint1_vel_desired, joint1_vel_filtered, joint2_vel_desired, joint2_vel_filtered, target_torque_joint1, target_torque_joint2, propo_term_torque_joint1, deriv_term_torque_joint1, propo_term_torque_joint2, deriv_term_torque_joint2, current_time
0,-0.000239425,0.39282,-0.000302996,0,0,0.08,0,0,-2282,-0,-0,-2162.18,-120,0.004
0,-0.000239425,0.39314,-0.000302996,0,0,0.0799998,0,0,-2283,-0,-0,-2163.94,-120,0.008
0,-0.000239425,0.39346,-0.000296086,0,0,0.0799996,0.000575818,0,-2284,-0,-0,-2165.66,-119.136,0.012
0,-0.000239425,0.39378,-0.000149943,0,0,0.0799993,0.0125624,0,-2267,-0,-0,-2166.61,-101.155,0.016
0,-0.000239425,0.3941,0.000167909,0,0,0.079999,0.0348626,0,-2234,-0,-0,-2166.63,-67.7045,0.02
0,-0.00023908,0.39442,0.000636395,0,2.87909e-05,0.0799985,0.0622822,0,-2192,-0,0,-2165.81,-26.5744,0.024
0,-0.00023908,0.39474,0.00122822,0,1.91939e-05,0.079998,0.0908403,0,-2148,-0,0,-2164.31,16.2636,0.028
0,-0.00023908,0.39506,0.00190227,0,1.2796e-05,0.0799973,0.116731,0,-2107,-0,0,-2162.37,55.101,0.032
0,-0.00023908,0.39538,0.00263091,0,8.53064e-06,0.0799966,0.138541,0,-2072,-0,0,-2160.12,87.8165,0.036
0,-0.00023908,0.3957,0.0033789,0,5.6871e-06,0.0799958,0.154693,0,-2045,-0,0,-2157.77,112.046,0.04
0,-0.00023908,0.39602,0.00412689,0,3.7914e-06,0.0799949,0.165461,0,-2027,-0,0,-2155.41,128.199,0.044
0,-0.00023908,0.39634,0.0048424,0,2.5276e-06,0.079994,0.169933,0,-2018,-0,0,-2153.24,134.909,0.048
0,-0.00023908,0.39666,0.00552509,0,1.68507e-06,0.0799929,0.17018,0,-2015,-0,0,-2151.24,135.28,0.052
0,-0.00023908,0.39698,0.00617876,0,1.12338e-06,0.0799918,0.167926,0,-2017,-0,0,-2149.41,131.901,0.056
0,-0.00023908,0.3973,0.00681585,0,7.48918e-07,0.0799906,0.165041,0,-2020,-0,0,-2147.66,127.575,0.06
0,-0.00023908,0.39762,0.00744948,0,4.99279e-07,0.0799893,0.16283,0,-2021,-0,0,-2145.94,124.261,0.064
0,-0.00023908,0.39794,0.0080838,0,3.32852e-07,0.079988,0.161413,0,-2022,-0,0,-2144.21,122.138,0.068
0,-0.00023908,0.39826,0.00872434,0,2.21902e-07,0.0799865,0.160987,0,-2020,-0,0,-2142.44,121.501,0.072
0,-0.00023908,0.39858,0.00936834,0,1.47934e-07,0.079985,0.160991,0,-2019,-0,0,-2140.66,121.509,0.076
0,-0.00023908,0.3989,0.0100154,0,9.86229e-08,0.0799833,0.161253,0,-2016,-0,0,-2138.86,121.904,0.08
0,-0.00023908,0.399219,0.0106636,0,6.57486e-08,0.0799816,0.161514,0,-2014,-0,0,-2137.06,122.298,0.084
0,-0.00023908,0.399539,0.0113103,0,4.38324e-08,0.0799799,0.161572,0,-2012,-0,0,-2135.26,122.389,0.088
0,-0.00023908,0.399859,0.0119474,0,2.92216e-08,0.079978,0.160805,0,-2012,-0,0,-2133.52,121.241,0.092
0,-0.00023908,0.400179,0.0125759,0,1.94811e-08,0.079976,0.159574,0,-2012,-0,0,-2131.82,119.397,0.096
0,-0.00023908,0.400499,0.0131895,0,1.29874e-08,0.079974,0.157516,0,-2013,-0,0,-2130.2,116.312,0.1
0,-0.00023908,0.400819,0.0137986,0,8.65826e-09,0.0799719,0.155769,0,-2014,-0,0,-2128.61,113.695,0.104
0,-0.00023908,0.401139,0.0144039,0,5.77217e-09,0.0799697,0.154288,0,-2015,-0,0,-2127.04,111.477,0.108
0,-0.00023908,0.401459,0.0150043,0,3.84811e-09,0.0799674,0.152897,0,-2016,-0,0,-2125.5,109.394,0.112
0,-0.00023908,0.401779,0.0155958,0,2.56541e-09,0.0799651,0.151221,0,-2017,-0,0,-2124.01,106.884,0.116
0,-0.00023908,0.402099,0.0161856,0,1.71027e-09,0.0799626,0.14996,0,-2017,-0,0,-2122.52,104.997,0.12
0,-0.00023908,0.402418,0.0167774,0,1.14018e-09,0.0799601,0.149292,0,-2017,-0,0,-2121.03,103.998,0.124
0,-0.00023908,0.402738,0.0173671,0,7.60121e-10,0.0799575,0.148674,0,-2016,-0,0,-2119.54,103.075,0.128
0,-0.00023908,0.403058,0.0179635,0,5.06748e-10,0.0799548,0.148809,0,-2014,-0,0,-2118.02,103.282,0.132
0,-0.00023908,0.403378,0.018567,0,3.37832e-10,0.0799521,0.149504,0,-2012,-0,0,-2116.46,104.328,0.136
0,-0.00023908,0.403698,0.019172,0,2.25221e-10,0.0799492,0.150082,0,-2009,-0,0,-2114.89,105.2,0.14
0,-0.00023908,0.404017,0.0197866,0,1.50147e-10,0.0799463,0.151274,0,-2006,-0,0,-2113.27,106.991,0.144
0,-0.00023908,0.404337,0.0204089,0,1.00098e-10,0.0799433,0.152702,0,-2002,-0,0,-2111.61,109.138,0.148
0,-0.00023908,0.404657,0.0210321,0,6.67322e-11,0.0799402,0.15374,0,-1999,-0,0,-2109.94,110.7,0.152
0,-0.00023908,0.404977,0.0216578,0,4.44881e-11,0.079937,0.154634,0,-1996,-0,0,-2108.25,112.045,0.156
0,-0.00023908,0.405296,0.0222866,0,2.96587e-11,0.0799338,0.155489,0,-1993,-0,0,-2106.55,113.332,0.16
0,-0.00023908,0.405616,0.0229057,0,1.97725e-11,0.0799305,0.155252,0,-1991,-0,0,-2104.91,112.983,0.164
0,-0.00023908,0.405936,0.02353,0,1.31817e-11,0.079927,0.155527,0,-1989,-0,0,-2103.23,113.4,0.168
0,-0.00023908,0.406256,0.0241457,0,8.78778e-12,0.0799236,0.15499,0,-1989,-0,0,-2101.6,112.6,0.172
0,-0.00023908,0.406575,0.0247772,0,5.85852e-12,0.07992,0.155956,0,-1985,-0,0,-2099.89,114.055,0.176
0,-0.00023908,0.406895,0.0253967,0,3.90568e-12,0.0799163,0.155593,0,-1984,-0,0,-2098.24,113.515,0.18
0,-0.00023908,0.407215,0.0260058,0,2.60379e-12,0.0799126,0.154487,0,-1984,-0,0,-2096.65,111.862,0.184
0,-0.00023908,0.407534,0.0266298,0,1.73586e-12,0.0799088,0.154988,0,-1982,-0,0,-2094.97,112.619,0.188
0,-0.00023908,0.407854,0.0272641,0,1.15724e-12,0.0799049,0.156185,0,-1978,-0,0,-2093.24,114.421,0.192
0,-0.00023908,0.408174,0.0278929,0,7.71492e-13,0.0799009,0.156523,0,-1976,-0,0,-2091.54,114.933,0.196
0,-0.00023908,0.408493,0.0285044,0,5.14328e-13,0.0798969,0.155309,0,-1976,-0,0,-2089.94,113.118,0.2
0,-0.00023908,0.408813,0.0291453,0,3.42885e-13,0.0798927,0.156946,0,-1972,-0,0,-2088.17,115.58,0.204
0,-0.00023908,0.409132,0.0297516,0,2.2859e-13,0.0798885,0.155159,0,-1973,-0,0,-2086.59,112.906,0.208
0,-0.00023908,0.409452,0.0303842,0,1.52393e-13,0.0798842,0.156155,0,-1970,-0,0,-2084.87,114.407,0.212
0,-0.00023908,0.409771,0.0310216,0,1.01596e-13,0.0798799,0.157223,0,-1967,-0,0,-2083.12,116.015,0.216
0,-0.00023908,0.410091,0.0316591,0,6.77304e-14,0.0798754,0.157935,0,-1964,-0,0,-2081.37,117.089,0.22
0,-0.00023908,0.41041,0.0322948,0,4.51536e-14,0.0798709,0.158265,0,-1962,-0,0,-2079.64,117.591,0.224
0,-0.00023908,0.41073,0.0329326,0,3.01024e-14,0.0798663,0.158658,0,-1959,-0,0,-2077.88,118.188,0.228
0,-0.00023908,0.411049,0.0335741,0,2.00683e-14,0.0798616,0.159237,0,-1957,-0,0,-2076.11,119.063,0.232
0,-0.00023908,0.411369,0.0342123,0,1.33789e-14,0.0798568,0.159335,0,-1955,-0,0,-2074.36,119.217,0.236
0,-0.00023908,0.411688,0.0348569,0,8.91924e-15,0.079852,0.159947,0,-1952,-0,0,-2072.57,120.143,0.24
0,-0.00023908,0.412007,0.0355047,0,5.94616e-15,0.079847,0.160614,0,-1949,-0,0,-2070.77,121.151,0.244
0,-0.00023908,0.412327,0.0361605,0,3.9641e-15,0.079842,0.161721,0,-1946,-0,0,-2068.92,122.819,0.248
0,-0.00023908,0.412646,0.0368169,0,2.64274e-15,0.0798369,0.162517,0,-1943,-0,0,-2067.06,124.02,0.252
0,-0.00023908,0.412966,0.0374778,0,1.76182e-15,0.0798318,0.163422,0,-1939,-0,0,-2065.18,125.385,0.256
0,-0.00023908,0.413285,0.038135,0,1.17455e-15,0.0798265,0.163708,0,-1937,-0,0,-2063.32,125.822,0.26
0,-0.00023908,0.413604,0.0387921,0,7.83033e-16,0.0798212,0.163899,0,-1935,-0,0,-2061.47,126.117,0.264
0,-0.00023908,0.413923,0.0394451,0,5.22022e-16,0.0798158,0.163681,0,-1933,-0,0,-2059.63,125.798,0.268
0,-0.00023908,0.414243,0.040097,0,3.48015e-16,0.0798103,0.163449,0,-1932,-0,0,-2057.8,125.458,0.272
0,-0.00023908,0.414562,0.040741,0,2.3201e-16,0.0798048,0.162632,0,-1931,-0,0,-2056.02,124.241,0.276
0,-0.00023908,0.414881,0.0413829,0,1.54673e-16,0.0797991,0.161915,0,-1931,-0,0,-2054.24,123.174,0.28
0,-0.00023908,0.4152,0.0420297,0,1.03115e-16,0.0797934,0.16184,0,-1929,-0,0,-2052.44,123.07,0.284
0,-0.00023908,0.415519,0.0426771,0,6.87436e-17,0.0797876,0.161848,0,-1927,-0,0,-2050.63,123.09,0.288
0,-0.00023908,0.415839,0.0433218,0,4.58291e-17,0.0797817,0.161622,0,-1926,-0,0,-2048.84,122.761,0.292
0,-0.00023908,0.416158,0.0439686,0,3.05527e-17,0.0797758,0.161645,0,-1924,-0,0,-2047.04,122.803,0.296
0,-0.00023908,0.416477,0.044616,0,2.03685e-17,0.0797698,0.161717,0,-1922,-0,0,-2045.23,122.921,0.3
0,-0.00023908,0.416796,0.0452718,0,1.3579e-17,0.0797637,0.162457,0,-1919,-0,0,-2043.38,124.04,0.304
0,-0.00023908,0.417115,0.0459306,0,9.05266e-18,0.0797575,0.163209,0,-1916,-0,0,-2041.51,125.177,0.308
0,-0.00023908,0.417434,0.0465988,0,6.03511e-18,0.0797512,0.164488,0,-1912,-0,0,-2039.59,127.104,0.312
0,-0.00023908,0.417753,0.0472808,0,4.0234e-18,0.0797449,0.166492,0,-1907,-0,0,-2037.6,130.12,0.316
0,-0.00023908,0.418072,0.0479614,0,2.68227e-18,0.0797385,0.167713,0,-1903,-0,0,-2035.61,131.961,0.32
0,-0.00023908,0.418391,0.0486407,0,1.78818e-18,0.079732,0.168411,0,-1900,-0,0,-2033.63,133.019,0.324
0,-0.00023908,0.41871,0.0493116,0,1.19212e-18,0.0797254,0.168186,0,-1898,-0,0,-2031.69,132.691,0.328
0,-0.00023908,0.419029,0.0499843,0,7.94747e-19,0.0797188,0.16818,0,-1897,-0,0,-2029.74,132.692,0.332
0,-0.00023908,0.419348,0.0506459,0,5.29831e-19,0.079712,0.167255,0,-1896,-0,0,-2027.86,131.314,0.336
0,-0.00023908,0.419666,0.0513047,0,3.53221e-19,0.0797052,0.166407,0,-1895,-0,0,-2025.99,130.053,0.34
0,-0.00023908,0.419985,0.051957,0,2.3548e-19,0.0796983,0.165296,0,-1895,-0,0,-2024.15,128.396,0.344
0,-0.00023908,0.420304,0.0526076,0,1.56987e-19,0.0796914,0.16441,0,-1895,-0,0,-2022.33,127.078,0.348
0,-0.00023908,0.420623,0.053263,0,1.04658e-19,0.0796843,0.164223,0,-1893,-0,0,-2020.48,126.808,0.352
0,-0.00023908,0.420941,0.0539177,0,6.9772e-20,0.0796772,0.164041,0,-1892,-0,0,-2018.63,126.546,0.356
0,-0.00023908,0.42126,0.0545686,0,4.65147e-20,0.07967,0.163603,0,-1890,-0,0,-2016.8,125.899,0.36
0,-0.00023908,0.421579,0.0552316,0,3.10098e-20,0.0796628,0.164318,0,-1887,-0,0,-2014.91,126.983,0.364
0,-0.00023908,0.421897,0.0558967,0,2.06732e-20,0.0796554,0.164968,0,-1885,-0,0,-2013,127.969,0.368
0,-0.00023908,0.422216,0.0565614,0,1.37821e-20,0.079648,0.165372,0,-1882,-0,0,-2011.1,128.587,0.372
0,-0.00023908,0.422535,0.0572344,0,9.18808e-21,0.0796405,0.166333,0,-1879,-0,0,-2009.15,130.039,0.376
0,-0.00023908,0.422853,0.0579012,0,6.12539e-21,0.0796329,0.166455,0,-1877,-0,0,-2007.24,130.233,0.38
0,-0.00023908,0.423172,0.0585756,0,4.08359e-21,0.0796253,0.16717,0,-1873,-0,0,-2005.28,131.317,0.384
0,-0.00023908,0.42349,0.0592465,0,2.72239e-21,0.0796176,0.167359,0,-1871,-0,0,-2003.34,131.612,0.388
0,-0.00023908,0.423809,0.0599137,0,1.81493e-21,0.0796098,0.167168,0,-1870,-0,0,-2001.42,131.337,0.392
0,-0.00023908,0.424127,0.060577,0,1.20995e-21,0.0796019,0.166724,0,-1868,-0,0,-1999.53,130.683,0.396
0,-0.00023908,0.424445,0.0612462,0,8.06635e-22,0.0795939,0.166917,0,-1866,-0,0,-1997.6,130.985,0.4
0,-0.00023908,0.424764,0.0619182,0,5.37757e-22,0.0795859,0.167276,0,-1864,-0,0,-1995.65,131.536,0.404
0,-0.00023908,0.425082,0.0625871,0,3.58505e-22,0.0795778,0.167257,0,-1862,-0,0,-1993.72,131.519,0.408
0,-0.00023908,0.4254,0.0632529,0,2.39003e-22,0.0795696,0.166985,0,-1860,-0,0,-1991.81,131.123,0.412
0,-0.00023908,0.425719,0.0639217,0,1.59335e-22,0.0795614,0.167062,0,-1858,-0,0,-1989.88,131.251,0.416
0,-0.00023908,0.426037,0.0645906,0,1.06224e-22,0.079553,0.167114,0,-1856,-0,0,-1987.95,131.342,0.42
0,-0.00023908,0.426355,0.0652584,0,7.08157e-23,0.0795446,0.167062,0,-1854,-0,0,-1986.03,131.276,0.424
0,-0.00023908,0.426673,0.0659273,0,4.72105e-23,0.0795361,0.167114,0,-1852,-0,0,-1984.1,131.367,0.428
0,-0.00023908,0.426991,0.0666017,0,3.14737e-23,0.0795276,0.167609,0,-1850,-0,0,-1982.14,132.123,0.432
0,-0.00023908,0.427309,0.0672778,0,2.09824e-23,0.0795189,0.168083,0,-1847,-0,0,-1980.17,132.847,0.436
0,-0.00023908,0.427628,0.0679515,0,1.39883e-23,0.0795102,0.168198,0,-1845,-0,0,-1978.22,133.031,0.44
0,-0.00023908,0.427946,0.0686273,0,9.32553e-24,0.0795014,0.168447,0,-1842,-0,0,-1976.25,133.418,0.444
0,-0.00023908,0.428264,0.0693059,0,6.21702e-24,0.0794926,0.168843,0,-1840,-0,0,-1974.27,134.026,0.448
0,-0.00023908,0.428582,0.0699892,0,4.14468e-24,0.0794837,0.169511,0,-1837,-0,0,-1972.26,135.041,0.452
0,-0.00023908,0.428899,0.070664,0,2.76312e-24,0.0794746,0.169236,0,-1835,-0,0,-1970.29,134.642,0.456
0,-0.00023908,0.429217,0.0713432,0,1.84208e-24,0.0794656,0.169427,0,-1833,-0,0,-1968.31,134.942,0.46
0,-0.00023908,0.429535,0.0720197,0,1.22805e-24,0.0794564,0.169324,0,-1831,-0,0,-1966.33,134.801,0.464
0,-0.00023908,0.429853,0.0726962,0,8.18702e-25,0.0794472,0.169255,0,-1829,-0,0,-1964.36,134.712,0.468
0,-0.00023908,0.430171,0.073373,0,5.45801e-25,0.0794378,0.169238,0,-1827,-0,0,-1962.39,134.701,0.472
0,-0.00023908,0.430488,0.074046,0,3.63868e-25,0.0794285,0.16891,0,-1826,-0,0,-1960.43,134.223,0.476
0,-0.00023908,0.430806,0.074728,0,2.42578e-25,0.079419,0.16944,0,-1823,-0,0,-1958.43,135.032,0.48
0,-0.00023908,0.431124,0.0754007,0,1.61719e-25,0.0794095,0.169016,0,-1822,-0,0,-1956.48,134.41,0.484
0,-0.00023908,0.431441,0.076073,0,1.07813e-25,0.0793999,0.168704,0,-1820,-0,0,-1954.53,133.957,0.488
0,-0.00023908,0.431759,0.0767512,0,7.18751e-26,0.0793902,0.168986,0,-1818,-0,0,-1952.54,134.394,0.492
0,-0.00023908,0.432077,0.0774266,0,4.79167e-26,0.0793804,0.168944,0,-1816,-0,0,-1950.57,134.345,0.496
0,-0.00023908,0.432394,0.0780965,0,3.19445e-26,0.0793706,0.168455,0,-1815,-0,0,-1948.64,133.626,0.5
0,-0.00023908,0.432712,0.0787647,0,2.12963e-26,0.0793607,0.167985,0,-1813,-0,0,-1946.71,132.936,0.504
0,-0.00023908,0.433029,0.079426,0,1.41975e-26,0.0793507,0.167096,0,-1813,-0,0,-1944.82,131.618,0.508
0,-0.00023908,0.433346,0.0800783,0,9.46503e-27,0.0793406,0.165754,0,-1813,-0,0,-1942.97,129.621,0.512
0,-0.00023908,0.433664,0.0807357,0,6.31002e-27,0.0793305,0.165292,0,-1812,-0,0,-1941.1,128.942,0.516
0,-0.00023908,0.433981,0.0813908,0,4.20668e-27,0.0793203,0.164782,0,-1811,-0,0,-1939.25,128.193,0.52
0,-0.00023908,0.434298,0.0820458,0,2.80445e-27,0.07931,0.164442,0,-1809,-0,0,-1937.39,127.699,0.524
0,-0.00023908,0.434615,0.0827019,0,1.86964e-27,0.0792997,0.164302,0,-1808,-0,0,-1935.52,127.504,0.528
0,-0.00023908,0.434933,0.0833611,0,1.24642e-27,0.0792893,0.164468,0,-1805,-0,0,-1933.64,127.768,0.532
0,-0.00023908,0.43525,0.084021,0,8.30949e-28,0.0792788,0.164636,0,-1803,-0,0,-1931.76,128.036,0.536
0,-0.00023908,0.435567,0.0846802,0,5.53966e-28,0.0792682,0.16469,0,-1801,-0,0,-1929.88,128.133,0.54
0,-0.00023908,0.435884,0.0853401,0,3.69311e-28,0.0792576,0.164784,0,-1799,-0,0,-1927.99,128.29,0.544
0,-0.00023908,0.436201,0.0860028,0,2.46207e-28,0.0792468,0.165077,0,-1797,-0,0,-1926.09,128.745,0.548
0,-0.00023908,0.436518,0.0866626,0,1.64138e-28,0.079236,0.165042,0,-1795,-0,0,-1924.2,128.709,0.552
0,-0.00023908,0.436835,0.0873218,0,1.09425e-28,0.0792252,0.164961,0,-1793,-0,0,-1922.32,128.604,0.556
0,-0.00023908,0.437152,0.0879841,0,7.29503e-29,0.0792142,0.165166,0,-1791,-0,0,-1920.42,128.928,0.56
0,-0.00023908,0.437469,0.0886499,0,4.86335e-29,0.0792032,0.165591,0,-1788,-0,0,-1918.5,129.582,0.564
0,-0.00023908,0.437785,0.0893164,0,3.24223e-29,0.0791922,0.165932,0,-1786,-0,0,-1916.58,130.109,0.568
0,-0.00023908,0.438102,0.0899773,0,2.16149e-29,0.079181,0.165698,0,-1784,-0,0,-1914.69,129.776,0.572
0,-0.00023908,0.438419,0.0906323,0,1.44099e-29,0.0791698,0.165053,0,-1784,-0,0,-1912.83,128.825,0.576
0,-0.00023908,0.438735,0.0912853,0,9.60662e-30,0.0791585,0.16445,0,-1783,-0,0,-1910.98,127.938,0.58
0,-0.00023908,0.439052,0.0919355,0,6.40441e-30,0.0791471,0.163818,0,-1782,-0,0,-1909.14,127.006,0.584
0,-0.00023908,0.439369,0.0925809,0,4.26961e-30,0.0791357,0.162993,0,-1781,-0,0,-1907.33,125.787,0.588
0,-0.00023908,0.439685,0.0932228,0,2.84641e-30,0.0791241,0.162156,0,-1780,-0,0,-1905.54,124.548,0.592
0,-0.00023908,0.440002,0.0938613,0,1.8976e-30,0.0791126,0.16131,0,-1780,-0,0,-1903.77,123.295,0.596
0,-0.00023908,0.440318,0.0944977,0,1.26507e-30,0.0791009,0.160573,0,-1779,-0,0,-1902.01,122.208,0.6
0,-0.00023908,0.440634,0.0951313,0,8.4338e-31,0.0790892,0.159851,0,-1779,-0,0,-1900.27,121.143,0.604
0,-0.00023908,0.440951,0.0957629,0,5.62253e-31,0.0790773,0.159197,0,-1778,-0,0,-1898.53,120.18,0.608
0,-0.00023908,0.441267,0.0963917,0,3.74835e-31,0.0790655,0.158531,0,-1777,-0,0,-1896.81,119.198,0.612
0,-0.00023908,0.441583,0.0970205,0,2.4989e-31,0.0790535,0.158087,0,-1776,-0,0,-1895.1,118.55,0.616
0,-0.00023908,0.441899,0.0976444,0,1.66593e-31,0.0790415,0.157388,0,-1775,-0,0,-1893.4,117.519,0.62
0,-0.00023908,0.442216,0.0982694,0,1.11062e-31,0.0790294,0.157008,0,-1774,-0,0,-1891.7,116.968,0.624
0,-0.00023908,0.442532,0.0988954,0,7.40415e-32,0.0790172,0.156841,0,-1773,-0,0,-1890,116.736,0.628
0,-0.00023908,0.442848,0.099526,0,4.9361e-32,0.079005,0.157104,0,-1771,-0,0,-1888.27,117.149,0.632
0,-0.00023908,0.443164,0.100154,0,3.29074e-32,0.0789927,0.157078,0,-1769,-0,0,-1886.55,117.128,0.636
0,-0.00023908,0.44348,0.100785,0,2.19382e-32,0.0789803,0.15732,0,-1767,-0,0,-1884.82,117.509,0.64
0,-0.00023908,0.443796,0.101414,0,1.46255e-32,0.0789679,0.157279,0,-1765,-0,0,-1883.1,117.467,0.644
0,-0.00023908,0.444111,0.102048,0,9.75033e-33,0.0789553,0.157684,0,-1763,-0,0,-1881.35,118.093,0.648
0,-0.00023908,0.444427,0.102679,0,6.50022e-33,0.0789427,0.157666,0,-1761,-0,0,-1879.62,118.085,0.652
0,-0.00023908,0.444743,0.103306,0,4.33348e-33,0.0789301,0.157424,0,-1760,-0,0,-1877.9,117.741,0.656
0,-0.00023908,0.445059,0.103932,0,2.88899e-33,0.0789173,0.157118,0,-1758,-0,0,-1876.19,117.302,0.66
0,-0.00023908,0.445374,0.104561,0,1.92599e-33,0.0789045,0.157145,0,-1757,-0,0,-1874.47,117.361,0.664
0,-0.00023908,0.44569,0.105185,0,1.28399e-33,0.0788916,0.156731,0,-1756,-0,0,-1872.78,116.759,0.668
0,-0.00023908,0.446005,0.105808,0,8.55996e-34,0.0788787,0.156397,0,-1754,-0,0,-1871.09,116.278,0.672
0,-0.00023908,0.446321,0.106424,0,5.70664e-34,0.0788657,0.155628,0,-1754,-0,0,-1869.43,115.143,0.676
0,-0.00023908,0.446636,0.107057,0,3.80443e-34,0.0788526,0.156526,0,-1751,-0,0,-1867.68,116.51,0.68
0,-0.00023908,0.446952,0.107649,0,2.53628e-34,0.0788394,0.153698,0,-1753,-0,0,-1866.16,112.288,0.684
0,-0.00023908,0.447267,0.108248,0,1.69086e-34,0.0788262,0.15236,0,-1754,-0,0,-1864.6,110.301,0.688
0,-0.00023908,0.447582,0.108846,0,1.12724e-34,0.0788129,0.151353,0,-1754,-0,0,-1863.05,108.81,0.692
0,-0.00023908,0.447898,0.109439,0,7.51492e-35,0.0787995,0.150394,0,-1754,-0,0,-1861.52,107.391,0.696
0,-0.00023908,0.448213,0.110029,0,5.00994e-35,0.0787861,0.14938,0,-1754,-0,0,-1860.01,105.89,0.7
0,-0.00023908,0.448528,0.110622,0,3.33996e-35,0.0787725,0.148992,0,-1753,-0,0,-1858.48,105.329,0.704
0,-0.00023908,0.448843,0.111213,0,2.22664e-35,0.078759,0.14856,0,-1752,-0,0,-1856.97,104.702,0.708
0,-0.00023908,0.449158,0.111799,0,1.48443e-35,0.0787453,0.147927,0,-1751,-0,0,-1855.47,103.773,0.712
0,-0.00023908,0.449473,0.112382,0,9.89618e-36,0.0787316,0.14716,0,-1751,-0,0,-1854,102.642,0.716
0,-0.00023908,0.449788,0.112966,0,6.59746e-36,0.0787178,0.146821,0,-1750,-0,0,-1852.52,102.154,0.72
0,-0.00023908,0.450103,0.113549,0,4.3983e-36,0.0787039,0.146422,0,-1749,-0,0,-1851.05,101.577,0.724
0,-0.00023908,0.450417,0.114129,0,2.9322e-36,0.07869,0.145983,0,-1748,-0,0,-1849.59,100.94,0.728
0,-0.00023908,0.450732,0.1147,0,1.9548e-36,0.078676,0.144914,0,-1748,-0,0,-1848.18,99.3565,0.732
0,-0.00023908,0.451047,0.115269,0,1.3032e-36,0.0786619,0.143999,0,-1748,-0,0,-1846.78,98.0056,0.736
0,-0.00023908,0.451361,0.115835,0,8.68801e-37,0.0786478,0.143188,0,-1748,-0,0,-1845.39,96.8098,0.74
0,-0.00023908,0.451676,0.116399,0,5.79201e-37,0.0786335,0.142474,0,-1748,-0,0,-1844.02,95.7607,0.744
0,-0.00023908,0.45199,0.116978,0,3.86134e-37,0.0786193,0.143179,0,-1745,-0,0,-1842.57,96.8391,0.748
0,-0.00023908,0.452305,0.117535,0,2.57422e-37,0.0786049,0.141921,0,-1746,-0,0,-1841.23,94.9742,0.752
0,-0.00023908,0.452619,0.118093,0,1.71615e-37,0.0785905,0.141111,0,-1746,-0,0,-1839.89,93.7813,0.756
0,-0.00023908,0.452934,0.118658,0,1.1441e-37,0.078576,0.141147,0,-1744,-0,0,-1838.51,93.8571,0.76
0,-0.00023908,0.453248,0.119216,0,7.62733e-38,0.0785614,0.140596,0,-1744,-0,0,-1837.17,93.0513,0.764
0,-0.00023908,0.453562,0.119781,0,5.08489e-38,0.0785468,0.140804,0,-1742,-0,0,-1835.8,93.3852,0.768
0,-0.00023908,0.453876,0.120344,0,3.38993e-38,0.0785321,0.140741,0,-1741,-0,0,-1834.43,93.3129,0.772
0,-0.00023908,0.45419,0.120909,0,2.25995e-38,0.0785173,0.140987,0,-1739,-0,0,-1833.05,93.704,0.776
0,-0.00023908,0.454504,0.121479,0,1.50663e-38,0.0785025,0.141439,0,-1737,-0,0,-1831.64,94.4041,0.78
0,-0.00023908,0.454818,0.122049,0,1.00442e-38,0.0784876,0.141797,0,-1735,-0,0,-1830.23,94.9647,0.784
0,-0.00023908,0.455132,0.12262,0,6.69615e-39,0.0784726,0.142094,0,-1733,-0,0,-1828.82,95.4324,0.788
0,-0.00023908,0.455446,0.123187,0,4.4641e-39,0.0784576,0.142004,0,-1732,-0,0,-1827.43,95.3199,0.792
0,-0.00023908,0.45576,0.123751,0,2.97607e-39,0.0784425,0.141656,0,-1731,-0,0,-1826.05,94.8207,0.796
0,-0.00023908,0.456074,0.124313,0,1.98404e-39,0.0784273,0.14128,0,-1730,-0,0,-1824.68,94.2796,0.8
0,-0.00023908,0.456387,0.124866,0,1.3227e-39,0.078412,0.14031,0,-1730,-0,0,-1823.37,92.8469,0.804
0,-0.00023908,0.456701,0.125423,0,8.81797e-40,0.0783967,0.139951,0,-1729,-0,0,-1822.03,92.3313,0.808
0,-0.00023908,0.457015,0.125972,0,5.87865e-40,0.0783813,0.138992,0,-1729,-0,0,-1820.74,90.9157,0.812
0,-0.00023908,0.457328,0.126516,0,3.9191e-40,0.0783659,0.138036,0,-1729,-0,0,-1819.47,89.5048,0.816
0,-0.00023908,0.457642,0.12706,0,2.61273e-40,0.0783503,0.13737,0,-1729,-0,0,-1818.2,88.5287,0.82
0,-0.00023908,0.457955,0.127603,0,1.74182e-40,0.0783348,0.13681,0,-1729,-0,0,-1816.94,87.7132,0.824
0,-0.00023908,0.458268,0.128139,0,1.16121e-40,0.0783191,0.135833,0,-1729,-0,0,-1815.71,86.2705,0.828
0,-0.00023908,0.458581,0.128671,0,7.74143e-41,0.0783034,0.134893,0,-1729,-0,0,-1814.51,84.8847,0.832
0,-0.00023908,0.458895,0.129208,0,5.16095e-41,0.0782876,0.134699,0,-1728,-0,0,-1813.28,84.6166,0.836
0,-0.00023908,0.459208,0.129746,0,3.44064e-41,0.0782717,0.134655,0,-1727,-0,0,-1812.04,84.5755,0.84
0,-0.00023908,0.459521,0.130283,0,2.29376e-41,0.0782558,0.134511,0,-1726,-0,0,-1810.81,84.3833,0.844
0,-0.00023908,0.459834,0.130816,0,1.52917e-41,0.0782398,0.13407,0,-1725,-0,0,-1809.6,83.7451,0.848
0,-0.00023908,0.460147,0.131345,0,1.01945e-41,0.0782237,0.133516,0,-1725,-0,0,-1808.41,82.939,0.852
0,-0.00023908,0.46046,0.131872,0,6.79632e-42,0.0782076,0.132917,0,-1725,-0,0,-1807.23,82.0642,0.856
0,-0.00023908,0.460772,0.1324,0,4.53088e-42,0.0781914,0.132633,0,-1724,-0,0,-1806.05,81.662,0.86
0,-0.00023908,0.461085,0.132929,0,3.02059e-42,0.0781751,0.132443,0,-1723,-0,0,-1804.86,81.402,0.864
0,-0.00023908,0.461398,0.133457,0,2.01372e-42,0.0781588,0.132288,0,-1722,-0,0,-1803.68,81.1937,0.868
0,-0.00023908,0.46171,0.133968,0,1.34248e-42,0.0781424,0.130803,0,-1723,-0,0,-1802.58,78.9902,0.872
0,-0.00023908,0.462023,0.134509,0,8.94988e-43,0.0781259,0.132288,0,-1720,-0,0,-1801.33,81.2435,0.876
0,-0.00023908,0.462335,0.135039,0,5.96659e-43,0.0781094,0.132329,0,-1718,-0,0,-1800.13,81.3289,0.88
0,-0.00023908,0.462648,0.13557,0,3.97773e-43,0.0780928,0.132471,0,-1717,-0,0,-1798.93,81.567,0.884
0,-0.00023908,0.46296,0.136106,0,2.65182e-43,0.0780761,0.132969,0,-1715,-0,0,-1797.7,82.3387,0.888
0,-0.00023908,0.463272,0.136647,0,1.76788e-43,0.0780594,0.13379,0,-1712,-0,0,-1796.44,83.5957,0.892
0,-0.00023908,0.463585,0.137191,0,1.17859e-43,0.0780426,0.134481,0,-1710,-0,0,-1795.17,84.6582,0.896
0,-0.00023908,0.463897,0.13774,0,7.85724e-44,0.0780257,0.135403,0,-1707,-0,0,-1793.86,86.066,0.9
0,-0.00023908,0.464209,0.138287,0,5.23816e-44,0.0780088,0.135902,0,-1705,-0,0,-1792.57,86.8403,0.904
0,-0.00023908,0.464521,0.138834,0,3.49211e-44,0.0779918,0.13612,0,-1704,-0,0,-1791.28,87.1923,0.908
0,-0.00023908,0.464833,0.139376,0,2.32807e-44,0.0779747,0.13592,0,-1703,-0,0,-1790.01,86.9173,0.912
0,-0.00023908,0.465145,0.139903,0,1.55205e-44,0.0779576,0.134577,0,-1703,-0,0,-1788.83,84.9289,0.916
0,-0.00023908,0.465456,0.140444,0,1.0347e-44,0.0779404,0.134776,0,-1702,-0,0,-1787.57,85.2529,0.92
0,-0.00023908,0.465768,0.140989,0,6.89799e-45,0.0779231,0.135283,0,-1700,-0,0,-1786.29,86.0391,0.924
0,-0.00023908,0.46608,0.141533,0,4.59866e-45,0.0779058,0.135505,0,-1698,-0,0,-1785.01,86.3992,0.928
0,-0.00023908,0.466391,0.142079,0,3.06577e-45,0.0778884,0.135855,0,-1696,-0,0,-1783.72,86.9504,0.932
0,-0.00023908,0.466703,0.142626,0,2.04385e-45,0.0778709,0.136175,0,-1694,-0,0,-1782.42,87.4561,0.936
0,-0.00023908,0.467014,0.14318,0,1.36257e-45,0.0778534,0.136906,0,-1692,-0,0,-1781.09,88.5795,0.94
0,-0.00023908,0.467326,0.143742,0,9.08377e-46,0.0778358,0.138143,0,-1689,-0,0,-1779.71,90.4602,0.944
0,-0.00023908,0.467637,0.144305,0,6.05585e-46,0.0778181,0.138995,0,-1686,-0,0,-1778.33,91.766,0.948
0,-0.00023908,0.467948,0.144877,0,4.03723e-46,0.0778004,0.140341,0,-1683,-0,0,-1776.89,93.8115,0.952
0,-0.00023908,0.468259,0.145453,0,2.69149e-46,0.0777826,0.141555,0,-1679,-0,0,-1775.43,95.6592,0.956
0,-0.00023908,0.468571,0.146032,0,1.79432e-46,0.0777648,0.142624,0,-1676,-0,0,-1773.96,97.2887,0.96
0,-0.00023908,0.468882,0.146615,0,1.19622e-46,0.0777468,0.143653,0,-1673,-0,0,-1772.47,98.859,0.964
0,-0.00023908,0.469193,0.147197,0,7.97478e-47,0.0777288,0.144281,0,-1671,-0,0,-1770.97,99.8287,0.968
0,-0.00023908,0.469503,0.147781,0,5.31652e-47,0.0777108,0.144844,0,-1668,-0,0,-1769.47,100.7,0.972
0,-0.00023908,0.469814,0.148369,0,3.54434e-47,0.0776927,0.145536,0,-1666,-0,0,-1767.95,101.765,0.976
0,-0.00023908,0.470125,0.148951,0,2.3629e-47,0.0776745,0.145537,0,-1664,-0,0,-1766.46,101.793,0.98
0,-0.00023908,0.470436,0.14953,0,1.57526e-47,0.0776562,0.145307,0,-1663,-0,0,-1764.98,101.476,0.984
0,-0.00023908,0.470746,0.150109,0,1.05018e-47,0.0776379,0.145125,0,-1662,-0,0,-1763.5,101.23,0.988
0,-0.00023908,0.471057,0.150682,0,7.00117e-48,0.0776195,0.144456,0,-1661,-0,0,-1762.06,100.255,0.992
0,-0.00023908,0.471367,0.151257,0,4.66745e-48,0.0776011,0.144241,0,-1660,-0,0,-1760.61,99.9602,0.996
0,-0.00023908,0.471678,0.151835,0,3.11163e-48,0.0775826,0.144328,0,-1659,-0,0,-1759.13,100.118,1
0,-0.00023908,0.471988,0.152412,0,2.07442e-48,0.077564,0.144328,0,-1657,-0,0,-1757.66,100.146,1.004
0,-0.00023908,0.472298,0.152996,0,1.38295e-48,0.0775454,0.144876,0,-1655,-0,0,-1756.16,100.995,1.008
0,-0.00023908,0.472608,0.153581,0,9.21965e-49,0.0775267,0.145298,0,-1652,-0,0,-1754.65,101.657,1.012
0,-0.00023908,0.472918,0.154175,0,6.14644e-49,0.0775079,0.146357,0,-1649,-0,0,-1753.09,103.273,1.016
0,-0.00023908,0.473228,0.15478,0,4.09762e-49,0.0774891,0.147984,0,-1645,-0,0,-1751.47,105.743,1.02
0,-0.00023908,0.473538,0.155391,0,2.73175e-49,0.0774702,0.149587,0,-1641,-0,0,-1749.81,108.176,1.024
0,-0.00023908,0.473848,0.156008,0,1.82117e-49,0.0774512,0.151145,0,-1637,-0,0,-1748.12,110.541,1.028
0,-0.00023908,0.474158,0.156636,0,1.21411e-49,0.0774322,0.153134,0,-1632,-0,0,-1746.37,113.553,1.032
0,-0.00023908,0.474467,0.157269,0,8.09407e-50,0.0774131,0.154777,0,-1628,-0,0,-1744.59,116.046,1.036
0,-0.00023908,0.474777,0.157897,0,5.39605e-50,0.077394,0.155555,0,-1625,-0,0,-1742.84,117.242,1.04
0,-0.00023908,0.475087,0.158534,0,3.59737e-50,0.0773747,0.156823,0,-1621,-0,0,-1741.04,119.172,1.044
0,-0.00023908,0.475396,0.159173,0,2.39824e-50,0.0773555,0.157783,0,-1618,-0,0,-1739.23,120.641,1.048
0,-0.00023908,0.475705,0.159817,0,1.59883e-50,0.0773361,0.158855,0,-1615,-0,0,-1737.38,122.278,1.052
0,-0.00023908,0.476015,0.160472,0,1.06589e-50,0.0773167,0.160433,0,-1610,-0,0,-1735.49,124.675,1.056
0,-0.00023908,0.476324,0.161126,0,7.10591e-51,0.0772972,0.161457,0,-1607,-0,0,-1733.59,126.239,1.06
0,-0.00023908,0.476633,0.161787,0,4.73727e-51,0.0772777,0.162744,0,-1603,-0,0,-1731.65,128.199,1.064
0,-0.00023908,0.476942,0.162451,0,3.15818e-51,0.0772581,0.163861,0,-1599,-0,0,-1729.7,129.904,1.068
0,-0.00023908,0.477251,0.16311,0,2.10545e-51,0.0772384,0.164174,0,-1597,-0,0,-1727.77,130.403,1.072
0,-0.00023908,0.47756,0.163767,0,1.40364e-51,0.0772187,0.164152,0,-1595,-0,0,-1725.86,130.4,1.076
0,-0.00023908,0.477869,0.164417,0,9.35757e-52,0.0771989,0.163619,0,-1594,-0,0,-1723.98,129.63,1.08
0,-0.00023908,0.478178,0.165063,0,6.23838e-52,0.0771791,0.162918,0,-1593,-0,0,-1722.13,128.609,1.084
0,-0.00023908,0.478486,0.165703,0,4.15892e-52,0.0771592,0.161962,0,-1593,-0,0,-1720.31,127.204,1.088
0,-0.00023908,0.478795,0.166343,0,2.77261e-52,0.0771392,0.161267,0,-1592,-0,0,-1718.49,126.191,1.092
0,-0.00023908,0.479103,0.166981,0,1.84841e-52,0.0771191,0.160659,0,-1591,-0,0,-1716.68,125.31,1.096
0,-0.00023908,0.479412,0.167624,0,1.23227e-52,0.077099,0.160686,0,-1589,-0,0,-1714.84,125.38,1.1
0,-0.00023908,0.47972,0.168274,0,8.21515e-53,0.0770789,0.16128,0,-1586,-0,0,-1712.96,126.301,1.104
0,-0.00023908,0.480029,0.16893,0,5.47677e-53,0.0770586,0.162194,0,-1583,-0,0,-1711.04,127.703,1.108
0,-0.00023908,0.480337,0.169589,0,3.65118e-53,0.0770383,0.163062,0,-1580,-0,0,-1709.11,129.036,1.112
0,-0.00023908,0.480645,0.170256,0,2.43412e-53,0.077018,0.164332,0,-1576,-0,0,-1707.14,130.971,1.116
0,-0.00023908,0.480953,0.170929,0,1.62275e-53,0.0769976,0.16564,0,-1572,-0,0,-1705.13,132.963,1.12
0,-0.00023908,0.481261,0.171607,0,1.08183e-53,0.0769771,0.166885,0,-1568,-0,0,-1703.1,134.862,1.124
0,-0.00023908,0.481569,0.172303,0,7.21221e-54,0.0769566,0.169299,0,-1562,-0,0,-1700.96,138.514,1.128
0,-0.00023908,0.481876,0.172984,0,4.80814e-54,0.076936,0.169613,0,-1559,-0,0,-1698.91,139.016,1.132
0,-0.00023908,0.482184,0.173656,0,3.20542e-54,0.0769153,0.169074,0,-1558,-0,0,-1696.9,138.238,1.136
0,-0.00023908,0.482492,0.174344,0,2.13695e-54,0.0768946,0.170039,0,-1555,-0,0,-1694.81,139.716,1.14
0,-0.00023908,0.482799,0.175021,0,1.42463e-54,0.0768738,0.16976,0,-1553,-0,0,-1692.78,139.33,1.144
0,-0.00023908,0.483107,0.175694,0,9.49756e-55,0.0768529,0.16923,0,-1552,-0,0,-1690.77,138.565,1.148
0,-0.00023908,0.483414,0.176365,0,6.3317e-55,0.076832,0.168789,0,-1550,-0,0,-1688.77,137.936,1.152
0,-0.00023908,0.483721,0.177032,0,4.22114e-55,0.076811,0.168064,0,-1549,-0,0,-1686.79,136.879,1.156
0,-0.00023908,0.484029,0.177684,0,2.81409e-55,0.07679,0.1664,0,-1550,-0,0,-1684.9,134.415,1.16
0,-0.00023908,0.484336,0.178332,0,1.87606e-55,0.0767689,0.164974,0,-1550,-0,0,-1683.02,132.307,1.164
0,-0.00023908,0.484643,0.178976,0,1.25071e-55,0.0767477,0.16362,0,-1550,-0,0,-1681.17,130.308,1.168
0,-0.00023908,0.48495,0.179603,0,8.33805e-56,0.0767265,0.161278,0,-1552,-0,0,-1679.41,126.827,1.172
0,-0.00023908,0.485257,0.180226,0,5.5587e-56,0.0767052,0.159515,0,-1553,-0,0,-1677.67,124.215,1.176
0,-0.00023908,0.485563,0.180842,0,3.7058e-56,0.0766839,0.15762,0,-1554,-0,0,-1675.97,121.404,1.18
0,-0.00023908,0.48587,0.181449,0,2.47053e-56,0.0766625,0.155694,0,-1555,-0,0,-1674.32,118.548,1.184
0,-0.00023908,0.486177,0.182059,0,1.64702e-56,0.076641,0.154612,0,-1555,-0,0,-1672.65,116.957,1.188
0,-0.00023908,0.486483,0.182654,0,1.09801e-56,0.0766195,0.152624,0,-1557,-0,0,-1671.06,114.007,1.192
0,-0.00023908,0.48679,0.183243,0,7.32009e-57,0.0765979,0.150895,0,-1558,-0,0,-1669.5,111.446,1.196
0,-0.00023908,0.487096,0.183812,0,4.88006e-57,0.0765762,0.147987,0,-1560,-0,0,-1668.06,107.116,1.2
0,-0.00023908,0.487402,0.184388,0,3.25338e-57,0.0765545,0.146652,0,-1561,-0,0,-1666.58,105.147,1.204
0,-0.00023908,0.487708,0.184959,0,2.16892e-57,0.0765327,0.145388,0,-1561,-0,0,-1665.12,103.284,1.208
0,-0.00023908,0.488015,0.185521,0,1.44594e-57,0.0765109,0.14374,0,-1562,-0,0,-1663.71,100.843,1.212
0,-0.00023908,0.488321,0.186069,0,9.63963e-58,0.076489,0.141489,0,-1564,-0,0,-1662.38,97.4997,1.216
0,-0.00023908,0.488626,0.186608,0,6.42642e-58,0.0764671,0.139269,0,-1566,-0,0,-1661.1,94.2022,1.22
0,-0.00023908,0.488932,0.187138,0,4.28428e-58,0.0764451,0.136982,0,-1569,-0,0,-1659.87,90.8057,1.224
0,-0.00023908,0.489238,0.187658,0,2.85619e-58,0.076423,0.134652,0,-1571,-0,0,-1658.69,87.3432,1.228
0,-0.00023908,0.489544,0.188166,0,1.90412e-58,0.0764008,0.132062,0,-1574,-0,0,-1657.58,83.4913,1.232
0,-0.00023908,0.489849,0.188672,0,1.26942e-58,0.0763786,0.13022,0,-1575,-0,0,-1656.48,80.7618,1.236
0,-0.00023908,0.490155,0.189169,0,8.46278e-59,0.0763564,0.128243,0,-1577,-0,0,-1655.42,77.8305,1.24
0,-0.00023908,0.49046,0.189663,0,5.64185e-59,0.0763341,0.126695,0,-1578,-0,0,-1654.38,75.542,1.244
0,-0.00023908,0.490765,0.190154,0,3.76123e-59,0.0763117,0.125376,0,-1579,-0,0,-1653.36,73.5957,1.248
0,-0.00023908,0.491071,0.19064,0,2.50749e-59,0.0762893,0.124064,0,-1580,-0,0,-1652.37,71.6617,1.252
0,-0.00023908,0.491376,0.191119,0,1.67166e-59,0.0762668,0.122613,0,-1581,-0,0,-1651.41,69.5199,1.256
0,-0.00023908,0.491681,0.191591,0,1.11444e-59,0.0762442,0.121099,0,-1583,-0,0,-1650.49,67.2829,1.26
0,-0.00023908,0.491986,0.192062,0,7.4296e-60,0.0762216,0.119946,0,-1583,-0,0,-1649.58,65.5869,1.264
0,-0.00023908,0.49229,0.192529,0,4.95307e-60,0.0761989,0.118889,0,-1584,-0,0,-1648.69,64.0358,1.268
0,-0.00023908,0.492595,0.192995,0,3.30204e-60,0.0761762,0.118127,0,-1584,-0,0,-1647.8,62.9268,1.272
0,-0.00023908,0.4929,0.193458,0,2.20136e-60,0.0761534,0.11736,0,-1585,-0,0,-1646.93,61.8103,1.276
0,-0.00023908,0.493204,0.19392,0,1.46757e-60,0.0761305,0.116676,0,-1585,-0,0,-1646.07,60.8183,1.28
0,-0.00023908,0.493509,0.194381,0,9.78383e-61,0.0761076,0.116249,0,-1584,-0,0,-1645.2,60.2116,1.284
0,-0.00023908,0.493813,0.194837,0,6.52256e-61,0.0760846,0.115474,0,-1585,-0,0,-1644.37,59.0846,1.288
0,-0.00023908,0.494118,0.195294,0,4.34837e-61,0.0760616,0.115073,0,-1585,-0,0,-1643.53,58.5176,1.292
0,-0.00023908,0.494422,0.195754,0,2.89891e-61,0.0760385,0.115065,0,-1584,-0,0,-1642.67,58.5398,1.296
0,-0.00023908,0.494726,0.196212,0,1.93261e-61,0.0760153,0.114829,0,-1583,-0,0,-1641.83,58.2208,1.3
0,-0.00023908,0.49503,0.196666,0,1.28841e-61,0.0759921,0.114442,0,-1583,-0,0,-1641,57.6743,1.304
0,-0.00023908,0.495334,0.197121,0,8.58937e-62,0.0759689,0.114183,0,-1582,-0,0,-1640.17,57.3217,1.308
0,-0.00023908,0.495638,0.197576,0,5.72625e-62,0.0759455,0.114011,0,-1582,-0,0,-1639.34,57.0983,1.312
0,-0.00023908,0.495941,0.198027,0,3.8175e-62,0.0759221,0.113608,0,-1582,-0,0,-1638.53,56.5293,1.316
0,-0.00023908,0.496245,0.198477,0,2.545e-62,0.0758987,0.113282,0,-1581,-0,0,-1637.72,56.0753,1.32
0,-0.00023908,0.496549,0.198931,0,1.69667e-62,0.0758752,0.113295,0,-1580,-0,0,-1636.9,56.13,1.324
0,-0.00023908,0.496852,0.199378,0,1.13111e-62,0.0758516,0.112786,0,-1580,-0,0,-1636.11,55.4009,1.328
0,-0.00023908,0.497155,0.199824,0,7.54074e-63,0.075828,0.112388,0,-1580,-0,0,-1635.32,54.8404,1.332
0,-0.00023908,0.497459,0.200272,0,5.02716e-63,0.0758043,0.112239,0,-1579,-0,0,-1634.53,54.6513,1.336
0,-0.00023908,0.497762,0.20072,0,3.35144e-63,0.0757806,0.112139,0,-1579,-0,0,-1633.73,54.5372,1.34
0,-0.00023908,0.498065,0.201168,0,2.23429e-63,0.0757568,0.11213,0,-1578,-0,0,-1632.93,54.5595,1.344
0,-0.00023908,0.498368,0.201619,0,1.48953e-63,0.0757329,0.112325,0,-1577,-0,0,-1632.12,54.8886,1.348
0,-0.00023908,0.498671,0.202072,0,9.93019e-64,0.075709,0.112628,0,-1575,-0,0,-1631.29,55.3792,1.352
0,-0.00023908,0.498974,0.202525,0,6.62013e-64,0.075685,0.112888,0,-1574,-0,0,-1630.46,55.8046,1.356
0,-0.00023908,0.499276,0.20298,0,4.41342e-64,0.075661,0.113119,0,-1573,-0,0,-1629.63,56.1867,1.36
0,-0.00023908,0.499579,0.203443,0,2.94228e-64,0.0756369,0.114021,0,-1571,-0,0,-1628.75,57.5764,1.364
0,-0.00023908,0.499881,0.203913,0,1.96152e-64,0.0756128,0.115199,0,-1568,-0,0,-1627.82,59.3787,1.368
0,-0.00023908,0.500184,0.204383,0,1.30768e-64,0.0755886,0.115926,0,-1566,-0,0,-1626.9,60.506,1.372
0,-0.00023908,0.500486,0.204855,0,8.71786e-65,0.0755643,0.116641,0,-1564,-0,0,-1625.97,61.6152,1.376
0,-0.00023908,0.500788,0.20533,0,5.81191e-65,0.07554,0.117348,0,-1562,-0,0,-1625.02,62.7124,1.38
0,-0.00023908,0.50109,0.2058,0,3.87461e-65,0.0755156,0.117417,0,-1561,-0,0,-1624.09,62.8515,1.384
0,-0.00023908,0.501392,0.206274,0,2.58307e-65,0.0754912,0.11775,0,-1559,-0,0,-1623.15,63.3884,1.388
0,-0.00023908,0.501694,0.206749,0,1.72205e-65,0.0754667,0.118116,0,-1558,-0,0,-1622.2,63.9745,1.392
0,-0.00023908,0.501996,0.207222,0,1.14803e-65,0.0754421,0.118159,0,-1557,-0,0,-1621.26,64.0753,1.396
0,-0.00023908,0.502298,0.207698,0,7.65354e-66,0.0754175,0.11836,0,-1555,-0,0,-1620.3,64.414,1.4
0,-0.00023908,0.502599,0.208175,0,5.10236e-66,0.0753929,0.118667,0,-1554,-0,0,-1619.34,64.9113,1.404
0,-0.00023908,0.502901,0.20865,0,3.40157e-66,0.0753681,0.118728,0,-1553,-0,0,-1618.38,65.0393,1.408
0,-0.00023908,0.503202,0.209134,0,2.26772e-66,0.0753434,0.119517,0,-1551,-0,0,-1617.37,66.26,1.412
0,-0.00023908,0.503504,0.209615,0,1.51181e-66,0.0753185,0.119755,0,-1549,-0,0,-1616.39,66.6543,1.416
0,-0.00023908,0.503805,0.210097,0,1.00787e-66,0.0752936,0.119942,0,-1548,-0,0,-1615.4,66.9729,1.42
0,-0.00023908,0.504106,0.210577,0,6.71916e-67,0.0752687,0.119981,0,-1547,-0,0,-1614.41,67.0683,1.424
0,-0.00023908,0.504407,0.211056,0,4.47944e-67,0.0752437,0.11992,0,-1546,-0,0,-1613.43,67.0149,1.428
0,-0.00023908,0.504708,0.211531,0,2.98629e-67,0.0752186,0.119563,0,-1545,-0,0,-1612.47,66.5168,1.432
0,-0.00023908,0.505009,0.212011,0,1.99086e-67,0.0751935,0.119699,0,-1544,-0,0,-1611.49,66.7588,1.436
0,-0.00023908,0.50531,0.212492,0,1.32724e-67,0.0751683,0.119848,0,-1543,-0,0,-1610.5,67.0191,1.44
0,-0.00023908,0.50561,0.21297,0,8.84828e-68,0.0751431,0.119774,0,-1542,-0,0,-1609.52,66.9463,1.444
0,-0.00023908,0.505911,0.213449,0,5.89885e-68,0.0751178,0.119696,0,-1541,-0,0,-1608.54,66.8672,1.448
0,-0.00023908,0.506211,0.213926,0,3.93257e-68,0.0750925,0.119586,0,-1540,-0,0,-1607.57,66.7408,1.452
0,-0.00023908,0.506511,0.214402,0,2.62171e-68,0.0750671,0.119398,0,-1540,-0,0,-1606.6,66.4966,1.456
0,-0.00023908,0.506812,0.214877,0,1.74781e-68,0.0750416,0.119215,0,-1539,-0,0,-1605.64,66.2602,1.46
0,-0.00023908,0.507112,0.215354,0,1.16521e-68,0.0750161,0.119151,0,-1538,-0,0,-1604.67,66.2018,1.464
0,-0.00023908,0.507412,0.215819,0,7.76803e-69,0.0749905,0.118215,0,-1538,-0,0,-1603.76,64.8369,1.468
0,-0.00023908,0.507712,0.216283,0,5.17869e-69,0.0749649,0.117505,0,-1539,-0,0,-1602.86,63.8103,1.472
0,-0.00023908,0.508012,0.216743,0,3.45246e-69,0.0749392,0.116686,0,-1539,-0,0,-1601.97,62.6205,1.476
0,-0.00023908,0.508311,0.217197,0,2.30164e-69,0.0749135,0.115622,0,-1540,-0,0,-1601.13,61.0629,1.48
0,-0.00023908,0.508611,0.217651,0,1.53443e-69,0.0748877,0.114855,0,-1540,-0,0,-1600.28,59.9511,1.484
0,-0.00023908,0.50891,0.2181,0,1.02295e-69,0.0748618,0.114027,0,-1540,-0,0,-1599.46,58.7478,1.488
0,-0.00023908,0.50921,0.218546,0,6.81967e-70,0.0748359,0.113158,0,-1541,-0,0,-1598.65,57.4836,1.492
0,-0.00023908,0.509509,0.21899,0,4.54645e-70,0.07481,0.112435,0,-1541,-0,0,-1597.86,56.4379,1.496
0,-0.00023908,0.509808,0.219429,0,3.03097e-70,0.0747839,0.111521,0,-1541,-0,0,-1597.09,55.106,1.5
0,-0.00023908,0.510107,0.219869,0,2.02064e-70,0.0747579,0.111027,0,-1541,-0,0,-1596.31,54.4039,1.504
0,-0.00023908,0.510406,0.220303,0,1.3471e-70,0.0747317,0.110208,0,-1542,-0,0,-1595.57,53.2148,1.508
0,-0.00023908,0.510705,0.220732,0,8.98064e-71,0.0747056,0.109231,0,-1543,-0,0,-1594.85,51.7875,1.512
0,-0.00023908,0.511004,0.221161,0,5.98709e-71,0.0746793,0.108579,0,-1543,-0,0,-1594.13,50.849,1.516
0,-0.00023908,0.511303,0.221597,0,3.9914e-71,0.074653,0.108691,0,-1542,-0,0,-1593.38,51.0572,1.52
0,-0.00023908,0.511601,0.222018,0,2.66093e-71,0.0746267,0.107528,0,-1543,-0,0,-1592.71,49.3521,1.524
0,-0.00023908,0.5119,0.222441,0,1.77395e-71,0.0746003,0.106925,0,-1543,-0,0,-1592.02,48.4878,1.528
0,-0.00023908,0.512198,0.222863,0,1.18264e-71,0.0745738,0.106466,0,-1543,-0,0,-1591.34,47.8385,1.532
0,-0.00023908,0.512496,0.223281,0,7.88424e-72,0.0745473,0.105814,0,-1543,-0,0,-1590.68,46.9007,1.536
0,-0.00023908,0.512794,0.223711,0,5.25616e-72,0.0745207,0.106388,0,-1542,-0,0,-1589.96,47.8004,1.54
0,-0.00023908,0.513092,0.22415,0,3.50411e-72,0.0744941,0.10749,0,-1539,-0,0,-1589.18,49.4932,1.544
0,-0.00023908,0.51339,0.224592,0,2.33607e-72,0.0744674,0.108483,0,-1537,-0,0,-1588.39,51.0238,1.548
0,-0.00023908,0.513688,0.225041,0,1.55738e-72,0.0744407,0.109808,0,-1534,-0,0,-1587.56,53.0509,1.552
0,-0.00023908,0.513986,0.225493,0,1.03825e-72,0.0744139,0.110835,0,-1532,-0,0,-1586.71,54.6317,1.556
0,-0.00023908,0.514283,0.225949,0,6.92169e-73,0.0743871,0.111923,0,-1529,-0,0,-1585.84,56.3036,1.56
0,-0.00023908,0.514581,0.226405,0,4.61446e-73,0.0743602,0.112619,0,-1527,-0,0,-1584.96,57.3886,1.564
0,-0.00023908,0.514878,0.226863,0,3.07631e-73,0.0743333,0.113199,0,-1525,-0,0,-1584.08,58.2982,1.568
0,-0.00023908,0.515176,0.227317,0,2.05087e-73,0.0743062,0.113297,0,-1524,-0,0,-1583.22,58.4862,1.572
0,-0.00023908,0.515473,0.227768,0,1.36725e-73,0.0742792,0.113104,0,-1524,-0,0,-1582.38,58.2365,1.576
0,-0.00023908,0.51577,0.228222,0,9.11498e-74,0.0742521,0.113262,0,-1522,-0,0,-1581.51,58.5155,1.58
0,-0.00023908,0.516067,0.228676,0,6.07666e-74,0.0742249,0.113311,0,-1522,-0,0,-1580.65,58.6288,1.584
0,-0.00023908,0.516364,0.229126,0,4.0511e-74,0.0741977,0.113026,0,-1521,-0,0,-1579.81,58.2429,1.588
0,-0.00023908,0.51666,0.229577,0,2.70074e-74,0.0741704,0.112981,0,-1520,-0,0,-1578.96,58.2153,1.592
0,-0.00023908,0.516957,0.230029,0,1.80049e-74,0.0741431,0.11295,0,-1519,-0,0,-1578.11,58.2106,1.596
0,-0.00023908,0.517253,0.230481,0,1.20033e-74,0.0741157,0.112987,0,-1518,-0,0,-1577.25,58.3075,1.6
0,-0.00023908,0.51755,0.230935,0,8.00218e-75,0.0740883,0.113156,0,-1517,-0,0,-1576.38,58.6019,1.604
0,-0.00023908,0.517846,0.23139,0,5.33479e-75,0.0740608,0.113384,0,-1516,-0,0,-1575.51,58.9847,1.608
0,-0.00023908,0.518142,0.231847,0,3.55652e-75,0.0740333,0.113651,0,-1515,-0,0,-1574.62,59.4264,1.612
0,-0.00023908,0.518438,0.2323,0,2.37102e-75,0.0740057,0.113483,0,-1514,-0,0,-1573.76,59.2165,1.616
0,-0.00023908,0.518734,0.232748,0,1.58068e-75,0.073978,0.113055,0,-1514,-0,0,-1572.92,58.6154,1.62
0,-0.00023908,0.51903,0.2332,0,1.05378e-75,0.0739503,0.113029,0,-1513,-0,0,-1572.07,58.6173,1.624
0,-0.00023908,0.519326,0.233662,0,7.02523e-76,0.0739226,0.113846,0,-1511,-0,0,-1571.15,59.8849,1.628
0,-0.00023908,0.519622,0.234109,0,4.68349e-76,0.0738948,0.113095,0,-1511,-0,0,-1570.32,58.8005,1.632
0,-0.00023908,0.519917,0.23454,0,3.12233e-76,0.0738669,0.111385,0,-1513,-0,0,-1569.57,56.2777,1.636
0,-0.00023908,0.520213,0.23499,0,2.08155e-76,0.073839,0.111714,0,-1511,-0,0,-1568.72,56.8124,1.64
0,-0.00023908,0.520508,0.235421,0,1.3877e-76,0.073811,0.110378,0,-1513,-0,0,-1567.98,54.8508,1.644
0,-0.00023908,0.520803,0.235848,0,9.25134e-77,0.073783,0.109171,0,-1514,-0,0,-1567.25,53.0821,1.648
0,-0.00023908,0.521098,0.23627,0,6.16756e-77,0.0737549,0.107992,0,-1515,-0,0,-1566.55,51.3556,1.652
0,-0.00023908,0.521393,0.236694,0,4.1117e-77,0.0737268,0.107292,0,-1515,-0,0,-1565.85,50.3483,1.656
0,-0.00023908,0.521688,0.237116,0,2.74114e-77,0.0736986,0.10674,0,-1515,-0,0,-1565.14,49.5613,1.66
0,-0.00023908,0.521983,0.237537,0,1.82742e-77,0.0736704,0.106227,0,-1515,-0,0,-1564.45,48.8349,1.664
0,-0.00023908,0.522277,0.237962,0,1.21828e-77,0.0736421,0.106202,0,-1514,-0,0,-1563.74,48.8399,1.668
0,-0.00023908,0.522572,0.238376,0,8.12189e-78,0.0736138,0.105322,0,-1515,-0,0,-1563.08,47.5618,1.672
0,-0.00023908,0.522866,0.238791,0,5.41459e-78,0.0735854,0.104764,0,-1515,-0,0,-1562.42,46.7672,1.676
0,-0.00023908,0.523161,0.239188,0,3.60973e-78,0.073557,0.102923,0,-1517,-0,0,-1561.85,44.0493,1.68
0,-0.00023908,0.523455,0.239593,0,2.40648e-78,0.0735285,0.102387,0,-1517,-0,0,-1561.24,43.2881,1.684
0,-0.00023908,0.523749,0.239993,0,1.60432e-78,0.0734999,0.101627,0,-1518,-0,0,-1560.65,42.1903,1.688
0,-0.00023908,0.524043,0.240387,0,1.06955e-78,0.0734714,0.100573,0,-1519,-0,0,-1560.11,40.6523,1.692
0,-0.00023908,0.524337,0.240774,0,7.13033e-79,0.0734427,0.0992656,0,-1520,-0,0,-1559.6,38.7344,1.696
0,-0.00023908,0.52463,0.241152,0,4.75355e-79,0.073414,0.0977319,0,-1522,-0,0,-1559.13,36.4769,1.7
0,-0.00023908,0.524924,0.24153,0,3.16903e-79,0.0733853,0.0966519,0,-1523,-0,0,-1558.66,34.8999,1.704
0,-0.00023908,0.525217,0.241907,0,2.11269e-79,0.0733565,0.0957879,0,-1524,-0,0,-1558.21,33.6472,1.708
0,-0.00023908,0.525511,0.242289,0,1.40846e-79,0.0733276,0.095759,0,-1524,-0,0,-1557.72,33.647,1.712
0,-0.00023908,0.525804,0.242671,0,9.38973e-80,0.0732987,0.0956245,0,-1523,-0,0,-1557.23,33.4887,1.716
0,-0.00023908,0.526097,0.243055,0,6.25982e-80,0.0732698,0.095794,0,-1522,-0,0,-1556.73,33.7863,1.72
0,-0.00023908,0.52639,0.243435,0,4.17321e-80,0.0732407,0.0955039,0,-1522,-0,0,-1556.25,33.3947,1.724
0,-0.00023908,0.526683,0.243814,0,2.78214e-80,0.0732117,0.0952817,0,-1522,-0,0,-1555.78,33.105,1.728
0,-0.00023908,0.526976,0.244197,0,1.85476e-80,0.0731826,0.0953927,0,-1521,-0,0,-1555.28,33.3151,1.732
0,-0.00023908,0.527268,0.244583,0,1.23651e-80,0.0731534,0.0957834,0,-1520,-0,0,-1554.77,33.9449,1.736
0,-0.00023908,0.527561,0.244971,0,8.24338e-81,0.0731242,0.0961878,0,-1519,-0,0,-1554.24,34.5954,1.74
0,-0.00023908,0.527853,0.245358,0,5.49559e-81,0.0730949,0.0963422,0,-1518,-0,0,-1553.73,34.8709,1.744
0,-0.00023908,0.528146,0.245742,0,3.66373e-81,0.0730656,0.0962437,0,-1518,-0,0,-1553.22,34.7671,1.748
0,-0.00023908,0.528438,0.246135,0,2.44248e-81,0.0730363,0.0968977,0,-1516,-0,0,-1552.67,35.7922,1.752
0,-0.00023908,0.52873,0.246516,0,1.62832e-81,0.0730069,0.0963837,0,-1517,-0,0,-1552.18,35.0652,1.756
0,-0.00023908,0.529022,0.246894,0,1.08555e-81,0.0729774,0.0957243,0,-1517,-0,0,-1551.71,34.1203,1.76
0,-0.00023908,0.529314,0.247272,0,7.23699e-82,0.0729479,0.095371,0,-1517,-0,0,-1551.23,33.6347,1.764
0,-0.00023908,0.529606,0.247632,0,4.82466e-82,0.0729183,0.0935808,0,-1519,-0,0,-1550.85,30.9938,1.768
0,-0.00023908,0.529897,0.248002,0,3.21644e-82,0.0728887,0.0932223,0,-1519,-0,0,-1550.42,30.5004,1.772
0,-0.00023908,0.530189,0.248365,0,2.14429e-82,0.072859,0.0923787,0,-1520,-0,0,-1550.03,29.2795,1.776
0,-0.00023908,0.53048,0.248727,0,1.42953e-82,0.0728293,0.0917011,0,-1521,-0,0,-1549.64,28.3077,1.78
0,-0.00023908,0.530771,0.249087,0,9.53019e-83,0.0727995,0.0911918,0,-1521,-0,0,-1549.26,27.5884,1.784
0,-0.00023908,0.531063,0.249451,0,6.35346e-83,0.0727697,0.0911114,0,-1521,-0,0,-1548.86,27.5125,1.788
0,-0.00023908,0.531354,0.249814,0,4.23564e-83,0.0727398,0.0910002,0,-1521,-0,0,-1548.47,27.3905,1.792
0,-0.00023908,0.531644,0.250181,0,2.82376e-83,0.0727099,0.091214,0,-1520,-0,0,-1548.05,27.756,1.796
0,-0.00023908,0.531935,0.250543,0,1.88251e-83,0.07268,0.091011,0,-1520,-0,0,-1547.66,27.4965,1.8
0,-0.00023908,0.532226,0.250905,0,1.255e-83,0.0726499,0.0908469,0,-1519,-0,0,-1547.26,27.2954,1.804
0,-0.00023908,0.532516,0.251266,0,8.3667e-84,0.0726199,0.0905935,0,-1519,-0,0,-1546.88,26.9605,1.808
0,-0.00023908,0.532807,0.251624,0,5.5778e-84,0.0725897,0.0902231,0,-1520,-0,0,-1546.51,26.45,1.812
0,-0.00023908,0.533097,0.25198,0,3.71853e-84,0.0725596,0.0898322,0,-1520,-0,0,-1546.15,25.9089,1.816
0,-0.00023908,0.533387,0.252336,0,2.47902e-84,0.0725294,0.0896003,0,-1520,-0,0,-1545.78,25.6065,1.82
0,-0.00023908,0.533677,0.252696,0,1.65268e-84,0.0724991,0.0897049,0,-1519,-0,0,-1545.4,25.8087,1.824
0,-0.00023908,0.533967,0.253057,0,1.10179e-84,0.0724688,0.0899186,0,-1518,-0,0,-1545,26.1747,1.828
0,-0.00023908,0.534257,0.253424,0,7.34525e-85,0.0724384,0.0905217,0,-1517,-0,0,-1544.58,27.1249,1.832
0,-0.00023908,0.534547,0.253793,0,4.89683e-85,0.072408,0.0910965,0,-1516,-0,0,-1544.14,28.0328,1.836
0,-0.00023908,0.534836,0.254166,0,3.26456e-85,0.0723775,0.0917676,0,-1514,-0,0,-1543.69,29.0851,1.84
0,-0.00023908,0.535126,0.254538,0,2.17637e-85,0.072347,0.0921862,0,-1513,-0,0,-1543.23,29.7588,1.844
0,-0.00023908,0.535415,0.254914,0,1.45091e-85,0.0723164,0.0928108,0,-1512,-0,0,-1542.76,30.7415,1.848
0,-0.00023908,0.535704,0.255289,0,9.67276e-86,0.0722858,0.0930832,0,-1511,-0,0,-1542.29,31.1961,1.852
0,-0.00023908,0.535993,0.255669,0,6.4485e-86,0.0722552,0.0937831,0,-1509,-0,0,-1541.78,32.2919,1.856
0,-0.00023908,0.536282,0.256054,0,4.299e-86,0.0722245,0.0945664,0,-1507,-0,0,-1541.26,33.5129,1.86
0,-0.00023908,0.536571,0.256442,0,2.866e-86,0.0721937,0.0953764,0,-1505,-0,0,-1540.71,34.7741,1.864
0,-0.00023908,0.53686,0.256829,0,1.91067e-86,0.0721629,0.0958877,0,-1504,-0,0,-1540.17,35.5872,1.868
0,-0.00023908,0.537149,0.257215,0,1.27378e-86,0.072132,0.0960846,0,-1503,-0,0,-1539.63,35.9289,1.872
0,-0.00023908,0.537437,0.2576,0,8.49186e-87,0.0721011,0.0961007,0,-1503,-0,0,-1539.1,35.9994,1.876
0,-0.00023908,0.537725,0.257988,0,5.66124e-87,0.0720702,0.0964281,0,-1502,-0,0,-1538.55,36.5369,1.88
0,-0.00023908,0.538014,0.258377,0,3.77416e-87,0.0720392,0.096704,0,-1501,-0,0,-1538,36.9973,1.884
0,-0.00023908,0.538302,0.258773,0,2.51611e-87,0.0720081,0.0974349,0,-1499,-0,0,-1537.41,38.1402,1.888
0,-0.00023908,0.53859,0.259169,0,1.6774e-87,0.071977,0.0979798,0,-1497,-0,0,-1536.81,39.0042,1.892
0,-0.00023908,0.538877,0.259565,0,1.11827e-87,0.0719459,0.0982855,0,-1496,-0,0,-1536.22,39.5094,1.896
0,-0.00023908,0.539165,0.259961,0,7.45513e-88,0.0719147,0.0985756,0,-1495,-0,0,-1535.62,39.9915,1.9
0,-0.00023908,0.539453,0.260357,0,4.97009e-88,0.0718834,0.0986827,0,-1494,-0,0,-1535.03,40.1989,1.904
0,-0.00023908,0.53974,0.260753,0,3.31339e-88,0.0718521,0.0988117,0,-1493,-0,0,-1534.43,40.4393,1.908
0,-0.00023908,0.540028,0.26115,0,2.20893e-88,0.0718208,0.0989264,0,-1493,-0,0,-1533.83,40.6584,1.912
0,-0.00023908,0.540315,0.261549,0,1.47262e-88,0.0717894,0.0992045,0,-1492,-0,0,-1533.21,41.1226,1.916
0,-0.00023908,0.540602,0.261947,0,9.81745e-89,0.071758,0.0992747,0,-1491,-0,0,-1532.6,41.2751,1.92
0,-0.00023908,0.540889,0.26234,0,6.54497e-89,0.0717265,0.0990048,0,-1491,-0,0,-1532.02,40.9174,1.924
0,-0.00023908,0.541176,0.262731,0,4.36331e-89,0.0716949,0.0985657,0,-1491,-0,0,-1531.45,40.3061,1.928
0,-0.00023908,0.541462,0.26312,0,2.90887e-89,0.0716634,0.0981578,0,-1491,-0,0,-1530.88,39.7417,1.932
0,-0.00023908,0.541749,0.263506,0,1.93925e-89,0.0716317,0.0975692,0,-1491,-0,0,-1530.34,38.9062,1.936
0,-0.00023908,0.542035,0.263887,0,1.29283e-89,0.0716001,0.0968025,0,-1492,-0,0,-1529.82,37.8037,1.94
0,-0.00023908,0.542322,0.264263,0,8.61889e-90,0.0715683,0.0958308,0,-1492,-0,0,-1529.33,36.3936,1.944
0,-0.00023908,0.542608,0.264633,0,5.74593e-90,0.0715366,0.094751,0,-1494,-0,0,-1528.86,34.8217,1.948
0,-0.00023908,0.542894,0.264998,0,3.83062e-90,0.0715048,0.0935994,0,-1495,-0,0,-1528.43,33.1419,1.952
0,-0.00023908,0.54318,0.265359,0,2.55374e-90,0.0714729,0.0924861,0,-1496,-0,0,-1528.01,31.5198,1.956
0,-0.00023908,0.543466,0.26572,0,1.7025e-90,0.071441,0.0916863,0,-1497,-0,0,-1527.6,30.368,1.96
0,-0.00023908,0.543752,0.266077,0,1.135e-90,0.071409,0.090894,0,-1497,-0,0,-1527.21,29.2275,1.964
0,-0.00023908,0.544037,0.266433,0,7.56665e-91,0.071377,0.0902507,0,-1498,-0,0,-1526.82,28.3105,1.968
0,-0.00023908,0.544323,0.26679,0,5.04443e-91,0.071345,0.0899369,0,-1498,-0,0,-1526.43,27.888,1.972
0,-0.00023908,0.544608,0.26715,0,3.36296e-91,0.0713129,0.0899869,0,-1498,-0,0,-1526.02,28.011,1.976
0,-0.00023908,0.544893,0.267523,0,2.24197e-91,0.0712807,0.0910279,0,-1495,-0,0,-1525.54,29.6207,1.98
0,-0.00023908,0.545178,0.267868,0,1.49465e-91,0.0712485,0.0894762,0,-1497,-0,0,-1525.2,27.3415,1.984
0,-0.00023908,0.545463,0.268233,0,9.96431e-92,0.0712163,0.0900828,0,-1496,-0,0,-1524.76,28.2998,1.988
0,-0.00023908,0.545748,0.268585,0,6.64288e-92,0.071184,0.0893644,0,-1497,-0,0,-1524.4,27.2705,1.992
0,-0.00023908,0.546033,0.268933,0,4.42858e-92,0.0711517,0.0885975,0,-1497,-0,0,-1524.05,26.1687,1.996
0,-0.00023908,0.546317,0.269285,0,2.95239e-92,0.0711193,0.0883742,0,-1497,-0,0,-1523.68,25.8823,2
0,-0.00023908,0.546602,0.269637,0,1.96826e-92,0.0710869,0.0882828,0,-1497,-0,0,-1523.3,25.794,2.004
0,-0.00023908,0.546886,0.269995,0,1.31217e-92,0.0710544,0.0886826,0,-1496,-0,0,-1522.9,26.4424,2.008
0,-0.00023908,0.54717,0.270349,0,8.74782e-93,0.0710219,0.0886037,0,-1496,-0,0,-1522.51,26.3727,2.012
0,-0.00023908,0.547454,0.270697,0,5.83188e-93,0.0709893,0.0880328,0,-1496,-0,0,-1522.16,25.5652,2.016
0,-0.00023908,0.547738,0.271047,0,3.88792e-93,0.0709567,0.0878537,0,-1496,-0,0,-1521.8,25.3455,2.02
0,-0.00023908,0.548022,0.271395,0,2.59195e-93,0.070924,0.0875616,0,-1496,-0,0,-1521.45,24.9563,2.024
0,-0.00023908,0.548305,0.271742,0,1.72796e-93,0.0708913,0.0873381,0,-1496,-0,0,-1521.1,24.6701,2.028
0,-0.00023908,0.548589,0.27209,0,1.15198e-93,0.0708586,0.0872466,0,-1496,-0,0,-1520.74,24.5821,2.032
0,-0.00023908,0.548872,0.272439,0,7.67984e-94,0.0708258,0.0872145,0,-1495,-0,0,-1520.38,24.583,2.036
0,-0.00023908,0.549155,0.272787,0,5.11989e-94,0.070793,0.0871354,0,-1495,-0,0,-1520.03,24.5137,2.04
0,-0.00023908,0.549438,0.273132,0,3.41326e-94,0.0707601,0.0868524,0,-1495,-0,0,-1519.69,24.1385,2.044
0,-0.00023908,0.549721,0.273473,0,2.27551e-94,0.0707271,0.0863471,0,-1495,-0,0,-1519.36,23.4299,2.048
0,-0.00023908,0.550004,0.273811,0,1.51701e-94,0.0706942,0.0857222,0,-1496,-0,0,-1519.06,22.5421,2.052
0,-0.00023908,0.550287,0.274149,0,1.01134e-94,0.0706611,0.0852769,0,-1496,-0,0,-1518.76,21.9236,2.056
0,-0.00023908,0.55057,0.274481,0,6.74225e-95,0.0706281,0.0845481,0,-1497,-0,0,-1518.49,20.8801,2.06
0,-0.00023908,0.550852,0.274815,0,4.49483e-95,0.070595,0.0841775,0,-1497,-0,0,-1518.2,20.3737,2.064
0,-0.00023908,0.551134,0.275147,0,2.99655e-95,0.0705618,0.0838152,0,-1498,-0,0,-1517.93,19.88,2.068
0,-0.00023908,0.551417,0.27548,0,1.9977e-95,0.0705286,0.0836312,0,-1497,-0,0,-1517.65,19.6539,2.072
0,-0.00023908,0.551699,0.275815,0,1.3318e-95,0.0704954,0.0836238,0,-1497,-0,0,-1517.36,19.6926,2.076
0,-0.00023908,0.551981,0.27615,0,8.87868e-96,0.0704621,0.0836764,0,-1497,-0,0,-1517.07,19.8215,2.08
0,-0.00023908,0.552262,0.276489,0,5.91912e-96,0.0704287,0.0840281,0,-1496,-0,0,-1516.75,20.3991,2.084
0,-0.00023908,0.552544,0.276833,0,3.94608e-96,0.0703954,0.0846945,0,-1494,-0,0,-1516.41,21.4488,2.088
0,-0.00023908,0.552825,0.277178,0,2.63072e-96,0.0703619,0.0852252,0,-1493,-0,0,-1516.06,22.2948,2.092
0,-0.00023908,0.553107,0.277527,0,1.75381e-96,0.0703285,0.0859244,0,-1492,-0,0,-1515.69,23.3939,2.096
0,-0.00023908,0.553388,0.277876,0,1.16921e-96,0.0702949,0.0863618,0,-1491,-0,0,-1515.31,24.1002,2.1
0,-0.00023908,0.553669,0.278227,0,7.79473e-97,0.0702614,0.0867973,0,-1490,-0,0,-1514.93,24.8039,2.104
0,-0.00023908,0.55395,0.278574,0,5.19648e-97,0.0702278,0.0867997,0,-1489,-0,0,-1514.57,24.858,2.108
0,-0.00023908,0.554231,0.278917,0,3.46432e-97,0.0701941,0.0864559,0,-1489,-0,0,-1514.22,24.3926,2.112
0,-0.00023908,0.554512,0.279255,0,2.30955e-97,0.0701604,0.0857372,0,-1490,-0,0,-1513.91,23.3652,2.116
0,-0.00023908,0.554792,0.279589,0,1.5397e-97,0.0701267,0.0850277,0,-1491,-0,0,-1513.62,22.3516,2.12
0,-0.00023908,0.555073,0.279913,0,1.02647e-97,0.0700929,0.0837198,0,-1492,-0,0,-1513.38,20.4404,2.124
0,-0.00023908,0.555353,0.280233,0,6.84311e-98,0.0700591,0.0824736,0,-1494,-0,0,-1513.16,18.6218,2.128
0,-0.00023908,0.555633,0.280546,0,4.56207e-98,0.0700252,0.081067,0,-1496,-0,0,-1512.98,16.5627,2.132
0,-0.00023908,0.555913,0.280854,0,3.04138e-98,0.0699913,0.0796686,0,-1498,-0,0,-1512.83,14.5159,2.136
0,-0.00023908,0.556193,0.281159,0,2.02759e-98,0.0699573,0.078506,0,-1499,-0,0,-1512.69,12.823,2.14
0,-0.00023908,0.556473,0.281458,0,1.35172e-98,0.0699233,0.0772703,0,-1501,-0,0,-1512.58,11.0204,2.144
0,-0.00023908,0.556753,0.281754,0,9.0115e-99,0.0698893,0.0761585,0,-1503,-0,0,-1512.49,9.40389,2.148
0,-0.00023908,0.557032,0.282039,0,6.00767e-99,0.0698552,0.0745249,0,-1505,-0,0,-1512.46,7.00453,2.152
0,-0.00023908,0.557311,0.282317,0,4.00511e-99,0.0698211,0.0728599,0,-1507,-0,0,-1512.47,4.55833,2.156
0,-0.00023908,0.557591,0.282591,0,2.67007e-99,0.0697869,0.0714333,0,-1510,-0,0,-1512.5,2.46962,2.16
0,-0.00023908,0.55787,0.282859,0,1.78005e-99,0.0697527,0.0699927,0,-1512,-0,0,-1512.56,0.360128,2.164
0,-0.00023908,0.558149,0.283129,0,1.1867e-99,0.0697184,0.0691475,0,-1513,-0,0,-1512.61,-0.856277,2.168
0,-0.00023908,0.558427,0.2834,0,7.91133e-100,0.0696841,0.0686704,0,-1514,-0,0,-1512.65,-1.52046,2.172
0,-0.00023908,0.558706,0.283678,0,5.27422e-100,0.0696497,0.0688994,0,-1513,-0,0,-1512.66,-1.12548,2.176
0,-0.00023908,0.558985,0.283949,0,3.51615e-100,0.0696153,0.0685914,0,-1514,-0,0,-1512.69,-1.53591,2.18
0,-0.00023908,0.559263,0.284216,0,2.3441e-100,0.0695809,0.0679542,0,-1515,-0,0,-1512.76,-2.44006,2.184
0,-0.00023908,0.559541,0.284479,0,1.56273e-100,0.0695464,0.0672415,0,-1516,-0,0,-1512.84,-3.45741,2.188
0,-0.00023908,0.559819,0.284741,0,1.04182e-100,0.0695119,0.0666512,0,-1517,-0,0,-1512.93,-4.29108,2.192
0,-0.00023908,0.560097,0.285005,0,6.94547e-101,0.0694773,0.0663728,0,-1517,-0,0,-1513.01,-4.65679,2.196
0,-0.00023908,0.560375,0.285268,0,4.63032e-101,0.0694427,0.0661872,0,-1517,-0,0,-1513.09,-4.88325,2.2
0,-0.00023908,0.560653,0.285526,0,3.08688e-101,0.0694081,0.0656316,0,-1518,-0,0,-1513.2,-5.66465,2.204
0,-0.00023908,0.56093,0.285799,0,2.05792e-101,0.0693734,0.0664705,0,-1517,-0,0,-1513.23,-4.35437,2.208
0,-0.00023908,0.561208,0.286073,0,1.37195e-101,0.0693386,0.0671736,0,-1516,-0,0,-1513.24,-3.2475,2.212
0,-0.00023908,0.561485,0.286346,0,9.1463e-102,0.0693039,0.0675273,0,-1515,-0,0,-1513.27,-2.6649,2.216
0,-0.00023908,0.561762,0.286618,0,6.09754e-102,0.069269,0.0677342,0,-1515,-0,0,-1513.29,-2.30223,2.22
0,-0.00023908,0.562039,0.286888,0,4.06502e-102,0.0692342,0.0676131,0,-1515,-0,0,-1513.33,-2.43166,2.224
0,-0.00023908,0.562316,0.287155,0,2.71002e-102,0.0691993,0.067302,0,-1516,-0,0,-1513.39,-2.84593,2.228
0,-0.00023908,0.562593,0.287421,0,1.80668e-102,0.0691643,0.0670946,0,-1516,-0,0,-1513.44,-3.1046,2.232
0,-0.00023908,0.562869,0.287682,0,1.20445e-102,0.0691293,0.0664669,0,-1517,-0,0,-1513.53,-3.99368,2.236
0,-0.00023908,0.563146,0.287959,0,8.02968e-103,0.0690943,0.0673728,0,-1516,-0,0,-1513.53,-2.58226,2.24
0,-0.00023908,0.563422,0.288235,0,5.35312e-103,0.0690592,0.0679191,0,-1515,-0,0,-1513.53,-1.71011,2.244
0,-0.00023908,0.563698,0.288515,0,3.56875e-103,0.0690241,0.0686577,0,-1514,-0,0,-1513.51,-0.549652,2.248
0,-0.00023908,0.563974,0.288797,0,2.37916e-103,0.0689889,0.0692364,0,-1513,-0,0,-1513.48,0.371169,2.252
0,-0.00023908,0.56425,0.289079,0,1.58611e-103,0.0689537,0.069651,0,-1512,-0,0,-1513.44,1.04588,2.256
0,-0.00023908,0.564526,0.28936,0,1.05741e-103,0.0689185,0.069841,0,-1512,-0,0,-1513.41,1.38379,2.26
0,-0.00023908,0.564802,0.289641,0,7.04937e-104,0.0688832,0.0700253,0,-1511,-0,0,-1513.38,1.71312,2.264
0,-0.00023908,0.565077,0.289913,0,4.69958e-104,0.0688479,0.0693132,0,-1512,-0,0,-1513.4,0.697976,2.268
0,-0.00023908,0.565352,0.290201,0,3.13306e-104,0.0688125,0.0702204,0,-1511,-0,0,-1513.33,2.11189,2.272
0,-0.00023908,0.565628,0.290481,0,2.0887e-104,0.0687771,0.0701631,0,-1511,-0,0,-1513.3,2.07895,2.276
0,-0.00023908,0.565903,0.290759,0,1.39247e-104,0.0687416,0.0698945,0,-1511,-0,0,-1513.29,1.72927,2.28
0,-0.00023908,0.566178,0.291045,0,9.28313e-105,0.0687061,0.0704352,0,-1510,-0,0,-1513.23,2.5936,2.284
0,-0.00023908,0.566452,0.291332,0,6.18875e-105,0.0686706,0.0708821,0,-1509,-0,0,-1513.16,3.31719,2.288
0,-0.00023908,0.566727,0.291621,0,4.12583e-105,0.068635,0.0713527,0,-1509,-0,0,-1513.08,4.07653,2.292
0,-0.00023908,0.567001,0.29191,0,2.75056e-105,0.0685994,0.0716377,0,-1508,-0,0,-1513,4.55741,2.296
0,-0.00023908,0.567276,0.2922,0,1.8337e-105,0.0685638,0.0719428,0,-1507,-0,0,-1512.92,5.06862,2.3
0,-0.00023908,0.56755,0.292493,0,1.22247e-105,0.0685281,0.0723766,0,-1507,-0,0,-1512.81,5.77281,2.304
0,-0.00023908,0.567824,0.292786,0,8.1498e-106,0.0684923,0.072637,0,-1506,-0,0,-1512.71,6.21699,2.308
0,-0.00023908,0.568098,0.293083,0,5.4332e-106,0.0684565,0.0731848,0,-1505,-0,0,-1512.58,7.09247,2.312
0,-0.00023908,0.568372,0.29338,0,3.62213e-106,0.0684207,0.0735789,0,-1504,-0,0,-1512.45,7.73726,2.316
0,-0.00023908,0.568645,0.293679,0,2.41475e-106,0.0683848,0.0739567,0,-1503,-0,0,-1512.31,8.35784,2.32
0,-0.00023908,0.568919,0.293982,0,1.60984e-106,0.0683489,0.0745253,0,-1502,-0,0,-1512.15,9.2646,2.324
0,-0.00023908,0.569192,0.294292,0,1.07322e-106,0.068313,0.0755666,0,-1501,-0,0,-1511.95,10.8804,2.328
0,-0.00023908,0.569465,0.294593,0,7.15483e-107,0.068277,0.075397,0,-1501,-0,0,-1511.8,10.6801,2.332
0,-0.00023908,0.569738,0.294898,0,4.76988e-107,0.068241,0.0757447,0,-1500,-0,0,-1511.62,11.2555,2.336
0,-0.00023908,0.570011,0.295203,0,3.17992e-107,0.0682049,0.0758612,0,-1499,-0,0,-1511.45,11.4845,2.34
0,-0.00023908,0.570284,0.295502,0,2.11995e-107,0.0681688,0.0755359,0,-1500,-0,0,-1511.3,11.0506,2.344
0,-0.00023908,0.570556,0.295797,0,1.4133e-107,0.0681327,0.0749159,0,-1501,-0,0,-1511.18,10.1749,2.348
0,-0.00023908,0.570829,0.296086,0,9.42199e-108,0.0680965,0.074042,0,-1502,-0,0,-1511.08,8.9182,2.352
0,-0.00023908,0.571101,0.296376,0,6.28133e-108,0.0680603,0.0735457,0,-1502,-0,0,-1510.99,8.22813,2.356
0,-0.00023908,0.571373,0.296662,0,4.18755e-108,0.068024,0.0728693,0,-1503,-0,0,-1510.91,7.26802,2.36
0,-0.00023908,0.571645,0.296949,0,2.7917e-108,0.0679877,0.072476,0,-1504,-0,0,-1510.83,6.73251,2.364
0,-0.00023908,0.571917,0.297238,0,1.86113e-108,0.0679513,0.0723866,0,-1504,-0,0,-1510.74,6.65284,2.368
0,-0.00023908,0.572189,0.297527,0,1.24076e-108,0.067915,0.0723269,0,-1504,-0,0,-1510.64,6.61795,2.372
0,-0.00023908,0.572461,0.297815,0,8.27171e-109,0.0678785,0.0722584,0,-1503,-0,0,-1510.55,6.56976,2.376
0,-0.00023908,0.572732,0.298104,0,5.51447e-109,0.0678421,0.0722415,0,-1503,-0,0,-1510.45,6.5991,2.38
0,-0.00023908,0.573003,0.298392,0,3.67632e-109,0.0678056,0.072115,0,-1503,-0,0,-1510.36,6.4642,2.384
0,-0.00023908,0.573275,0.298677,0,2.45088e-109,0.067769,0.0718292,0,-1504,-0,0,-1510.29,6.09027,2.388
0,-0.00023908,0.573546,0.298966,0,1.63392e-109,0.0677324,0.0720129,0,-1503,-0,0,-1510.19,6.42075,2.392
0,-0.00023908,0.573816,0.299262,0,1.08928e-109,0.0676958,0.0726249,0,-1502,-0,0,-1510.05,7.39358,2.396
0,-0.00023908,0.574087,0.299564,0,7.26186e-110,0.0676591,0.0735798,0,-1500,-0,0,-1509.88,8.88105,2.4
0,-0.00023908,0.574358,0.299875,0,4.84124e-110,0.0676224,0.0749651,0,-1498,-0,0,-1509.66,11.0139,2.404
0,-0.00023908,0.574628,0.30019,0,3.22749e-110,0.0675857,0.0762916,0,-1496,-0,0,-1509.41,13.0589,2.408
0,-0.00023908,0.574898,0.30051,0,2.15166e-110,0.0675489,0.0774927,0,-1494,-0,0,-1509.14,14.9156,2.412
0,-0.00023908,0.575168,0.300829,0,1.43444e-110,0.0675121,0.0782646,0,-1492,-0,0,-1508.87,16.1288,2.416
0,-0.00023908,0.575438,0.301151,0,9.56294e-111,0.0674752,0.0789808,0,-1491,-0,0,-1508.58,17.2583,2.42
0,-0.00023908,0.575708,0.301476,0,6.37529e-111,0.0674383,0.0797461,0,-1489,-0,0,-1508.28,18.4616,2.424
0,-0.00023908,0.575978,0.301808,0,4.2502e-111,0.0674014,0.0808321,0,-1487,-0,0,-1507.94,20.1461,2.428
0,-0.00023908,0.576247,0.302146,0,2.83346e-111,0.0673644,0.0821032,0,-1485,-0,0,-1507.56,22.1082,2.432
0,-0.00023908,0.576517,0.302491,0,1.88898e-111,0.0673274,0.0834112,0,-1483,-0,0,-1507.14,24.1257,2.436
0,-0.00023908,0.576786,0.30284,0,1.25932e-111,0.0672904,0.0847439,0,-1480,-0,0,-1506.7,26.1803,2.44
0,-0.00023908,0.577055,0.303192,0,8.39545e-112,0.0672533,0.0858051,0,-1478,-0,0,-1506.25,27.8277,2.444
0,-0.00023908,0.577324,0.303544,0,5.59697e-112,0.0672161,0.0865126,0,-1476,-0,0,-1505.79,28.9446,2.448
0,-0.00023908,0.577593,0.303897,0,3.73131e-112,0.067179,0.0871282,0,-1475,-0,0,-1505.33,29.9238,2.452
0,-0.00023908,0.577862,0.304248,0,2.48754e-112,0.0671418,0.0873658,0,-1474,-0,0,-1504.87,30.3361,2.456
0,-0.00023908,0.57813,0.3046,0,1.65836e-112,0.0671045,0.0875818,0,-1473,-0,0,-1504.41,30.716,2.46
0,-0.00023908,0.578398,0.304949,0,1.10557e-112,0.0670672,0.0874667,0,-1473,-0,0,-1503.97,30.5992,2.464
0,-0.00023908,0.578667,0.305298,0,7.37049e-113,0.0670299,0.08739,0,-1472,-0,0,-1503.53,30.5401,2.468
0,-0.00023908,0.578935,0.305639,0,4.91366e-113,0.0669926,0.0866478,0,-1473,-0,0,-1503.13,29.4829,2.472
0,-0.00023908,0.579203,0.30598,0,3.27577e-113,0.0669552,0.0861531,0,-1473,-0,0,-1502.73,28.7969,2.476
0,-0.00023908,0.57947,0.30632,0,2.18385e-113,0.0669177,0.0857657,0,-1474,-0,0,-1502.33,28.2719,2.48
0,-0.00023908,0.579738,0.306655,0,1.4559e-113,0.0668803,0.0851619,0,-1474,-0,0,-1501.95,27.4224,2.484
0,-0.00023908,0.580005,0.306991,0,9.70599e-114,0.0668427,0.0847018,0,-1474,-0,0,-1501.58,26.7886,2.488
0,-0.00023908,0.580273,0.307323,0,6.47066e-114,0.0668052,0.0841359,0,-1475,-0,0,-1501.22,25.9961,2.492
0,-0.00023908,0.58054,0.307654,0,4.31378e-114,0.0667676,0.0837299,0,-1475,-0,0,-1500.87,25.4435,2.496
0,-0.00023908,0.580807,0.307989,0,2.87585e-114,0.06673,0.0836896,0,-1475,-0,0,-1500.5,25.4394,2.5
0,-0.00023908,0.581074,0.308327,0,1.91723e-114,0.0666923,0.0839506,0,-1474,-0,0,-1500.11,25.8874,2.504
0,-0.00023908,0.58134,0.308669,0,1.27816e-114,0.0666546,0.0844988,0,-1472,-0,0,-1499.69,26.7663,2.508
0,-0.00023908,0.581607,0.309012,0,8.52104e-115,0.0666169,0.0849507,0,-1471,-0,0,-1499.27,27.5008,2.512
0,-0.00023908,0.581873,0.309357,0,5.68069e-115,0.0665791,0.0853672,0,-1470,-0,0,-1498.84,28.1821,2.516
0,-0.00023908,0.582139,0.309708,0,3.78713e-115,0.0665413,0.0861342,0,-1468,-0,0,-1498.37,29.3894,2.52
0,-0.00023908,0.582406,0.310062,0,2.52475e-115,0.0665035,0.0869623,0,-1467,-0,0,-1497.89,30.6883,2.524
0,-0.00023908,0.582671,0.310423,0,1.68317e-115,0.0664656,0.0880614,0,-1464,-0,0,-1497.36,32.3937,2.528
0,-0.00023908,0.582937,0.310795,0,1.12211e-115,0.0664276,0.0897154,0,-1461,-0,0,-1496.78,34.9317,2.532
0,-0.00023908,0.583203,0.311175,0,7.48075e-116,0.0663897,0.0914515,0,-1458,-0,0,-1496.15,37.5927,2.536
0,-0.00023908,0.583468,0.311564,0,4.98716e-116,0.0663517,0.0933287,0,-1455,-0,0,-1495.48,40.4655,2.54
0,-0.00023908,0.583734,0.311955,0,3.32478e-116,0.0663137,0.094868,0,-1451,-0,0,-1494.78,42.8315,2.544
0,-0.00023908,0.583999,0.312351,0,2.21652e-116,0.0662756,0.0961822,0,-1449,-0,0,-1494.07,44.8599,2.548
0,-0.00023908,0.584264,0.31275,0,1.47768e-116,0.0662375,0.0974325,0,-1446,-0,0,-1493.32,46.7926,2.552
0,-0.00023908,0.584529,0.313158,0,9.85119e-117,0.0661993,0.0989283,0,-1443,-0,0,-1492.54,49.0935,2.556
0,-0.00023908,0.584794,0.313571,0,6.56746e-117,0.0661612,0.100386,0,-1440,-0,0,-1491.72,51.3375,2.56
0,-0.00023908,0.585058,0.313986,0,4.37831e-117,0.0661229,0.101502,0,-1437,-0,0,-1490.9,53.0686,2.564
0,-0.00023908,0.585323,0.314403,0,2.91887e-117,0.0660847,0.10239,0,-1435,-0,0,-1490.06,54.4578,2.568
0,-0.00023908,0.585587,0.31482,0,1.94591e-117,0.0660464,0.103011,0,-1433,-0,0,-1489.22,55.4462,2.572
0,-0.00023908,0.585851,0.315241,0,1.29728e-117,0.0660081,0.10377,0,-1431,-0,0,-1488.35,56.6426,2.576
0,-0.00023908,0.586115,0.315666,0,8.64851e-118,0.0659697,0.104622,0,-1429,-0,0,-1487.47,57.9777,2.58
0,-0.00023908,0.586379,0.316095,0,5.76567e-118,0.0659313,0.105448,0,-1427,-0,0,-1486.56,59.2757,2.584
0,-0.00023908,0.586642,0.31653,0,3.84378e-118,0.0658929,0.106547,0,-1424,-0,0,-1485.62,60.9808,2.588
0,-0.00023908,0.586906,0.316965,0,2.56252e-118,0.0658544,0.107308,0,-1422,-0,0,-1484.67,62.18,2.592
0,-0.00023908,0.587169,0.317401,0,1.70835e-118,0.0658159,0.107873,0,-1420,-0,0,-1483.72,63.0851,2.596
0,-0.00023908,0.587432,0.317838,0,1.1389e-118,0.0657774,0.108307,0,-1418,-0,0,-1482.77,63.7942,2.6
0,-0.00023908,0.587695,0.318271,0,7.59265e-119,0.0657388,0.108337,0,-1417,-0,0,-1481.83,63.8975,2.604
0,-0.00023908,0.587958,0.3187,0,5.06177e-119,0.0657002,0.107926,0,-1417,-0,0,-1480.92,63.338,2.608
0,-0.00023908,0.588221,0.319121,0,3.37451e-119,0.0656615,0.107104,0,-1417,-0,0,-1480.05,62.1638,2.612
0,-0.00023908,0.588484,0.319536,0,2.24967e-119,0.0656228,0.105952,0,-1418,-0,0,-1479.21,60.4935,2.616
0,-0.00023908,0.588746,0.319939,0,1.49978e-119,0.0655841,0.104234,0,-1420,-0,0,-1478.44,57.9741,2.62
0,-0.00023908,0.589008,0.320331,0,9.99855e-120,0.0655454,0.102138,0,-1422,-0,0,-1477.72,54.8889,2.624
0,-0.00023908,0.58927,0.320715,0,6.6657e-120,0.0655066,0.100107,0,-1425,-0,0,-1477.05,51.9013,2.628
0,-0.00023908,0.589532,0.321094,0,4.4438e-120,0.0654678,0.0982932,0,-1427,-0,0,-1476.41,49.2381,2.632
0,-0.00023908,0.589794,0.321473,0,2.96253e-120,0.0654289,0.0970836,0,-1428,-0,0,-1475.77,47.4821,2.636
0,-0.00023908,0.590056,0.321851,0,1.97502e-120,0.06539,0.0962197,0,-1428,-0,0,-1475.13,46.2445,2.64
0,-0.00023908,0.590317,0.322232,0,1.31668e-120,0.0653511,0.0959316,0,-1428,-0,0,-1474.47,45.8709,2.644
0,-0.00023908,0.590578,0.322614,0,8.77788e-121,0.0653121,0.095826,0,-1428,-0,0,-1473.8,45.7708,2.648
0,-0.00023908,0.59084,0.323,0,5.85192e-121,0.0652731,0.0959859,0,-1427,-0,0,-1473.12,46.0691,2.652
0,-0.00023908,0.591101,0.323388,0,3.90128e-121,0.0652341,0.0963804,0,-1425,-0,0,-1472.42,46.7195,2.656
0,-0.00023908,0.591362,0.323781,0,2.60085e-121,0.065195,0.0969889,0,-1424,-0,0,-1471.69,47.6908,2.66
0,-0.00023908,0.591622,0.324179,0,1.7339e-121,0.0651559,0.0977976,0,-1421,-0,0,-1470.94,48.9626,2.664
0,-0.00023908,0.591883,0.324582,0,1.15593e-121,0.0651168,0.0987974,0,-1419,-0,0,-1470.15,50.521,2.668
0,-0.00023908,0.592143,0.324992,0,7.70623e-122,0.0650776,0.100011,0,-1416,-0,0,-1469.33,52.4001,2.672
0,-0.00023908,0.592403,0.325407,0,5.13749e-122,0.0650384,0.101252,0,-1414,-0,0,-1468.48,54.3203,2.676
0,-0.00023908,0.592663,0.32583,0,3.42499e-122,0.0649991,0.10277,0,-1410,-0,0,-1467.58,56.6565,2.68
0,-0.00023908,0.592923,0.326258,0,2.28333e-122,0.0649598,0.104214,0,-1407,-0,0,-1466.66,58.8815,2.684
0,-0.00023908,0.593183,0.326694,0,1.52222e-122,0.0649205,0.105781,0,-1404,-0,0,-1465.69,61.2914,2.688
0,-0.00023908,0.593443,0.327133,0,1.01481e-122,0.0648812,0.107114,0,-1401,-0,0,-1464.7,63.3496,2.692
0,-0.00023908,0.593702,0.327576,0,6.76542e-123,0.0648418,0.108319,0,-1398,-0,0,-1463.69,65.2165,2.696
0,-0.00023908,0.593961,0.328024,0,4.51028e-123,0.0648024,0.109555,0,-1395,-0,0,-1462.66,67.1286,2.7
0,-0.00023908,0.594221,0.32847,0,3.00685e-123,0.0647629,0.110234,0,-1393,-0,0,-1461.63,68.2072,2.704
0,-0.00023908,0.59448,0.328915,0,2.00457e-123,0.0647235,0.110572,0,-1391,-0,0,-1460.6,68.7733,2.708
0,-0.00023908,0.594738,0.329365,0,1.33638e-123,0.0646839,0.111143,0,-1389,-0,0,-1459.56,69.6887,2.712
0,-0.00023908,0.594997,0.329812,0,8.90919e-124,0.0646444,0.11138,0,-1388,-0,0,-1458.52,70.1029,2.716
0,-0.00023908,0.595256,0.330261,0,5.93946e-124,0.0646048,0.111681,0,-1386,-0,0,-1457.47,70.6147,2.72
0,-0.00023908,0.595514,0.330706,0,3.95964e-124,0.0645652,0.111508,0,-1386,-0,0,-1456.44,70.4144,2.724
0,-0.00023908,0.595772,0.331148,0,2.63976e-124,0.0645255,0.111162,0,-1385,-0,0,-1455.43,69.9552,2.728
0,-0.00023908,0.59603,0.331585,0,1.75984e-124,0.0644859,0.110586,0,-1385,-0,0,-1454.45,69.1507,2.732
0,-0.00023908,0.596288,0.332021,0,1.17323e-124,0.0644461,0.110001,0,-1385,-0,0,-1453.47,68.332,2.736
0,-0.00023908,0.596546,0.332454,0,7.82151e-125,0.0644064,0.109438,0,-1384,-0,0,-1452.5,67.5469,2.74
0,-0.00023908,0.596803,0.332889,0,5.21434e-125,0.0643666,0.109206,0,-1384,-0,0,-1451.53,67.2594,2.744
0,-0.00023908,0.597061,0.333319,0,3.47623e-125,0.0643268,0.108649,0,-1384,-0,0,-1450.58,66.4831,2.748
0,-0.00023908,0.597318,0.333743,0,2.31749e-125,0.0642869,0.107788,0,-1384,-0,0,-1449.66,65.2513,2.752
0,-0.00023908,0.597575,0.334158,0,1.54499e-125,0.064247,0.106436,0,-1385,-0,0,-1448.79,63.2841,2.756
0,-0.00023908,0.597832,0.334565,0,1.02999e-125,0.0642071,0.104845,0,-1387,-0,0,-1447.97,60.9561,2.76
0,-0.00023908,0.598089,0.334964,0,6.86662e-126,0.0641672,0.10315,0,-1388,-0,0,-1447.19,58.4741,2.764
0,-0.00023908,0.598345,0.335356,0,4.57775e-126,0.0641272,0.101415,0,-1390,-0,0,-1446.44,55.9325,2.768
0,-0.00023908,0.598602,0.335745,0,3.05183e-126,0.0640872,0.100058,0,-1391,-0,0,-1445.71,53.9558,2.772
0,-0.00023908,0.598858,0.336125,0,2.03455e-126,0.0640471,0.0983464,0,-1393,-0,0,-1445.03,51.4489,2.776
0,-0.00023908,0.599114,0.336502,0,1.35637e-126,0.064007,0.0969751,0,-1394,-0,0,-1444.37,49.4522,2.78
0,-0.00023908,0.59937,0.336873,0,9.04247e-127,0.0639669,0.0956003,0,-1396,-0,0,-1443.73,47.4501,2.784
0,-0.00023908,0.599626,0.337243,0,6.02831e-127,0.0639268,0.0945398,0,-1397,-0,0,-1443.11,45.9196,2.788
0,-0.00023908,0.599881,0.337607,0,4.01887e-127,0.0638866,0.093401,0,-1398,-0,0,-1442.51,44.2716,2.792
0,-0.00023908,0.600137,0.33797,0,2.67925e-127,0.0638464,0.0925266,0,-1398,-0,0,-1441.91,43.0203,2.796
0,-0.00023908,0.600392,0.338332,0,1.78617e-127,0.0638061,0.0917997,0,-1399,-0,0,-1441.33,41.9903,2.8
0,-0.00023908,0.600647,0.338689,0,1.19078e-127,0.0637659,0.0909696,0,-1399,-0,0,-1440.77,40.8056,2.804
0,-0.00023908,0.600902,0.33904,0,7.93852e-128,0.0637255,0.089898,0,-1400,-0,0,-1440.24,39.2587,2.808
0,-0.00023908,0.601157,0.339386,0,5.29234e-128,0.0636852,0.0887517,0,-1402,-0,0,-1439.74,37.5998,2.812
0,-0.00023908,0.601412,0.33973,0,3.52823e-128,0.0636448,0.0878436,0,-1402,-0,0,-1439.25,36.2981,2.816
0,-0.00023908,0.601666,0.340069,0,2.35215e-128,0.0636044,0.0868351,0,-1403,-0,0,-1438.78,34.846,2.82
0,-0.00023908,0.601921,0.340404,0,1.5681e-128,0.063564,0.0857885,0,-1405,-0,0,-1438.34,33.3367,2.824
0,-0.00023908,0.602175,0.340736,0,1.0454e-128,0.0635235,0.0848604,0,-1405,-0,0,-1437.91,32.0053,2.828
0,-0.00023908,0.602429,0.341064,0,6.96934e-129,0.063483,0.083925,0,-1406,-0,0,-1437.5,30.6629,2.832
0,-0.00023908,0.602683,0.341384,0,4.64623e-129,0.0634425,0.0825816,0,-1408,-0,0,-1437.14,28.7086,2.836
0,-0.00023908,0.602936,0.341698,0,3.09749e-129,0.0634019,0.0812253,0,-1410,-0,0,-1436.81,26.7351,2.84
0,-0.00023908,0.60319,0.342003,0,2.06499e-129,0.0633613,0.0795438,0,-1412,-0,0,-1436.53,24.2738,2.844
0,-0.00023908,0.603443,0.342296,0,1.37666e-129,0.0633207,0.0774439,0,-1415,-0,0,-1436.31,21.1848,2.848
0,-0.00023908,0.603696,0.342579,0,9.17773e-130,0.06328,0.0752378,0,-1418,-0,0,-1436.15,17.9367,2.852
0,-0.00023908,0.603949,0.342849,0,6.11849e-130,0.0632393,0.0726443,0,-1421,-0,0,-1436.05,14.1074,2.856
0,-0.00023908,0.604202,0.34311,0,4.07899e-130,0.0631986,0.0701667,0,-1425,-0,0,-1436.01,10.4521,2.86
0,-0.00023908,0.604455,0.343362,0,2.71933e-130,0.0631579,0.0677951,0,-1429,-0,0,-1436.01,6.95593,2.864
0,-0.00023908,0.604708,0.343604,0,1.81289e-130,0.0631171,0.065408,0,-1432,-0,0,-1436.07,3.43638,2.868
0,-0.00023908,0.60496,0.343841,0,1.20859e-130,0.0630763,0.0633559,0,-1435,-0,0,-1436.15,0.419467,2.872
0,-0.00023908,0.605212,0.344077,0,8.05727e-131,0.0630354,0.0618439,0,-1438,-0,0,-1436.25,-1.78728,2.876
0,-0.00023908,0.605464,0.344303,0,5.37151e-131,0.0629945,0.0601161,0,-1440,-0,0,-1436.38,-4.31764,2.88
0,-0.00023908,0.605716,0.344524,0,3.58101e-131,0.0629536,0.0585036,0,-1443,-0,0,-1436.55,-6.67504,2.884
0,-0.00023908,0.605968,0.344743,0,2.38734e-131,0.0629127,0.0572271,0,-1445,-0,0,-1436.74,-8.52845,2.888
0,-0.00023908,0.606219,0.344957,0,1.59156e-131,0.0628717,0.055973,0,-1447,-0,0,-1436.94,-10.3481,2.892
0,-0.00023908,0.606471,0.345165,0,1.06104e-131,0.0628307,0.0546762,0,-1449,-0,0,-1437.18,-12.2317,2.896
0,-0.00023908,0.606722,0.345373,0,7.0736e-132,0.0627897,0.0537542,0,-1450,-0,0,-1437.42,-13.5533,2.9
0,-0.00023908,0.606973,0.345578,0,4.71573e-132,0.0627486,0.0529379,0,-1452,-0,0,-1437.67,-14.716,2.904
0,-0.00023908,0.607224,0.345776,0,3.14382e-132,0.0627075,0.0518179,0,-1454,-0,0,-1437.96,-16.3344,2.908
0,-0.00023908,0.607475,0.345971,0,2.09588e-132,0.0626664,0.0507546,0,-1456,-0,0,-1438.27,-17.8677,2.912
0,-0.00023908,0.607725,0.346166,0,1.39725e-132,0.0626252,0.0501033,0,-1457,-0,0,-1438.58,-18.783,2.916
0,-0.00023908,0.607976,0.346356,0,9.31503e-133,0.0625841,0.0492372,0,-1458,-0,0,-1438.91,-20.0203,2.92
0,-0.00023908,0.608226,0.346545,0,6.21002e-133,0.0625428,0.0485446,0,-1460,-0,0,-1439.25,-20.9973,2.924
0,-0.00023908,0.608476,0.34673,0,4.14001e-133,0.0625016,0.047795,0,-1461,-0,0,-1439.6,-22.0599,2.928
0,-0.00023908,0.608726,0.346913,0,2.76001e-133,0.0624603,0.0470937,0,-1463,-0,0,-1439.97,-23.0499,2.932
0,-0.00023908,0.608976,0.347087,0,1.84001e-133,0.062419,0.0458777,0,-1465,-0,0,-1440.39,-24.812,2.936
0,-0.00023908,0.609225,0.347254,0,1.22667e-133,0.0623777,0.0445487,0,-1467,-0,0,-1440.84,-26.7435,2.94
0,-0.00023908,0.609475,0.347409,0,8.1778e-134,0.0623363,0.0425975,0,-1470,-0,0,-1441.36,-29.6083,2.944
0,-0.00023908,0.609724,0.347559,0,5.45187e-134,0.0622949,0.0408648,0,-1474,-0,0,-1441.91,-32.1452,2.948
0,-0.00023908,0.609973,0.347698,0,3.63458e-134,0.0622535,0.0388747,0,-1477,-0,0,-1442.51,-35.0681,2.952
0,-0.00023908,0.610222,0.34783,0,2.42305e-134,0.062212,0.0369146,0,-1481,-0,0,-1443.16,-37.9461,2.956
0,-0.00023908,0.610471,0.347956,0,1.61537e-134,0.0621706,0.0350896,0,-1484,-0,0,-1443.83,-40.6214,2.96
0,-0.00023908,0.610719,0.348078,0,1.07691e-134,0.062129,0.0335563,0,-1487,-0,0,-1444.53,-42.8591,2.964
0,-0.00023908,0.610968,0.348202,0,7.17941e-135,0.0620875,0.0327356,0,-1489,-0,0,-1445.21,-44.0278,2.968
0,-0.00023908,0.611216,0.348324,0,4.78628e-135,0.0620459,0.0319869,0,-1490,-0,0,-1445.91,-45.0885,2.972
0,-0.00023908,0.611464,0.348444,0,3.19085e-135,0.0620043,0.0312863,0,-1492,-0,0,-1446.61,-46.0771,2.976
0,-0.00023908,0.611712,0.348565,0,2.12723e-135,0.0619627,0.0309631,0,-1493,-0,0,-1447.31,-46.4993,2.98
0,-0.00023908,0.61196,0.348687,0,1.41816e-135,0.061921,0.0308341,0,-1494,-0,0,-1448,-46.6304,2.984
0,-0.00023908,0.612208,0.348811,0,9.45437e-136,0.0618793,0.0308632,0,-1495,-0,0,-1448.68,-46.5242,2.988
0,-0.00023908,0.612455,0.348939,0,6.30291e-136,0.0618376,0.0312281,0,-1495,-0,0,-1449.34,-45.9143,2.992
0,-0.00023908,0.612702,0.349068,0,4.20194e-136,0.0617959,0.0316153,0,-1495,-0,0,-1449.99,-45.2708,2.996
0,-0.00023908,0.612949,0.3492,0,2.8013e-136,0.0617541,0.0320174,0,-1495,-0,0,-1450.62,-44.605,3
0,-0.00023908,0.613196,0.349335,0,1.86753e-136,0.0617123,0.032631,0,-1494,-0,0,-1451.24,-43.6219,3.004
0,-0.00023908,0.613443,0.349476,0,1.24502e-136,0.0616704,0.0335007,0,-1494,-0,0,-1451.82,-42.2546,3.008
0,-0.00023908,0.61369,0.349623,0,8.30013e-137,0.0616286,0.0345699,0,-1492,-0,0,-1452.37,-40.588,3.012
0,-0.00023908,0.613936,0.34977,0,5.53342e-137,0.0615867,0.0353404,0,-1492,-0,0,-1452.91,-39.3695,3.016
0,-0.00023908,0.614182,0.34992,0,3.68895e-137,0.0615448,0.0360267,0,-1491,-0,0,-1453.44,-38.2771,3.02
0,-0.00023908,0.614428,0.350074,0,2.4593e-137,0.0615028,0.0368586,0,-1490,-0,0,-1453.95,-36.9664,3.024
0,-0.00023908,0.614674,0.350226,0,1.63953e-137,0.0614608,0.0372404,0,-1490,-0,0,-1454.47,-36.3307,3.028
0,-0.00023908,0.61492,0.350382,0,1.09302e-137,0.0614188,0.0377828,0,-1490,-0,0,-1454.96,-35.454,3.032
0,-0.00023908,0.615166,0.350538,0,7.28681e-138,0.0613768,0.0382021,0,-1490,-0,0,-1455.45,-34.7621,3.036
0,-0.00023908,0.615411,0.350696,0,4.85787e-138,0.0613347,0.0386543,0,-1489,-0,0,-1455.93,-34.0207,3.04
0,-0.00023908,0.615656,0.350856,0,3.23858e-138,0.0612926,0.0390709,0,-1489,-0,0,-1456.4,-33.3326,3.044
0,-0.00023908,0.615901,0.351022,0,2.15906e-138,0.0612505,0.0398957,0,-1488,-0,0,-1456.84,-32.0322,3.048
0,-0.00023908,0.616146,0.351192,0,1.43937e-138,0.0612084,0.0407623,0,-1487,-0,0,-1457.25,-30.6691,3.052
0,-0.00023908,0.616391,0.35136,0,9.5958e-139,0.0611662,0.0411672,0,-1487,-0,0,-1457.67,-29.9984,3.056
0,-0.00023908,0.616636,0.351531,0,6.3972e-139,0.061124,0.0417539,0,-1487,-0,0,-1458.07,-29.0551,3.06
0,-0.00023908,0.61688,0.351706,0,4.2648e-139,0.0610818,0.0423754,0,-1486,-0,0,-1458.46,-28.0596,3.064
0,-0.00023908,0.617124,0.351886,0,2.8432e-139,0.0610395,0.0432503,0,-1485,-0,0,-1458.81,-26.6838,3.068
0,-0.00023908,0.617368,0.352069,0,1.89547e-139,0.0609972,0.0440927,0,-1484,-0,0,-1459.15,-25.3567,3.072
0,-0.00023908,0.617612,0.352255,0,1.26364e-139,0.0609549,0.0449423,0,-1483,-0,0,-1459.46,-24.019,3.076
0,-0.00023908,0.617856,0.352447,0,8.4243e-140,0.0609126,0.0458829,0,-1482,-0,0,-1459.75,-22.5445,3.08
0,-0.00023908,0.6181,0.352637,0,5.6162e-140,0.0608702,0.0464812,0,-1481,-0,0,-1460.04,-21.5835,3.084
0,-0.00023908,0.618343,0.352832,0,3.74413e-140,0.0608278,0.0471967,0,-1480,-0,0,-1460.31,-20.4466,3.088
0,-0.00023908,0.618586,0.353022,0,2.49609e-140,0.0607854,0.0472995,0,-1480,-0,0,-1460.6,-20.2288,3.092
0,-0.00023908,0.618829,0.353214,0,1.66406e-140,0.0607429,0.0475408,0,-1480,-0,0,-1460.89,-19.8032,3.096
0,-0.00023908,0.619072,0.353406,0,1.10937e-140,0.0607004,0.0476728,0,-1480,-0,0,-1461.17,-19.5415,3.1
0,-0.00023908,0.619315,0.3536,0,7.39582e-141,0.0606579,0.0480199,0,-1480,-0,0,-1461.43,-18.957,3.104
0,-0.00023908,0.619558,0.353798,0,4.93054e-141,0.0606154,0.0484529,0,-1479,-0,0,-1461.68,-18.2437,3.108
0,-0.00023908,0.6198,0.354002,0,3.28703e-141,0.0605728,0.0493174,0,-1478,-0,0,-1461.89,-16.8832,3.112
0,-0.00023908,0.620042,0.35421,0,2.19135e-141,0.0605302,0.0501816,0,-1477,-0,0,-1462.08,-15.523,3.116
0,-0.00023908,0.620284,0.35442,0,1.4609e-141,0.0604876,0.0509881,0,-1476,-0,0,-1462.25,-14.2493,3.12
0,-0.00023908,0.620526,0.354636,0,9.73935e-142,0.060445,0.0520152,0,-1475,-0,0,-1462.39,-12.6447,3.124
0,-0.00023908,0.620768,0.354853,0,6.4929e-142,0.0604023,0.0526999,0,-1474,-0,0,-1462.53,-11.5536,3.128
0,-0.00023908,0.621009,0.355069,0,4.3286e-142,0.0603596,0.0531564,0,-1473,-0,0,-1462.67,-10.8049,3.132
0,-0.00023908,0.621251,0.355289,0,2.88573e-142,0.0603169,0.0537774,0,-1472,-0,0,-1462.79,-9.80925,3.136
0,-0.00023908,0.621492,0.355506,0,1.92382e-142,0.0602742,0.0539611,0,-1472,-0,0,-1462.92,-9.46959,3.14
0,-0.00023908,0.621733,0.355727,0,1.28255e-142,0.0602314,0.0544003,0,-1471,-0,0,-1463.03,-8.74669,3.144
0,-0.00023908,0.621974,0.355946,0,8.55032e-143,0.0601886,0.0545203,0,-1471,-0,0,-1463.15,-8.50245,3.148
0,-0.00023908,0.622214,0.356168,0,5.70021e-143,0.0601458,0.0548306,0,-1471,-0,0,-1463.25,-7.97269,3.152
0,-0.00023908,0.622455,0.356394,0,3.80014e-143,0.0601029,0.0554118,0,-1470,-0,0,-1463.33,-7.03664,3.156
0,-0.00023908,0.622695,0.356621,0,2.53343e-143,0.06006,0.0558568,0,-1469,-0,0,-1463.41,-6.30477,3.16
0,-0.00023908,0.622935,0.356857,0,1.68895e-143,0.0600171,0.0569021,0,-1468,-0,0,-1463.43,-4.67253,3.164
0,-0.00023908,0.623175,0.357099,0,1.12597e-143,0.0599742,0.0580308,0,-1466,-0,0,-1463.42,-2.91508,3.168
0,-0.00023908,0.623415,0.357342,0,7.50645e-144,0.0599312,0.058956,0,-1464,-0,0,-1463.4,-1.46282,3.172
0,-0.00023908,0.623655,0.357592,0,5.0043e-144,0.0598882,0.0601774,0,-1462,-0,0,-1463.34,0.433781,3.176
0,-0.00023908,0.623894,0.357844,0,3.3362e-144,0.0598452,0.0610781,0,-1461,-0,0,-1463.28,1.84927,3.18
0,-0.00023908,0.624133,0.3581,0,2.22413e-144,0.0598022,0.0620816,0,-1459,-0,0,-1463.18,3.41909,3.184
0,-0.00023908,0.624373,0.35836,0,1.48276e-144,0.0597591,0.0630097,0,-1458,-0,0,-1463.07,4.87587,3.188
0,-0.00023908,0.624612,0.358626,0,9.88504e-145,0.059716,0.0641755,0,-1456,-0,0,-1462.92,6.68916,3.192
0,-0.00023908,0.62485,0.358896,0,6.59003e-145,0.0596729,0.0653269,0,-1454,-0,0,-1462.75,8.48103,3.196
0,-0.00023908,0.625089,0.359172,0,4.39335e-145,0.0596298,0.0665265,0,-1452,-0,0,-1462.54,10.345,3.2
0,-0.00023908,0.625327,0.359454,0,2.9289e-145,0.0595866,0.0678444,0,-1449,-0,0,-1462.3,12.3866,3.204
0,-0.00023908,0.625566,0.359745,0,1.9526e-145,0.0595434,0.0694715,0,-1447,-0,0,-1462.01,14.8922,3.208
0,-0.00023908,0.625804,0.360042,0,1.30173e-145,0.0595002,0.0711033,0,-1444,-0,0,-1461.69,17.4047,3.212
0,-0.00023908,0.626042,0.360347,0,8.67822e-146,0.059457,0.0728246,0,-1441,-0,0,-1461.32,20.0515,3.216
0,-0.00023908,0.626279,0.360657,0,5.78548e-146,0.0594137,0.0743464,0,-1438,-0,0,-1460.92,22.399,3.22
0,-0.00023908,0.626517,0.360969,0,3.85699e-146,0.0593704,0.0756201,0,-1436,-0,0,-1460.51,24.3745,3.224
0,-0.00023908,0.626754,0.361281,0,2.57133e-146,0.0593271,0.076354,0,-1434,-0,0,-1460.1,25.5403,3.228
0,-0.00023908,0.626992,0.361593,0,1.71422e-146,0.0592838,0.0769009,0,-1433,-0,0,-1459.69,26.4257,3.232
0,-0.00023908,0.627229,0.361908,0,1.14281e-146,0.0592404,0.0775246,0,-1431,-0,0,-1459.26,27.4263,3.236
0,-0.00023908,0.627465,0.36223,0,7.61874e-147,0.059197,0.0785162,0,-1429,-0,0,-1458.8,28.9788,3.24
0,-0.00023908,0.627702,0.362545,0,5.07916e-147,0.0591536,0.0786302,0,-1429,-0,0,-1458.36,29.215,3.244
0,-0.00023908,0.627939,0.362863,0,3.38611e-147,0.0591102,0.0789366,0,-1428,-0,0,-1457.91,29.7397,3.248
0,-0.00023908,0.628175,0.36318,0,2.25741e-147,0.0590667,0.0789969,0,-1427,-0,0,-1457.47,29.8953,3.252
0,-0.00023908,0.628411,0.363489,0,1.50494e-147,0.0590232,0.0784325,0,-1427,-0,0,-1457.07,29.1139,3.256
0,-0.00023908,0.628647,0.363802,0,1.00329e-147,0.0589797,0.0784017,0,-1427,-0,0,-1456.65,29.133,3.26
0,-0.00023908,0.628883,0.364114,0,6.68861e-148,0.0589361,0.0782084,0,-1427,-0,0,-1456.23,28.9084,3.264
0,-0.00023908,0.629119,0.364423,0,4.45907e-148,0.0588926,0.0779068,0,-1427,-0,0,-1455.83,28.5214,3.268
0,-0.00023908,0.629354,0.364735,0,2.97271e-148,0.058849,0.0779073,0,-1426,-0,0,-1455.41,28.5875,3.272
0,-0.00023908,0.629589,0.365044,0,1.98181e-148,0.0588054,0.0777061,0,-1426,-0,0,-1455,28.351,3.276
0,-0.00023908,0.629825,0.365355,0,1.32121e-148,0.0587617,0.0777159,0,-1426,-0,0,-1454.58,28.4312,3.28
0,-0.00023908,0.63006,0.365669,0,8.80804e-149,0.0587181,0.0779815,0,-1425,-0,0,-1454.15,28.8952,3.284
0,-0.00023908,0.630294,0.365982,0,5.87203e-149,0.0586744,0.0780723,0,-1424,-0,0,-1453.72,29.0968,3.288
0,-0.00023908,0.630529,0.366297,0,3.91469e-149,0.0586307,0.0783055,0,-1423,-0,0,-1453.28,29.5122,3.292
0,-0.00023908,0.630763,0.366608,0,2.60979e-149,0.058587,0.0781155,0,-1423,-0,0,-1452.86,29.2928,3.296
0,-0.00023908,0.630998,0.366916,0,1.73986e-149,0.0585432,0.0777585,0,-1423,-0,0,-1452.45,28.823,3.3
0,-0.00023908,0.631232,0.367222,0,1.15991e-149,0.0584994,0.0773766,0,-1423,-0,0,-1452.05,28.3157,3.304
0,-0.00023908,0.631466,0.367534,0,7.73271e-150,0.0584556,0.0775538,0,-1422,-0,0,-1451.62,28.6473,3.308
0,-0.00023908,0.631699,0.367848,0,5.15514e-150,0.0584118,0.0778447,0,-1422,-0,0,-1451.18,29.1493,3.312
0,-0.00023908,0.631933,0.368167,0,3.43676e-150,0.0583679,0.0784993,0,-1420,-0,0,-1450.71,30.197,3.316
0,-0.00023908,0.632166,0.368494,0,2.29117e-150,0.0583241,0.0795691,0,-1418,-0,0,-1450.2,31.8675,3.32
0,-0.00023908,0.6324,0.368823,0,1.52745e-150,0.0582802,0.0805126,0,-1416,-0,0,-1449.67,33.3486,3.324
0,-0.00023908,0.632633,0.369157,0,1.0183e-150,0.0582362,0.0814295,0,-1414,-0,0,-1449.12,34.7899,3.328
0,-0.00023908,0.632865,0.369492,0,6.78866e-151,0.0581923,0.0822711,0,-1412,-0,0,-1448.55,36.1182,3.332
0,-0.00023908,0.633098,0.369826,0,4.52578e-151,0.0581483,0.0826882,0,-1411,-0,0,-1447.99,36.8099,3.336
0,-0.00023908,0.633331,0.370163,0,3.01718e-151,0.0581043,0.0831679,0,-1409,-0,0,-1447.42,37.5953,3.34
0,-0.00023908,0.633563,0.370499,0,2.01146e-151,0.0580603,0.08343,0,-1408,-0,0,-1446.85,38.0545,3.344
0,-0.00023908,0.633795,0.370839,0,1.34097e-151,0.0580163,0.0839503,0,-1407,-0,0,-1446.26,38.901,3.348
0,-0.00023908,0.634027,0.371181,0,8.93981e-152,0.0579722,0.0844987,0,-1405,-0,0,-1445.65,39.7897,3.352
0,-0.00023908,0.634259,0.371526,0,5.95987e-152,0.0579281,0.0850658,0,-1404,-0,0,-1445.03,40.7065,3.356
0,-0.00023908,0.634491,0.371872,0,3.97325e-152,0.057884,0.0855302,0,-1402,-0,0,-1444.4,41.4693,3.36
0,-0.00023908,0.634722,0.372217,0,2.64883e-152,0.0578399,0.0857823,0,-1401,-0,0,-1443.78,41.9136,3.364
0,-0.00023908,0.634953,0.37256,0,1.76589e-152,0.0577957,0.0858064,0,-1401,-0,0,-1443.16,42.0159,3.368
0,-0.00023908,0.635184,0.372905,0,1.17726e-152,0.0577516,0.0859376,0,-1400,-0,0,-1442.54,42.279,3.372
0,-0.00023908,0.635415,0.373251,0,7.84839e-153,0.0577074,0.0861402,0,-1399,-0,0,-1441.9,42.6493,3.376
0,-0.00023908,0.635646,0.373595,0,5.23226e-153,0.0576632,0.0861026,0,-1398,-0,0,-1441.28,42.6591,3.38
0,-0.00023908,0.635877,0.37394,0,3.48817e-153,0.0576189,0.0861063,0,-1397,-0,0,-1440.65,42.731,3.384
0,-0.00023908,0.636107,0.374283,0,2.32545e-153,0.0575746,0.0859648,0,-1397,-0,0,-1440.03,42.5852,3.388
0,-0.00023908,0.636337,0.374623,0,1.5503e-153,0.0575304,0.0856689,0,-1397,-0,0,-1439.43,42.2078,3.392
0,-0.00023908,0.636567,0.37496,0,1.03353e-153,0.0574861,0.0852126,0,-1397,-0,0,-1438.84,41.5898,3.396
0,-0.00023908,0.636797,0.375295,0,6.89022e-154,0.0574417,0.0847068,0,-1397,-0,0,-1438.26,40.8976,3.4
0,-0.00023908,0.637027,0.375632,0,4.59348e-154,0.0573974,0.0845711,0,-1396,-0,0,-1437.67,40.7606,3.404
0,-0.00023908,0.637256,0.375968,0,3.06232e-154,0.057353,0.0843655,0,-1396,-0,0,-1437.09,40.5188,3.408
0,-0.00023908,0.637486,0.376299,0,2.04155e-154,0.0573086,0.0837966,0,-1396,-0,0,-1436.53,39.732,3.412
0,-0.00023908,0.637715,0.37663,0,1.36103e-154,0.0572642,0.0835037,0,-1396,-0,0,-1435.96,39.3593,3.416
0,-0.00023908,0.637944,0.376958,0,9.07354e-155,0.0572197,0.0830205,0,-1396,-0,0,-1435.42,38.7012,3.42
0,-0.00023908,0.638172,0.377282,0,6.04903e-155,0.0571753,0.0823241,0,-1397,-0,0,-1434.9,37.7233,3.424
0,-0.00023908,0.638401,0.377606,0,4.03268e-155,0.0571308,0.081831,0,-1397,-0,0,-1434.38,37.0504,3.428
0,-0.00023908,0.638629,0.377929,0,2.68846e-155,0.0570863,0.0814735,0,-1397,-0,0,-1433.86,36.5809,3.432
0,-0.00023908,0.638858,0.378253,0,1.7923e-155,0.0570417,0.0813504,0,-1396,-0,0,-1433.33,36.4629,3.436
0,-0.00023908,0.639086,0.378578,0,1.19487e-155,0.0569972,0.0812971,0,-1396,-0,0,-1432.79,36.4498,3.44
0,-0.00023908,0.639314,0.378904,0,7.96579e-156,0.0569526,0.0814055,0,-1395,-0,0,-1432.25,36.6793,3.444
0,-0.00023908,0.639541,0.379231,0,5.31053e-156,0.056908,0.0815065,0,-1394,-0,0,-1431.71,36.8977,3.448
0,-0.00023908,0.639769,0.379562,0,3.54035e-156,0.0568634,0.0819482,0,-1393,-0,0,-1431.14,37.6271,3.452
0,-0.00023908,0.639996,0.379898,0,2.36024e-156,0.0568188,0.0826169,0,-1391,-0,0,-1430.54,38.6972,3.456
0,-0.00023908,0.640224,0.380239,0,1.57349e-156,0.0567741,0.0834658,0,-1389,-0,0,-1429.92,40.0375,3.46
0,-0.00023908,0.640451,0.380581,0,1.04899e-156,0.0567294,0.0841757,0,-1388,-0,0,-1429.28,41.1693,3.464
0,-0.00023908,0.640677,0.380926,0,6.99329e-157,0.0566847,0.0848792,0,-1386,-0,0,-1428.63,42.2917,3.468
0,-0.00023908,0.640904,0.381274,0,4.66219e-157,0.05664,0.085521,0,-1384,-0,0,-1427.97,43.3215,3.472
0,-0.00023908,0.64113,0.381625,0,3.10813e-157,0.0565953,0.0862944,0,-1382,-0,0,-1427.28,44.5487,3.476
0,-0.00023908,0.641357,0.381979,0,2.07209e-157,0.0565505,0.0870691,0,-1380,-0,0,-1426.58,45.7779,3.48
0,-0.00023908,0.641583,0.382338,0,1.38139e-157,0.0565057,0.0879598,0,-1378,-0,0,-1425.84,47.1811,3.484
0,-0.00023908,0.641809,0.382697,0,9.20927e-158,0.0564609,0.0884961,0,-1377,-0,0,-1425.12,48.0527,3.488
0,-0.00023908,0.642035,0.383055,0,6.13951e-158,0.0564161,0.0888536,0,-1375,-0,0,-1424.39,48.6562,3.492
0,-0.00023908,0.64226,0.383408,0,4.09301e-158,0.0563713,0.0886312,0,-1375,-0,0,-1423.69,48.39,3.496
0,-0.00023908,0.642486,0.383757,0,2.72867e-158,0.0563264,0.0881951,0,-1375,-0,0,-1423.01,47.8031,3.5
0,-0.00023908,0.642711,0.384104,0,1.81912e-158,0.0562815,0.087674,0,-1375,-0,0,-1422.34,47.0888,3.504
0,-0.00023908,0.642936,0.38445,0,1.21274e-158,0.0562366,0.0873555,0,-1374,-0,0,-1421.67,46.6783,3.508
0,-0.00023908,0.643161,0.384798,0,8.08496e-159,0.0561917,0.0871718,0,-1374,-0,0,-1421,46.4703,3.512
0,-0.00023908,0.643385,0.385146,0,5.38997e-159,0.0561467,0.0871646,0,-1373,-0,0,-1420.32,46.5268,3.516
0,-0.00023908,0.64361,0.385493,0,3.59331e-159,0.0561018,0.086987,0,-1373,-0,0,-1419.64,46.3279,3.52
0,-0.00023908,0.643834,0.385837,0,2.39554e-159,0.0560568,0.0866671,0,-1373,-0,0,-1418.99,45.9155,3.524
0,-0.00023908,0.644058,0.386178,0,1.59703e-159,0.0560118,0.0862235,0,-1373,-0,0,-1418.34,45.3176,3.528
0,-0.00023908,0.644282,0.386521,0,1.06469e-159,0.0559667,0.0860141,0,-1372,-0,0,-1417.69,45.0711,3.532
0,-0.00023908,0.644506,0.386864,0,7.0979e-160,0.0559217,0.0859322,0,-1372,-0,0,-1417.03,45.0157,3.536
0,-0.00023908,0.64473,0.387206,0,4.73194e-160,0.0558766,0.0857911,0,-1371,-0,0,-1416.38,44.8717,3.54
0,-0.00023908,0.644953,0.387547,0,3.15462e-160,0.0558315,0.0856395,0,-1371,-0,0,-1415.73,44.712,3.544
0,-0.00023908,0.645176,0.387888,0,2.10308e-160,0.0557864,0.0855097,0,-1370,-0,0,-1415.09,44.5848,3.548
0,-0.00023908,0.645399,0.388224,0,1.40206e-160,0.0557413,0.08502,0,-1370,-0,0,-1414.46,43.9181,3.552
0,-0.00023908,0.645622,0.388554,0,9.34703e-161,0.0556962,0.0841465,0,-1371,-0,0,-1413.88,42.6756,3.556
0,-0.00023908,0.645845,0.388879,0,6.23136e-161,0.055651,0.0831612,0,-1372,-0,0,-1413.31,41.2653,3.56
0,-0.00023908,0.646067,0.389201,0,4.15424e-161,0.0556058,0.0822739,0,-1372,-0,0,-1412.77,40.0022,3.564
0,-0.00023908,0.64629,0.389521,0,2.76949e-161,0.0555606,0.0815673,0,-1373,-0,0,-1412.23,39.01,3.568
0,-0.00023908,0.646512,0.38984,0,1.84633e-161,0.0555154,0.080981,0,-1373,-0,0,-1411.69,38.1984,3.572
0,-0.00023908,0.646734,0.39016,0,1.23089e-161,0.0554701,0.0806189,0,-1373,-0,0,-1411.16,37.7232,3.576
0,-0.00023908,0.646956,0.390476,0,8.2059e-162,0.0554249,0.0800609,0,-1373,-0,0,-1410.64,36.954,3.58
0,-0.00023908,0.647177,0.39079,0,5.4706e-162,0.0553796,0.0795736,0,-1373,-0,0,-1410.13,36.2911,3.584
0,-0.00023908,0.647399,0.391097,0,3.64707e-162,0.0553343,0.0786442,0,-1374,-0,0,-1409.66,34.9649,3.588
0,-0.00023908,0.64762,0.391398,0,2.43138e-162,0.055289,0.0775064,0,-1375,-0,0,-1409.22,33.3261,3.592
0,-0.00023908,0.647841,0.391691,0,1.62092e-162,0.0552436,0.0760568,0,-1377,-0,0,-1408.83,31.2198,3.596
0,-0.00023908,0.648062,0.391978,0,1.08061e-162,0.0551983,0.0746298,0,-1379,-0,0,-1408.46,29.1473,3.6
0,-0.00023908,0.648283,0.392261,0,7.20408e-163,0.0551529,0.0733618,0,-1380,-0,0,-1408.12,27.3133,3.604
0,-0.00023908,0.648503,0.39254,0,4.80272e-163,0.0551075,0.0721421,0,-1382,-0,0,-1407.8,25.5519,3.608
0,-0.00023908,0.648723,0.392816,0,3.20182e-163,0.0550621,0.0710987,0,-1383,-0,0,-1407.49,24.0549,3.612
0,-0.00023908,0.648944,0.39309,0,2.13454e-163,0.0550167,0.0702303,0,-1384,-0,0,-1407.19,22.8205,3.616
0,-0.00023908,0.649164,0.393363,0,1.42303e-163,0.0549712,0.0695363,0,-1385,-0,0,-1406.9,21.8476,3.62
0,-0.00023908,0.649383,0.393638,0,9.48686e-164,0.0549257,0.0693327,0,-1384,-0,0,-1406.6,21.6104,3.624
0,-0.00023908,0.649603,0.393909,0,6.32457e-164,0.0548802,0.0687939,0,-1385,-0,0,-1406.32,20.8704,3.628
0,-0.00023908,0.649822,0.394178,0,4.21638e-164,0.0548347,0.0682907,0,-1385,-0,0,-1406.04,20.184,3.632
0,-0.00023908,0.650042,0.394444,0,2.81092e-164,0.0547892,0.0676674,0,-1386,-0,0,-1405.79,19.3172,3.636
0,-0.00023908,0.650261,0.394706,0,1.87395e-164,0.0547437,0.0669063,0,-1387,-0,0,-1405.55,18.244,3.64
0,-0.00023908,0.65048,0.394966,0,1.2493e-164,0.0546981,0.0662838,0,-1387,-0,0,-1405.33,17.3785,3.644
0,-0.00023908,0.650698,0.39522,0,8.32866e-165,0.0546525,0.0653505,0,-1389,-0,0,-1405.13,16.047,3.648
0,-0.00023908,0.650917,0.39547,0,5.55244e-165,0.0546069,0.0644404,0,-1390,-0,0,-1404.96,14.7502,3.652
0,-0.00023908,0.651135,0.39572,0,3.70162e-165,0.0545613,0.0637473,0,-1391,-0,0,-1404.79,13.779,3.656
0,-0.00023908,0.651353,0.39597,0,2.46775e-165,0.0545157,0.0634004,0,-1391,-0,0,-1404.61,13.3271,3.66
0,-0.00023908,0.651571,0.396218,0,1.64517e-165,0.05447,0.06291,0,-1391,-0,0,-1404.44,12.66,3.664
0,-0.00023908,0.651789,0.396466,0,1.09678e-165,0.0544244,0.0625543,0,-1392,-0,0,-1404.28,12.195,3.668
0,-0.00023908,0.652007,0.396709,0,7.31185e-166,0.0543787,0.0619717,0,-1392,-0,0,-1404.14,11.3895,3.672
0,-0.00023908,0.652224,0.396945,0,4.87457e-166,0.054333,0.0610363,0,-1393,-0,0,-1404.03,10.0549,3.676
0,-0.00023908,0.652441,0.397181,0,3.24971e-166,0.0542873,0.060355,0,-1394,-0,0,-1403.93,9.10168,3.68
0,-0.00023908,0.652658,0.397416,0,2.16647e-166,0.0542415,0.0597569,0,-1395,-0,0,-1403.84,8.27314,3.684
0,-0.00023908,0.652875,0.39765,0,1.44432e-166,0.0541958,0.0593582,0,-1395,-0,0,-1403.74,7.74368,3.688
0,-0.00023908,0.653092,0.397888,0,9.62878e-167,0.05415,0.0594091,0,-1395,-0,0,-1403.62,7.88866,3.692
0,-0.00023908,0.653308,0.398129,0,6.41918e-167,0.0541042,0.0597309,0,-1395,-0,0,-1403.48,8.44008,3.696
0,-0.00023908,0.653525,0.39837,0,4.27946e-167,0.0540584,0.0598591,0,-1394,-0,0,-1403.35,8.70107,3.7
0,-0.00023908,0.653741,0.398618,0,2.85297e-167,0.0540126,0.0606067,0,-1393,-0,0,-1403.17,9.89127,3.704
0,-0.00023908,0.653957,0.398866,0,1.90198e-167,0.0539667,0.0610764,0,-1392,-0,0,-1403,10.6645,3.708
0,-0.00023908,0.654173,0.399115,0,1.26799e-167,0.0539209,0.061447,0,-1391,-0,0,-1402.82,11.2893,3.712
0,-0.00023908,0.654388,0.399363,0,8.45325e-168,0.053875,0.0616366,0,-1390,-0,0,-1402.64,11.6424,3.716
0,-0.00023908,0.654604,0.399608,0,5.6355e-168,0.0538291,0.061475,0,-1391,-0,0,-1402.48,11.4689,3.72
0,-0.00023908,0.654819,0.399853,0,3.757e-168,0.0537832,0.0613961,0,-1390,-0,0,-1402.31,11.4194,3.724
0,-0.00023908,0.655034,0.400098,0,2.50467e-168,0.0537372,0.0613723,0,-1390,-0,0,-1402.15,11.4526,3.728
0,-0.00023908,0.655249,0.400346,0,1.66978e-168,0.0536913,0.0616155,0,-1390,-0,0,-1401.96,11.8864,3.732
0,-0.00023908,0.655463,0.400601,0,1.11318e-168,0.0536453,0.0622959,0,-1388,-0,0,-1401.74,12.9759,3.736
0,-0.00023908,0.655678,0.400855,0,7.42123e-169,0.0535994,0.0626632,0,-1387,-0,0,-1401.53,13.5957,3.74
0,-0.00023908,0.655892,0.401111,0,4.94749e-169,0.0535534,0.0631383,0,-1386,-0,0,-1401.3,14.3774,3.744
0,-0.00023908,0.656106,0.401371,0,3.29832e-169,0.0535074,0.063743,0,-1385,-0,0,-1401.05,15.3534,3.748
0,-0.00023908,0.65632,0.401629,0,2.19888e-169,0.0534613,0.0640021,0,-1384,-0,0,-1400.8,15.8112,3.752
0,-0.00023908,0.656534,0.401887,0,1.46592e-169,0.0534153,0.0642037,0,-1384,-0,0,-1400.56,16.1826,3.756
0,-0.00023908,0.656748,0.402144,0,9.77281e-170,0.0533692,0.0641653,0,-1384,-0,0,-1400.32,16.1942,3.76
0,-0.00023908,0.656961,0.402398,0,6.51521e-170,0.0533232,0.063967,0,-1384,-0,0,-1400.1,15.9658,3.764
0,-0.00023908,0.657174,0.402646,0,4.34347e-170,0.0532771,0.0633453,0,-1384,-0,0,-1399.9,15.1024,3.768
0,-0.00023908,0.657387,0.402893,0,2.89565e-170,0.053231,0.062787,0,-1385,-0,0,-1399.72,14.334,3.772
0,-0.00023908,0.6576,0.403135,0,1.93043e-170,0.0531848,0.0620404,0,-1386,-0,0,-1399.56,13.2834,3.776
0,-0.00023908,0.657813,0.403375,0,1.28695e-170,0.0531387,0.0613412,0,-1387,-0,0,-1399.41,12.3037,3.78
0,-0.00023908,0.658025,0.403609,0,8.5797e-171,0.0530925,0.0603568,0,-1388,-0,0,-1399.29,10.8964,3.784
0,-0.00023908,0.658237,0.403841,0,5.7198e-171,0.0530464,0.0596141,0,-1389,-0,0,-1399.18,9.85167,3.788
0,-0.00023908,0.65845,0.404071,0,3.8132e-171,0.0530002,0.0588887,0,-1390,-0,0,-1399.08,8.83283,3.792
0,-0.00023908,0.658661,0.404302,0,2.54213e-171,0.052954,0.0585203,0,-1390,-0,0,-1398.98,8.34946,3.796
0,-0.00023908,0.658873,0.404534,0,1.69476e-171,0.0529078,0.0583898,0,-1390,-0,0,-1398.86,8.22309,3.8
0,-0.00023908,0.659085,0.404766,0,1.12984e-171,0.0528615,0.0582453,0,-1390,-0,0,-1398.75,8.0756,3.804
0,-0.00023908,0.659296,0.405,0,7.53225e-172,0.0528153,0.058264,0,-1390,-0,0,-1398.63,8.17315,3.808
0,-0.00023908,0.659507,0.405231,0,5.0215e-172,0.052769,0.0581038,0,-1390,-0,0,-1398.52,8.00222,3.812
0,-0.00023908,0.659718,0.405459,0,3.34767e-172,0.0527227,0.0577379,0,-1390,-0,0,-1398.43,7.52275,3.816
0,-0.00023908,0.659929,0.40569,0,2.23178e-172,0.0526764,0.0577531,0,-1390,-0,0,-1398.32,7.61494,3.82
0,-0.00023908,0.66014,0.405917,0,1.48785e-172,0.0526301,0.0574465,0,-1390,-0,0,-1398.22,7.22452,3.824
0,-0.00023908,0.66035,0.406146,0,9.91901e-173,0.0525838,0.0573284,0,-1391,-0,0,-1398.13,7.11697,3.828
0,-0.00023908,0.66056,0.406373,0,6.61267e-173,0.0525375,0.0571346,0,-1391,-0,0,-1398.03,6.89572,3.832
0,-0.00023908,0.66077,0.406601,0,4.40845e-173,0.0524911,0.0571205,0,-1390,-0,0,-1397.93,6.94415,3.836
0,-0.00023908,0.66098,0.406828,0,2.93897e-173,0.0524447,0.0570248,0,-1390,-0,0,-1397.84,6.87008,3.84
0,-0.00023908,0.66119,0.407059,0,1.95931e-173,0.0523983,0.0572489,0,-1390,-0,0,-1397.72,7.27577,3.844
0,-0.00023908,0.661399,0.40729,0,1.30621e-173,0.0523519,0.0574558,0,-1389,-0,0,-1397.6,7.65582,3.848
0,-0.00023908,0.661609,0.407522,0,8.70805e-174,0.0523055,0.0576226,0,-1389,-0,0,-1397.48,7.9756,3.852
0,-0.00023908,0.661818,0.407754,0,5.80536e-174,0.0522591,0.057705,0,-1389,-0,0,-1397.35,8.16882,3.856
0,-0.00023908,0.662027,0.407982,0,3.87024e-174,0.0522127,0.057472,0,-1389,-0,0,-1397.25,7.88902,3.86
0,-0.00023908,0.662236,0.408204,0,2.58016e-174,0.0521662,0.056856,0,-1390,-0,0,-1397.17,7.03474,3.864
0,-0.00023908,0.662444,0.408427,0,1.72011e-174,0.0521197,0.0564454,0,-1390,-0,0,-1397.1,6.48847,3.868
0,-0.00023908,0.662653,0.408643,0,1.14674e-174,0.0520732,0.0556534,0,-1391,-0,0,-1397.05,5.37019,3.872
0,-0.00023908,0.662861,0.408856,0,7.64492e-175,0.0520267,0.0548087,0,-1392,-0,0,-1397.03,4.17289,3.876
0,-0.00023908,0.663069,0.40907,0,5.09662e-175,0.0519802,0.0544471,0,-1393,-0,0,-1396.99,3.70027,3.88
0,-0.00023908,0.663277,0.409283,0,3.39774e-175,0.0519337,0.0539757,0,-1393,-0,0,-1396.97,3.06298,3.884
0,-0.00023908,0.663484,0.409499,0,2.26516e-175,0.0518871,0.0540357,0,-1393,-0,0,-1396.92,3.22282,3.888
0,-0.00023908,0.663692,0.409715,0,1.51011e-175,0.0518406,0.0540469,0,-1393,-0,0,-1396.87,3.30949,3.892
0,-0.00023908,0.663899,0.409935,0,1.00674e-175,0.051794,0.0542847,0,-1393,-0,0,-1396.8,3.73607,3.896
0,-0.00023908,0.664106,0.410153,0,6.71159e-176,0.0517474,0.0544145,0,-1392,-0,0,-1396.74,4.00057,3.9
0,-0.00023908,0.664313,0.410369,0,4.4744e-176,0.0517008,0.0542706,0,-1392,-0,0,-1396.69,3.85473,3.904
0,-0.00023908,0.66452,0.410585,0,2.98293e-176,0.0516542,0.0542035,0,-1392,-0,0,-1396.64,3.82401,3.908
0,-0.00023908,0.664726,0.410797,0,1.98862e-176,0.0516076,0.053727,0,-1393,-0,0,-1396.61,3.17906,3.912
0,-0.00023908,0.664933,0.411005,0,1.32575e-176,0.0515609,0.0531501,0,-1394,-0,0,-1396.6,2.38375,3.916
0,-0.00023908,0.665139,0.411212,0,8.83831e-177,0.0515143,0.0527655,0,-1394,-0,0,-1396.59,1.87689,3.92
0,-0.00023908,0.665345,0.411419,0,5.89221e-177,0.0514676,0.0523652,0,-1395,-0,0,-1396.59,1.3464,3.924
0,-0.00023908,0.66555,0.411626,0,3.92814e-177,0.0514209,0.0521559,0,-1395,-0,0,-1396.59,1.10246,3.928
0,-0.00023908,0.665756,0.411837,0,2.61876e-177,0.0513742,0.0524194,0,-1394,-0,0,-1396.55,1.56781,3.932
0,-0.00023908,0.665961,0.412053,0,1.74584e-177,0.0513275,0.052883,0,-1394,-0,0,-1396.5,2.33327,3.936
0,-0.00023908,0.666167,0.412272,0,1.16389e-177,0.0512808,0.0535376,0,-1393,-0,0,-1396.42,3.38519,3.94
