peachynonah/Fire_monitor_KIRO_CDSL/csv_datas/trial10/cdsl_data_t10_8.csv
joint1_pos_desired, joint1_pos, joint2_pos_desired, joint2_pos, joint1_vel_desired, joint1_vel_filtered, joint2_vel_desired, joint2_vel_filtered, target_torque_joint1, target_torque_joint2, propo_term_torque_joint1, deriv_term_torque_joint1, propo_term_torque_joint2, deriv_term_torque_joint2, current_time
-1.18,-0.000240116,-3.14624e-11,0.000810522,0,0,-2.35947e-08,0,0,1,0,-0,1.21578,1.17973e-05,0.004
-1.18,-0.000239771,-2.51631e-10,0.000812941,0,2.87909e-05,-9.43444e-08,0.000201536,0,1,0,0,1.21941,0.100815,0.008
-1.18,-0.000239771,-8.49022e-10,0.00081225,0,1.91939e-05,-2.12198e-07,7.67758e-05,0,1,0,0,1.21838,0.038494,0.012
-1.18,-0.000239771,-2.01195e-09,0.000811213,0,1.2796e-05,-3.77103e-07,-3.51889e-05,0,1,0,0,1.21682,-0.0174059,0.016
-1.18,-0.000239771,-3.92851e-09,0.000810522,0,8.53064e-06,-5.89009e-07,-8.10411e-05,0,1,0,0,1.21579,-0.0402261,0.02
-1.18,-0.000240116,-6.78662e-09,0.000810522,0,-2.31038e-05,-8.47864e-07,-5.40274e-05,0,1,0,-0,1.21579,-0.0265898,0.024
-1.18,-0.000239771,-1.0774e-08,0.000810177,0,1.33884e-05,-1.15362e-06,-6.48092e-05,0,1,0,0,1.21528,-0.0318278,0.028
-1.18,-0.000239771,-1.6078e-08,0.000809486,0,8.92558e-06,-1.50622e-06,-0.000100788,0,1,0,0,1.21425,-0.0496409,0.032
-1.18,-0.000239771,-2.28861e-08,0.00080914,0,5.95039e-06,-1.90561e-06,-9.59829e-05,0,1,0,0,1.21374,-0.0470387,0.036
-1.18,-0.000239771,-3.13852e-08,0.000808795,0,3.96693e-06,-2.35175e-06,-9.27795e-05,0,1,0,0,1.21324,-0.0452139,0.04
-1.18,-0.000239771,-4.17623e-08,0.00080914,0,2.64462e-06,-2.84458e-06,-3.30621e-05,0,1,0,0,1.21377,-0.0151088,0.044
-1.18,-0.000239771,-5.42041e-08,0.00080914,0,1.76308e-06,-3.38405e-06,-2.20414e-05,0,1,0,0,1.21379,-0.00932867,0.048
-1.18,-0.000239771,-6.88969e-08,0.00080914,0,1.17539e-06,-3.97011e-06,-1.46943e-05,0,1,0,0,1.21381,-0.00536208,0.052
-1.18,-0.000239771,-8.6027e-08,0.00080914,0,7.8359e-07,-4.60272e-06,-9.79618e-06,0,1,0,0,1.21384,-0.00259673,0.056
-1.18,-0.000239771,-1.05781e-07,0.00080914,0,5.22393e-07,-5.2818e-06,-6.53078e-06,0,1,0,0,1.21387,-0.000624491,0.06
-1.18,-0.000239771,-1.28343e-07,0.00080914,0,3.48262e-07,-6.00733e-06,-4.35386e-06,0,1,0,0,1.2139,0.000826735,0.064
-1.18,-0.000239771,-1.53901e-07,0.00080914,0,2.32175e-07,-6.77924e-06,-2.90257e-06,0,1,0,0,1.21394,0.00193833,0.068
-1.18,-0.000239771,-1.82639e-07,0.00080914,0,1.54783e-07,-7.59748e-06,-1.93505e-06,0,1,0,0,1.21398,0.00283122,0.072
-1.18,-0.000239771,-2.14743e-07,0.00080914,0,1.03189e-07,-8.462e-06,-1.29003e-06,0,1,0,0,1.21403,0.00358599,0.076
-1.18,-0.000239771,-2.50397e-07,0.00080914,0,6.87926e-08,-9.37276e-06,-8.60021e-07,0,1,0,0,1.21409,0.00425637,0.08
-1.18,-0.000239771,-2.89786e-07,0.00080914,0,4.58617e-08,-1.03297e-05,-5.73347e-07,0,1,0,0,1.21414,0.00487818,0.084
-1.18,-0.000239771,-3.33096e-07,0.00080914,0,3.05745e-08,-1.13328e-05,-3.82232e-07,0,1,0,0,1.21421,0.00547527,0.088
-1.18,-0.000239771,-3.8051e-07,0.00080914,0,2.0383e-08,-1.23819e-05,-2.54821e-07,0,1,0,0,1.21428,0.00606354,0.092
-1.18,-0.000239771,-4.32212e-07,0.00080914,0,1.35887e-08,-1.34771e-05,-1.69881e-07,0,1,0,0,1.21436,0.0066536,0.096
-1.18,-0.000239771,-4.88388e-07,0.00080914,0,9.0591e-09,-1.46182e-05,-1.13254e-07,0,1,0,0,1.21444,0.00725249,0.1
-1.18,-0.000239771,-5.4922e-07,0.00080914,0,6.0394e-09,-1.58053e-05,-7.55025e-08,0,1,0,0,1.21453,0.0078649,0.104
-1.18,-0.000239771,-6.14891e-07,0.00080914,0,4.02627e-09,-1.70382e-05,-5.0335e-08,0,1,0,0,1.21463,0.00849396,0.108
-1.18,-0.000239771,-6.85587e-07,0.00080914,0,2.68418e-09,-1.8317e-05,-3.35567e-08,0,1,0,0,1.21474,0.00914173,0.112
-1.18,-0.000239771,-7.61488e-07,0.00080914,0,1.78945e-09,-1.96416e-05,-2.23711e-08,0,1,0,0,1.21485,0.00980959,0.116
-1.18,-0.000239771,-8.4278e-07,0.00080914,0,1.19297e-09,-2.10118e-05,-1.49141e-08,0,1,0,0,1.21497,0.0104985,0.12
-1.18,-0.000239771,-9.29644e-07,0.00080914,0,7.95312e-10,-2.24277e-05,-9.94272e-09,0,1,0,0,1.2151,0.0112089,0.124
-1.18,-0.000240116,-1.02226e-06,0.00080914,0,-2.87904e-05,-2.38893e-05,-6.62848e-09,0,1,0,-0,1.21524,0.0119413,0.128
-1.18,-0.000239771,-1.12082e-06,0.00080914,0,9.59733e-06,-2.53964e-05,-4.41899e-09,0,1,0,0,1.21539,0.012696,0.132
-1.18,-0.000239771,-1.22549e-06,0.00080914,0,6.39822e-06,-2.69491e-05,-2.94599e-09,0,1,0,0,1.21555,0.0134731,0.136
-1.18,-0.000239771,-1.33647e-06,0.00080914,0,4.26548e-06,-2.85472e-05,-1.96399e-09,0,1,0,0,1.21571,0.0142726,0.14
-1.18,-0.000240116,-1.45393e-06,0.00080914,0,-2.59473e-05,-3.01907e-05,-1.30933e-09,0,1,0,-0,1.21589,0.0150947,0.144
-1.18,-0.000240116,-1.57806e-06,0.00080914,0,-1.72982e-05,-3.18796e-05,-8.72886e-10,0,1,0,-0,1.21608,0.0159393,0.148
-1.18,-0.000239771,-1.70903e-06,0.00080914,0,1.72588e-05,-3.36138e-05,-5.81924e-10,0,1,0,0,1.21627,0.0168066,0.152
-1.18,-0.000239771,-1.84703e-06,0.00080914,0,1.15059e-05,-3.53932e-05,-3.87949e-10,0,1,0,0,1.21648,0.0176964,0.156
-1.18,-0.000240116,-1.99224e-06,0.000808795,0,-2.11203e-05,-3.72179e-05,-2.87912e-05,0,1,0,-0,1.21618,0.00421335,0.16
-1.18,-0.000239771,-2.14483e-06,0.00080914,0,1.47107e-05,-3.90877e-05,9.5968e-06,0,1,0,0,1.21693,0.0243423,0.164
-1.18,-0.000239771,-2.305e-06,0.00080914,0,9.80713e-06,-4.10027e-05,6.39787e-06,0,1,0,0,1.21717,0.0237003,0.168
-1.18,-0.000239771,-2.47291e-06,0.00080914,0,6.53809e-06,-4.29627e-05,4.26525e-06,0,1,0,0,1.21742,0.023614,0.172
-1.18,-0.000239771,-2.64876e-06,0.00080914,0,4.35872e-06,-4.49677e-05,2.8435e-06,0,1,0,0,1.21768,0.0239056,0.176
-1.18,-0.000239771,-2.83271e-06,0.00080914,0,2.90582e-06,-4.70177e-05,1.89566e-06,0,1,0,0,1.21796,0.0244567,0.18
-1.18,-0.000239771,-3.02496e-06,0.00080914,0,1.93721e-06,-4.91125e-05,1.26378e-06,0,1,0,0,1.21825,0.0251882,0.184
-1.18,-0.000239771,-3.22567e-06,0.000808795,0,1.29147e-06,-5.12523e-05,-2.79484e-05,0,1,0,0,1.21803,0.0116519,0.188
-1.18,-0.000240116,-3.43504e-06,0.00080914,0,-2.79299e-05,-5.34368e-05,1.01587e-05,0,1,0,-0,1.21886,0.0317977,0.192
-1.18,-0.000239771,-3.65323e-06,0.00080914,0,1.0171e-05,-5.56661e-05,6.77244e-06,0,1,0,0,1.21919,0.0312193,0.196
-1.18,-0.000240116,-3.88043e-06,0.00080914,0,-2.20103e-05,-5.79401e-05,4.51496e-06,0,1,0,-0,1.21953,0.0312275,0.2
-1.18,-0.000239771,-4.11681e-06,0.00080914,0,1.41174e-05,-6.02588e-05,3.00997e-06,0,1,0,0,1.21989,0.0316344,0.204
-1.18,-0.000239771,-4.36256e-06,0.000808449,0,9.4116e-06,-6.26221e-05,-5.55752e-05,0,1,0,0,1.21922,0.00352343,0.208
-1.18,-0.000240116,-4.61785e-06,0.00080914,0,-2.25165e-05,-6.50299e-05,2.05317e-05,0,1,0,-0,1.22064,0.0427808,0.212
-1.18,-0.000239771,-4.88285e-06,0.00080914,0,1.37799e-05,-6.74822e-05,1.36878e-05,0,1,0,0,1.22103,0.040585,0.216
-1.18,-0.000239771,-5.15776e-06,0.000808449,0,9.18661e-06,-6.9979e-05,-4.84566e-05,0,1,0,0,1.22041,0.0107612,0.22
-1.18,-0.000239771,-5.44275e-06,0.000808795,0,6.1244e-06,-7.25202e-05,-3.5135e-06,0,1,0,0,1.22136,0.0345033,0.224
-1.18,-0.000239771,-5.73798e-06,0.00080914,0,4.08294e-06,-7.51057e-05,2.64486e-05,0,1,0,0,1.22232,0.0507771,0.228
-1.18,-0.000240116,-6.04365e-06,0.00080914,0,-2.6069e-05,-7.77355e-05,1.76324e-05,0,1,0,-0,1.22278,0.047684,0.232
-1.18,-0.000239771,-6.35993e-06,0.000808449,0,1.14116e-05,-8.04096e-05,-4.58269e-05,0,1,0,0,1.22221,0.0172913,0.236
-1.18,-0.000239771,-6.68699e-06,0.000808449,0,7.60774e-06,-8.31279e-05,-3.05513e-05,0,1,0,0,1.2227,0.0262883,0.24
-1.18,-0.000239771,-7.02501e-06,0.00080914,0,5.07183e-06,-8.58903e-05,3.72143e-05,0,1,0,0,1.22425,0.0615523,0.244
-1.18,-0.000239771,-7.37417e-06,0.00080914,0,3.38122e-06,-8.86969e-05,2.48096e-05,0,1,0,0,1.22477,0.0567532,0.248
-1.18,-0.000239771,-7.73464e-06,0.000808795,0,2.25415e-06,-9.15474e-05,-1.22512e-05,0,1,0,0,1.22479,0.0396481,0.252
-1.18,-0.000239771,-8.10661e-06,0.000808795,0,1.50276e-06,-9.4442e-05,-8.16748e-06,0,1,0,0,1.22535,0.0431373,0.256
-1.18,-0.000239771,-8.49024e-06,0.000809486,0,1.00184e-06,-9.73806e-05,5.21369e-05,0,1,0,0,1.22696,0.0747587,0.26
-1.18,-0.000239771,-8.88571e-06,0.00080914,0,6.67895e-07,-0.000100363,5.96698e-06,0,1,0,0,1.22704,0.053165,0.264
-1.18,-0.000239771,-9.2932e-06,0.000808449,0,4.45263e-07,-0.000103389,-5.36039e-05,0,1,0,0,1.22661,0.0248927,0.268
-1.18,-0.000239771,-9.71288e-06,0.000809486,0,2.96842e-07,-0.000106459,5.06369e-05,0,1,0,0,1.2288,0.0785481,0.272
-1.18,-0.000239771,-1.01449e-05,0.00080914,0,1.97895e-07,-0.000109573,4.96699e-06,0,1,0,0,1.22893,0.0572701,0.276
-1.18,-0.000239771,-1.05895e-05,0.00080914,0,1.3193e-07,-0.000112731,3.31132e-06,0,1,0,0,1.22959,0.058021,0.28
-1.18,-0.000239771,-1.10468e-05,0.000808449,0,8.79533e-08,-0.000115932,-5.53743e-05,0,1,0,0,1.22924,0.0302788,0.284
-1.18,-0.000239771,-1.1517e-05,0.00080914,0,5.86355e-08,-0.000119177,2.06656e-05,0,1,0,0,1.23099,0.0699211,0.288
-1.18,-0.000239771,-1.20003e-05,0.000808449,0,3.90903e-08,-0.000122465,-4.38047e-05,0,1,0,0,1.23067,0.0393301,0.292
-1.18,-0.000239771,-1.24968e-05,0.00080914,0,2.60602e-08,-0.000125797,2.83787e-05,0,1,0,0,1.23246,0.0770877,0.296
-1.18,-0.000239771,-1.30067e-05,0.00080914,0,1.73735e-08,-0.000129172,1.89191e-05,0,1,0,0,1.23322,0.0740456,0.3
-1.18,-0.000239771,-1.35302e-05,0.00080914,0,1.15823e-08,-0.000132591,1.26127e-05,0,1,0,0,1.23401,0.0726017,0.304
-1.18,-0.000239771,-1.40675e-05,0.00080914,0,7.72155e-09,-0.000136053,8.4085e-06,0,1,0,0,1.23481,0.0722306,0.308
-1.18,-0.000239771,-1.46187e-05,0.00080914,0,5.1477e-09,-0.000139558,5.60567e-06,0,1,0,0,1.23564,0.0725818,0.312
-1.18,-0.000239771,-1.5184e-05,0.00080914,0,3.4318e-09,-0.000143107,3.73711e-06,0,1,0,0,1.23649,0.0734218,0.316
-1.18,-0.000239771,-1.57636e-05,0.00080914,0,2.28787e-09,-0.000146698,2.49141e-06,0,1,0,0,1.23736,0.0745948,0.32
-1.18,-0.000239771,-1.63577e-05,0.00080914,0,1.52524e-09,-0.000150333,1.66094e-06,0,1,0,0,1.23825,0.075997,0.324
-1.18,-0.000239771,-1.69664e-05,0.00080914,0,1.01683e-09,-0.000154011,1.10729e-06,0,1,0,0,1.23916,0.0775592,0.328
-1.18,-0.000239771,-1.75898e-05,0.00080914,0,6.77886e-10,-0.000157732,7.38195e-07,0,1,0,0,1.24009,0.0792352,0.332
-1.18,-0.000239771,-1.82283e-05,0.00080914,0,4.51924e-10,-0.000161496,4.9213e-07,0,1,0,0,1.24105,0.0809942,0.336
-1.18,-0.000239771,-1.88819e-05,0.00080914,0,3.01283e-10,-0.000165303,3.28087e-07,0,1,0,0,1.24203,0.0828156,0.34
-1.18,-0.000239771,-1.95508e-05,0.00080914,0,2.00855e-10,-0.000169153,2.18724e-07,0,1,0,0,1.24304,0.0846859,0.344
-1.18,-0.000239771,-2.02351e-05,0.00080914,0,1.33903e-10,-0.000173046,1.45816e-07,0,1,0,0,1.24406,0.0865958,0.348
-1.18,-0.000239771,-2.09352e-05,0.00080914,0,8.9269e-11,-0.000176981,9.72108e-08,0,1,0,0,1.24511,0.0885393,0.352
-1.18,-0.000239771,-2.1651e-05,0.00080914,0,5.95126e-11,-0.00018096,6.48072e-08,0,1,0,0,1.24619,0.0905122,0.356
-1.18,-0.000239771,-2.23829e-05,0.00080914,0,3.96751e-11,-0.000184981,4.32048e-08,0,1,0,0,1.24728,0.0925119,0.36
-1.18,-0.000239771,-2.31309e-05,0.00080914,0,2.64501e-11,-0.000189044,2.88032e-08,0,1,0,0,1.24841,0.0945365,0.364
-1.18,-0.000239771,-2.38953e-05,0.00080914,0,1.76334e-11,-0.00019315,1.92021e-08,0,1,0,0,1.24955,0.0965848,0.368
-1.18,-0.000239771,-2.46762e-05,0.000809486,0,1.17556e-11,-0.000197299,2.88037e-05,0,1,0,0,1.25124,0.113051,0.372
-1.18,-0.000239771,-2.54738e-05,0.00080914,0,7.83706e-12,-0.00020149,-9.58844e-06,0,1,0,0,1.25192,0.0959509,0.376
-1.18,-0.000239771,-2.62882e-05,0.00080914,0,5.2247e-12,-0.000205724,-6.39229e-06,0,1,0,0,1.25314,0.0996659,0.38
-1.18,-0.000239771,-2.71196e-05,0.00080914,0,3.48314e-12,-0.00021,-4.26153e-06,0,1,0,0,1.25439,0.102869,0.384
-1.18,-0.000239771,-2.79682e-05,0.00080914,0,2.32209e-12,-0.000214319,-2.84102e-06,0,1,0,0,1.25566,0.105739,0.388
-1.18,-0.000239771,-2.88342e-05,0.00080914,0,1.54806e-12,-0.000218679,-1.89401e-06,0,1,0,0,1.25696,0.108393,0.392
-1.18,-0.000239771,-2.97177e-05,0.00080914,0,1.03204e-12,-0.000223082,-1.26268e-06,0,1,0,0,1.25829,0.11091,0.396
-1.18,-0.000239771,-3.06189e-05,0.00080914,0,6.88027e-13,-0.000227528,-8.41784e-07,0,1,0,0,1.25964,0.113343,0.4
-1.18,-0.000239771,-3.1538e-05,0.00080914,0,4.58685e-13,-0.000232015,-5.61189e-07,0,1,0,0,1.26102,0.115727,0.404
-1.18,-0.000239771,-3.24751e-05,0.00080914,0,3.0579e-13,-0.000236544,-3.74126e-07,0,1,0,0,1.26242,0.118085,0.408
-1.18,-0.000239771,-3.34304e-05,0.00080914,0,2.0386e-13,-0.000241116,-2.49417e-07,0,1,0,0,1.26386,0.120433,0.412
-1.18,-0.000239771,-3.44041e-05,0.00080914,0,1.35907e-13,-0.000245729,-1.66278e-07,0,1,0,0,1.26532,0.122782,0.416
-1.18,-0.000239771,-3.53963e-05,0.00080914,0,9.06044e-14,-0.000250385,-1.10852e-07,0,1,0,0,1.2668,0.125137,0.42
-1.18,-0.000239771,-3.64072e-05,0.00080914,0,6.04029e-14,-0.000255082,-7.39014e-08,0,1,0,0,1.26832,0.127504,0.424
-1.18,-0.000239771,-3.7437e-05,0.00080914,0,4.02686e-14,-0.000259821,-4.92676e-08,0,1,0,0,1.26987,0.129886,0.428
-1.18,-0.000239771,-3.84859e-05,0.00080914,0,2.68457e-14,-0.000264602,-3.28451e-08,0,1,0,0,1.27144,0.132285,0.432
-1.18,-0.000239771,-3.95539e-05,0.00080914,0,1.78972e-14,-0.000269425,-2.18967e-08,0,1,0,0,1.27304,0.134702,0.436
-1.18,-0.000239771,-4.06413e-05,0.00080914,0,1.19314e-14,-0.00027429,-1.45978e-08,0,1,0,0,1.27467,0.137138,0.44
-1.18,-0.000239771,-4.17483e-05,0.00080914,0,7.95429e-15,-0.000279196,-9.73188e-09,0,1,0,0,1.27633,0.139593,0.444
-1.18,-0.000239771,-4.28749e-05,0.00080914,0,5.30286e-15,-0.000284143,-6.48792e-09,0,1,0,0,1.27802,0.142068,0.448
-1.18,-0.000239771,-4.40215e-05,0.00080914,0,3.53524e-15,-0.000289133,-4.32528e-09,0,1,0,0,1.27974,0.144564,0.452
-1.18,-0.000239771,-4.51881e-05,0.00080914,0,2.35683e-15,-0.000294164,-2.88352e-09,0,1,0,0,1.28149,0.14708,0.456
-1.18,-0.000239771,-4.63748e-05,0.00080914,0,1.57122e-15,-0.000299236,-1.92235e-09,0,1,0,0,1.28327,0.149617,0.46
-1.18,-0.000239771,-4.7582e-05,0.00080914,0,1.04748e-15,-0.000304349,-1.28156e-09,0,1,0,0,1.28508,0.152174,0.464
-1.18,-0.000239771,-4.88097e-05,0.00080914,0,6.98319e-16,-0.000309504,-8.54376e-10,0,1,0,0,1.28692,0.154752,0.468
-1.18,-0.000239771,-5.00581e-05,0.00080914,0,4.65546e-16,-0.000314701,-5.69584e-10,0,1,0,0,1.2888,0.15735,0.472
-1.18,-0.000240116,-5.13274e-05,0.00080914,0,-2.87909e-05,-0.000319938,-3.79723e-10,0,1,0,-0,1.2907,0.159969,0.476
-1.18,-0.000239771,-5.26177e-05,0.00080914,0,9.59697e-06,-0.000325217,-2.53148e-10,0,1,0,0,1.29264,0.162608,0.48
-1.18,-0.000239771,-5.39291e-05,0.00080914,0,6.39798e-06,-0.000330537,-1.68766e-10,0,1,0,0,1.2946,0.165268,0.484
-1.18,-0.000239771,-5.5262e-05,0.00080914,0,4.26532e-06,-0.000335898,-1.1251e-10,0,1,0,0,1.2966,0.167949,0.488
-1.18,-0.000240116,-5.66164e-05,0.00080914,0,-2.59474e-05,-0.0003413,-7.50069e-11,0,1,0,-0,1.29863,0.17065,0.492
-1.18,-0.000239771,-5.79925e-05,0.00080914,0,1.14927e-05,-0.000346744,-5.00046e-11,0,1,0,0,1.3007,0.173372,0.496
-1.18,-0.000239771,-5.93904e-05,0.00080914,0,7.66178e-06,-0.000352228,-3.33364e-11,0,1,0,0,1.3028,0.176114,0.5
-1.18,-0.000239771,-6.08103e-05,0.000809486,0,5.10785e-06,-0.000357753,2.87909e-05,0,1,0,0,1.30544,0.193272,0.504
-1.18,-0.000239771,-6.22525e-05,0.00080914,0,3.40524e-06,-0.000363319,-9.59699e-06,0,1,0,0,1.30709,0.176861,0.508
-1.18,-0.000239771,-6.37169e-05,0.00080914,0,2.27016e-06,-0.000368925,-6.39799e-06,0,1,0,0,1.30929,0.181264,0.512
-1.18,-0.000239771,-6.52039e-05,0.00080914,0,1.51344e-06,-0.000374573,-4.26533e-06,0,1,0,0,1.31152,0.185154,0.516
-1.18,-0.000239771,-6.67136e-05,0.00080914,0,1.00896e-06,-0.000380261,-2.84355e-06,0,1,0,0,1.31378,0.188709,0.52
-1.18,-0.000239771,-6.82461e-05,0.00080914,0,6.72639e-07,-0.00038599,-1.8957e-06,0,1,0,0,1.31608,0.192047,0.524
-1.18,-0.000239771,-6.98015e-05,0.00080914,0,4.48426e-07,-0.000391759,-1.2638e-06,0,1,0,0,1.31841,0.195248,0.528
-1.18,-0.000239771,-7.13802e-05,0.00080914,0,2.98951e-07,-0.000397569,-8.42534e-07,0,1,0,0,1.32078,0.198363,0.532
-1.18,-0.000239771,-7.29822e-05,0.00080914,0,1.99301e-07,-0.00040342,-5.61689e-07,0,1,0,0,1.32318,0.201429,0.536
-1.18,-0.000240116,-7.46076e-05,0.00080914,0,-2.86581e-05,-0.000409311,-3.7446e-07,0,1,0,-0,1.32562,0.204468,0.54
-1.18,-0.000239771,-7.62567e-05,0.00080914,0,9.68555e-06,-0.000415242,-2.4964e-07,0,1,0,0,1.3281,0.207496,0.544
-1.18,-0.000239771,-7.79296e-05,0.00080914,0,6.45704e-06,-0.000421214,-1.66426e-07,0,1,0,0,1.3306,0.210524,0.548
-1.18,-0.000239771,-7.96265e-05,0.00080914,0,4.30469e-06,-0.000427227,-1.10951e-07,0,1,0,0,1.33315,0.213558,0.552
-1.18,-0.000239771,-8.13475e-05,0.000808449,0,2.86979e-06,-0.000433279,-5.76558e-05,0,1,0,0,1.33469,0.187812,0.556
-1.18,-0.000239771,-8.30928e-05,0.00080914,0,1.9132e-06,-0.000439372,1.91446e-05,0,1,0,0,1.33835,0.229258,0.56
-1.18,-0.000239771,-8.48625e-05,0.00080914,0,1.27546e-06,-0.000445505,1.27631e-05,0,1,0,0,1.341,0.229134,0.564
-1.18,-0.000239771,-8.66568e-05,0.00080914,0,8.50309e-07,-0.000451678,8.50873e-06,0,1,0,0,1.3437,0.230093,0.568
-1.18,-0.000239771,-8.8476e-05,0.00080914,0,5.66873e-07,-0.000457891,5.67249e-06,0,1,0,0,1.34642,0.231782,0.572
-1.18,-0.000239771,-9.032e-05,0.00080914,0,3.77915e-07,-0.000464144,3.78166e-06,0,1,0,0,1.34919,0.233963,0.576
-1.18,-0.000239771,-9.21892e-05,0.000809486,0,2.51943e-07,-0.000470437,3.1312e-05,0,1,0,0,1.35251,0.250874,0.58
-1.18,-0.000239771,-9.40836e-05,0.00080914,0,1.67962e-07,-0.00047677,-7.91624e-06,0,1,0,0,1.35484,0.234427,0.584
-1.18,-0.000239771,-9.60034e-05,0.00080914,0,1.11975e-07,-0.000483143,-5.27749e-06,0,1,0,0,1.35772,0.238933,0.588
-1.18,-0.000239771,-9.79488e-05,0.00080914,0,7.46499e-08,-0.000489556,-3.51833e-06,0,1,0,0,1.36063,0.243019,0.592
-1.18,-0.000239771,-9.99199e-05,0.00080914,0,4.97666e-08,-0.000496008,-2.34555e-06,0,1,0,0,1.36359,0.246831,0.596
-1.18,-0.000239771,-0.000101917,0.00080914,0,3.31777e-08,-0.000502501,-1.5637e-06,0,1,0,0,1.36659,0.250468,0.6
-1.18,-0.000239771,-0.00010394,0.00080914,0,2.21185e-08,-0.000509033,-1.04247e-06,0,1,0,0,1.36962,0.253995,0.604
-1.18,-0.000239771,-0.000105989,0.00080914,0,1.47457e-08,-0.000515604,-6.94978e-07,0,1,0,0,1.37269,0.257455,0.608
-1.18,-0.000239771,-0.000108065,0.00080914,0,9.83044e-09,-0.000522215,-4.63319e-07,0,1,0,0,1.37581,0.260876,0.612
-1.18,-0.000239771,-0.000110167,0.00080914,0,6.55363e-09,-0.000528866,-3.08879e-07,0,1,0,0,1.37896,0.264279,0.616
-1.18,-0.000239771,-0.000112296,0.00080914,0,4.36909e-09,-0.000535556,-2.0592e-07,0,1,0,0,1.38215,0.267675,0.62
-1.18,-0.000239771,-0.000114451,0.00080914,0,2.91272e-09,-0.000542286,-1.3728e-07,0,1,0,0,1.38539,0.271074,0.624
-1.18,-0.000239771,-0.000116634,0.00080914,0,1.94182e-09,-0.000549055,-9.15198e-08,0,1,0,0,1.38866,0.274482,0.628
-1.18,-0.000239771,-0.000118844,0.00080914,0,1.29454e-09,-0.000555864,-6.10132e-08,0,1,0,0,1.39198,0.277901,0.632
-1.18,-0.000239771,-0.000121081,0.00080914,0,8.63029e-10,-0.000562712,-4.06755e-08,0,1,0,0,1.39533,0.281335,0.636
-1.18,-0.000239771,-0.000123346,0.00080914,0,5.75353e-10,-0.000569599,-2.7117e-08,0,1,0,0,1.39873,0.284786,0.64
-1.18,-0.000239771,-0.000125638,0.00080914,0,3.83569e-10,-0.000576525,-1.8078e-08,0,1,0,0,1.40217,0.288253,0.644
-1.18,-0.000239771,-0.000127958,0.00080914,0,2.55712e-10,-0.00058349,-1.2052e-08,0,1,0,0,1.40565,0.291739,0.648
-1.18,-0.000239771,-0.000130306,0.00080914,0,1.70475e-10,-0.000590495,-8.03466e-09,0,1,0,0,1.40917,0.295243,0.652
-1.18,-0.000239771,-0.000132682,0.00080914,0,1.1365e-10,-0.000597538,-5.35644e-09,0,1,0,0,1.41273,0.298766,0.656
-1.18,-0.000239771,-0.000135086,0.00080914,0,7.57666e-11,-0.000604621,-3.57096e-09,0,1,0,0,1.41634,0.302309,0.66
-1.18,-0.000239771,-0.000137519,0.00080914,0,5.05111e-11,-0.000611742,-2.38064e-09,0,1,0,0,1.41999,0.30587,0.664
-1.18,-0.000239771,-0.00013998,0.00080914,0,3.36741e-11,-0.000618903,-1.58709e-09,0,1,0,0,1.42368,0.309451,0.668
-1.18,-0.000239771,-0.00014247,0.000808449,0,2.24494e-11,-0.000626102,-5.75829e-05,0,1,0,0,1.42638,0.28426,0.672
-1.18,-0.000239771,-0.000144989,0.00080914,0,1.49662e-11,-0.00063334,1.91932e-05,0,1,0,0,1.43119,0.326267,0.676
-1.18,-0.000239771,-0.000147537,0.00080914,0,9.9775e-12,-0.000640617,1.27955e-05,0,1,0,0,1.43502,0.326706,0.68
-1.18,-0.000239771,-0.000150114,0.00080914,0,6.65166e-12,-0.000647933,8.53033e-06,0,1,0,0,1.43888,0.328232,0.684
-1.18,-0.000239771,-0.000152721,0.00080914,0,4.43444e-12,-0.000655287,5.68689e-06,0,1,0,0,1.44279,0.330487,0.688
-1.18,-0.000239771,-0.000155356,0.00080914,0,2.9563e-12,-0.00066268,3.79126e-06,0,1,0,0,1.44674,0.333236,0.692
-1.18,-0.000239771,-0.000158022,0.00080914,0,1.97086e-12,-0.000670112,2.52751e-06,0,1,0,0,1.45074,0.33632,0.696
-1.18,-0.000239771,-0.000160717,0.00080914,0,1.31391e-12,-0.000677582,1.685e-06,0,1,0,0,1.45479,0.339633,0.7
-1.18,-0.000239771,-0.000163443,0.00080914,0,8.75939e-13,-0.00068509,1.12334e-06,0,1,0,0,1.45887,0.343107,0.704
-1.18,-0.000239771,-0.000166198,0.000809486,0,5.8396e-13,-0.000692637,2.95398e-05,0,1,0,0,1.46353,0.361089,0.708
-1.18,-0.000239771,-0.000168984,0.00080914,0,3.89306e-13,-0.000700223,-9.09771e-06,0,1,0,0,1.46719,0.345562,0.712
-1.18,-0.000239771,-0.0001718,0.00080914,0,2.59538e-13,-0.000707846,-6.06514e-06,0,1,0,0,1.47141,0.350891,0.716
-1.18,-0.000239771,-0.000174647,0.00080914,0,1.73025e-13,-0.000715508,-4.04343e-06,0,1,0,0,1.47568,0.355732,0.72
-1.18,-0.000239771,-0.000177524,0.00080914,0,1.1535e-13,-0.000723209,-2.69562e-06,0,1,0,0,1.48,0.360256,0.724
-1.18,-0.000239771,-0.000180432,0.000808795,0,7.69e-14,-0.000730947,-3.0588e-05,0,1,0,0,1.48384,0.350179,0.728
-1.18,-0.000239771,-0.000183372,0.00080914,0,5.12667e-14,-0.000738724,8.39892e-06,0,1,0,0,1.48877,0.373561,0.732
-1.18,-0.000239771,-0.000186342,0.00080914,0,3.41778e-14,-0.000746538,5.59928e-06,0,1,0,0,1.49322,0.376069,0.736
-1.18,-0.000239771,-0.000189344,0.00080914,0,2.27852e-14,-0.000754391,3.73285e-06,0,1,0,0,1.49773,0.379062,0.74
-1.18,-0.000239771,-0.000192377,0.00080914,0,1.51901e-14,-0.000762282,2.48857e-06,0,1,0,0,1.50228,0.382385,0.744
-1.18,-0.000239771,-0.000195442,0.00080914,0,1.01268e-14,-0.00077021,1.65905e-06,0,1,0,0,1.50687,0.385935,0.748
-1.18,-0.000239771,-0.000198539,0.000809486,0,6.75117e-15,-0.000778177,2.9897e-05,0,1,0,0,1.51204,0.404037,0.752
-1.18,-0.000239771,-0.000201668,0.00080914,0,4.50078e-15,-0.000786181,-8.85962e-06,0,1,0,0,1.51621,0.388661,0.756
-1.18,-0.000239771,-0.000204829,0.00080914,0,3.00052e-15,-0.000794223,-5.90641e-06,0,1,0,0,1.52095,0.394158,0.76
-1.18,-0.000239771,-0.000208022,0.00080914,0,2.00035e-15,-0.000802303,-3.93761e-06,0,1,0,0,1.52574,0.399183,0.764
-1.18,-0.000239771,-0.000211247,0.000808449,0,1.33356e-15,-0.000810421,-6.02069e-05,0,1,0,0,1.52954,0.375107,0.768
-1.18,-0.000239771,-0.000214505,0.000809486,0,8.89043e-16,-0.000818576,4.62348e-05,0,1,0,0,1.53599,0.432406,0.772
-1.18,-0.000239771,-0.000217796,0.00080914,0,5.92695e-16,-0.000826769,2.03229e-06,0,1,0,0,1.5404,0.414401,0.776
-1.18,-0.000239771,-0.000221119,0.00080914,0,3.9513e-16,-0.000835,1.35486e-06,0,1,0,0,1.54539,0.418177,0.78
-1.18,-0.000239771,-0.000224476,0.00080914,0,2.6342e-16,-0.000843268,9.03241e-07,0,1,0,0,1.55042,0.422086,0.784
-1.18,-0.000239771,-0.000227866,0.00080914,0,1.75613e-16,-0.000851574,6.02161e-07,0,1,0,0,1.55551,0.426088,0.788
-1.18,-0.000239771,-0.000231289,0.000808795,0,1.17076e-16,-0.000859916,-2.83895e-05,0,1,0,0,1.56012,0.415763,0.792
-1.18,-0.000240462,-0.000234745,0.00080914,0,-5.75818e-05,-0.000868297,9.8646e-06,0,2,0,-0,1.56583,0.439081,0.796
-1.18,-0.000239771,-0.000238235,0.00080914,0,1.91939e-05,-0.000876714,6.5764e-06,0,2,0,0,1.57106,0.441645,0.8
-1.18,-0.000239771,-0.000241759,0.000808449,0,1.2796e-05,-0.000885169,-5.31976e-05,0,1,0,0,1.57531,0.415986,0.804
-1.18,-0.000239771,-0.000245316,0.000808795,0,8.53064e-06,-0.000893662,-6.67413e-06,0,2,0,0,1.58117,0.443494,0.808
-1.18,-0.000239771,-0.000248908,0.000808449,0,5.6871e-06,-0.000902191,-3.32403e-05,0,2,0,0,1.58604,0.434475,0.812
-1.18,-0.000239771,-0.000252534,0.000808449,0,3.7914e-06,-0.000910757,-2.21602e-05,0,2,0,0,1.59147,0.444299,0.816
-1.18,-0.000239771,-0.000256194,0.000808795,0,2.5276e-06,-0.000919361,1.40174e-05,0,2,0,0,1.59748,0.466689,0.82
-1.18,-0.000239771,-0.000259889,0.000808449,0,1.68507e-06,-0.000928002,-1.9446e-05,0,2,0,0,1.60251,0.454278,0.824
-1.18,-0.000239771,-0.000263618,0.000809486,0,1.12338e-06,-0.000936679,7.34088e-05,0,2,0,0,1.60966,0.505044,0.828
-1.18,-0.000239425,-0.000267382,0.000808795,0,2.95398e-05,-0.000945394,-8.64265e-06,0,2,0,0,1.61427,0.468376,0.832
-1.18,-0.000239771,-0.000271181,0.000808795,0,-9.0977e-06,-0.000954145,-5.76177e-06,0,2,0,-0,1.61996,0.474192,0.836
-1.18,-0.000239771,-0.000275016,0.000808795,0,-6.06513e-06,-0.000962934,-3.84118e-06,0,2,0,-0,1.62572,0.479546,0.84
-1.18,-0.000239771,-0.000278885,0.000809486,0,-4.04342e-06,-0.000971759,5.50211e-05,0,2,0,-0,1.63256,0.51339,0.844
-1.18,-0.000239771,-0.00028279,0.000808795,0,-2.69561e-06,-0.000980621,-2.09011e-05,0,2,0,-0,1.63738,0.47986,0.848
-1.18,-0.000239771,-0.00028673,0.000808795,0,-1.79708e-06,-0.000989519,-1.39341e-05,0,2,0,-0,1.64329,0.487793,0.852
-1.18,-0.000239771,-0.000290706,0.000808795,0,-1.19805e-06,-0.000998455,-9.2894e-06,0,2,0,-0,1.64925,0.494583,0.856
-1.18,-0.000239771,-0.000294718,0.000808449,0,-7.987e-07,-0.00100743,-3.49839e-05,0,2,0,-0,1.65475,0.486221,0.86
-1.18,-0.000239771,-0.000298765,0.00080914,0,-5.32467e-07,-0.00101643,3.42593e-05,0,2,0,-0,1.66186,0.525347,0.864
-1.18,-0.000239771,-0.000302849,0.00080914,0,-3.54978e-07,-0.00102548,2.28395e-05,0,2,0,-0,1.66798,0.52416,0.868
-1.18,-0.000239771,-0.000306969,0.000808795,0,-2.36652e-07,-0.00103456,-1.35646e-05,0,2,0,-0,1.67365,0.510498,0.872
-1.18,-0.000239425,-0.000311126,0.000808795,0,2.86332e-05,-0.00104368,-9.04305e-06,0,2,0,0,1.67988,0.517318,0.876
-1.18,-0.000239771,-0.000315319,0.000808795,0,-9.70215e-06,-0.00105283,-6.0287e-06,0,2,0,-0,1.68617,0.523402,0.88
-1.18,-0.000240462,-0.000319548,0.000808795,0,-6.405e-05,-0.00106202,-4.01913e-06,0,2,0,-0,1.69251,0.529002,0.884
-1.18,-0.000239771,-0.000323815,0.000808795,0,1.48819e-05,-0.00107125,-2.67942e-06,0,2,0,0,1.69891,0.534286,0.888
-1.18,-0.000239771,-0.000328118,0.000809486,0,9.92125e-06,-0.00108051,5.57956e-05,0,2,0,0,1.70641,0.568155,0.892
-1.18,-0.000239771,-0.000332459,0.000808795,0,6.61417e-06,-0.00108981,-2.03848e-05,0,2,0,0,1.71188,0.534714,0.896
-1.18,-0.000239771,-0.000336837,0.000809486,0,4.40945e-06,-0.00109915,4.3992e-05,0,2,0,0,1.71948,0.57157,0.9
-1.18,-0.000239771,-0.000341252,0.00080914,0,2.93963e-06,-0.00110852,5.37062e-07,0,2,0,0,1.72559,0.554529,0.904
-1.18,-0.000239425,-0.000345705,0.000808795,0,3.07507e-05,-0.00111793,-2.84329e-05,0,2,0,0,1.73175,0.544747,0.908
-1.18,-0.000239771,-0.000350196,0.000809486,0,-8.29047e-06,-0.00112737,3.86266e-05,0,2,0,-0,1.73952,0.582999,0.912
-1.18,-0.000239771,-0.000354724,0.00080914,0,-5.52698e-06,-0.00113685,-3.03986e-06,0,2,0,-0,1.7458,0.566905,0.916
-1.18,-0.000239771,-0.000359291,0.00080914,0,-3.68465e-06,-0.00114637,-2.02657e-06,0,2,0,-0,1.75265,0.57217,0.92
-1.18,-0.000239771,-0.000363895,0.00080914,0,-2.45644e-06,-0.00115592,-1.35105e-06,0,2,0,-0,1.75955,0.577283,0.924
-1.18,-0.000239771,-0.000368538,0.00080914,0,-1.63762e-06,-0.0011655,-9.007e-07,0,2,0,-0,1.76652,0.582302,0.928
-1.18,-0.000239771,-0.000373219,0.000808795,0,-1.09175e-06,-0.00117513,-2.93914e-05,0,2,0,-0,1.77302,0.572868,0.932
-1.18,-0.000239771,-0.000377939,0.000808449,0,-7.27833e-07,-0.00118479,-4.83852e-05,0,2,0,-0,1.77958,0.5682,0.936
-1.18,-0.000239771,-0.000382698,0.000808795,0,-4.85222e-07,-0.00119448,-3.46587e-06,0,2,0,-0,1.78724,0.595507,0.94
-1.18,-0.000239771,-0.000387495,0.000808795,0,-3.23481e-07,-0.00120421,-2.31058e-06,0,2,0,-0,1.79443,0.60095,0.944
-1.18,-0.000239771,-0.000392331,0.00080914,0,-2.15654e-07,-0.00121398,2.72505e-05,0,2,0,-0,1.80221,0.620613,0.948
-1.18,-0.000239771,-0.000397207,0.00080914,0,-1.43769e-07,-0.00122378,1.8167e-05,0,2,0,-0,1.80952,0.620972,0.952
-1.18,-0.000239771,-0.000402122,0.00080914,0,-9.58463e-08,-0.00123361,1.21114e-05,0,2,0,-0,1.81689,0.622862,0.956
-1.18,-0.000239771,-0.000407076,0.00080914,0,-6.38975e-08,-0.00124348,8.07423e-06,0,2,0,-0,1.82432,0.625779,0.96
-1.18,-0.000239771,-0.00041207,0.00080914,0,-4.25984e-08,-0.00125339,5.38282e-06,0,2,0,-0,1.83181,0.629387,0.964
-1.18,-0.000239771,-0.000417103,0.00080914,0,-2.83989e-08,-0.00126333,3.58855e-06,0,2,0,-0,1.83936,0.633461,0.968
-1.18,-0.000239771,-0.000422176,0.000808795,0,-1.89326e-08,-0.00127331,-2.63986e-05,0,2,0,-0,1.84646,0.623457,0.972
-1.18,-0.000239771,-0.00042729,0.00080914,0,-1.26217e-08,-0.00128333,1.11919e-05,0,2,0,-0,1.85464,0.647259,0.976
-1.18,-0.000239771,-0.000432443,0.00080914,0,-8.41449e-09,-0.00129337,7.46126e-06,0,2,0,-0,1.86237,0.650418,0.98
-1.18,-0.000239771,-0.000437637,0.000808795,0,-5.60966e-09,-0.00130346,-2.38168e-05,0,2,0,-0,1.86965,0.63982,0.984
-1.18,-0.000239771,-0.000442871,0.000808795,0,-3.73977e-09,-0.00131358,-1.58778e-05,0,2,0,-0,1.8775,0.648849,0.988
-1.18,-0.000239771,-0.000448145,0.00080914,0,-2.49318e-09,-0.00132373,1.82057e-05,0,2,0,-0,1.88593,0.670968,0.992
-1.18,-0.000239771,-0.000453461,0.000808795,0,-1.66212e-09,-0.00133392,-1.66538e-05,0,2,0,-0,1.89338,0.658632,0.996
-1.18,-0.000239771,-0.000458817,0.000808795,0,-1.10808e-09,-0.00134414,-1.11025e-05,0,2,0,-0,1.90142,0.66652,1
-1.18,-0.000239771,-0.000464214,0.000808795,0,-7.38721e-10,-0.0013544,-7.40168e-06,0,2,0,-0,1.90951,0.673499,1.004
-1.18,-0.000239771,-0.000469652,0.000808795,0,-4.92481e-10,-0.00136469,-4.93446e-06,0,2,0,-0,1.91767,0.67988,1.008
-1.18,-0.000239771,-0.000475131,0.000808795,0,-3.2832e-10,-0.00137502,-3.28964e-06,0,2,0,-0,1.92589,0.685866,1.012
-1.18,-0.000239771,-0.000480652,0.000808795,0,-2.1888e-10,-0.00138538,-2.19309e-06,0,2,0,-0,1.93417,0.691596,1.016
-1.18,-0.000239771,-0.000486214,0.000808795,0,-1.4592e-10,-0.00139578,-1.46206e-06,0,2,0,-0,1.94251,0.69716,1.02
-1.18,-0.000239771,-0.000491818,0.000808795,0,-9.72801e-11,-0.00140622,-9.74707e-07,0,2,0,-0,1.95092,0.70262,1.024
-1.18,-0.000239771,-0.000497464,0.00080914,0,-6.48534e-11,-0.00141668,2.81411e-05,0,2,0,-0,1.95991,0.722412,1.028
-1.18,-0.000239771,-0.000503152,0.000808795,0,-4.32356e-11,-0.00142718,-1.00302e-05,0,2,0,-0,1.96792,0.708577,1.032
-1.18,-0.000239771,-0.000508882,0.000808795,0,-2.88237e-11,-0.00143772,-6.68679e-06,0,2,0,-0,1.97651,0.715517,1.036
-1.18,-0.000239771,-0.000514654,0.000808795,0,-1.92158e-11,-0.00144829,-4.45786e-06,0,2,0,-0,1.98517,0.721916,1.04
-1.18,-0.000239771,-0.000520468,0.000808795,0,-1.28105e-11,-0.0014589,-2.9719e-06,0,2,0,-0,1.99389,0.727962,1.044
-1.18,-0.000239771,-0.000526325,0.00080914,0,-8.54037e-12,-0.00146954,2.68097e-05,0,2,0,-0,2.0032,0.748172,1.048
-1.18,-0.000239771,-0.000532224,0.000808795,0,-5.69358e-12,-0.00148021,-1.09178e-05,0,2,0,-0,2.01153,0.734646,1.052
-1.18,-0.000239771,-0.000538167,0.000808795,0,-3.79572e-12,-0.00149092,-7.27855e-06,0,2,0,-0,2.02044,0.741819,1.056
-1.18,-0.000240462,-0.000544152,0.000808795,0,-5.75819e-05,-0.00150166,-4.85237e-06,0,2,0,-0,2.02942,0.748404,1.06
-1.18,-0.000239771,-0.00055018,0.000808795,0,1.91939e-05,-0.00151244,-3.23491e-06,0,2,0,0,2.03846,0.754601,1.064
-1.18,-0.000239771,-0.000556251,0.000808795,0,1.2796e-05,-0.00152325,-2.15661e-06,0,2,0,0,2.04757,0.760545,1.068
-1.18,-0.000239771,-0.000562366,0.000808795,0,8.53064e-06,-0.00153409,-1.43774e-06,0,2,0,0,2.05674,0.766327,1.072
-1.18,-0.000239771,-0.000568524,0.000808795,0,5.6871e-06,-0.00154497,-9.58492e-07,0,2,0,0,2.06598,0.772006,1.076
-1.18,-0.000239771,-0.000574726,0.000808795,0,3.7914e-06,-0.00155588,-6.38995e-07,0,2,0,0,2.07528,0.777623,1.08
-1.18,-0.000239771,-0.000580971,0.000808795,0,2.5276e-06,-0.00156683,-4.25996e-07,0,2,0,0,2.08465,0.783203,1.084
-1.18,-0.000239771,-0.000587261,0.000808795,0,1.68507e-06,-0.00157781,-2.83998e-07,0,2,0,0,2.09408,0.788764,1.088
-1.18,-0.000239771,-0.000593594,0.000808795,0,1.12338e-06,-0.00158883,-1.89332e-07,0,2,0,0,2.10358,0.794319,1.092
-1.18,-0.000239771,-0.000599971,0.000808795,0,7.48918e-07,-0.00159988,-1.26221e-07,0,2,0,0,2.11315,0.799875,1.096
-1.18,-0.000239771,-0.000606393,0.000808795,0,4.99279e-07,-0.00161096,-8.41474e-08,0,2,0,0,2.12278,0.805437,1.1
-1.18,-0.000239425,-0.000612859,0.000808795,0,2.91238e-05,-0.00162208,-5.60983e-08,0,2,0,0,2.13248,0.811009,1.104
-1.18,-0.000239771,-0.000619369,0.000808795,0,-9.37507e-06,-0.00163323,-3.73989e-08,0,2,0,-0,2.14225,0.816594,1.108
-1.18,-0.000239771,-0.000625925,0.000808795,0,-6.25005e-06,-0.00164441,-2.49326e-08,0,2,0,-0,2.15208,0.822192,1.112
-1.18,-0.000239771,-0.000632525,0.000808795,0,-4.1667e-06,-0.00165563,-1.66217e-08,0,2,0,-0,2.16198,0.827805,1.116
-1.18,-0.000239771,-0.00063917,0.000808795,0,-2.7778e-06,-0.00166688,-1.10811e-08,0,3,0,-0,2.17195,0.833433,1.12
-1.18,-0.000239771,-0.00064586,0.000808795,0,-1.85187e-06,-0.00167816,-7.38743e-09,0,3,0,-0,2.18198,0.839077,1.124
-1.18,-0.000240462,-0.000652595,0.000808795,0,-5.88164e-05,-0.00168948,-4.92495e-09,0,3,0,-0,2.19208,0.844737,1.128
-1.18,-0.000239771,-0.000659376,0.000808795,0,1.83709e-05,-0.00170083,-3.2833e-09,0,3,0,0,2.20226,0.850414,1.132
-1.18,-0.000239771,-0.000666202,0.000808795,0,1.22473e-05,-0.00171221,-2.18887e-09,0,3,0,0,2.21249,0.856106,1.136
-1.18,-0.000239771,-0.000673073,0.000808795,0,8.16484e-06,-0.00172363,-1.45925e-09,0,3,0,0,2.2228,0.861816,1.14
-1.18,-0.000239771,-0.000679991,0.000808795,0,5.44323e-06,-0.00173508,-9.7283e-10,0,3,0,0,2.23318,0.867542,1.144
-1.18,-0.000239771,-0.000686954,0.000808795,0,3.62882e-06,-0.00174657,-6.48553e-10,0,3,0,0,2.24362,0.873284,1.148
-1.18,-0.000239771,-0.000693964,0.000808795,0,2.41921e-06,-0.00175809,-4.32369e-10,0,3,0,0,2.25414,0.879043,1.152
-1.18,-0.000240116,-0.000701019,0.000808795,0,-2.71781e-05,-0.00176964,-2.88246e-10,0,3,0,-0,2.26472,0.884819,1.156
-1.18,-0.000239771,-0.000708121,0.000808795,0,1.06722e-05,-0.00178122,-1.92164e-10,0,3,0,0,2.27537,0.890611,1.16
-1.18,-0.000239771,-0.000715269,0.000808795,0,7.11479e-06,-0.00179284,-1.28109e-10,0,3,0,0,2.2861,0.896419,1.164
-1.18,-0.000239771,-0.000722463,0.000808795,0,4.74319e-06,-0.00180449,-8.54062e-11,0,3,0,0,2.29689,0.902244,1.168
-1.18,-0.000239425,-0.000729705,0.000808795,0,3.19531e-05,-0.00181617,-5.69375e-11,0,3,0,0,2.30775,0.908086,1.172
-1.18,-0.000239771,-0.000736993,0.000808795,0,-7.48889e-06,-0.00182789,-3.79583e-11,0,3,0,-0,2.31868,0.913944,1.176
-1.18,-0.000239771,-0.000744328,0.000808795,0,-4.99259e-06,-0.00183964,-2.53055e-11,0,3,0,-0,2.32968,0.919818,1.18
-1.18,-0.000239425,-0.00075171,0.000808795,0,2.54625e-05,-0.00185142,-1.68704e-11,0,3,0,0,2.34076,0.925709,1.184
-1.18,-0.000239771,-0.000759139,0.000808795,0,-1.18159e-05,-0.00186323,-1.12469e-11,0,3,0,-0,2.3519,0.931616,1.188
-1.18,-0.000239771,-0.000766616,0.000808795,0,-7.87727e-06,-0.00187508,-7.49794e-12,0,3,0,-0,2.36312,0.93754,1.192
-1.18,-0.000239771,-0.00077414,0.000808795,0,-5.25151e-06,-0.00188696,-4.99863e-12,0,3,0,-0,2.3744,0.94348,1.196
-1.18,-0.000239771,-0.000781712,0.000808795,0,-3.50101e-06,-0.00189887,-3.33242e-12,0,3,0,-0,2.38576,0.949436,1.2
-1.18,-0.000239771,-0.000789331,0.000808795,0,-2.33401e-06,-0.00191082,-2.22161e-12,0,3,0,-0,2.39719,0.955408,1.204
-1.18,-0.000239771,-0.000796998,0.000808795,0,-1.556e-06,-0.00192279,-1.48107e-12,0,3,0,-0,2.40869,0.961397,1.208
-1.18,-0.000239771,-0.000804713,0.000808795,0,-1.03734e-06,-0.0019348,-9.87383e-13,0,3,0,-0,2.42026,0.967402,1.212
-1.18,-0.000239771,-0.000812477,0.000808795,0,-6.91557e-07,-0.00194685,-6.58255e-13,0,3,0,-0,2.43191,0.973424,1.216
-1.18,-0.000239771,-0.000820288,0.000808795,0,-4.61038e-07,-0.00195892,-4.38837e-13,0,3,0,-0,2.44362,0.979461,1.22
-1.18,-0.000240462,-0.000828148,0.000808795,0,-5.78892e-05,-0.00197103,-2.92558e-13,0,3,0,-0,2.45541,0.985515,1.224
-1.18,-0.000239771,-0.000836056,0.000808795,0,1.8989e-05,-0.00198317,-1.95039e-13,0,3,0,0,2.46728,0.991585,1.228
-1.18,-0.000239771,-0.000844013,0.000808795,0,1.26594e-05,-0.00199534,-1.30026e-13,0,3,0,0,2.47921,0.997671,1.232
-1.18,-0.000239771,-0.000852019,0.000808795,0,8.43958e-06,-0.00200755,-8.66838e-14,0,3,0,0,2.49122,1.00377,1.236
-1.18,-0.000239771,-0.000860074,0.000808795,0,5.62638e-06,-0.00201978,-5.77892e-14,0,3,0,0,2.5033,1.00989,1.24
-1.18,-0.000239771,-0.000868178,0.000808795,0,3.75092e-06,-0.00203205,-3.85261e-14,0,3,0,0,2.51546,1.01603,1.244
-1.18,-0.000239771,-0.00087633,0.000808795,0,2.50061e-06,-0.00204435,-2.56841e-14,0,3,0,0,2.52769,1.02218,1.248
-1.18,-0.000239771,-0.000884532,0.000808795,0,1.66708e-06,-0.00205668,-1.71227e-14,0,3,0,0,2.53999,1.02834,1.252
-1.18,-0.000239771,-0.000892784,0.000808795,0,1.11138e-06,-0.00206905,-1.14152e-14,0,3,0,0,2.55237,1.03452,1.256
-1.18,-0.000239771,-0.000901085,0.000808795,0,7.40923e-07,-0.00208145,-7.6101e-15,0,3,0,0,2.56482,1.04072,1.26
-1.18,-0.000239771,-0.000909435,0.000808795,0,4.93949e-07,-0.00209387,-5.0734e-15,0,3,0,0,2.57735,1.04694,1.264
-1.18,-0.000239771,-0.000917836,0.000808795,0,3.29299e-07,-0.00210633,-3.38227e-15,0,3,0,0,2.58995,1.05317,1.268
-1.18,-0.000240462,-0.000926286,0.000808795,0,-5.73623e-05,-0.00211883,-2.25485e-15,0,3,0,-0,2.60262,1.05941,1.272
-1.18,-0.000239771,-0.000934786,0.000808795,0,1.93403e-05,-0.00213135,-1.50323e-15,0,3,0,0,2.61537,1.06568,1.276
-1.18,-0.000239771,-0.000943337,0.000808795,0,1.28935e-05,-0.00214391,-1.00215e-15,0,3,0,0,2.6282,1.07195,1.28
-1.18,-0.000239771,-0.000951938,0.000808795,0,8.59569e-06,-0.00215649,-6.68102e-16,0,3,0,0,2.6411,1.07825,1.284
-1.18,-0.000239771,-0.000960589,0.000808795,0,5.73046e-06,-0.00216911,-4.45402e-16,0,3,0,0,2.65408,1.08456,1.288
-1.18,-0.000239771,-0.000969291,0.000808795,0,3.82031e-06,-0.00218176,-2.96934e-16,0,3,0,0,2.66713,1.09088,1.292
-1.18,-0.000239771,-0.000978043,0.000808795,0,2.54687e-06,-0.00219445,-1.97956e-16,0,3,0,0,2.68026,1.09722,1.296
-1.18,-0.000239771,-0.000986846,0.000808795,0,1.69791e-06,-0.00220716,-1.31971e-16,0,3,0,0,2.69346,1.10358,1.3
-1.18,-0.000239771,-0.0009957,0.000808795,0,1.13194e-06,-0.00221991,-8.79805e-17,0,3,0,0,2.70674,1.10995,1.304
-1.18,-0.000239771,-0.00100461,0.000808795,0,7.54629e-07,-0.00223268,-5.86537e-17,0,3,0,0,2.7201,1.11634,1.308
-1.18,-0.000239771,-0.00101356,0.000808795,0,5.03086e-07,-0.00224549,-3.91025e-17,0,3,0,0,2.73353,1.12275,1.312
-1.18,-0.000239425,-0.00102257,0.000808795,0,2.91263e-05,-0.00225833,-2.60683e-17,0,3,0,0,2.74705,1.12916,1.316
-1.18,-0.000239771,-0.00103163,0.000808795,0,-9.37338e-06,-0.0022712,-1.73789e-17,0,3,0,-0,2.76063,1.1356,1.32
-1.18,-0.000239771,-0.00104074,0.000808795,0,-6.24892e-06,-0.0022841,-1.15859e-17,0,3,0,-0,2.7743,1.14205,1.324
-1.18,-0.000239771,-0.0010499,0.000808795,0,-4.16595e-06,-0.00229704,-7.72394e-18,0,3,0,-0,2.78804,1.14852,1.328
-1.18,-0.000239771,-0.00105912,0.000808795,0,-2.7773e-06,-0.00231,-5.1493e-18,0,3,0,-0,2.80187,1.155,1.332
-1.18,-0.000239425,-0.00106838,0.000808795,0,2.69394e-05,-0.00232299,-3.43286e-18,0,3,0,0,2.81576,1.1615,1.336
-1.18,-0.000239771,-0.0010777,0.000808795,0,-1.08313e-05,-0.00233602,-2.28858e-18,0,3,0,-0,2.82974,1.16801,1.34
-1.18,-0.000239771,-0.00108707,0.000808795,0,-7.22089e-06,-0.00234908,-1.52572e-18,0,4,0,-0,2.8438,1.17454,1.344
-1.18,-0.000239771,-0.00109649,0.000808795,0,-4.81392e-06,-0.00236217,-1.01714e-18,0,4,0,-0,2.85793,1.18108,1.348
-1.18,-0.000239771,-0.00110597,0.000808795,0,-3.20928e-06,-0.00237529,-6.78097e-19,0,4,0,-0,2.87214,1.18764,1.352
-1.18,-0.000239771,-0.00111549,0.000808795,0,-2.13952e-06,-0.00238844,-4.52064e-19,0,4,0,-0,2.88643,1.19422,1.356
-1.18,-0.000239771,-0.00112507,0.000808795,0,-1.42635e-06,-0.00240162,-3.01376e-19,0,4,0,-0,2.9008,1.20081,1.36
-1.18,-0.000240462,-0.00113471,0.000808795,0,-5.85327e-05,-0.00241483,-2.00918e-19,0,4,0,-0,2.91525,1.20741,1.364
-1.18,-0.000239771,-0.00114439,0.000808795,0,1.856e-05,-0.00242807,-1.33945e-19,0,4,0,0,2.92978,1.21404,1.368
-1.18,-0.000239771,-0.00115413,0.000808795,0,1.23733e-05,-0.00244134,-8.92967e-20,0,4,0,0,2.94439,1.22067,1.372
-1.18,-0.000240462,-0.00116392,0.000808795,0,-4.9333e-05,-0.00245465,-5.95311e-20,0,4,0,-0,2.95908,1.22732,1.376
-1.18,-0.000239771,-0.00117377,0.000808795,0,2.46932e-05,-0.00246798,-3.96874e-20,0,4,0,0,2.97385,1.23399,1.38
-1.18,-0.000239771,-0.00118367,0.000808795,0,1.64621e-05,-0.00248135,-2.64583e-20,0,4,0,0,2.98869,1.24067,1.384
-1.18,-0.000239771,-0.00119362,0.000808795,0,1.09748e-05,-0.00249474,-1.76388e-20,0,4,0,0,3.00362,1.24737,1.388
-1.18,-0.000239771,-0.00120363,0.000808795,0,7.31651e-06,-0.00250817,-1.17592e-20,0,4,0,0,3.01863,1.25408,1.392
-1.18,-0.000239771,-0.00121369,0.000808795,0,4.87767e-06,-0.00252162,-7.83949e-21,0,4,0,0,3.03372,1.26081,1.396
-1.18,-0.000239771,-0.0012238,0.000808795,0,3.25178e-06,-0.00253511,-5.22633e-21,0,4,0,0,3.04889,1.26756,1.4
-1.18,-0.000239771,-0.00123397,0.000808795,0,2.16785e-06,-0.00254863,-3.48422e-21,0,4,0,0,3.06414,1.27431,1.404
-1.18,-0.000239771,-0.00124419,0.000808795,0,1.44524e-06,-0.00256218,-2.32281e-21,0,4,0,0,3.07947,1.28109,1.408
-1.18,-0.000239771,-0.00125446,0.000808795,0,9.63491e-07,-0.00257575,-1.54854e-21,0,4,0,0,3.09489,1.28788,1.412
-1.18,-0.000239771,-0.00126479,0.000808795,0,6.42327e-07,-0.00258936,-1.03236e-21,0,4,0,0,3.11038,1.29468,1.416
-1.18,-0.000239771,-0.00127518,0.000808795,0,4.28218e-07,-0.002603,-6.8824e-22,0,4,0,0,3.12596,1.3015,1.42
-1.18,-0.000239771,-0.00128562,0.000808795,0,2.85479e-07,-0.00261667,-4.58827e-22,0,4,0,0,3.14162,1.30833,1.424
-1.18,-0.000239771,-0.00129611,0.000808795,0,1.90319e-07,-0.00263036,-3.05885e-22,0,4,0,0,3.15736,1.31518,1.428
-1.18,-0.000239771,-0.00130666,0.000808449,0,1.26879e-07,-0.00264409,-2.87909e-05,0,4,0,0,3.17267,1.30765,1.432
-1.18,-0.000239771,-0.00131727,0.000808795,0,8.45863e-08,-0.00265785,9.59697e-06,0,4,0,0,3.18909,1.33372,1.436
-1.18,-0.000239771,-0.00132792,0.000808795,0,5.63909e-08,-0.00267164,6.39798e-06,0,4,0,0,3.20508,1.33902,1.44
-1.18,-0.000239771,-0.00133864,0.000808795,0,3.75939e-08,-0.00268546,4.26532e-06,0,4,0,0,3.22115,1.34486,1.444
-1.18,-0.000239771,-0.00134941,0.000808795,0,2.50626e-08,-0.0026993,2.84355e-06,0,4,0,0,3.2373,1.35107,1.448
-1.18,-0.000239771,-0.00136023,0.000808795,0,1.67084e-08,-0.00271318,1.8957e-06,0,4,0,0,3.25354,1.35754,1.452
-1.18,-0.000239771,-0.00137111,0.000808795,0,1.11389e-08,-0.00272709,1.2638e-06,0,4,0,0,3.26986,1.36418,1.456
-1.18,-0.000239771,-0.00138205,0.000808795,0,7.42596e-09,-0.00274103,8.42533e-07,0,4,0,0,3.28627,1.37093,1.46
-1.18,-0.000239771,-0.00139304,0.000808795,0,4.95064e-09,-0.00275499,5.61689e-07,0,4,0,0,3.30275,1.37778,1.464
-1.18,-0.000239771,-0.00140409,0.000808795,0,3.30043e-09,-0.00276899,3.74459e-07,0,4,0,0,3.31933,1.38468,1.468
-1.18,-0.000239771,-0.00141519,0.000808795,0,2.20028e-09,-0.00278301,2.49639e-07,0,4,0,0,3.33598,1.39163,1.472
-1.18,-0.000239771,-0.00142635,0.000808795,0,1.46686e-09,-0.00279707,1.66426e-07,0,4,0,0,3.35272,1.39862,1.476
-1.18,-0.000239771,-0.00143757,0.000808795,0,9.77904e-10,-0.00281115,1.10951e-07,0,4,0,0,3.36955,1.40563,1.48
-1.18,-0.000240462,-0.00144884,0.000808449,0,-5.75812e-05,-0.00282527,-2.8717e-05,0,4,0,-0,3.38594,1.39828,1.484
-1.18,-0.000239771,-0.00146017,0.000808795,0,1.91944e-05,-0.00283941,9.64629e-06,0,4,0,0,3.40345,1.42453,1.488
-1.18,-0.000239771,-0.00147156,0.000808795,0,1.27963e-05,-0.00285358,6.43086e-06,0,4,0,0,3.42053,1.43001,1.492
-1.18,-0.000239771,-0.001483,0.000808795,0,8.53084e-06,-0.00286779,4.28724e-06,0,4,0,0,3.43769,1.43604,1.496
-1.18,-0.000239771,-0.0014945,0.000808795,0,5.68723e-06,-0.00288202,2.85816e-06,0,4,0,0,3.45494,1.44244,1.5
-1.18,-0.000240116,-0.00150606,0.000808795,0,-2.49994e-05,-0.00289628,1.90544e-06,0,4,0,-0,3.47228,1.44909,1.504
-1.18,-0.000239771,-0.00151767,0.000808795,0,1.21246e-05,-0.00291057,1.27029e-06,0,4,0,0,3.4897,1.45592,1.508
-1.18,-0.000239771,-0.00152934,0.000808795,0,8.08309e-06,-0.00292489,8.46862e-07,0,4,0,0,3.5072,1.46287,1.512
-1.18,-0.000240462,-0.00154107,0.000808795,0,-5.21931e-05,-0.00293924,5.64575e-07,0,4,0,-0,3.5248,1.4699,1.516
-1.18,-0.000239771,-0.00155286,0.000808795,0,2.27864e-05,-0.00295361,3.76383e-07,0,5,0,0,3.54248,1.47699,1.52
-1.18,-0.000239771,-0.0015647,0.000808795,0,1.5191e-05,-0.00296802,2.50922e-07,0,5,0,0,3.56024,1.48413,1.524
-1.18,-0.000239771,-0.0015766,0.000808795,0,1.01273e-05,-0.00298245,1.67281e-07,0,5,0,0,3.57809,1.49131,1.528
-1.18,-0.000239771,-0.00158856,0.000808795,0,6.75154e-06,-0.00299692,1.11521e-07,0,5,0,0,3.59603,1.49851,1.532
-1.18,-0.000239771,-0.00160058,0.000808795,0,4.50102e-06,-0.00301141,7.43473e-08,0,5,0,0,3.61405,1.50574,1.536
-1.18,-0.000239771,-0.00161265,0.000808795,0,3.00068e-06,-0.00302593,4.95648e-08,0,5,0,0,3.63217,1.51299,1.54
-1.18,-0.000239771,-0.00162478,0.000808795,0,2.00046e-06,-0.00304048,3.30432e-08,0,5,0,0,3.65037,1.52026,1.544
-1.18,-0.000239771,-0.00163697,0.000808449,0,1.33364e-06,-0.00305506,-2.87689e-05,0,5,0,0,3.66813,1.51315,1.548
-1.18,-0.000239771,-0.00164922,0.000808795,0,8.89091e-07,-0.00306967,9.61166e-06,0,5,0,0,3.68703,1.53964,1.552
-1.18,-0.000239771,-0.00166153,0.000808795,0,5.92727e-07,-0.00308431,6.40777e-06,0,5,0,0,3.70549,1.54536,1.556
-1.18,-0.000239771,-0.0016739,0.000808795,0,3.95152e-07,-0.00309897,4.27185e-06,0,5,0,0,3.72404,1.55162,1.56
-1.18,-0.000239771,-0.00168632,0.000808449,0,2.63434e-07,-0.00311366,-2.5943e-05,0,5,0,0,3.74216,1.54386,1.564
-1.18,-0.000239771,-0.00169881,0.000808795,0,1.75623e-07,-0.00312839,1.14956e-05,0,5,0,0,3.7614,1.56994,1.568
-1.18,-0.000239771,-0.00171135,0.000808449,0,1.17082e-07,-0.00314314,-2.11272e-05,0,5,0,0,3.7797,1.561,1.572
-1.18,-0.000239771,-0.00172395,0.000808795,0,7.80546e-08,-0.00315792,1.47061e-05,0,5,0,0,3.79912,1.58631,1.576
-1.18,-0.000239771,-0.00173661,0.000808449,0,5.20364e-08,-0.00317272,-1.89868e-05,0,5,0,0,3.81759,1.57687,1.58
-1.18,-0.000239771,-0.00174933,0.000808795,0,3.4691e-08,-0.00318756,1.6133e-05,0,5,0,0,3.83719,1.60185,1.584
-1.18,-0.000239771,-0.00176211,0.000808795,0,2.31273e-08,-0.00320242,1.07554e-05,0,5,0,0,3.85636,1.60659,1.588
-1.18,-0.000239771,-0.00177495,0.000808449,0,1.54182e-08,-0.00321731,-2.16207e-05,0,5,0,0,3.8751,1.59785,1.592
-1.18,-0.000239771,-0.00178785,0.000808795,0,1.02788e-08,-0.00323223,1.43771e-05,0,5,0,0,3.89497,1.62331,1.596
-1.18,-0.000240116,-0.00180081,0.000808795,0,-2.87841e-05,-0.00324718,9.58475e-06,0,5,0,-0,3.91441,1.62838,1.6
-1.18,-0.000239771,-0.00181383,0.000808795,0,9.60154e-06,-0.00326216,6.38984e-06,0,5,0,0,3.93394,1.63427,1.604
-1.18,-0.000239771,-0.00182691,0.000808795,0,6.40103e-06,-0.00327716,4.25989e-06,0,5,0,0,3.95355,1.64071,1.608
-1.18,-0.000239771,-0.00184005,0.000808795,0,4.26735e-06,-0.0032922,2.83993e-06,0,5,0,0,3.97326,1.64752,1.612
-1.18,-0.000239771,-0.00185325,0.000808449,0,2.8449e-06,-0.00330726,-2.68976e-05,0,5,0,0,3.99254,1.64018,1.616
-1.18,-0.000239771,-0.00186651,0.000808795,0,1.8966e-06,-0.00332235,1.08592e-05,0,5,0,0,4.01295,1.6666,1.62
-1.18,-0.000239771,-0.00187982,0.000808449,0,1.2644e-06,-0.00333746,-2.15515e-05,0,5,0,0,4.03241,1.65796,1.624
-1.18,-0.000239771,-0.00189321,0.000808795,0,8.42934e-07,-0.00335261,1.44233e-05,0,5,0,0,4.053,1.68351,1.628
-1.18,-0.000239771,-0.00190665,0.000808795,0,5.61956e-07,-0.00336778,9.61551e-06,0,5,0,0,4.07316,1.6887,1.632
-1.18,-0.000240116,-0.00192015,0.000808449,0,-2.84163e-05,-0.00338298,-2.23806e-05,0,5,0,-0,4.09289,1.6803,1.636
-1.18,-0.000239771,-0.00193371,0.000808795,0,9.84673e-06,-0.00339821,1.38705e-05,0,5,0,0,4.11376,1.70604,1.64
-1.18,-0.000239771,-0.00194733,0.000808449,0,6.56449e-06,-0.00341346,-1.95439e-05,0,5,0,0,4.13367,1.69696,1.644
-1.18,-0.000239771,-0.00196102,0.000808795,0,4.37633e-06,-0.00342874,1.57617e-05,0,5,0,0,4.15472,1.72225,1.648
-1.18,-0.000239771,-0.00197476,0.000808449,0,2.91755e-06,-0.00344405,-1.82832e-05,0,5,0,0,4.17482,1.71289,1.652
-1.18,-0.000239771,-0.00198857,0.000808449,0,1.94503e-06,-0.00345939,-1.21888e-05,0,5,0,0,4.19553,1.7236,1.656
-1.18,-0.000239771,-0.00200244,0.000808795,0,1.29669e-06,-0.00347476,2.06651e-05,0,5,0,0,4.21685,1.74771,1.66
-1.18,-0.000239771,-0.00201637,0.000808449,0,8.64459e-07,-0.00349015,-1.50142e-05,0,5,0,0,4.23723,1.73757,1.664
-1.18,-0.000239771,-0.00203036,0.000808449,0,5.76306e-07,-0.00350557,-1.00095e-05,0,6,0,0,4.25821,1.74778,1.668
-1.18,-0.000239771,-0.00204441,0.000808449,0,3.84204e-07,-0.00352102,-6.67298e-06,0,6,0,0,4.27929,1.75717,1.672
-1.18,-0.000239771,-0.00205853,0.000808795,0,2.56136e-07,-0.00353649,2.43423e-05,0,6,0,0,4.30098,1.78042,1.676
-1.18,-0.000239771,-0.0020727,0.000808449,0,1.70757e-07,-0.003552,-1.25627e-05,0,6,0,0,4.32173,1.76972,1.68
-1.18,-0.000239771,-0.00208694,0.000808449,0,1.13838e-07,-0.00356753,-8.37516e-06,0,6,0,0,4.34309,1.77958,1.684
-1.18,-0.000239771,-0.00210124,0.000808449,0,7.58922e-08,-0.00358308,-5.58344e-06,0,6,0,0,4.36454,1.78875,1.688
-1.18,-0.000239771,-0.00211561,0.000808449,0,5.05948e-08,-0.00359867,-3.72229e-06,0,6,0,0,4.38609,1.79747,1.692
-1.18,-0.000240116,-0.00213003,0.000808449,0,-2.87572e-05,-0.00361428,-2.48153e-06,0,6,0,-0,4.40773,1.8059,1.696
-1.18,-0.000239771,-0.00214452,0.000808449,0,9.61946e-06,-0.00362991,-1.65435e-06,0,6,0,0,4.42946,1.81413,1.7
-1.18,-0.000239771,-0.00215907,0.000808449,0,6.41297e-06,-0.00364558,-1.1029e-06,0,6,0,0,4.45128,1.82224,1.704
-1.18,-0.000239771,-0.00217369,0.000808449,0,4.27532e-06,-0.00366127,-7.35268e-07,0,6,0,0,4.4732,1.83027,1.708
-1.18,-0.000239771,-0.00218836,0.000808449,0,2.85021e-06,-0.00367699,-4.90179e-07,0,6,0,0,4.49522,1.83825,1.712
-1.18,-0.000239771,-0.0022031,0.000808449,0,1.90014e-06,-0.00369274,-3.26786e-07,0,6,0,0,4.51733,1.8462,1.716
-1.18,-0.000239771,-0.00221791,0.000808104,0,1.26676e-06,-0.00370851,-2.90088e-05,0,6,0,0,4.53901,1.83975,1.72
-1.18,-0.000239771,-0.00223277,0.000808449,0,8.44507e-07,-0.00372431,9.45174e-06,0,6,0,0,4.56183,1.86688,1.724
-1.18,-0.000239771,-0.0022477,0.000808104,0,5.63005e-07,-0.00374013,-2.24898e-05,0,6,0,0,4.58371,1.85882,1.728
-1.18,-0.000239771,-0.00226269,0.000808449,0,3.75336e-07,-0.00375599,1.37977e-05,0,6,0,0,4.60671,1.88489,1.732
-1.18,-0.000239771,-0.00227775,0.000808104,0,2.50224e-07,-0.00377187,-1.95924e-05,0,6,0,0,4.62878,1.87614,1.736
-1.18,-0.000239771,-0.00229287,0.000808449,0,1.66816e-07,-0.00378777,1.57293e-05,0,6,0,0,4.65197,1.90175,1.74
-1.18,-0.000239771,-0.00230805,0.000808449,0,1.11211e-07,-0.0038037,1.04862e-05,0,6,0,0,4.67475,1.9071,1.744
-1.18,-0.000239771,-0.0023233,0.000808104,0,7.41405e-08,-0.00381966,-2.18001e-05,0,6,0,0,4.6971,1.89893,1.748
-1.18,-0.000239771,-0.00233861,0.000808449,0,4.9427e-08,-0.00383565,1.42575e-05,0,6,0,0,4.72059,1.92495,1.752
-1.18,-0.000239771,-0.00235398,0.000808104,0,3.29513e-08,-0.00385166,-1.92859e-05,0,6,0,0,4.74313,1.91619,1.756
-1.18,-0.000239771,-0.00236942,0.000808104,0,2.19676e-08,-0.0038677,-1.28573e-05,0,6,0,0,4.76629,1.92742,1.76
-1.18,-0.000239771,-0.00238492,0.000808104,0,1.4645e-08,-0.00388377,-8.57152e-06,0,6,0,0,4.78954,1.9376,1.764
-1.18,-0.000239771,-0.00240049,0.000808104,0,9.76336e-09,-0.00389986,-5.71435e-06,0,6,0,0,4.81289,1.94707,1.768
-1.18,-0.000239771,-0.00241612,0.000808104,0,6.50891e-09,-0.00391597,-3.80956e-06,0,6,0,0,4.83634,1.95608,1.772
-1.18,-0.000239771,-0.00243182,0.000808449,0,4.33927e-09,-0.00393212,2.62512e-05,0,6,0,0,4.8604,1.97918,1.776
-1.18,-0.000239771,-0.00244758,0.000808104,0,2.89285e-09,-0.00394829,-1.12901e-05,0,6,0,0,4.88353,1.9685,1.78
-1.18,-0.000239771,-0.00246341,0.000808104,0,1.92857e-09,-0.00396448,-7.52674e-06,0,6,0,0,4.90726,1.97848,1.784
-1.18,-0.000239771,-0.0024793,0.000808104,0,1.28571e-09,-0.00398071,-5.01783e-06,0,6,0,0,4.9311,1.98784,1.788
-1.18,-0.000239771,-0.00249525,0.000808104,0,8.5714e-10,-0.00399695,-3.34522e-06,0,6,0,0,4.95503,1.9968,1.792
-1.18,-0.000239771,-0.00251127,0.000808104,0,5.71427e-10,-0.00401323,-2.23015e-06,0,6,0,0,4.97906,2.0055,1.796
-1.18,-0.000239771,-0.00252736,0.000808104,0,3.80951e-10,-0.00402953,-1.48676e-06,0,7,0,0,5.00319,2.01402,1.8
-1.18,-0.000239771,-0.00254351,0.000808104,0,2.53967e-10,-0.00404585,-9.91176e-07,0,7,0,0,5.02742,2.02243,1.804
-1.18,-0.000239771,-0.00255972,0.000808104,0,1.69312e-10,-0.00406221,-6.60784e-07,0,7,0,0,5.05174,2.03077,1.808
-1.18,-0.000239771,-0.00257601,0.000808104,0,1.12874e-10,-0.00407858,-4.40523e-07,0,7,0,0,5.07616,2.03907,1.812
-1.18,-0.000240116,-0.00259235,0.000808104,0,-2.87908e-05,-0.00409499,-2.93682e-07,0,7,0,-0,5.10068,2.04735,1.816
-1.18,-0.000239771,-0.00260877,0.000808104,0,9.59703e-06,-0.00411142,-1.95788e-07,0,7,0,0,5.1253,2.05561,1.82
-1.18,-0.000239771,-0.00262524,0.000808104,0,6.39802e-06,-0.00412787,-1.30525e-07,0,7,0,0,5.15002,2.06387,1.824
-1.18,-0.000239771,-0.00264179,0.000808104,0,4.26534e-06,-0.00414435,-8.70168e-08,0,7,0,0,5.17484,2.07213,1.828
-1.18,-0.000239771,-0.0026584,0.000808104,0,2.84356e-06,-0.00416086,-5.80112e-08,0,7,0,0,5.19975,2.0804,1.832
-1.18,-0.000239771,-0.00267508,0.000808104,0,1.89571e-06,-0.00417739,-3.86741e-08,0,7,0,0,5.22477,2.08868,1.836
-1.18,-0.000240116,-0.00269182,0.000808104,0,-2.75271e-05,-0.00419395,-2.57828e-08,0,7,0,-0,5.24988,2.09696,1.84
-1.18,-0.000239771,-0.00270863,0.000808104,0,1.04395e-05,-0.00421053,-1.71885e-08,0,7,0,0,5.2751,2.10526,1.844
-1.18,-0.000239771,-0.0027255,0.000808104,0,6.95967e-06,-0.00422714,-1.1459e-08,0,7,0,0,5.30041,2.11356,1.848
-1.18,-0.000239771,-0.00274244,0.000808104,0,4.63978e-06,-0.00424377,-7.63934e-09,0,7,0,0,5.32582,2.12188,1.852
-1.18,-0.000239771,-0.00275945,0.000808449,0,3.09319e-06,-0.00426043,2.87858e-05,0,7,0,0,5.35185,2.14461,1.856
-1.18,-0.000239771,-0.00277653,0.000808104,0,2.06213e-06,-0.00427712,-9.60037e-06,0,7,0,0,5.37695,2.13376,1.86
-1.18,-0.000239771,-0.00279367,0.000808104,0,1.37475e-06,-0.00429383,-6.40025e-06,0,7,0,0,5.40266,2.14371,1.864
-1.18,-0.000239771,-0.00281088,0.000808104,0,9.165e-07,-0.00431056,-4.26683e-06,0,7,0,0,5.42847,2.15315,1.868
-1.18,-0.000240116,-0.00282815,0.000807413,0,-2.81799e-05,-0.00432732,-6.04264e-05,0,7,0,-0,5.45335,2.13345,1.872
-1.18,-0.000239771,-0.0028455,0.000808104,0,1.00043e-05,-0.00434411,1.72976e-05,0,7,0,0,5.4804,2.1807,1.876
-1.18,-0.000239771,-0.00286291,0.000808104,0,6.66954e-06,-0.00436092,1.15317e-05,0,7,0,0,5.50652,2.18623,1.88
-1.18,-0.000239771,-0.00288038,0.000808104,0,4.44636e-06,-0.00437776,7.68781e-06,0,7,0,0,5.53273,2.19272,1.884
-1.18,-0.000239771,-0.00289793,0.000808104,0,2.96424e-06,-0.00439462,5.12521e-06,0,7,0,0,5.55905,2.19987,1.888
-1.18,-0.000239771,-0.00291554,0.000807413,0,1.97616e-06,-0.0044115,-5.4165e-05,0,7,0,0,5.58443,2.17867,1.892
-1.18,-0.000239771,-0.00293322,0.000807758,0,1.31744e-06,-0.00442841,-7.3191e-06,0,7,0,0,5.61147,2.21055,1.896
-1.18,-0.000239771,-0.00295097,0.000808104,0,8.78293e-07,-0.00444535,2.39115e-05,0,7,0,0,5.63861,2.23463,1.9
-1.18,-0.000239771,-0.00296878,0.000808104,0,5.85529e-07,-0.00446231,1.5941e-05,0,7,0,0,5.66533,2.23912,1.904
-1.18,-0.000239771,-0.00298667,0.000808449,0,3.90353e-07,-0.00447929,3.94183e-05,0,7,0,0,5.69267,2.25936,1.908
-1.18,-0.000239771,-0.00300462,0.000807413,0,2.60235e-07,-0.0044963,-6.00939e-05,0,7,0,0,5.71805,2.2181,1.912
-1.18,-0.000239771,-0.00302264,0.000808104,0,1.7349e-07,-0.00451334,1.75192e-05,0,8,0,0,5.74611,2.26543,1.916
-1.18,-0.000239771,-0.00304072,0.000808104,0,1.1566e-07,-0.0045304,1.16795e-05,0,8,0,0,5.77324,2.27104,1.92
-1.18,-0.000239771,-0.00305888,0.000808104,0,7.71067e-08,-0.00454748,7.78632e-06,0,8,0,0,5.80048,2.27763,1.924
-1.18,-0.000239771,-0.0030771,0.000808104,0,5.14044e-08,-0.00456459,5.19088e-06,0,8,0,0,5.82781,2.28489,1.928
-1.18,-0.000239771,-0.0030954,0.000807758,0,3.42696e-08,-0.00458172,-2.53303e-05,0,8,0,0,5.85473,2.2782,1.932
-1.18,-0.000239771,-0.00311376,0.000808449,0,2.28464e-08,-0.00459888,4.0695e-05,0,8,0,0,5.88331,2.31979,1.936
-1.18,-0.000239771,-0.00313219,0.000807758,0,1.52309e-08,-0.00461606,-3.04519e-05,0,8,0,0,5.90992,2.29281,1.94
-1.18,-0.000239771,-0.00315069,0.000807758,0,1.0154e-08,-0.00463327,-2.03013e-05,0,8,0,0,5.93767,2.30648,1.944
-1.18,-0.000239771,-0.00316925,0.000807758,0,6.76931e-09,-0.0046505,-1.35342e-05,0,8,0,0,5.96552,2.31848,1.948
-1.18,-0.000239771,-0.00318789,0.000807758,0,4.51287e-09,-0.00466776,-9.02278e-06,0,8,0,0,5.99347,2.32937,1.952
-1.18,-0.000239771,-0.0032066,0.000807758,0,3.00858e-09,-0.00468504,-6.01519e-06,0,8,0,0,6.02153,2.33951,1.956
-1.18,-0.000239771,-0.00322537,0.000807758,0,2.00572e-09,-0.00470234,-4.01012e-06,0,8,0,0,6.04969,2.34917,1.96
-1.18,-0.000239771,-0.00324422,0.000807758,0,1.33715e-09,-0.00471967,-2.67342e-06,0,8,0,0,6.07796,2.3585,1.964
-1.18,-0.000239771,-0.00326313,0.000807758,0,8.91432e-10,-0.00473702,-1.78228e-06,0,8,0,0,6.10633,2.36762,1.968
-1.18,-0.000239771,-0.00328211,0.000807758,0,5.94288e-10,-0.0047544,-1.18818e-06,0,8,0,0,6.1348,2.3766,1.972
-1.18,-0.000239771,-0.00330116,0.000807758,0,3.96192e-10,-0.0047718,-7.92123e-07,0,8,0,0,6.16338,2.3855,1.976
-1.18,-0.000239771,-0.00332029,0.000807758,0,2.64128e-10,-0.00478922,-5.28082e-07,0,8,0,0,6.19207,2.39435,1.98
-1.18,-0.000239771,-0.00333948,0.000807758,0,1.76085e-10,-0.00480667,-3.52055e-07,0,8,0,0,6.22085,2.40316,1.984
-1.18,-0.000240116,-0.00335874,0.000807758,0,-2.87908e-05,-0.00482414,-2.34703e-07,0,8,0,-0,6.24975,2.41195,1.988
-1.18,-0.000239771,-0.00337807,0.000807758,0,9.59705e-06,-0.00484164,-1.56469e-07,0,8,0,0,6.27874,2.42074,1.992
-1.18,-0.000239771,-0.00339747,0.000807758,0,6.39804e-06,-0.00485916,-1.04313e-07,0,8,0,0,6.30785,2.42953,1.996
-1.18,-0.000240116,-0.00341694,0.000807758,0,-2.45256e-05,-0.0048767,-6.95417e-08,0,8,0,-0,6.33705,2.43832,2
-1.18,-0.000239771,-0.00343649,0.000807758,0,1.24405e-05,-0.00489427,-4.63611e-08,0,8,0,0,6.36637,2.44711,2.004
-1.18,-0.000239771,-0.0034561,0.000807758,0,8.2937e-06,-0.00491186,-3.09074e-08,0,8,0,0,6.39579,2.45592,2.008
-1.18,-0.000239771,-0.00347578,0.000807758,0,5.52913e-06,-0.00492948,-2.06049e-08,0,8,0,0,6.42531,2.46473,2.012
-1.18,-0.000239771,-0.00349553,0.000807758,0,3.68609e-06,-0.00494712,-1.37366e-08,0,8,0,0,6.45494,2.47355,2.016
-1.18,-0.000239771,-0.00351536,0.000807758,0,2.45739e-06,-0.00496478,-9.15775e-09,0,8,0,0,6.48467,2.48239,2.02
-1.18,-0.000239771,-0.00353525,0.000807758,0,1.63826e-06,-0.00498247,-6.10517e-09,0,9,0,0,6.51452,2.49123,2.024
-1.18,-0.000239771,-0.00355522,0.000807758,0,1.09217e-06,-0.00500018,-4.07011e-09,0,9,0,0,6.54446,2.50009,2.028
-1.18,-0.000239771,-0.00357525,0.000807413,0,7.28116e-07,-0.00501791,-2.87936e-05,0,9,0,0,6.574,2.49456,2.032
-1.18,-0.000239771,-0.00359536,0.000807413,0,4.85411e-07,-0.00503567,-1.91958e-05,0,9,0,0,6.60416,2.50824,2.036
-1.18,-0.000239771,-0.00361554,0.000807413,0,3.23607e-07,-0.00505345,-1.27972e-05,0,9,0,0,6.63443,2.52033,2.04
-1.18,-0.000239771,-0.00363579,0.000807413,0,2.15738e-07,-0.00507125,-8.53145e-06,0,9,0,0,6.6648,2.53136,2.044
-1.18,-0.000239771,-0.00365611,0.000807413,0,1.43825e-07,-0.00508908,-5.68763e-06,0,9,0,0,6.69528,2.5417,2.048
-1.18,-0.000239771,-0.0036765,0.000807413,0,9.58836e-08,-0.00510693,-3.79175e-06,0,9,0,0,6.72587,2.55157,2.052
-1.18,-0.000239771,-0.00369697,0.000807413,0,6.39224e-08,-0.0051248,-2.52784e-06,0,9,0,0,6.75657,2.56114,2.056
-1.18,-0.000239771,-0.0037175,0.000807413,0,4.26149e-08,-0.0051427,-1.68522e-06,0,9,0,0,6.78737,2.57051,2.06
-1.18,-0.000239771,-0.00373811,0.000807413,0,2.841e-08,-0.00516062,-1.12348e-06,0,9,0,0,6.81828,2.57975,2.064
-1.18,-0.000240116,-0.00375879,0.000807413,0,-2.8772e-05,-0.00517856,-7.48989e-07,0,9,0,-0,6.8493,2.58891,2.068
-1.18,-0.000239771,-0.00377954,0.000807413,0,9.6096e-06,-0.00519653,-4.99326e-07,0,9,0,0,6.88042,2.59802,2.072
-1.18,-0.000239771,-0.00380036,0.000807413,0,6.4064e-06,-0.00521452,-3.32884e-07,0,9,0,0,6.91166,2.60709,2.076
-1.18,-0.000239771,-0.00382125,0.000807413,0,4.27093e-06,-0.00523253,-2.21923e-07,0,9,0,0,6.943,2.61615,2.08
-1.18,-0.000239771,-0.00384222,0.000807413,0,2.84729e-06,-0.00525057,-1.47948e-07,0,9,0,0,6.97445,2.62521,2.084
-1.18,-0.000239771,-0.00386326,0.000807413,0,1.89819e-06,-0.00526862,-9.86322e-08,0,9,0,0,7.006,2.63426,2.088
-1.18,-0.000239771,-0.00388437,0.000807413,0,1.26546e-06,-0.00528671,-6.57548e-08,0,9,0,0,7.03767,2.64332,2.092
-1.18,-0.000239771,-0.00390555,0.000807413,0,8.43641e-07,-0.00530481,-4.38366e-08,0,9,0,0,7.06944,2.65238,2.096
-1.18,-0.000240116,-0.00392681,0.000807413,0,-2.82285e-05,-0.00532294,-2.92244e-08,0,9,0,-0,7.10133,2.66145,2.1
-1.18,-0.000239771,-0.00394813,0.000807413,0,9.97193e-06,-0.00534108,-1.94829e-08,0,9,0,0,7.13332,2.67053,2.104
-1.18,-0.000239771,-0.00396953,0.000807413,0,6.64795e-06,-0.00535926,-1.29886e-08,0,9,0,0,7.16542,2.67962,2.108
-1.18,-0.000240116,-0.00399101,0.000807413,0,-2.4359e-05,-0.00537745,-8.65907e-09,0,9,0,-0,7.19763,2.68872,2.112
-1.18,-0.000239771,-0.00401255,0.000807413,0,1.25516e-05,-0.00539567,-5.77271e-09,0,9,0,0,7.22995,2.69783,2.116
-1.18,-0.000239771,-0.00403417,0.000807413,0,8.36775e-06,-0.00541391,-3.84848e-09,0,9,0,0,7.26238,2.70695,2.12
-1.18,-0.000239771,-0.00405586,0.000807413,0,5.5785e-06,-0.00543217,-2.56565e-09,0,10,0,0,7.29492,2.71608,2.124
-1.18,-0.000239771,-0.00407763,0.000807413,0,3.719e-06,-0.00545046,-1.71043e-09,0,10,0,0,7.32756,2.72523,2.128
-1.18,-0.000239771,-0.00409947,0.000807413,0,2.47933e-06,-0.00546876,-1.14029e-09,0,10,0,0,7.36032,2.73438,2.132
-1.18,-0.000239771,-0.00412138,0.000807413,0,1.65289e-06,-0.00548709,-7.60193e-10,0,10,0,0,7.39319,2.74355,2.136
-1.18,-0.000239771,-0.00414337,0.000807413,0,1.10193e-06,-0.00550545,-5.06795e-10,0,10,0,0,7.42617,2.75272,2.14
-1.18,-0.000239771,-0.00416542,0.000807413,0,7.34617e-07,-0.00552382,-3.37864e-10,0,10,0,0,7.45925,2.76191,2.144
-1.18,-0.000239771,-0.00418756,0.000807413,0,4.89745e-07,-0.00554222,-2.25242e-10,0,10,0,0,7.49245,2.77111,2.148
-1.18,-0.000239771,-0.00420976,0.000807413,0,3.26496e-07,-0.00556064,-1.50162e-10,0,10,0,0,7.52576,2.78032,2.152
-1.18,-0.000239771,-0.00423204,0.000807413,0,2.17664e-07,-0.00557908,-1.00108e-10,0,10,0,0,7.55918,2.78954,2.156
-1.18,-0.000239771,-0.00425439,0.000806722,0,1.4511e-07,-0.00559754,-5.75819e-05,0,10,0,0,7.59167,2.76998,2.16
-1.18,-0.000239771,-0.00427682,0.000807413,0,9.67397e-08,-0.00561603,1.91939e-05,0,10,0,0,7.62635,2.81761,2.164
-1.18,-0.000239771,-0.00429932,0.000807413,0,6.44931e-08,-0.00563453,1.27959e-05,0,10,0,0,7.6601,2.82367,2.168
-1.18,-0.000239771,-0.0043219,0.000807413,0,4.29954e-08,-0.00565306,8.53062e-06,0,10,0,0,7.69397,2.8308,2.172
-1.18,-0.000239771,-0.00434455,0.000807413,0,2.86636e-08,-0.00567162,5.68708e-06,0,10,0,0,7.72794,2.83865,2.176
-1.18,-0.000239771,-0.00436727,0.000807413,0,1.91091e-08,-0.00569019,3.79139e-06,0,10,0,0,7.76203,2.84699,2.18
-1.18,-0.000239771,-0.00439007,0.000807413,0,1.27394e-08,-0.00570879,2.52759e-06,0,10,0,0,7.79622,2.85566,2.184
-1.18,-0.000239771,-0.00441294,0.000807758,0,8.49292e-09,-0.0057274,3.0476e-05,0,10,0,0,7.83105,2.87894,2.188
-1.18,-0.000239771,-0.00443589,0.000806722,0,5.66195e-09,-0.00574604,-6.60554e-05,0,10,0,0,7.86391,2.83999,2.192
-1.18,-0.000239771,-0.00445891,0.000807413,0,3.77463e-09,-0.0057647,1.35449e-05,0,10,0,0,7.89948,2.88912,2.196
-1.18,-0.000239771,-0.00448201,0.000806722,0,2.51642e-09,-0.00578339,-4.85519e-05,0,10,0,0,7.93309,2.86742,2.2
-1.18,-0.000239771,-0.00450518,0.000806722,0,1.67761e-09,-0.00580209,-3.2368e-05,0,10,0,0,7.96785,2.88486,2.204
-1.18,-0.000239771,-0.00452842,0.000807413,0,1.11841e-09,-0.00582082,3.60032e-05,0,10,0,0,8.00375,2.92841,2.208
-1.18,-0.000239771,-0.00455174,0.000807413,0,7.45606e-10,-0.00583957,2.40021e-05,0,10,0,0,8.03873,2.93178,2.212
-1.18,-0.000239771,-0.00457514,0.000807758,0,4.97071e-10,-0.00585833,4.47924e-05,0,11,0,0,8.07435,2.95156,2.216
-1.18,-0.000239771,-0.00459861,0.000806722,0,3.31381e-10,-0.00587713,-5.65112e-05,0,11,0,0,8.108,2.91031,2.22
-1.18,-0.000239771,-0.00462216,0.000807067,0,2.2092e-10,-0.00589594,-8.88321e-06,0,11,0,0,8.14383,2.94353,2.224
-1.18,-0.000240116,-0.00464578,0.000807067,0,-2.87908e-05,-0.00591477,-5.92214e-06,0,11,0,-0,8.17927,2.95443,2.228
-1.18,-0.000239771,-0.00466947,0.000806722,0,9.59707e-06,-0.00593363,-3.2739e-05,0,11,0,0,8.21429,2.95044,2.232
-1.18,-0.000239771,-0.00469325,0.000806722,0,6.39805e-06,-0.0059525,-2.1826e-05,0,11,0,0,8.24995,2.96534,2.236
-1.18,-0.000239771,-0.00471709,0.000806722,0,4.26537e-06,-0.0059714,-1.45507e-05,0,11,0,0,8.28572,2.97843,2.24
-1.18,-0.000239771,-0.00474102,0.000806722,0,2.84358e-06,-0.00599032,-9.70045e-06,0,11,0,0,8.32161,2.99031,2.244
-1.18,-0.000239771,-0.00476502,0.000806722,0,1.89572e-06,-0.00600926,-6.46697e-06,0,11,0,0,8.35761,3.0014,2.248
-1.18,-0.000239771,-0.00478909,0.000806722,0,1.26381e-06,-0.00602823,-4.31131e-06,0,11,0,0,8.39372,3.01196,2.252
-1.18,-0.000239771,-0.00481324,0.000806722,0,8.42541e-07,-0.00604721,-2.87421e-06,0,11,0,0,8.42995,3.02217,2.256
-1.18,-0.000239771,-0.00483747,0.000806722,0,5.61694e-07,-0.00606621,-1.91614e-06,0,11,0,0,8.46629,3.03215,2.26
-1.18,-0.000239425,-0.00486177,0.000806376,0,2.91654e-05,-0.00608524,-3.00684e-05,0,11,0,0,8.50222,3.02758,2.264
-1.18,-0.000239771,-0.00488615,0.000806376,0,-9.34733e-06,-0.00610428,-2.00456e-05,0,11,0,-0,8.53879,3.04212,2.268
-1.18,-0.000239771,-0.00491061,0.000806376,0,-6.23156e-06,-0.00612335,-1.33637e-05,0,11,0,-0,8.57547,3.05499,2.272
-1.18,-0.000239771,-0.00493514,0.000806376,0,-4.15437e-06,-0.00614244,-8.90914e-06,0,11,0,-0,8.61227,3.06677,2.276
-1.18,-0.000240116,-0.00495975,0.000806376,0,-3.15605e-05,-0.00616155,-5.93943e-06,0,11,0,-0,8.64918,3.07781,2.28
-1.18,-0.000239771,-0.00498443,0.000806376,0,7.75059e-06,-0.00618068,-3.95962e-06,0,11,0,0,8.68621,3.08836,2.284
-1.18,-0.000239771,-0.00500919,0.000806376,0,5.16706e-06,-0.00619983,-2.63975e-06,0,11,0,0,8.72335,3.0986,2.288
-1.18,-0.000239771,-0.00503403,0.000806376,0,3.44471e-06,-0.006219,-1.75983e-06,0,11,0,0,8.76061,3.10862,2.292
-1.18,-0.000239771,-0.00505894,0.000806376,0,2.29647e-06,-0.0062382,-1.17322e-06,0,11,0,0,8.79798,3.11851,2.296
-1.18,-0.000239771,-0.00508393,0.000806376,0,1.53098e-06,-0.00625741,-7.82147e-07,0,11,0,0,8.83547,3.12831,2.3
-1.18,-0.000239771,-0.005109,0.000806376,0,1.02065e-06,-0.00627664,-5.21431e-07,0,12,0,0,8.87307,3.13806,2.304
-1.18,-0.000239771,-0.00513415,0.000806376,0,6.80436e-07,-0.0062959,-3.47621e-07,0,12,0,0,8.91079,3.14778,2.308
-1.18,-0.000239771,-0.00515937,0.000806376,0,4.53624e-07,-0.00631517,-2.31747e-07,0,12,0,0,8.94862,3.15747,2.312
-1.18,-0.000239771,-0.00518467,0.000806376,0,3.02416e-07,-0.00633447,-1.54498e-07,0,12,0,0,8.98657,3.16716,2.316
-1.18,-0.000239771,-0.00521005,0.000806031,0,2.01611e-07,-0.00635379,-2.88939e-05,0,12,0,0,9.02412,3.16245,2.32
-1.18,-0.000239771,-0.0052355,0.000805685,0,1.34407e-07,-0.00637312,-4.80535e-05,0,12,0,0,9.06178,3.16254,2.324
-1.18,-0.000239771,-0.00526103,0.000806376,0,8.96047e-08,-0.00639248,2.55462e-05,0,12,0,0,9.10111,3.20901,2.328
-1.18,-0.000239771,-0.00528664,0.000806031,0,5.97365e-08,-0.00641186,-1.17602e-05,0,12,0,0,9.13901,3.20005,2.332
-1.18,-0.000239771,-0.00531233,0.000806376,0,3.98243e-08,-0.00643126,2.09508e-05,0,12,0,0,9.17805,3.2261,2.336
-1.18,-0.000239771,-0.00533809,0.000806722,0,2.65495e-08,-0.00645068,4.27581e-05,0,12,0,0,9.21722,3.24672,2.34
-1.18,-0.000239771,-0.00536393,0.000805685,0,1.76997e-08,-0.00647011,-5.78673e-05,0,12,0,0,9.25442,3.20612,2.344
-1.18,-0.000239771,-0.00538985,0.000806031,0,1.17998e-08,-0.00648957,-9.78731e-06,0,12,0,0,9.29382,3.23989,2.348
-1.18,-0.000239771,-0.00541585,0.000806031,0,7.86653e-09,-0.00650905,-6.52487e-06,0,12,0,0,9.33282,3.25126,2.352
-1.18,-0.000239771,-0.00544192,0.000806031,0,5.24435e-09,-0.00652855,-4.34991e-06,0,12,0,0,9.37193,3.2621,2.356
-1.18,-0.000239771,-0.00546808,0.000806031,0,3.49624e-09,-0.00654807,-2.89994e-06,0,12,0,0,9.41116,3.27259,2.36
-1.18,-0.000239771,-0.00549431,0.000806031,0,2.33082e-09,-0.00656761,-1.9333e-06,0,12,0,0,9.45051,3.28284,2.364
-1.18,-0.000239771,-0.00552062,0.000806031,0,1.55388e-09,-0.00658717,-1.28886e-06,0,12,0,0,9.48997,3.29294,2.368
-1.18,-0.000239771,-0.00554701,0.000806031,0,1.03592e-09,-0.00660675,-8.59242e-07,0,12,0,0,9.52955,3.30295,2.372
-1.18,-0.000239771,-0.00557347,0.000806031,0,6.90615e-10,-0.00662635,-5.72828e-07,0,12,0,0,9.56925,3.31289,2.376
-1.18,-0.000239771,-0.00560002,0.000806031,0,4.6041e-10,-0.00664597,-3.81885e-07,0,12,0,0,9.60907,3.32279,2.38
-1.18,-0.000239771,-0.00562664,0.000806031,0,3.0694e-10,-0.00666561,-2.5459e-07,0,12,0,0,9.649,3.33268,2.384
-1.18,-0.000239771,-0.00565334,0.000806031,0,2.04627e-10,-0.00668527,-1.69727e-07,0,13,0,0,9.68906,3.34255,2.388
-1.18,-0.000239771,-0.00568012,0.000806031,0,1.36418e-10,-0.00670495,-1.13151e-07,0,13,0,0,9.72923,3.35242,2.392
-1.18,-0.000239771,-0.00570698,0.000806031,0,9.09451e-11,-0.00672465,-7.54342e-08,0,13,0,0,9.76952,3.36229,2.396
-1.18,-0.000239771,-0.00573392,0.000806376,0,6.06301e-11,-0.00674437,2.87406e-05,0,13,0,0,9.81044,3.38655,2.4
-1.18,-0.000239771,-0.00576094,0.000805685,0,4.04201e-11,-0.0067641,-3.84214e-05,0,13,0,0,9.84993,3.36284,2.404
-1.18,-0.000239771,-0.00578803,0.000805685,0,2.69467e-11,-0.00678386,-2.56143e-05,0,13,0,0,9.89057,3.37912,2.408
-1.18,-0.000239771,-0.00581521,0.000805685,0,1.79645e-11,-0.00680364,-1.70762e-05,0,13,0,0,9.93134,3.39328,2.412
-1.18,-0.000239771,-0.00584246,0.000805685,0,1.19763e-11,-0.00682344,-1.13841e-05,0,13,0,0,9.97222,3.40603,2.416
-1.18,-0.000239771,-0.00586979,0.000805685,0,7.98421e-12,-0.00684325,-7.58942e-06,0,13,0,0,10.0132,3.41783,2.42
-1.18,-0.000239771,-0.00589721,0.000805685,0,5.32281e-12,-0.00686309,-5.05961e-06,0,13,0,0,10.0543,3.42901,2.424
-1.18,-0.000239771,-0.0059247,0.000805685,0,3.54854e-12,-0.00688294,-3.37307e-06,0,13,0,0,10.0956,3.43979,2.428
-1.18,-0.000239771,-0.00595227,0.000806031,0,2.36569e-12,-0.00690282,2.65422e-05,0,13,0,0,10.1375,3.46468,2.432
-1.18,-0.000239771,-0.00597992,0.000805685,0,1.57713e-12,-0.00692271,-1.10961e-05,0,13,0,0,10.1784,3.45581,2.436
-1.18,-0.000239771,-0.00600765,0.000804994,0,1.05142e-12,-0.00694263,-6.49793e-05,0,13,0,0,10.219,3.43882,2.44
-1.18,-0.000239771,-0.00603546,0.00080534,0,7.00946e-13,-0.00696256,-1.45286e-05,0,13,0,0,10.2612,3.47402,2.444
-1.18,-0.000239771,-0.00606335,0.00080534,0,4.67297e-13,-0.00698251,-9.68572e-06,0,13,0,0,10.303,3.48641,2.448
-1.18,-0.000239771,-0.00609132,0.00080534,0,3.11531e-13,-0.00700248,-6.45715e-06,0,13,0,0,10.345,3.49801,2.452
-1.18,-0.000239771,-0.00611937,0.00080534,0,2.07688e-13,-0.00702247,-4.30477e-06,0,13,0,0,10.3871,3.50908,2.456
-1.18,-0.000239425,-0.0061475,0.00080534,0,2.87909e-05,-0.00704248,-2.86984e-06,0,13,0,0,10.4293,3.51981,2.46
-1.18,-0.000239771,-0.00617571,0.00080534,0,-9.59697e-06,-0.00706251,-1.91323e-06,0,14,0,-0,10.4716,3.5303,2.464
-1.18,-0.000239771,-0.006204,0.00080534,0,-6.39798e-06,-0.00708256,-1.27549e-06,0,14,0,-0,10.514,3.54064,2.468
-1.18,-0.000239771,-0.00623237,0.00080534,0,-4.26532e-06,-0.00710263,-8.50324e-07,0,14,0,-0,10.5566,3.55089,2.472
-1.18,-0.000239771,-0.00626082,0.00080534,0,-2.84355e-06,-0.00712271,-5.66883e-07,0,14,0,-0,10.5992,3.56107,2.476
-1.18,-0.000239771,-0.00628935,0.00080534,0,-1.8957e-06,-0.00714282,-3.77922e-07,0,14,0,-0,10.642,3.57122,2.48
-1.18,-0.000239771,-0.00631797,0.000804994,0,-1.2638e-06,-0.00716294,-2.90429e-05,0,14,0,-0,10.6844,3.56695,2.484
-1.18,-0.000239771,-0.00634666,0.000804994,0,-8.42533e-07,-0.00718308,-1.93619e-05,0,14,0,-0,10.7275,3.58186,2.488
-1.18,-0.000239771,-0.00637543,0.000804994,0,-5.61689e-07,-0.00720324,-1.29079e-05,0,14,0,-0,10.7706,3.59517,2.492
-1.18,-0.000239771,-0.00640428,0.000804994,0,-3.74459e-07,-0.00722342,-8.6053e-06,0,14,0,-0,10.8139,3.60741,2.496
-1.18,-0.000239771,-0.00643322,0.000804994,0,-2.49639e-07,-0.00724362,-5.73686e-06,0,14,0,-0,10.8573,3.61894,2.5
-1.18,-0.000239771,-0.00646223,0.000804994,0,-1.66426e-07,-0.00726384,-3.82458e-06,0,14,0,-0,10.9008,3.63001,2.504
-1.18,-0.000239771,-0.00649133,0.000804649,0,-1.10951e-07,-0.00728407,-3.13406e-05,0,14,0,-0,10.944,3.62637,2.508
-1.18,-0.000239771,-0.00652051,0.00080534,0,-7.39672e-08,-0.00730433,3.66881e-05,0,14,0,-0,10.9888,3.67051,2.512
-1.18,-0.000239771,-0.00654976,0.000804649,0,-4.93115e-08,-0.0073246,-3.31231e-05,0,14,0,-0,11.0316,3.64574,2.516
-1.18,-0.000239771,-0.0065791,0.000804649,0,-3.28743e-08,-0.00734489,-2.20821e-05,0,14,0,-0,11.0756,3.66141,2.52
-1.18,-0.000239771,-0.00660852,0.000804649,0,-2.19162e-08,-0.0073652,-1.47214e-05,0,14,0,-0,11.1198,3.67524,2.524
-1.18,-0.000239771,-0.00663802,0.000804649,0,-1.46108e-08,-0.00738553,-9.81426e-06,0,14,0,-0,11.164,3.68786,2.528
-1.18,-0.000239771,-0.00666761,0.000804649,0,-9.74054e-09,-0.00740588,-6.54284e-06,0,14,0,-0,11.2084,3.69967,2.532
-1.18,-0.000239771,-0.00669727,0.000804649,0,-6.49369e-09,-0.00742624,-4.36189e-06,0,14,0,-0,11.2529,3.71094,2.536
-1.18,-0.000239771,-0.00672702,0.000804649,0,-4.32913e-09,-0.00744663,-2.90793e-06,0,15,0,-0,11.2975,3.72186,2.54
-1.18,-0.000239771,-0.00675684,0.000804649,0,-2.88609e-09,-0.00746703,-1.93862e-06,0,15,0,-0,11.3422,3.73254,2.544
-1.18,-0.000239771,-0.00678675,0.000804303,0,-1.92406e-09,-0.00748745,-3.00833e-05,0,15,0,-0,11.3866,3.72868,2.548
-1.18,-0.000239771,-0.00681674,0.000804303,0,-1.2827e-09,-0.00750789,-2.00556e-05,0,15,0,-0,11.4316,3.74392,2.552
-1.18,-0.000239771,-0.00684682,0.000804303,0,-8.55136e-10,-0.00752834,-1.33704e-05,0,15,0,-0,11.4767,3.75749,2.556
-1.18,-0.000239771,-0.00687697,0.000804303,0,-5.70091e-10,-0.00754882,-8.91358e-06,0,15,0,-0,11.5219,3.76995,2.56
-1.18,-0.000239771,-0.00690721,0.000804303,0,-3.80061e-10,-0.00756931,-5.94239e-06,0,15,0,-0,11.5673,3.78168,2.564
-1.18,-0.000239771,-0.00693752,0.000804303,0,-2.53374e-10,-0.00758982,-3.96159e-06,0,15,0,-0,11.6127,3.79293,2.568
-1.18,-0.000239771,-0.00696793,0.000804303,0,-1.68916e-10,-0.00761035,-2.64106e-06,0,15,0,-0,11.6583,3.80385,2.572
-1.18,-0.000239771,-0.00699841,0.000804303,0,-1.12611e-10,-0.0076309,-1.76071e-06,0,15,0,-0,11.7041,3.81457,2.576
-1.18,-0.000239771,-0.00702897,0.000804303,0,-7.50737e-11,-0.00765146,-1.1738e-06,0,15,0,-0,11.7499,3.82514,2.58
-1.18,-0.000239771,-0.00705962,0.000804303,0,-5.00491e-11,-0.00767204,-7.82537e-07,0,15,0,-0,11.7959,3.83563,2.584
-1.18,-0.000239771,-0.00709035,0.000804303,0,-3.33661e-11,-0.00769264,-5.21691e-07,0,15,0,-0,11.842,3.84606,2.588
-1.18,-0.000239771,-0.00712116,0.000803958,0,-2.22441e-11,-0.00771326,-2.91387e-05,0,15,0,-0,11.8877,3.84206,2.592
-1.18,-0.000239771,-0.00715205,0.000803958,0,-1.48294e-11,-0.0077339,-1.94258e-05,0,15,0,-0,11.934,3.85724,2.596
-1.18,-0.000239771,-0.00718303,0.000803958,0,-9.88625e-12,-0.00775455,-1.29505e-05,0,15,0,-0,11.9805,3.8708,2.6
-1.18,-0.000239771,-0.00721409,0.000803958,0,-6.59083e-12,-0.00777522,-8.63369e-06,0,15,0,-0,12.0271,3.88329,2.604
-1.18,-0.000239771,-0.00724523,0.000803958,0,-4.39389e-12,-0.00779591,-5.7558e-06,0,15,0,-0,12.0738,3.89508,2.608
-1.18,-0.000239771,-0.00727646,0.000803958,0,-2.92926e-12,-0.00781662,-3.8372e-06,0,16,0,-0,12.1206,3.90639,2.612
-1.18,-0.000239771,-0.00730777,0.000803958,0,-1.95284e-12,-0.00783734,-2.55813e-06,0,16,0,-0,12.1676,3.91739,2.616
-1.18,-0.000239771,-0.00733916,0.000803958,0,-1.30189e-12,-0.00785808,-1.70542e-06,0,16,0,-0,12.2147,3.92819,2.62
-1.18,-0.000239771,-0.00737063,0.000803612,0,-8.67929e-13,-0.00787884,-2.99279e-05,0,16,0,-0,12.2614,3.92446,2.624
-1.18,-0.000239771,-0.00740219,0.000803612,0,-5.78619e-13,-0.00789962,-1.99519e-05,0,16,0,-0,12.3087,3.93983,2.628
-1.18,-0.000239771,-0.00743383,0.000803612,0,-3.85746e-13,-0.00792041,-1.33013e-05,0,16,0,-0,12.3562,3.95356,2.632
-1.18,-0.000239771,-0.00746555,0.000803612,0,-2.57164e-13,-0.00794122,-8.86752e-06,0,16,0,-0,12.4037,3.96618,2.636
-1.18,-0.000239771,-0.00749736,0.000803612,0,-1.71443e-13,-0.00796205,-5.91168e-06,0,16,0,-0,12.4515,3.97807,2.64
-1.18,-0.000239771,-0.00752925,0.000803612,0,-1.14295e-13,-0.0079829,-3.94112e-06,0,16,0,-0,12.4993,3.98948,2.644
-1.18,-0.000239771,-0.00756122,0.000803267,0,-7.61967e-14,-0.00800376,-3.14183e-05,0,16,0,-0,12.5467,3.98617,2.648
-1.18,-0.000239771,-0.00759328,0.000803612,0,-5.07978e-14,-0.00802464,7.84537e-06,0,16,0,-0,12.5953,4.01624,2.652
-1.18,-0.000239771,-0.00762542,0.000803612,0,-3.38652e-14,-0.00804554,5.23024e-06,0,16,0,-0,12.6435,4.02538,2.656
-1.18,-0.000239771,-0.00765764,0.000803267,0,-2.25768e-14,-0.00806645,-2.53041e-05,0,16,0,-0,12.6914,4.02058,2.66
-1.18,-0.000239771,-0.00768995,0.000803267,0,-1.50512e-14,-0.00808739,-1.68694e-05,0,16,0,-0,12.7398,4.03526,2.664
-1.18,-0.000239771,-0.00772234,0.000803267,0,-1.00341e-14,-0.00810834,-1.12463e-05,0,16,0,-0,12.7884,4.04854,2.668
-1.18,-0.000239771,-0.00775482,0.000803267,0,-6.68943e-15,-0.0081293,-7.49751e-06,0,16,0,-0,12.8371,4.0609,2.672
-1.18,-0.000239771,-0.00778738,0.000803267,0,-4.45962e-15,-0.00815028,-4.99834e-06,0,16,0,-0,12.886,4.07264,2.676
-1.18,-0.000239771,-0.00782002,0.000803267,0,-2.97308e-15,-0.00817128,-3.33223e-06,0,17,0,-0,12.9349,4.08398,2.68
-1.18,-0.000239771,-0.00785275,0.000803267,0,-1.98205e-15,-0.0081923,-2.22148e-06,0,17,0,-0,12.984,4.09504,2.684
-1.18,-0.000239771,-0.00788556,0.000803267,0,-1.32137e-15,-0.00821333,-1.48099e-06,0,17,0,-0,13.0332,4.10593,2.688
-1.18,-0.000239771,-0.00791845,0.000803267,0,-8.80912e-16,-0.00823438,-9.87326e-07,0,17,0,-0,13.0826,4.1167,2.692
-1.18,-0.000239771,-0.00795143,0.000803267,0,-5.87275e-16,-0.00825545,-6.58218e-07,0,17,0,-0,13.132,4.1274,2.696
-1.18,-0.000239771,-0.0079845,0.000803267,0,-3.91517e-16,-0.00827654,-4.38812e-07,0,17,0,-0,13.1816,4.13805,2.7
-1.18,-0.000239771,-0.00801764,0.000803267,0,-2.61011e-16,-0.00829764,-2.92541e-07,0,17,0,-0,13.2314,4.14867,2.704
-1.18,-0.000239771,-0.00805088,0.000803267,0,-1.74007e-16,-0.00831875,-1.95027e-07,0,17,0,-0,13.2812,4.15928,2.708
-1.18,-0.000239771,-0.0080842,0.000802921,0,-1.16005e-16,-0.00833989,-2.89209e-05,0,17,0,-0,13.3307,4.15548,2.712
-1.18,-0.000239771,-0.0081176,0.000802921,0,-7.73366e-17,-0.00836104,-1.92806e-05,0,17,0,-0,13.3808,4.17088,2.716
-1.18,-0.000239771,-0.00815108,0.000802921,0,-5.15577e-17,-0.00838221,-1.28538e-05,0,17,0,-0,13.431,4.18468,2.72
-1.18,-0.000239771,-0.00818465,0.000802921,0,-3.43718e-17,-0.00840339,-8.56917e-06,0,17,0,-0,13.4814,4.19741,2.724
-1.18,-0.000239771,-0.00821831,0.000802921,0,-2.29145e-17,-0.00842459,-5.71278e-06,0,17,0,-0,13.5318,4.20944,2.728
-1.18,-0.000239771,-0.00825205,0.000802921,0,-1.52764e-17,-0.00844581,-3.80852e-06,0,17,0,-0,13.5825,4.221,2.732
-1.18,-0.000239771,-0.00828588,0.000802921,0,-1.01842e-17,-0.00846704,-2.53901e-06,0,17,0,-0,13.6332,4.23225,2.736
-1.18,-0.000239771,-0.00831979,0.000802921,0,-6.7895e-18,-0.00848829,-1.69268e-06,0,17,0,-0,13.6841,4.2433,2.74
-1.18,-0.000239771,-0.00835378,0.000802576,0,-4.52633e-18,-0.00850955,-2.99194e-05,0,17,0,-0,13.7345,4.23982,2.744
-1.18,-0.000239771,-0.00838786,0.000802921,0,-3.01755e-18,-0.00853084,8.84467e-06,0,18,0,-0,13.7862,4.26984,2.748
-1.18,-0.000239771,-0.00842203,0.000802576,0,-2.0117e-18,-0.00855214,-2.28945e-05,0,18,0,-0,13.8369,4.26462,2.752
-1.18,-0.000239771,-0.00845628,0.000802576,0,-1.34113e-18,-0.00857345,-1.5263e-05,0,18,0,-0,13.8883,4.27909,2.756
-1.18,-0.000239771,-0.00849062,0.000802576,0,-8.9409e-19,-0.00859478,-1.01753e-05,0,18,0,-0,13.9398,4.2923,2.76
-1.18,-0.000239771,-0.00852504,0.000802576,0,-5.9606e-19,-0.00861613,-6.78355e-06,0,18,0,-0,13.9914,4.30467,2.764
-1.18,-0.000239771,-0.00855955,0.000802576,0,-3.97373e-19,-0.00863749,-4.52237e-06,0,18,0,-0,14.0432,4.31648,2.768
-1.18,-0.000239771,-0.00859414,0.000802576,0,-2.64916e-19,-0.00865887,-3.01491e-06,0,18,0,-0,14.0951,4.32793,2.772
-1.18,-0.000239771,-0.00862882,0.000802576,0,-1.7661e-19,-0.00868026,-2.00994e-06,0,18,0,-0,14.1471,4.33913,2.776
-1.18,-0.000239771,-0.00866358,0.000802576,0,-1.1774e-19,-0.00870167,-1.33996e-06,0,18,0,-0,14.1992,4.35017,2.78
-1.18,-0.000239771,-0.00869843,0.000802576,0,-7.84935e-20,-0.0087231,-8.93307e-07,0,18,0,-0,14.2515,4.3611,2.784
-1.18,-0.000239771,-0.00873337,0.000802576,0,-5.2329e-20,-0.00874454,-5.95538e-07,0,18,0,-0,14.3039,4.37197,2.788
-1.18,-0.000239771,-0.00876839,0.00080223,0,-3.4886e-20,-0.008766,-2.91879e-05,0,18,0,-0,14.3559,4.36841,2.792
-1.18,-0.000239771,-0.00880349,0.00080223,0,-2.32573e-20,-0.00878748,-1.94586e-05,0,18,0,-0,14.4086,4.38401,2.796
-1.18,-0.000239425,-0.00883869,0.00080223,0,2.87909e-05,-0.00880897,-1.29724e-05,0,18,0,0,14.4614,4.398,2.8
-1.18,-0.000239771,-0.00887397,0.00080223,0,-9.59697e-06,-0.00883047,-8.64828e-06,0,18,0,-0,14.5143,4.41091,2.804
-1.18,-0.000239771,-0.00890933,0.00080223,0,-6.39798e-06,-0.00885199,-5.76552e-06,0,18,0,-0,14.5673,4.42311,2.808
-1.18,-0.000239771,-0.00894478,0.00080223,0,-4.26532e-06,-0.00887353,-3.84368e-06,0,19,0,-0,14.6205,4.43484,2.812
-1.18,-0.000239771,-0.00898032,0.00080223,0,-2.84355e-06,-0.00889509,-2.56245e-06,0,19,0,-0,14.6738,4.44626,2.816
-1.18,-0.000239771,-0.00901594,0.00080223,0,-1.8957e-06,-0.00891665,-1.7083e-06,0,19,0,-0,14.7273,4.45747,2.82
-1.18,-0.000239771,-0.00905165,0.00080223,0,-1.2638e-06,-0.00893824,-1.13887e-06,0,19,0,-0,14.7808,4.46855,2.824
-1.18,-0.000239771,-0.00908745,0.00080223,0,-8.42533e-07,-0.00895984,-7.59246e-07,0,19,0,-0,14.8345,4.47954,2.828
-1.18,-0.000239771,-0.00912333,0.00080223,0,-5.61689e-07,-0.00898145,-5.06164e-07,0,19,0,-0,14.8883,4.49047,2.832
-1.18,-0.000239771,-0.0091593,0.00080223,0,-3.74459e-07,-0.00900308,-3.37442e-07,0,19,0,-0,14.9423,4.50137,2.836
-1.18,-0.000239771,-0.00919536,0.00080223,0,-2.49639e-07,-0.00902473,-2.24962e-07,0,19,0,-0,14.9964,4.51225,2.84
-1.18,-0.000239771,-0.0092315,0.000801885,0,-1.66426e-07,-0.00904639,-2.89409e-05,0,19,0,-0,15.0501,4.50872,2.844
-1.18,-0.000239771,-0.00926773,0.000801885,0,-1.10951e-07,-0.00906807,-1.92939e-05,0,19,0,-0,15.1044,4.52439,2.848
-1.18,-0.000239771,-0.00930404,0.000801885,0,-7.39672e-08,-0.00908976,-1.28626e-05,0,19,0,-0,15.1589,4.53845,2.852
-1.18,-0.000239771,-0.00934045,0.000801885,0,-4.93115e-08,-0.00911147,-8.57508e-06,0,19,0,-0,15.2135,4.55145,2.856
-1.18,-0.000239771,-0.00937693,0.000801539,0,-3.28743e-08,-0.00913319,-3.45076e-05,0,19,0,-0,15.2677,4.54934,2.86
-1.18,-0.000239771,-0.00941351,0.000801539,0,-2.19162e-08,-0.00915493,-2.30051e-05,0,19,0,-0,15.3226,4.56596,2.864
-1.18,-0.000239771,-0.00945017,0.000801539,0,-1.46108e-08,-0.00917668,-1.53367e-05,0,19,0,-0,15.3776,4.58067,2.868
-1.18,-0.000239771,-0.00948692,0.000801539,0,-9.74054e-09,-0.00919845,-1.02245e-05,0,20,0,-0,15.4327,4.59411,2.872
-1.18,-0.000239771,-0.00952376,0.000801194,0,-6.49369e-09,-0.00922023,-3.56072e-05,0,20,0,-0,15.4874,4.59231,2.876
-1.18,-0.000239771,-0.00956069,0.000801194,0,-4.32913e-09,-0.00924203,-2.37382e-05,0,20,0,-0,15.5428,4.60914,2.88
-1.18,-0.000239771,-0.0095977,0.000801194,0,-2.88609e-09,-0.00926384,-1.58254e-05,0,20,0,-0,15.5983,4.62401,2.884
-1.18,-0.000239771,-0.0096348,0.000801194,0,-1.92406e-09,-0.00928567,-1.05503e-05,0,20,0,-0,15.654,4.63756,2.888
-1.18,-0.000239771,-0.00967198,0.000801194,0,-1.2827e-09,-0.00930751,-7.03353e-06,0,20,0,-0,15.7098,4.65024,2.892
-1.18,-0.000239771,-0.00970926,0.000801194,0,-8.55136e-10,-0.00932937,-4.68902e-06,0,20,0,-0,15.7657,4.66234,2.896
-1.18,-0.000239771,-0.00974662,0.000800848,0,-5.70091e-10,-0.00935124,-3.19169e-05,0,20,0,-0,15.8212,4.65966,2.9
-1.18,-0.000239771,-0.00978407,0.000800848,0,-3.80061e-10,-0.00937313,-2.1278e-05,0,20,0,-0,15.8774,4.67592,2.904
-1.18,-0.000239771,-0.0098216,0.000800848,0,-2.53374e-10,-0.00939503,-1.41853e-05,0,20,0,-0,15.9337,4.69042,2.908
-1.18,-0.000239771,-0.00985923,0.000800848,0,-1.68916e-10,-0.00941695,-9.45687e-06,0,20,0,-0,15.9901,4.70374,2.912
-1.18,-0.000239771,-0.00989694,0.000800503,0,-1.12611e-10,-0.00943888,-3.50955e-05,0,20,0,-0,16.0462,4.70189,2.916
-1.18,-0.000239425,-0.00993474,0.000800848,0,2.87908e-05,-0.00946082,5.39392e-06,0,20,0,0,16.1034,4.73311,2.92
-1.18,-0.000239771,-0.00997263,0.000800503,0,-9.59702e-06,-0.00948278,-2.5195e-05,0,20,0,-0,16.1597,4.72879,2.924
-1.18,-0.000239771,-0.0100106,0.000800503,0,-6.39802e-06,-0.00950476,-1.67967e-05,0,20,0,-0,16.2167,4.74398,2.928
-1.18,-0.000239771,-0.0100487,0.000800503,0,-4.26534e-06,-0.00952675,-1.11978e-05,0,21,0,-0,16.2737,4.75778,2.932
-1.18,-0.000239771,-0.0100868,0.000800503,0,-2.84356e-06,-0.00954875,-7.46518e-06,0,21,0,-0,16.331,4.77064,2.936
-1.18,-0.000239771,-0.0101251,0.000800157,0,-1.89571e-06,-0.00957077,-3.37677e-05,0,21,0,-0,16.3878,4.7685,2.94
-1.18,-0.000239771,-0.0101634,0.000799812,0,-1.26381e-06,-0.0095928,-5.13027e-05,0,21,0,-0,16.4448,4.77075,2.944
-1.18,-0.000239771,-0.0102018,0.000799812,0,-8.42537e-07,-0.00961485,-3.42018e-05,0,21,0,-0,16.5024,4.79032,2.948
-1.18,-0.000239771,-0.0102403,0.000799466,0,-5.61691e-07,-0.00963691,-5.15921e-05,0,21,0,-0,16.5596,4.79266,2.952
-1.18,-0.000239771,-0.0102789,0.000799466,0,-3.74461e-07,-0.00965899,-3.43948e-05,0,21,0,-0,16.6175,4.8123,2.956
-1.18,-0.000239771,-0.0103176,0.000799121,0,-2.49641e-07,-0.00968108,-5.17208e-05,0,21,0,-0,16.675,4.81468,2.96
-1.18,-0.000239771,-0.0103563,0.000799121,0,-1.66427e-07,-0.00970318,-3.44805e-05,0,21,0,-0,16.7332,4.83435,2.964
-1.18,-0.000239771,-0.0103952,0.000799121,0,-1.10951e-07,-0.0097253,-2.2987e-05,0,21,0,-0,16.7915,4.85116,2.968
-1.18,-0.000239771,-0.0104341,0.000798775,0,-7.39676e-08,-0.00974744,-4.41156e-05,0,21,0,-0,16.8494,4.85166,2.972
-1.18,-0.000239771,-0.0104732,0.000799121,0,-4.93117e-08,-0.00976958,-6.19472e-07,0,21,0,-0,16.9084,4.88448,2.976
-1.18,-0.000239771,-0.0105123,0.000799121,0,-3.28745e-08,-0.00979174,-4.12982e-07,0,21,0,-0,16.9671,4.89567,2.98
-1.18,-0.000239771,-0.0105515,0.000798775,0,-2.19163e-08,-0.00981392,-2.90662e-05,0,21,0,-0,17.0254,4.89243,2.984
-1.18,-0.000239771,-0.0105908,0.000798775,0,-1.46109e-08,-0.00983611,-1.93775e-05,0,21,0,-0,17.0844,4.90837,2.988
-1.18,-0.000239771,-0.0106302,0.000798775,0,-9.74059e-09,-0.00985831,-1.29183e-05,0,22,0,-0,17.1435,4.9227,2.992
-1.18,-0.000239771,-0.0106697,0.000798775,0,-6.49373e-09,-0.00988053,-8.61222e-06,0,22,0,-0,17.2027,4.93596,2.996
-1.18,-0.000239771,-0.0107092,0.00079843,0,-4.32915e-09,-0.00990276,-3.45324e-05,0,22,0,-0,17.2615,4.93411,3
-1.18,-0.000239771,-0.0107489,0.000798084,0,-2.8861e-09,-0.009925,-5.18125e-05,0,22,0,-0,17.3205,4.9366,3.004
-1.18,-0.000239771,-0.0107886,0.000798084,0,-1.92407e-09,-0.00994726,-3.45417e-05,0,22,0,-0,17.3801,4.95636,3.008
-1.18,-0.000239771,-0.0108285,0.000798084,0,-1.28271e-09,-0.00996953,-2.30278e-05,0,22,0,-0,17.4398,4.97325,3.012
-1.18,-0.000239771,-0.0108684,0.000797739,0,-8.55141e-10,-0.00999182,-4.41428e-05,0,22,0,-0,17.4992,4.97384,3.016
-1.18,-0.000239771,-0.0109084,0.000797739,0,-5.70094e-10,-0.0100141,-2.94285e-05,0,22,0,-0,17.5592,4.99235,3.02
-1.18,-0.000239771,-0.0109485,0.000797393,0,-3.80063e-10,-0.0100364,-4.84099e-05,0,22,0,-0,17.6189,4.99401,3.024
-1.18,-0.000239771,-0.0109887,0.000797048,0,-2.53375e-10,-0.0100588,-6.10642e-05,0,22,0,-0,17.6786,4.99885,3.028
-1.18,-0.000239771,-0.011029,0.000796702,0,-1.68917e-10,-0.0100811,-6.95004e-05,0,22,0,-0,17.7385,5.0058,3.032
-1.18,-0.000239771,-0.0110694,0.000796702,0,-1.12611e-10,-0.0101035,-4.63336e-05,0,22,0,-0,17.7991,5.02856,3.036
-1.18,-0.000239771,-0.0111098,0.000796702,0,-7.50741e-11,-0.0101258,-3.08891e-05,0,22,0,-0,17.8598,5.04747,3.04
-1.18,-0.000239771,-0.0111504,0.000796702,0,-5.00494e-11,-0.0101482,-2.05927e-05,0,22,0,-0,17.9206,5.06381,3.044
-1.18,-0.000239771,-0.011191,0.000796702,0,-3.33663e-11,-0.0101706,-1.37285e-05,0,23,0,-0,17.9815,5.07843,3.048
-1.18,-0.000239771,-0.0112317,0.000796702,0,-2.22442e-11,-0.010193,-9.15232e-06,0,23,0,-0,18.0426,5.09193,3.052
-1.18,-0.000240462,-0.0112725,0.000796357,0,-5.75819e-05,-0.0102154,-3.48925e-05,0,23,0,-0,18.1033,5.09027,3.056
-1.18,-0.000239771,-0.0113134,0.000796357,0,1.91939e-05,-0.0102379,-2.32616e-05,0,23,0,0,18.1647,5.1073,3.06
-1.18,-0.000239771,-0.0113544,0.000796011,0,1.2796e-05,-0.0102603,-4.42987e-05,0,23,0,0,18.2257,5.10801,3.064
-1.18,-0.000239771,-0.0113955,0.000796011,0,8.53064e-06,-0.0102828,-2.95325e-05,0,23,0,0,18.2873,5.12662,3.068
-1.18,-0.000239771,-0.0114367,0.000795666,0,5.68709e-06,-0.0103052,-4.84792e-05,0,23,0,0,18.3486,5.12838,3.072
-1.18,-0.000239771,-0.011478,0.000795321,0,3.7914e-06,-0.0103277,-6.11104e-05,0,23,0,0,18.4099,5.13331,3.076
-1.18,-0.000239771,-0.0115193,0.00079463,0,2.5276e-06,-0.0103502,-9.83221e-05,0,23,0,0,18.4709,5.12596,3.08
-1.18,-0.000239771,-0.0115608,0.000794284,0,1.68506e-06,-0.0103727,-9.4339e-05,0,23,0,0,18.5326,5.1392,3.084
-1.18,-0.000239771,-0.0116023,0.000793939,0,1.12338e-06,-0.0103953,-9.16836e-05,0,23,0,0,18.5944,5.1518,3.088
-1.18,-0.000239771,-0.0116439,0.000793939,0,7.48918e-07,-0.0104178,-6.11224e-05,0,23,0,0,18.6568,5.17835,3.092
-1.18,-0.000239771,-0.0116857,0.000793593,0,4.99278e-07,-0.0104404,-6.95392e-05,0,23,0,0,18.7189,5.18541,3.096
-1.18,-0.000239425,-0.0117275,0.000793248,0,2.91238e-05,-0.0104629,-7.51504e-05,0,23,0,0,18.7811,5.19389,3.1
-1.18,-0.000239771,-0.0117694,0.000792902,0,-9.37507e-06,-0.0104855,-7.88912e-05,0,24,0,-0,18.8434,5.20331,3.104
-1.18,-0.000239771,-0.0118113,0.000792557,0,-6.25005e-06,-0.0105081,-8.1385e-05,0,24,0,-0,18.9058,5.21336,3.108
-1.18,-0.000239771,-0.0118534,0.000792211,0,-4.1667e-06,-0.0105307,-8.30476e-05,0,24,0,-0,18.9684,5.22383,3.112
-1.18,-0.000239771,-0.0118956,0.00079152,0,-2.7778e-06,-0.0105533,-0.000112947,0,24,0,-0,19.0307,5.22019,3.116
-1.18,-0.000239771,-0.0119378,0.000791175,0,-1.85187e-06,-0.010576,-0.000104089,0,24,0,-0,19.0935,5.23593,3.12
-1.18,-0.000239771,-0.0119802,0.000790484,0,-1.23458e-06,-0.0105986,-0.000126974,0,24,0,-0,19.156,5.23581,3.124
-1.18,-0.000239771,-0.0120226,0.000789793,0,-8.23052e-07,-0.0106213,-0.000142231,0,24,0,-0,19.2186,5.23951,3.128
-1.18,-0.000239771,-0.0120652,0.000789102,0,-5.48701e-07,-0.0106439,-0.000152403,0,24,0,-0,19.2814,5.24576,3.132
-1.18,-0.000239771,-0.0121078,0.000788756,0,-3.65801e-07,-0.0106666,-0.000130393,0,24,0,-0,19.3448,5.26811,3.136
-1.18,-0.000239771,-0.0121505,0.000788411,0,-2.43867e-07,-0.0106893,-0.000115719,0,24,0,-0,19.4084,5.28679,3.14
-1.18,-0.000239771,-0.0121933,0.000788065,0,-1.62578e-07,-0.010712,-0.000105937,0,24,0,-0,19.472,5.30303,3.144
-1.18,-0.000239771,-0.0122362,0.00078772,0,-1.08385e-07,-0.0107347,-9.94157e-05,0,24,0,-0,19.5359,5.31765,3.148
-1.18,-0.000239771,-0.0122792,0.00078772,0,-7.22569e-08,-0.0107575,-6.62772e-05,0,24,0,-0,19.6003,5.34559,3.152
-1.18,-0.000239771,-0.0123223,0.00078772,0,-4.81713e-08,-0.0107802,-4.41848e-05,0,25,0,-0,19.665,5.36801,3.156
-1.18,-0.000239771,-0.0123654,0.00078772,0,-3.21142e-08,-0.010803,-2.94565e-05,0,25,0,-0,19.7297,5.38675,3.16
-1.18,-0.000239771,-0.0124087,0.000787374,0,-2.14095e-08,-0.0108257,-4.84286e-05,0,25,0,-0,19.7941,5.38865,3.164
-1.18,-0.000239771,-0.012452,0.000787029,0,-1.4273e-08,-0.0108485,-6.10767e-05,0,25,0,-0,19.8586,5.39371,3.168
-1.18,-0.000239771,-0.0124955,0.000786683,0,-9.51532e-09,-0.0108713,-6.95087e-05,0,25,0,-0,19.9232,5.40089,3.172
-1.18,-0.000239771,-0.012539,0.000786338,0,-6.34354e-09,-0.0108941,-7.51301e-05,0,25,0,-0,19.988,5.40948,3.176
-1.18,-0.000239771,-0.0125826,0.000786338,0,-4.22903e-09,-0.0109169,-5.00867e-05,0,25,0,-0,20.0534,5.43341,3.18
-1.18,-0.000239771,-0.0126263,0.000785992,0,-2.81935e-09,-0.0109397,-6.21821e-05,0,25,0,-0,20.1185,5.43878,3.184
-1.18,-0.000239771,-0.0126701,0.000785992,0,-1.87957e-09,-0.0109626,-4.14547e-05,0,25,0,-0,20.1842,5.46057,3.188
-1.18,-0.000239771,-0.012714,0.000785647,0,-1.25305e-09,-0.0109854,-5.64274e-05,0,25,0,-0,20.2495,5.46451,3.192
-1.18,-0.000239771,-0.012758,0.000785647,0,-8.35364e-10,-0.0110083,-3.76183e-05,0,25,0,-0,20.3155,5.48534,3.196
-1.18,-0.000239771,-0.0128021,0.000785647,0,-5.56909e-10,-0.0110312,-2.50788e-05,0,25,0,-0,20.3816,5.50305,3.2
-1.18,-0.000239771,-0.0128463,0.000785647,0,-3.71273e-10,-0.0110541,-1.67192e-05,0,25,0,-0,20.4479,5.51868,3.204
-1.18,-0.000239771,-0.0128905,0.000785647,0,-2.47515e-10,-0.011077,-1.11462e-05,0,26,0,-0,20.5143,5.53291,3.208
-1.18,-0.000239771,-0.0129349,0.000784956,0,-1.6501e-10,-0.0110999,-6.50126e-05,0,26,0,-0,20.5798,5.51744,3.212
-1.18,-0.000239771,-0.0129793,0.000785301,0,-1.10007e-10,-0.0111228,-1.45508e-05,0,26,0,-0,20.6469,5.55413,3.216
-1.18,-0.000239771,-0.0130239,0.000785301,0,-7.33378e-11,-0.0111458,-9.70055e-06,0,26,0,-0,20.7138,5.56803,3.22
-1.18,-0.000239771,-0.0130685,0.000785301,0,-4.88919e-11,-0.0111687,-6.46703e-06,0,26,0,-0,20.7807,5.58112,3.224
-1.18,-0.000239771,-0.0131132,0.000784956,0,-3.25946e-11,-0.0111917,-3.31023e-05,0,26,0,-0,20.8473,5.57928,3.228
-1.18,-0.000240116,-0.013158,0.000784956,0,-2.87909e-05,-0.0112146,-2.20682e-05,0,26,0,-0,20.9145,5.59628,3.232
-1.18,-0.000239771,-0.0132029,0.000784956,0,9.59696e-06,-0.0112376,-1.47121e-05,0,26,0,0,20.9818,5.61145,3.236
-1.18,-0.000239771,-0.0132479,0.00078461,0,6.39797e-06,-0.0112606,-3.8599e-05,0,26,0,0,21.0488,5.61101,3.24
-1.18,-0.000239771,-0.013293,0.00078461,0,4.26532e-06,-0.0112836,-2.57327e-05,0,26,0,0,21.1164,5.62895,3.244
-1.18,-0.000239771,-0.0133382,0.00078461,0,2.84354e-06,-0.0113066,-1.71551e-05,0,26,0,0,21.1842,5.64474,3.248
-1.18,-0.000239771,-0.0133835,0.00078461,0,1.8957e-06,-0.0113297,-1.14367e-05,0,26,0,0,21.2521,5.65912,3.252
-1.18,-0.000239771,-0.0134288,0.00078461,0,1.2638e-06,-0.0113527,-7.6245e-06,0,26,0,0,21.3202,5.67255,3.256
-1.18,-0.000239771,-0.0134743,0.00078461,0,8.42532e-07,-0.0113758,-5.083e-06,0,27,0,0,21.3884,5.68534,3.26
-1.18,-0.000239771,-0.0135198,0.000784265,0,5.61688e-07,-0.0113988,-3.21796e-05,0,27,0,0,21.4562,5.68333,3.264
-1.18,-0.000239771,-0.0135655,0.000783919,0,3.74458e-07,-0.0114219,-5.0244e-05,0,27,0,0,21.5241,5.68583,3.268
-1.18,-0.000239771,-0.0136112,0.000783919,0,2.49639e-07,-0.011445,-3.3496e-05,0,27,0,0,21.5927,5.70575,3.272
-1.18,-0.000239771,-0.013657,0.000783574,0,1.66426e-07,-0.0114681,-5.11216e-05,0,27,0,0,21.6609,5.70849,3.276
-1.18,-0.000239771,-0.013703,0.000783228,0,1.10951e-07,-0.0114912,-6.2872e-05,0,27,0,0,21.7293,5.71417,3.28
-1.18,-0.000239771,-0.013749,0.000782537,0,7.39671e-08,-0.0115143,-9.94965e-05,0,27,0,0,21.7973,5.70742,3.284
-1.18,-0.000239771,-0.0137951,0.000782537,0,4.93114e-08,-0.0115375,-6.6331e-05,0,27,0,0,21.8664,5.73557,3.288
-1.18,-0.000239771,-0.0138413,0.000782192,0,3.28743e-08,-0.0115606,-7.30116e-05,0,27,0,0,21.9352,5.7438,3.292
-1.18,-0.000239771,-0.0138876,0.000782192,0,2.19162e-08,-0.0115838,-4.86744e-05,0,27,0,0,22.0046,5.76755,3.296
-1.18,-0.000239771,-0.0139339,0.000781846,0,1.46108e-08,-0.0116069,-6.12405e-05,0,27,0,0,22.0737,5.77285,3.3
-1.18,-0.000239771,-0.0139804,0.000781501,0,9.74052e-09,-0.0116301,-6.96179e-05,0,27,0,0,22.1429,5.78025,3.304
-1.18,-0.000239771,-0.014027,0.000781501,0,6.49368e-09,-0.0116533,-4.6412e-05,0,28,0,0,22.2127,5.80345,3.308
-1.18,-0.000239771,-0.0140736,0.000781155,0,4.32912e-09,-0.0116765,-5.97322e-05,0,28,0,0,22.2822,5.80839,3.312
-1.18,-0.000239771,-0.0141204,0.000780464,0,2.88608e-09,-0.0116997,-9.74033e-05,0,28,0,0,22.3513,5.80116,3.316
-1.18,-0.000239771,-0.0141672,0.00078081,0,1.92405e-09,-0.0117229,-3.61446e-05,0,28,0,0,22.4221,5.8434,3.32
-1.18,-0.000239771,-0.0142142,0.000780464,0,1.2827e-09,-0.0117462,-5.28873e-05,0,28,0,0,22.492,5.84664,3.324
-1.18,-0.000239771,-0.0142612,0.000780464,0,8.55135e-10,-0.0117694,-3.52582e-05,0,28,0,0,22.5625,5.86708,3.328
-1.18,-0.000239771,-0.0143083,0.000780464,0,5.7009e-10,-0.0117927,-2.35055e-05,0,28,0,0,22.6332,5.88458,3.332
-1.18,-0.000239771,-0.0143556,0.000780464,0,3.8006e-10,-0.0118159,-1.56703e-05,0,28,0,0,22.704,5.90013,3.336
-1.18,-0.000239771,-0.0144029,0.000780464,0,2.53373e-10,-0.0118392,-1.04469e-05,0,28,0,0,22.775,5.91438,3.34
-1.18,-0.000239771,-0.0144503,0.000780119,0,1.68916e-10,-0.0118625,-3.57555e-05,0,28,0,0,22.8456,5.91337,3.344
-1.18,-0.000239771,-0.0144978,0.000779773,0,1.1261e-10,-0.0118858,-5.26279e-05,0,28,0,0,22.9163,5.91658,3.348
-1.18,-0.000239771,-0.0145454,0.000780119,0,7.50736e-11,-0.0119091,-6.29436e-06,0,28,0,0,22.9882,5.9514,3.352
-1.18,-0.000239771,-0.014593,0.000780119,0,5.00491e-11,-0.0119324,-4.19624e-06,0,29,0,0,23.0597,5.96411,3.356
-1.18,-0.000239771,-0.0146408,0.000780119,0,3.3366e-11,-0.0119558,-2.7975e-06,0,29,0,0,23.1314,5.97648,3.36
-1.18,-0.000239771,-0.0146887,0.000779773,0,2.2244e-11,-0.0119791,-3.06559e-05,0,29,0,0,23.2027,5.97422,3.364
-1.18,-0.000239771,-0.0147366,0.000779773,0,1.48294e-11,-0.0120024,-2.04373e-05,0,29,0,0,23.2746,5.991,3.368
-1.18,-0.000239771,-0.0147847,0.000779428,0,9.88623e-12,-0.0120258,-4.24158e-05,0,29,0,0,23.3462,5.99169,3.372
-1.18,-0.000239771,-0.0148329,0.000778737,0,6.59082e-12,-0.0120492,-8.5859e-05,0,29,0,0,23.4174,5.98166,3.376
-1.18,-0.000239771,-0.0148811,0.000779082,0,4.39388e-12,-0.0120726,-2.84484e-05,0,29,0,0,23.4903,6.02205,3.38
-1.18,-0.000239771,-0.0149294,0.000779082,0,2.92925e-12,-0.0120959,-1.89656e-05,0,29,0,0,23.5628,6.03849,3.384
-1.18,-0.000239771,-0.0149779,0.000778737,0,1.95284e-12,-0.0121194,-4.14347e-05,0,29,0,0,23.6349,6.03896,3.388
-1.18,-0.000239771,-0.0150264,0.000778737,0,1.30189e-12,-0.0121428,-2.76231e-05,0,29,0,0,23.7077,6.05757,3.392
-1.18,-0.000239771,-0.015075,0.000778737,0,8.67927e-13,-0.0121662,-1.84154e-05,0,29,0,0,23.7806,6.07389,3.396
-1.18,-0.000239771,-0.0151237,0.000778391,0,5.78618e-13,-0.0121896,-4.10679e-05,0,29,0,0,23.8532,6.07428,3.4
-1.18,-0.000239771,-0.0151725,0.000778391,0,3.85745e-13,-0.0122131,-2.73786e-05,0,30,0,0,23.9264,6.09284,3.404
-1.18,-0.000239771,-0.0152214,0.000778046,0,2.57164e-13,-0.0122365,-4.70433e-05,0,30,0,0,23.9992,6.09474,3.408
-1.18,-0.000239771,-0.0152704,0.0007777,0,1.71442e-13,-0.01226,-6.01531e-05,0,30,0,0,24.0722,6.09991,3.412
-1.18,-0.000239771,-0.0153195,0.0007777,0,1.14295e-13,-0.0122835,-4.01021e-05,0,30,0,0,24.1458,6.12168,3.416
-1.18,-0.000239771,-0.0153687,0.000777355,0,7.61966e-14,-0.0123069,-5.55256e-05,0,30,0,0,24.2191,6.12571,3.42
-1.18,-0.000239771,-0.015418,0.000777009,0,5.07978e-14,-0.0123304,-6.5808e-05,0,30,0,0,24.2925,6.13231,3.424
-1.18,-0.000239771,-0.0154673,0.000776664,0,3.38652e-14,-0.0123539,-7.26629e-05,0,30,0,0,24.366,6.14064,3.428
-1.18,-0.000239771,-0.0155168,0.000775973,0,2.25768e-14,-0.0123775,-0.000106024,0,30,0,0,24.4391,6.13571,3.432
-1.18,-0.000239771,-0.0155663,0.000775973,0,1.50512e-14,-0.012401,-7.06825e-05,0,30,0,0,24.5135,6.16515,3.436
-1.18,-0.000239771,-0.015616,0.000775628,0,1.00341e-14,-0.0124245,-7.59126e-05,0,30,0,0,24.5874,6.1743,3.44
-1.18,-0.000239771,-0.0156657,0.000775282,0,6.68942e-15,-0.0124481,-7.93993e-05,0,30,0,0,24.6615,6.18433,3.444
-1.18,-0.000239771,-0.0157156,0.000774937,0,4.45961e-15,-0.0124716,-8.17238e-05,0,30,0,0,24.7358,6.19494,3.448
-1.18,-0.000239771,-0.0157655,0.000774591,0,2.97307e-15,-0.0124952,-8.32735e-05,0,31,0,0,24.8102,6.20595,3.452
-1.18,-0.000239771,-0.0158155,0.000774591,0,1.98205e-15,-0.0125187,-5.55156e-05,0,31,0,0,24.8852,6.23161,3.456
-1.18,-0.000239771,-0.0158657,0.000774246,0,1.32137e-15,-0.0125423,-6.58014e-05,0,31,0,0,24.9599,6.23826,3.46
-1.18,-0.000239771,-0.0159159,0.0007739,0,8.80911e-16,-0.0125659,-7.26585e-05,0,31,0,0,25.0347,6.24663,3.464
-1.18,-0.000239771,-0.0159662,0.000773555,0,5.87274e-16,-0.0125895,-7.72299e-05,0,31,0,0,25.1096,6.25615,3.468
-1.18,-0.000239771,-0.0160166,0.000772864,0,3.91516e-16,-0.0126131,-0.000109068,0,31,0,0,25.1842,6.25203,3.472
-1.18,-0.000239771,-0.0160671,0.000772518,0,2.61011e-16,-0.0126368,-0.000101503,0,31,0,0,25.2594,6.26763,3.476
-1.18,-0.000239771,-0.0161177,0.000772518,0,1.74007e-16,-0.0126604,-6.76688e-05,0,31,0,0,25.3353,6.29636,3.48
-1.18,-0.000239771,-0.0161684,0.000772173,0,1.16005e-16,-0.012684,-7.39035e-05,0,31,0,0,25.4108,6.30506,3.484
-1.18,-0.000239771,-0.0162192,0.000771827,0,7.73365e-17,-0.0127077,-7.80599e-05,0,31,0,0,25.4865,6.31481,3.488
-1.18,-0.000239771,-0.01627,0.000771827,0,5.15577e-17,-0.0127313,-5.20399e-05,0,31,0,0,25.5628,6.33965,3.492
-1.18,-0.000239771,-0.016321,0.000771482,0,3.43718e-17,-0.012755,-6.34842e-05,0,31,0,0,25.6387,6.34576,3.496
-1.18,-0.000239771,-0.0163721,0.000771482,0,2.29145e-17,-0.0127787,-4.23228e-05,0,32,0,0,25.7153,6.36818,3.5
-1.18,-0.000239771,-0.0164232,0.000771482,0,1.52763e-17,-0.0128024,-2.82152e-05,0,32,0,0,25.7921,6.38708,3.504
-1.18,-0.000239771,-0.0164745,0.000771827,0,1.01842e-17,-0.0128261,9.98079e-06,0,32,0,0,25.8695,6.41802,3.508
-1.18,-0.000239771,-0.0165259,0.000771136,0,6.78948e-18,-0.0128498,-5.0928e-05,0,32,0,0,25.9455,6.39942,3.512
-1.18,-0.000239771,-0.0165773,0.000771136,0,4.52632e-18,-0.0128735,-3.3952e-05,0,32,0,0,26.0227,6.41977,3.516
-1.18,-0.000239771,-0.0166288,0.000771136,0,3.01755e-18,-0.0128972,-2.26347e-05,0,32,0,0,26.1,6.43729,3.52
-1.18,-0.000239771,-0.0166805,0.000771136,0,2.0117e-18,-0.0129209,-1.50898e-05,0,32,0,0,26.1774,6.45293,3.524
-1.18,-0.000239771,-0.0167322,0.000771482,0,1.34113e-18,-0.0129447,1.87311e-05,0,32,0,0,26.2555,6.48171,3.528
-1.18,-0.000239771,-0.016784,0.000770791,0,8.94089e-19,-0.0129684,-4.50945e-05,0,32,0,0,26.3322,6.46167,3.532
-1.18,-0.000239771,-0.016836,0.000770791,0,5.96059e-19,-0.0129922,-3.0063e-05,0,32,0,0,26.4101,6.48107,3.536
-1.18,-0.000239771,-0.016888,0.000770791,0,3.97373e-19,-0.013016,-2.0042e-05,0,32,0,0,26.4881,6.49796,3.54
-1.18,-0.000239771,-0.0169401,0.000770791,0,2.64915e-19,-0.0130397,-1.33613e-05,0,33,0,0,26.5663,6.51319,3.544
