peachynonah/Fire_monitor_KIRO_CDSL/csv_datas/trial10/cdsl_data_t10_10.csv
joint1_pos_desired, joint1_pos, joint2_pos_desired, joint2_pos, joint1_vel_desired, joint1_vel_filtered, joint2_vel_desired, joint2_vel_filtered, target_torque_joint1, target_torque_joint2, propo_term_torque_joint1, deriv_term_torque_joint1, propo_term_torque_joint2, deriv_term_torque_joint2, current_time
0,-0.00023908,0.3925,0.554723,0,0,-2.35947e-08,0,0,121,-0,-0,121.667,5.89867e-06,0.004
0,-0.00023908,0.3925,0.554723,0,0,-9.43444e-08,0,0,121,-0,-0,121.667,2.35861e-05,0.008
0,-0.00023908,0.3925,0.554723,0,0,-2.12198e-07,0,0,121,-0,-0,121.667,5.30494e-05,0.012
0,-0.00023908,0.3925,0.554718,0,0,-3.77103e-07,-0.000431864,0,121,-0,-0,121.663,-0.107872,0.016
0,-0.00023908,0.3925,0.554706,0,0,-5.89009e-07,-0.00129559,0,121,-0,-0,121.654,-0.323751,0.02
0,-0.00023908,0.3925,0.554689,0,0,-8.47864e-07,-0.00227448,0,121,-0,-0,121.642,-0.568409,0.024
0,-0.000238734,0.3925,0.55467,0,2.87909e-05,-1.15362e-06,-0.00307103,0,120,-0,0,121.628,-0.76747,0.028
0,-0.000238734,0.3925,0.554652,0,1.91939e-05,-1.50622e-06,-0.00357327,0,120,-0,0,121.614,-0.892942,0.032
0,-0.000238734,0.3925,0.554636,0,1.2796e-05,-1.90561e-06,-0.00367777,0,120,-0,0,121.602,-0.918967,0.036
0,-0.000238734,0.3925,0.554626,0,8.53064e-06,-2.35175e-06,-0.00331558,0,120,-0,0,121.594,-0.828306,0.04
0,-0.000238734,0.3925,0.554622,0,5.6871e-06,-2.84458e-06,-0.00252708,0,120,-0,0,121.592,-0.63106,0.044
0,-0.000238734,0.3925,0.554622,0,3.7914e-06,-3.38405e-06,-0.00168472,0,121,-0,0,121.592,-0.420335,0.048
0,-0.000238734,0.3925,0.554622,0,2.5276e-06,-3.97011e-06,-0.00112315,0,121,-0,0,121.592,-0.279795,0.052
0,-0.000238734,0.3925,0.554622,0,1.68507e-06,-4.60272e-06,-0.000719975,0,121,-0,0,121.592,-0.178843,0.056
0,-0.000238734,0.3925,0.554622,0,1.12338e-06,-5.2818e-06,-0.000479983,0,121,-0,0,121.592,-0.118675,0.06
0,-0.000238734,0.3925,0.554622,0,7.48918e-07,-6.00733e-06,-0.000319989,0,121,-0,0,121.592,-0.0784954,0.064
0,-0.000238734,0.3925,0.554622,0,4.99279e-07,-6.77924e-06,-0.000213326,0,121,-0,0,121.592,-0.0516367,0.068
0,-0.000238734,0.3925,0.554622,0,3.32852e-07,-7.59748e-06,-0.000142217,0,121,-0,0,121.592,-0.0336549,0.072
0,-0.000238734,0.3925,0.554622,0,2.21902e-07,-8.462e-06,-9.48115e-05,0,121,-0,0,121.592,-0.0215874,0.076
0,-0.000238734,0.3925,0.554622,0,1.47934e-07,-9.37276e-06,-6.32077e-05,0,121,-0,0,121.592,-0.0134587,0.08
0,-0.000238734,0.3925,0.554622,0,9.86229e-08,-1.03297e-05,-4.21385e-05,0,121,-0,0,121.592,-0.00795219,0.084
0,-0.000238734,0.3925,0.554622,0,6.57486e-08,-1.13328e-05,-5.68832e-05,0,121,-0,0,121.592,-0.0113876,0.088
0,-0.000238734,0.3925,0.554622,0,4.38324e-08,-1.23819e-05,-9.13123e-06,0,121,-0,0,121.592,0.000812671,0.092
0,-0.000238734,0.3925,0.554622,0,2.92216e-08,-1.34771e-05,-6.08748e-06,0,121,-0,0,121.592,0.0018474,0.096
0,-0.000238734,0.3925,0.554622,0,1.94811e-08,-1.46182e-05,-4.05832e-06,0,121,-0,0,121.592,0.00263998,0.1
0,-0.000238734,0.392499,0.554622,0,1.29874e-08,-1.58053e-05,-3.14965e-05,0,121,-0,0,121.592,-0.00392279,0.104
0,-0.000238734,0.392499,0.554622,0,8.65826e-09,-1.70382e-05,-2.09976e-05,0,121,-0,0,121.592,-0.000989851,0.108
0,-0.000238734,0.392499,0.554622,0,5.77217e-09,-1.8317e-05,1.47925e-05,0,121,-0,0,121.592,0.00827738,0.112
0,-0.000238734,0.392499,0.554622,0,3.84811e-09,-1.96416e-05,9.86166e-06,0,121,-0,0,121.592,0.0073758,0.116
0,-0.000238734,0.392499,0.554622,0,2.56541e-09,-2.10118e-05,6.57444e-06,0,121,-0,0,121.592,0.00689656,0.12
0,-0.000238734,0.392499,0.554622,0,1.71027e-09,-2.24277e-05,4.38296e-06,0,121,-0,0,121.592,0.00670268,0.124
0,-0.000238734,0.392499,0.554622,0,1.14018e-09,-2.38893e-05,2.92197e-06,0,121,-0,0,121.593,0.00670282,0.128
0,-0.000238734,0.392499,0.554622,0,7.60121e-10,-2.53964e-05,1.94798e-06,0,121,-0,0,121.593,0.0068361,0.132
0,-0.000238734,0.392499,0.554622,0,5.06748e-10,-2.69491e-05,1.29866e-06,0,121,-0,0,121.593,0.00706193,0.136
0,-0.000238734,0.392499,0.554622,0,3.37832e-10,-2.85472e-05,8.6577e-07,0,121,-0,0,121.593,0.00735323,0.14
0,-0.000238734,0.392499,0.554622,0,2.25221e-10,-3.01907e-05,5.7718e-07,0,121,-0,0,121.593,0.00769196,0.144
0,-0.000238734,0.392498,0.554622,0,1.50147e-10,-3.18796e-05,3.84787e-07,0,121,-0,0,121.593,0.00806609,0.148
0,-0.000238734,0.392498,0.554622,0,1.00098e-10,-3.36138e-05,2.56524e-07,0,121,-0,0,121.593,0.00846757,0.152
0,-0.000238734,0.392498,0.554622,0,6.67322e-11,-3.53932e-05,1.71016e-07,0,121,-0,0,121.593,0.00889106,0.156
0,-0.000238734,0.392498,0.554622,0,4.44881e-11,-3.72179e-05,-2.86769e-05,0,121,-0,0,121.593,0.00213524,0.16
0,-0.000238734,0.392498,0.554622,0,2.96587e-11,-3.90877e-05,9.67298e-06,0,121,-0,0,121.593,0.0121902,0.164
0,-0.000238734,0.392498,0.554622,0,1.97725e-11,-4.10027e-05,6.44865e-06,0,121,-0,0,121.594,0.0118628,0.168
0,-0.000238734,0.392498,0.554622,0,1.31817e-11,-4.29627e-05,4.2991e-06,0,121,-0,0,121.594,0.0118154,0.172
0,-0.000238734,0.392497,0.554622,0,8.78778e-12,-4.49677e-05,2.86607e-06,0,121,-0,0,121.594,0.0119584,0.176
0,-0.000238734,0.392497,0.554622,0,5.85852e-12,-4.70177e-05,1.91071e-06,0,121,-0,0,121.594,0.0122321,0.18
0,-0.000238734,0.392497,0.554622,0,3.90568e-12,-4.91125e-05,1.27381e-06,0,121,-0,0,121.594,0.0125966,0.184
0,-0.000238734,0.392497,0.554622,0,2.60379e-12,-5.12523e-05,8.49206e-07,0,121,-0,0,121.594,0.0130254,0.188
0,-0.000238734,0.392497,0.554622,0,1.73586e-12,-5.34368e-05,5.66137e-07,0,121,-0,0,121.594,0.0135007,0.192
0,-0.000238734,0.392496,0.554622,0,1.15724e-12,-5.56661e-05,3.77425e-07,0,121,-0,0,121.595,0.0140109,0.196
0,-0.000238734,0.392496,0.554622,0,7.71492e-13,-5.79401e-05,2.51616e-07,0,121,-0,0,121.595,0.0145479,0.2
0,-0.000238734,0.392496,0.554622,0,5.14328e-13,-6.02588e-05,1.67744e-07,0,121,-0,0,121.595,0.0151066,0.204
0,-0.000238734,0.392496,0.554622,0,3.42885e-13,-6.26221e-05,1.1183e-07,0,121,-0,0,121.595,0.0156835,0.208
0,-0.000238734,0.392495,0.554622,0,2.2859e-13,-6.50299e-05,7.4553e-08,0,121,-0,0,121.595,0.0162761,0.212
0,-0.000238734,0.392495,0.554622,0,1.52393e-13,-6.74822e-05,-2.87412e-05,0,121,-0,0,121.595,0.00968524,0.216
0,-0.000238734,0.392495,0.554622,0,1.01596e-13,-6.9979e-05,9.63011e-06,0,121,-0,0,121.596,0.0199023,0.22
0,-0.000238734,0.392495,0.554622,0,6.77304e-14,-7.25202e-05,6.42007e-06,0,121,-0,0,121.596,0.0197351,0.224
0,-0.000238734,0.392494,0.554622,0,4.51536e-14,-7.51057e-05,4.28005e-06,0,121,-0,0,121.596,0.0198464,0.228
0,-0.000238734,0.392494,0.554622,0,3.01024e-14,-7.77355e-05,2.85337e-06,0,121,-0,0,121.596,0.0201472,0.232
0,-0.000238734,0.392494,0.554622,0,2.00683e-14,-8.04096e-05,1.90224e-06,0,121,-0,0,121.597,0.020578,0.236
0,-0.000238734,0.392493,0.554622,0,1.33789e-14,-8.31279e-05,1.26816e-06,0,121,-0,0,121.597,0.021099,0.24
0,-0.000238734,0.392493,0.554622,0,8.91924e-15,-8.58903e-05,8.45442e-07,0,121,-0,0,121.597,0.0216839,0.244
0,-0.000238734,0.392493,0.554622,0,5.94616e-15,-8.86969e-05,5.63628e-07,0,121,-0,0,121.597,0.0223151,0.248
0,-0.000238734,0.392492,0.554622,0,3.9641e-15,-9.15474e-05,3.75752e-07,0,121,-0,0,121.598,0.0229808,0.252
0,-0.000238734,0.392492,0.554622,0,2.64274e-15,-9.4442e-05,2.50501e-07,0,121,-0,0,121.598,0.0236731,0.256
0,-0.000238734,0.392492,0.554622,0,1.76182e-15,-9.73806e-05,1.67001e-07,0,121,-0,0,121.598,0.0243869,0.26
0,-0.000238734,0.392491,0.554622,0,1.17455e-15,-0.000100363,1.11334e-07,0,121,-0,0,121.598,0.0251186,0.264
0,-0.000238734,0.392491,0.554622,0,7.83033e-16,-0.000103389,7.42226e-08,0,121,-0,0,121.599,0.0258659,0.268
0,-0.000238734,0.39249,0.554622,0,5.22022e-16,-0.000106459,4.94817e-08,0,121,-0,0,121.599,0.0266272,0.272
0,-0.000238734,0.39249,0.554622,0,3.48015e-16,-0.000109573,3.29878e-08,0,121,-0,0,121.599,0.0274015,0.276
0,-0.000238734,0.392489,0.554622,0,2.3201e-16,-0.000112731,2.19919e-08,0,121,-0,0,121.6,0.0281882,0.28
0,-0.000238734,0.392489,0.554622,0,1.54673e-16,-0.000115932,1.46613e-08,0,121,-0,0,121.6,0.0289866,0.284
0,-0.000238734,0.392488,0.554622,0,1.03115e-16,-0.000119177,-2.87812e-05,0,121,-0,0,121.6,0.0225989,0.288
0,-0.000238734,0.392488,0.554622,0,6.87436e-17,-0.000122465,9.60349e-06,0,121,-0,0,121.601,0.0330171,0.292
0,-0.000238734,0.392488,0.554622,0,4.58291e-17,-0.000125797,6.40233e-06,0,121,-0,0,121.601,0.0330498,0.296
0,-0.000238734,0.392487,0.554622,0,3.05527e-17,-0.000129172,4.26822e-06,0,121,-0,0,121.602,0.0333601,0.3
0,-0.000238734,0.392486,0.554622,0,2.03685e-17,-0.000132591,2.84548e-06,0,121,-0,0,121.602,0.033859,0.304
0,-0.000238734,0.392486,0.554622,0,1.3579e-17,-0.000136053,1.89699e-06,0,121,-0,0,121.602,0.0344874,0.308
0,-0.000238734,0.392485,0.554622,0,9.05266e-18,-0.000139558,1.26466e-06,0,121,-0,0,121.603,0.0352057,0.312
0,-0.000238734,0.392485,0.554622,0,6.03511e-18,-0.000143107,8.43105e-07,0,121,-0,0,121.603,0.0359874,0.316
0,-0.000238734,0.392484,0.554622,0,4.0234e-18,-0.000146698,5.6207e-07,0,121,-0,0,121.604,0.0368151,0.32
0,-0.000238734,0.392484,0.554622,0,2.68227e-18,-0.000150333,3.74713e-07,0,121,-0,0,121.604,0.037677,0.324
0,-0.000238734,0.392483,0.554622,0,1.78818e-18,-0.000154011,2.49809e-07,0,121,-0,0,121.605,0.0385652,0.328
0,-0.000238734,0.392482,0.554622,0,1.19212e-18,-0.000157732,-2.86244e-05,0,121,-0,0,121.605,0.0322769,0.332
0,-0.000238734,0.392482,0.554622,0,7.94747e-19,-0.000161496,-1.90829e-05,0,121,-0,0,121.605,0.0356033,0.336
0,-0.000238734,0.392481,0.554622,0,5.29831e-19,-0.000165303,1.6069e-05,0,121,-0,0,121.606,0.045343,0.34
0,-0.000238734,0.39248,0.554622,0,3.53221e-19,-0.000169153,1.07127e-05,0,121,-0,0,121.606,0.0449664,0.344
0,-0.000238734,0.39248,0.554622,0,2.3548e-19,-0.000173046,7.14177e-06,0,121,-0,0,121.607,0.0450469,0.348
0,-0.000238734,0.392479,0.554622,0,1.56987e-19,-0.000176981,4.76118e-06,0,121,-0,0,121.607,0.0454356,0.352
0,-0.000238734,0.392478,0.554622,0,1.04658e-19,-0.00018096,3.17412e-06,0,121,-0,0,121.608,0.0460334,0.356
0,-0.000238734,0.392478,0.554622,0,6.9772e-20,-0.000184981,-2.66748e-05,0,121,-0,0,121.608,0.0395764,0.36
0,-0.000238734,0.392477,0.554622,0,4.65147e-20,-0.000189044,1.10077e-05,0,121,-0,0,121.609,0.050013,0.364
0,-0.000238734,0.392476,0.554622,0,3.10098e-20,-0.00019315,7.33846e-06,0,121,-0,0,121.61,0.0501222,0.368
0,-0.000238734,0.392475,0.554622,0,2.06732e-20,-0.000197299,4.89231e-06,0,121,-0,0,121.61,0.0505478,0.372
0,-0.000238734,0.392475,0.554622,0,1.37821e-20,-0.00020149,3.26154e-06,0,121,-0,0,121.611,0.051188,0.376
0,-0.000238734,0.392474,0.554622,0,9.18808e-21,-0.000205724,2.17436e-06,0,121,-0,0,121.612,0.0519746,0.38
0,-0.000238734,0.392473,0.554622,0,6.12539e-21,-0.00021,1.44957e-06,0,121,-0,0,121.612,0.0528624,0.384
0,-0.000238734,0.392472,0.554622,0,4.08359e-21,-0.000214319,-2.78245e-05,0,121,-0,0,121.613,0.0466235,0.388
0,-0.000238734,0.392471,0.554622,0,2.72239e-21,-0.000218679,1.02412e-05,0,121,-0,0,121.613,0.0572301,0.392
0,-0.000238734,0.39247,0.554622,0,1.81493e-21,-0.000223082,6.82749e-06,0,121,-0,0,121.614,0.0574775,0.396
0,-0.000238734,0.392469,0.554622,0,1.20995e-21,-0.000227528,4.55166e-06,0,121,-0,0,121.615,0.0580198,0.4
0,-0.000238734,0.392468,0.554622,0,8.06635e-22,-0.000232015,3.03444e-06,0,121,-0,0,121.615,0.0587623,0.404
0,-0.000238734,0.392468,0.554622,0,5.37757e-22,-0.000236544,2.02296e-06,0,121,-0,0,121.616,0.0596418,0.408
0,-0.000238734,0.392467,0.554622,0,3.58505e-22,-0.000241116,1.34864e-06,0,121,-0,0,121.617,0.0606161,0.412
0,-0.000238734,0.392466,0.554622,0,2.39003e-22,-0.000245729,8.99093e-07,0,121,-0,0,121.618,0.0616571,0.416
0,-0.000238734,0.392465,0.554622,0,1.59335e-22,-0.000250385,5.99395e-07,0,121,-0,0,121.618,0.062746,0.42
0,-0.000238734,0.392464,0.554622,0,1.06224e-22,-0.000255082,-2.83913e-05,0,121,-0,0,121.619,0.0566727,0.424
0,-0.000238734,0.392463,0.554622,0,7.08157e-23,-0.000259821,9.86337e-06,0,121,-0,0,121.62,0.0674212,0.428
0,-0.000238734,0.392462,0.554622,0,4.72105e-23,-0.000264602,6.57558e-06,0,121,-0,0,121.621,0.0677945,0.432
0,-0.000238734,0.39246,0.554622,0,3.14737e-23,-0.000269425,4.38372e-06,0,121,-0,0,121.621,0.0684522,0.436
0,-0.000238734,0.392459,0.554622,0,2.09824e-23,-0.00027429,2.92248e-06,0,121,-0,0,121.622,0.069303,0.44
0,-0.000238734,0.392458,0.554622,0,1.39883e-23,-0.000279196,1.94832e-06,0,121,-0,0,121.623,0.070286,0.444
0,-0.000238734,0.392457,0.554622,0,9.32553e-24,-0.000284143,1.29888e-06,0,121,-0,0,121.624,0.0713606,0.448
0,-0.000238734,0.392456,0.554622,0,6.21702e-24,-0.000289133,8.6592e-07,0,121,-0,0,121.625,0.0724997,0.452
0,-0.000238734,0.392455,0.554622,0,4.14468e-24,-0.000294164,5.7728e-07,0,121,-0,0,121.626,0.0736852,0.456
0,-0.000238734,0.392454,0.554622,0,2.76312e-24,-0.000299236,3.84853e-07,0,121,-0,0,121.627,0.0749052,0.46
0,-0.000238734,0.392452,0.554622,0,1.84208e-24,-0.000304349,2.56569e-07,0,121,-0,0,121.627,0.0761515,0.464
0,-0.000238734,0.392451,0.554622,0,1.22805e-24,-0.000309504,1.71046e-07,0,121,-0,0,121.628,0.0774189,0.468
0,-0.000238734,0.39245,0.554622,0,8.18702e-25,-0.000314701,1.14031e-07,0,121,-0,0,121.629,0.0787037,0.472
0,-0.000238734,0.392449,0.554622,0,5.45801e-25,-0.000319938,7.60204e-08,0,121,-0,0,121.63,0.0800036,0.476
0,-0.000238734,0.392447,0.554622,0,3.63868e-25,-0.000325217,5.06803e-08,0,121,-0,0,121.631,0.081317,0.48
0,-0.000238734,0.392446,0.554622,0,2.42578e-25,-0.000330537,3.37869e-08,0,121,-0,0,121.632,0.0826427,0.484
0,-0.000238734,0.392445,0.554622,0,1.61719e-25,-0.000335898,2.25246e-08,0,121,-0,0,121.633,0.0839802,0.488
0,-0.000238734,0.392443,0.554622,0,1.07813e-25,-0.0003413,1.50164e-08,0,121,-0,0,121.634,0.0853288,0.492
0,-0.000238734,0.392442,0.554622,0,7.18751e-26,-0.000346744,-2.87809e-05,0,121,-0,0,121.635,0.0794906,0.496
0,-0.000238734,0.392441,0.554622,0,4.79167e-26,-0.000352228,-1.91873e-05,0,121,-0,0,121.636,0.0832601,0.5
0,-0.000238734,0.392439,0.554622,0,3.19445e-26,-0.000357753,1.59994e-05,0,121,-0,0,121.637,0.093438,0.504
0,-0.000238734,0.392438,0.554622,0,2.12963e-26,-0.000363319,1.06663e-05,0,121,-0,0,121.638,0.0934962,0.508
0,-0.000238734,0.392436,0.554622,0,1.41975e-26,-0.000368925,7.11085e-06,0,121,-0,0,121.64,0.094009,0.512
0,-0.000238734,0.392435,0.554622,0,9.46503e-27,-0.000374573,4.74057e-06,0,121,-0,0,121.641,0.0948283,0.516
0,-0.000238734,0.392433,0.554622,0,6.31002e-27,-0.000380261,3.16038e-06,0,121,-0,0,121.642,0.0958553,0.52
0,-0.000238734,0.392432,0.554622,0,4.20668e-27,-0.00038599,2.10692e-06,0,121,-0,0,121.643,0.0970242,0.524
0,-0.000238734,0.39243,0.554622,0,2.80445e-27,-0.000391759,-2.73863e-05,0,121,-0,0,121.644,0.0910932,0.528
0,-0.000238734,0.392429,0.554622,0,1.86964e-27,-0.000397569,1.05334e-05,0,121,-0,0,121.645,0.102026,0.532
0,-0.000238734,0.392427,0.554622,0,1.24642e-27,-0.00040342,7.02226e-06,0,121,-0,0,121.647,0.102611,0.536
0,-0.000238734,0.392425,0.554622,0,8.30949e-28,-0.000409311,4.6815e-06,0,121,-0,0,121.648,0.103498,0.54
0,-0.000238734,0.392424,0.554622,0,5.53966e-28,-0.000415242,-2.56699e-05,0,121,-0,0,121.649,0.0973931,0.544
0,-0.000238734,0.392422,0.554622,0,3.69311e-28,-0.000421214,1.16776e-05,0,121,-0,0,121.65,0.108223,0.548
0,-0.000238734,0.39242,0.554622,0,2.46207e-28,-0.000427227,7.7851e-06,0,121,-0,0,121.652,0.108753,0.552
0,-0.000238734,0.392419,0.554622,0,1.64138e-28,-0.000433279,5.19006e-06,0,121,-0,0,121.653,0.109617,0.556
0,-0.000238734,0.392417,0.554622,0,1.09425e-28,-0.000439372,3.46004e-06,0,121,-0,0,121.654,0.110708,0.56
0,-0.000238734,0.392415,0.554622,0,7.29503e-29,-0.000445505,2.30669e-06,0,121,-0,0,121.655,0.111953,0.564
0,-0.000238734,0.392413,0.554622,0,4.86335e-29,-0.000451678,1.5378e-06,0,121,-0,0,121.657,0.113304,0.568
0,-0.000238734,0.392412,0.554622,0,3.24223e-29,-0.000457891,1.0252e-06,0,121,-0,0,121.658,0.114729,0.572
0,-0.000238734,0.39241,0.554622,0,2.16149e-29,-0.000464144,6.83465e-07,0,121,-0,0,121.66,0.116207,0.576
0,-0.000238734,0.392408,0.554622,0,1.44099e-29,-0.000470437,4.55643e-07,0,121,-0,0,121.661,0.117723,0.58
0,-0.000238734,0.392406,0.554622,0,9.60662e-30,-0.00047677,3.03762e-07,0,121,-0,0,121.662,0.119268,0.584
0,-0.000238734,0.392404,0.554622,0,6.40441e-30,-0.000483143,2.02508e-07,0,121,-0,0,121.664,0.120836,0.588
0,-0.000238734,0.392402,0.554622,0,4.26961e-30,-0.000489556,1.35005e-07,0,121,-0,0,121.665,0.122423,0.592
0,-0.000238734,0.3924,0.554622,0,2.84641e-30,-0.000496008,-2.87009e-05,0,121,-0,0,121.666,0.116827,0.596
0,-0.000238734,0.392398,0.554622,0,1.8976e-30,-0.000502501,9.65698e-06,0,121,-0,0,121.668,0.128039,0.6
0,-0.000238734,0.392396,0.554622,0,1.26507e-30,-0.000509033,6.43798e-06,0,121,-0,0,121.67,0.128868,0.604
0,-0.000238734,0.392394,0.554622,0,8.4338e-31,-0.000515604,4.29199e-06,0,121,-0,0,121.671,0.129974,0.608
0,-0.000238734,0.392392,0.554622,0,5.62253e-31,-0.000522215,2.86133e-06,0,121,-0,0,121.673,0.131269,0.612
0,-0.000238734,0.39239,0.554622,0,3.74835e-31,-0.000528866,1.90755e-06,0,121,-0,0,121.674,0.132693,0.616
0,-0.000238734,0.392388,0.554622,0,2.4989e-31,-0.000535556,-2.75192e-05,0,121,-0,0,121.676,0.127009,0.62
0,-0.000238734,0.392386,0.554622,0,1.66593e-31,-0.000542286,1.04448e-05,0,121,-0,0,121.678,0.138183,0.624
0,-0.000238734,0.392383,0.554622,0,1.11062e-31,-0.000549055,6.96318e-06,0,121,-0,0,121.679,0.139005,0.628
0,-0.000238734,0.392381,0.554622,0,7.40415e-32,-0.000555864,4.64212e-06,0,121,-0,0,121.681,0.140126,0.632
0,-0.000238734,0.392379,0.554622,0,4.9361e-32,-0.000562712,3.09475e-06,0,121,-0,0,121.683,0.141452,0.636
0,-0.000238734,0.392377,0.554622,0,3.29074e-32,-0.000569599,2.06317e-06,0,121,-0,0,121.684,0.142915,0.64
0,-0.000238734,0.392374,0.554622,0,2.19382e-32,-0.000576525,1.37544e-06,0,121,-0,0,121.686,0.144475,0.644
0,-0.000238734,0.392372,0.554623,0,1.46255e-32,-0.00058349,2.97079e-05,0,121,-0,0,121.688,0.1533,0.648
0,-0.000238734,0.39237,0.554622,0,9.75033e-33,-0.000590495,-8.98567e-06,0,121,-0,0,121.69,0.145377,0.652
0,-0.000238734,0.392367,0.554622,0,6.50022e-33,-0.000597538,-5.99044e-06,0,121,-0,0,121.691,0.147887,0.656
0,-0.000238734,0.392365,0.554622,0,4.33348e-33,-0.000604621,-3.27846e-05,0,121,-0,0,121.693,0.142959,0.66
0,-0.000238734,0.392362,0.554622,0,2.88899e-33,-0.000611742,6.93456e-06,0,121,-0,0,121.695,0.154669,0.664
0,-0.000238734,0.39236,0.554622,0,1.92599e-33,-0.000618903,-2.41679e-05,0,121,-0,0,121.697,0.148684,0.668
0,-0.000238734,0.392358,0.554622,0,1.28399e-33,-0.000626102,1.2679e-05,0,121,-0,0,121.699,0.159695,0.672
0,-0.000238734,0.392355,0.554622,0,8.55996e-34,-0.00063334,8.45267e-06,0,121,-0,0,121.701,0.160448,0.676
0,-0.000238734,0.392352,0.554622,0,5.70664e-34,-0.000640617,5.63511e-06,0,121,-0,0,121.702,0.161563,0.68
0,-0.000238734,0.39235,0.554622,0,3.80443e-34,-0.000647933,3.75674e-06,0,121,-0,0,121.704,0.162922,0.684
0,-0.000238734,0.392347,0.554622,0,2.53628e-34,-0.000655287,2.50449e-06,0,121,-0,0,121.706,0.164448,0.688
0,-0.000238734,0.392345,0.554622,0,1.69086e-34,-0.00066268,1.66966e-06,0,121,-0,0,121.708,0.166087,0.692
0,-0.000238734,0.392342,0.554622,0,1.12724e-34,-0.000670112,1.11311e-06,0,121,-0,0,121.71,0.167806,0.696
0,-0.000238734,0.392339,0.554622,0,7.51492e-35,-0.000677582,7.42072e-07,0,121,-0,0,121.712,0.169581,0.7
0,-0.000238734,0.392337,0.554622,0,5.00994e-35,-0.00068509,4.94715e-07,0,121,-0,0,121.714,0.171396,0.704
0,-0.000238734,0.392334,0.554622,0,3.33996e-35,-0.000692637,3.2981e-07,0,121,-0,0,121.716,0.173242,0.708
0,-0.000238734,0.392331,0.554622,0,2.22664e-35,-0.000700223,2.19873e-07,0,121,-0,0,121.719,0.175111,0.712
0,-0.000238734,0.392328,0.554622,0,1.48443e-35,-0.000707846,1.46582e-07,0,121,-0,0,121.721,0.176998,0.716
0,-0.000238734,0.392325,0.554622,0,9.89618e-36,-0.000715508,9.77214e-08,0,121,-0,0,121.723,0.178902,0.72
0,-0.000238734,0.392322,0.554622,0,6.59746e-36,-0.000723209,6.51476e-08,0,121,-0,0,121.725,0.180818,0.724
0,-0.000238734,0.39232,0.554622,0,4.3983e-36,-0.000730947,4.34318e-08,0,121,-0,0,121.727,0.182748,0.728
0,-0.000238734,0.392317,0.554622,0,2.9322e-36,-0.000738724,2.89545e-08,0,121,-0,0,121.729,0.184688,0.732
0,-0.000238734,0.392314,0.554622,0,1.9548e-36,-0.000746538,1.9303e-08,0,121,-0,0,121.732,0.186639,0.736
0,-0.000238734,0.392311,0.554622,0,1.3032e-36,-0.000754391,-2.87781e-05,0,121,-0,0,121.734,0.181403,0.74
0,-0.000238734,0.392308,0.554622,0,8.68801e-37,-0.000762282,9.60555e-06,0,121,-0,0,121.736,0.192972,0.744
0,-0.000238734,0.392305,0.554622,0,5.79201e-37,-0.00077021,6.4037e-06,0,121,-0,0,121.738,0.194153,0.748
0,-0.000238734,0.392301,0.554622,0,3.86134e-37,-0.000778177,4.26914e-06,0,121,-0,0,121.741,0.195611,0.752
0,-0.000238734,0.392298,0.554622,0,2.57422e-37,-0.000786181,2.84609e-06,0,121,-0,0,121.743,0.197257,0.756
0,-0.000238734,0.392295,0.554622,0,1.71615e-37,-0.000794223,1.89739e-06,0,121,-0,0,121.745,0.19903,0.76
0,-0.000238734,0.392292,0.554622,0,1.1441e-37,-0.000802303,1.26493e-06,0,121,-0,0,121.748,0.200892,0.764
0,-0.000238734,0.392289,0.554622,0,7.62733e-38,-0.000810421,8.43286e-07,0,121,-0,0,121.75,0.202816,0.768
0,-0.000238734,0.392285,0.554622,0,5.08489e-38,-0.000818576,5.62191e-07,0,121,-0,0,121.753,0.204785,0.772
0,-0.000238734,0.392282,0.554622,0,3.38993e-38,-0.000826769,3.74794e-07,0,121,-0,0,121.755,0.206786,0.776
0,-0.000238734,0.392279,0.554622,0,2.25995e-38,-0.000835,2.49863e-07,0,121,-0,0,121.758,0.208812,0.78
0,-0.000238734,0.392276,0.554622,0,1.50663e-38,-0.000843268,1.66575e-07,0,121,-0,0,121.76,0.210859,0.784
0,-0.000238734,0.392272,0.554622,0,1.00442e-38,-0.000851574,1.1105e-07,0,121,-0,0,121.763,0.212921,0.788
0,-0.000238734,0.392269,0.554622,0,6.69615e-39,-0.000859916,7.40333e-08,0,121,-0,0,121.765,0.214998,0.792
0,-0.000238734,0.392265,0.554622,0,4.4641e-39,-0.000868297,4.93556e-08,0,121,-0,0,121.768,0.217087,0.796
0,-0.000238734,0.392262,0.554622,0,2.97607e-39,-0.000876714,3.29037e-08,0,121,-0,0,121.77,0.219187,0.8
0,-0.000238734,0.392258,0.554622,0,1.98404e-39,-0.000885169,2.19358e-08,0,121,-0,0,121.773,0.221298,0.804
0,-0.000238734,0.392255,0.554622,0,1.3227e-39,-0.000893662,1.46239e-08,0,121,-0,0,121.776,0.223419,0.808
0,-0.000238734,0.392251,0.554622,0,8.81797e-40,-0.000902191,-2.87812e-05,0,121,-0,0,121.778,0.218352,0.812
0,-0.000238734,0.392247,0.554623,0,5.87865e-40,-0.000910757,3.83944e-05,0,122,-0,0,121.781,0.237288,0.816
0,-0.000238734,0.392244,0.554622,0,3.9191e-40,-0.000919361,-3.19466e-06,0,122,-0,0,121.784,0.229042,0.82
0,-0.000238734,0.39224,0.554622,0,2.61273e-40,-0.000928002,-2.12977e-06,0,122,-0,0,121.787,0.231468,0.824
0,-0.000238734,0.392236,0.554622,0,1.74182e-40,-0.000936679,-1.41985e-06,0,122,-0,0,121.79,0.233815,0.828
0,-0.000238734,0.392233,0.554622,0,1.16121e-40,-0.000945394,-2.97375e-05,0,122,-0,0,121.792,0.228914,0.832
0,-0.000238734,0.392229,0.554622,0,7.74143e-41,-0.000954145,8.96593e-06,0,122,-0,0,121.795,0.240778,0.836
0,-0.000238734,0.392225,0.554622,0,5.16095e-41,-0.000962934,5.97729e-06,0,122,-0,0,121.798,0.242228,0.84
0,-0.000238734,0.392221,0.554622,0,3.44064e-41,-0.000971759,3.98486e-06,0,122,-0,0,121.801,0.243936,0.844
0,-0.000238734,0.392217,0.554622,0,2.29376e-41,-0.000980621,2.65657e-06,0,122,-0,0,121.804,0.245819,0.848
0,-0.000238734,0.392213,0.554622,0,1.52917e-41,-0.000989519,1.77105e-06,0,122,-0,0,121.807,0.247823,0.852
0,-0.000238734,0.392209,0.554622,0,1.01945e-41,-0.000998455,1.1807e-06,0,122,-0,0,121.81,0.249909,0.856
0,-0.000238734,0.392205,0.554622,0,6.79632e-42,-0.00100743,7.87133e-07,0,122,-0,0,121.813,0.252053,0.86
0,-0.000238734,0.392201,0.554622,0,4.53088e-42,-0.00101643,5.24755e-07,0,122,-0,0,121.816,0.25424,0.864
0,-0.000238734,0.392197,0.554622,0,3.02059e-42,-0.00102548,3.49837e-07,0,122,-0,0,121.819,0.256457,0.868
0,-0.000238734,0.392193,0.554622,0,2.01372e-42,-0.00103456,2.33224e-07,0,122,-0,0,121.822,0.258699,0.872
0,-0.000238734,0.392189,0.554622,0,1.34248e-42,-0.00104368,1.55483e-07,0,122,-0,0,121.825,0.260959,0.876
0,-0.000238734,0.392185,0.554622,0,8.94988e-43,-0.00105283,1.03655e-07,0,122,-0,0,121.828,0.263234,0.88
0,-0.000238734,0.39218,0.554622,0,5.96659e-43,-0.00106202,6.91035e-08,0,122,-0,0,121.831,0.265523,0.884
0,-0.000238734,0.392176,0.554622,0,3.97773e-43,-0.00107125,4.6069e-08,0,122,-0,0,121.835,0.267824,0.888
0,-0.000238734,0.392172,0.554622,0,2.65182e-43,-0.00108051,3.07127e-08,0,122,-0,0,121.838,0.270136,0.892
0,-0.000238734,0.392168,0.554622,0,1.76788e-43,-0.00108981,-5.75614e-05,0,122,-0,0,121.841,0.258063,0.896
0,-0.000238734,0.392163,0.554622,0,1.17859e-43,-0.00109915,-3.83742e-05,0,122,-0,0,121.844,0.265194,0.9
0,-0.000238734,0.392159,0.554623,0,7.85724e-44,-0.00110852,6.07899e-05,0,122,-0,0,121.848,0.292328,0.904
0,-0.000238734,0.392154,0.554622,0,5.23816e-44,-0.00111793,1.17357e-05,0,122,-0,0,121.851,0.282416,0.908
0,-0.000238734,0.39215,0.554622,0,3.49211e-44,-0.00112737,7.8238e-06,0,122,-0,0,121.854,0.283799,0.912
0,-0.000238734,0.392145,0.554622,0,2.32807e-44,-0.00113685,5.21587e-06,0,122,-0,0,121.858,0.285517,0.916
0,-0.000238734,0.392141,0.554622,0,1.55205e-44,-0.00114637,3.47725e-06,0,122,-0,0,121.861,0.287461,0.92
0,-0.000238734,0.392136,0.554622,0,1.0347e-44,-0.00115592,-2.64728e-05,0,122,-0,0,121.864,0.282361,0.924
0,-0.000238734,0.392131,0.554622,0,6.89799e-45,-0.0011655,1.11424e-05,0,122,-0,0,121.868,0.294162,0.928
0,-0.000238734,0.392127,0.554622,0,4.59866e-45,-0.00117513,7.42828e-06,0,122,-0,0,121.872,0.295639,0.932
0,-0.000238734,0.392122,0.554622,0,3.06577e-45,-0.00118479,-5.26297e-05,0,122,-0,0,121.875,0.283039,0.936
0,-0.000238734,0.392117,0.554622,0,2.04385e-45,-0.00119448,-3.50864e-05,0,122,-0,0,121.878,0.289848,0.94
0,-0.000238734,0.392113,0.554622,0,1.36257e-45,-0.00120421,3.41909e-05,0,122,-0,0,121.882,0.3096,0.944
0,-0.000238734,0.392108,0.554622,0,9.08377e-46,-0.00121398,2.27939e-05,0,122,-0,0,121.886,0.309192,0.948
0,-0.000238734,0.392103,0.554622,0,6.05585e-46,-0.00122378,-4.23859e-05,0,122,-0,0,121.889,0.295348,0.952
0,-0.000238734,0.392098,0.554622,0,4.03723e-46,-0.00123361,2.93246e-05,0,122,-0,0,121.893,0.315734,0.956
0,-0.000238734,0.392093,0.554622,0,2.69149e-46,-0.00124348,1.95497e-05,0,122,-0,0,121.897,0.315759,0.96
0,-0.000238734,0.392088,0.554622,0,1.79432e-46,-0.00125339,1.30331e-05,0,122,-0,0,121.901,0.316606,0.964
0,-0.000238734,0.392083,0.554623,0,1.19622e-46,-0.00126333,3.74797e-05,0,122,-0,0,121.905,0.325204,0.968
0,-0.000238734,0.392078,0.554623,0,7.97478e-47,-0.00127331,2.49865e-05,0,122,-0,0,121.909,0.324575,0.972
0,-0.000238734,0.392073,0.554622,0,5.31652e-47,-0.00128333,-1.21333e-05,0,122,-0,0,121.912,0.317798,0.976
0,-0.000238734,0.392068,0.554622,0,3.54434e-47,-0.00129337,-6.56707e-05,0,122,-0,0,121.916,0.306926,0.98
0,-0.000238734,0.392062,0.554622,0,2.3629e-47,-0.00130346,1.38014e-05,0,122,-0,0,121.92,0.329315,0.984
0,-0.000238734,0.392057,0.554622,0,1.57526e-47,-0.00131358,9.20092e-06,0,122,-0,0,121.924,0.330694,0.988
0,-0.000238734,0.392052,0.554622,0,1.05018e-47,-0.00132373,6.13395e-06,0,122,-0,0,121.928,0.332466,0.992
0,-0.000238734,0.392047,0.554622,0,7.00117e-48,-0.00133392,4.0893e-06,0,122,-0,0,121.932,0.334502,0.996
0,-0.000238734,0.392041,0.554622,0,4.66745e-48,-0.00134414,-5.48557e-05,0,122,-0,0,121.935,0.322322,1
0,-0.000238734,0.392036,0.554622,0,3.11163e-48,-0.0013544,2.10114e-05,0,122,-0,0,121.94,0.343853,1.004
0,-0.000238734,0.39203,0.554622,0,2.07442e-48,-0.00136469,1.40076e-05,0,122,-0,0,121.944,0.344675,1.008
0,-0.000238734,0.392025,0.554622,0,1.38295e-48,-0.00137502,9.33841e-06,0,122,-0,0,121.948,0.34609,1.012
0,-0.000238734,0.392019,0.554622,0,9.21965e-49,-0.00138538,6.2256e-06,0,122,-0,0,121.952,0.347903,1.016
0,-0.000238734,0.392014,0.554623,0,6.14644e-49,-0.00139578,3.29413e-05,0,122,-0,0,121.957,0.357181,1.02
0,-0.000238734,0.392008,0.554622,0,4.09762e-49,-0.00140622,-6.83004e-06,0,122,-0,0,121.961,0.349846,1.024
0,-0.000238734,0.392003,0.554622,0,2.73175e-49,-0.00141668,-4.55336e-06,0,122,-0,0,121.965,0.353032,1.028
0,-0.000238734,0.391997,0.554622,0,1.82117e-49,-0.00142718,-3.03557e-06,0,122,-0,0,121.969,0.356037,1.032
0,-0.000238734,0.391991,0.554623,0,1.21411e-49,-0.00143772,2.67672e-05,0,122,-0,0,121.974,0.366122,1.036
0,-0.000238734,0.391985,0.554622,0,8.09407e-50,-0.00144829,-1.09461e-05,0,122,-0,0,121.978,0.359336,1.04
0,-0.000238734,0.39198,0.554622,0,5.39605e-50,-0.0014589,-3.60883e-05,0,122,-0,0,121.982,0.355702,1.044
0,-0.000238734,0.391974,0.554622,0,3.59737e-50,-0.00146954,4.73203e-06,0,122,-0,0,121.987,0.368567,1.048
0,-0.000238734,0.391968,0.554622,0,2.39824e-50,-0.00148021,3.15469e-06,0,122,-0,0,121.991,0.370841,1.052
0,-0.000238734,0.391962,0.554622,0,1.59883e-50,-0.00149092,2.10313e-06,0,122,-0,0,121.995,0.373255,1.056
0,-0.000238734,0.391956,0.554622,0,1.06589e-50,-0.00150166,1.40208e-06,0,122,-0,0,122,0.375765,1.06
0,-0.000238734,0.39195,0.554622,0,7.10591e-51,-0.00151244,-5.66471e-05,0,122,-0,0,122.004,0.363947,1.064
0,-0.000238734,0.391944,0.554622,0,4.73727e-51,-0.00152325,1.98171e-05,0,122,-0,0,122.009,0.385766,1.068
0,-0.000238734,0.391938,0.554622,0,3.15818e-51,-0.00153409,1.32114e-05,0,122,-0,0,122.014,0.386826,1.072
0,-0.000238734,0.391931,0.554622,0,2.10545e-51,-0.00154497,8.8076e-06,0,122,-0,0,122.018,0.388445,1.076
0,-0.000238734,0.391925,0.554622,0,1.40364e-51,-0.00155588,-5.17101e-05,0,122,-0,0,122.022,0.376044,1.08
0,-0.000238734,0.391919,0.554622,0,9.35757e-52,-0.00156683,2.31084e-05,0,122,-0,0,122.028,0.397485,1.084
0,-0.000238734,0.391913,0.554622,0,6.23838e-52,-0.00157781,1.54056e-05,0,122,-0,0,122.032,0.398305,1.088
0,-0.000238734,0.391906,0.554622,0,4.15892e-52,-0.00158883,1.02704e-05,0,122,-0,0,122.037,0.399774,1.092
0,-0.000238734,0.3919,0.554622,0,2.77261e-52,-0.00159988,-5.07349e-05,0,122,-0,0,122.041,0.387285,1.096
0,-0.000238734,0.391894,0.554622,0,1.84841e-52,-0.00161096,2.37586e-05,0,122,-0,0,122.047,0.408679,1.1
0,-0.000238734,0.391887,0.554622,0,1.23227e-52,-0.00162208,1.58391e-05,0,122,-0,0,122.051,0.409479,1.104
0,-0.000238734,0.391881,0.554622,0,8.21515e-53,-0.00163323,1.05594e-05,0,122,-0,0,122.056,0.410946,1.108
0,-0.000238734,0.391874,0.554622,0,5.47677e-53,-0.00164441,7.03958e-06,0,122,-0,0,122.061,0.412862,1.112
0,-0.000238734,0.391867,0.554622,0,3.65118e-53,-0.00165563,4.69305e-06,0,122,-0,0,122.066,0.41508,1.116
0,-0.000238734,0.391861,0.554622,0,2.43412e-53,-0.00166688,3.1287e-06,0,122,-0,0,122.071,0.417501,1.12
0,-0.000238734,0.391854,0.554622,0,1.62275e-53,-0.00167816,2.0858e-06,0,122,-0,0,122.076,0.420062,1.124
0,-0.000238734,0.391847,0.554622,0,1.08183e-53,-0.00168948,1.39053e-06,0,122,-0,0,122.081,0.422717,1.128
0,-0.000238734,0.391841,0.554623,0,7.21221e-54,-0.00170083,2.97179e-05,0,122,-0,0,122.087,0.432637,1.132
0,-0.000238734,0.391834,0.554622,0,4.80814e-54,-0.00171221,-8.97896e-06,0,122,-0,0,122.091,0.425809,1.136
0,-0.000238734,0.391827,0.554622,0,3.20542e-54,-0.00172363,-5.98597e-06,0,122,-0,0,122.097,0.429412,1.14
0,-0.000238734,0.39182,0.554623,0,2.13695e-54,-0.00173508,2.48003e-05,0,122,-0,0,122.102,0.439971,1.144
0,-0.000238734,0.391813,0.554622,0,1.42463e-54,-0.00174657,-1.22574e-05,0,122,-0,0,122.107,0.433578,1.148
0,-0.000238734,0.391806,0.554622,0,9.49756e-55,-0.00175809,-8.1716e-06,0,122,-0,0,122.112,0.437479,1.152
0,-0.000238734,0.391799,0.554623,0,6.3317e-55,-0.00176964,2.33432e-05,0,122,-0,0,122.118,0.448245,1.156
0,-0.000238734,0.391792,0.554622,0,4.22114e-55,-0.00178122,-1.32288e-05,0,122,-0,0,122.123,0.441998,1.16
0,-0.000238734,0.391785,0.554622,0,2.81409e-55,-0.00179284,-8.8192e-06,0,122,-0,0,122.128,0.446005,1.164
0,-0.000238734,0.391778,0.554622,0,1.87606e-55,-0.00180449,-5.87947e-06,0,122,-0,0,122.134,0.449652,1.168
0,-0.000238734,0.39177,0.554622,0,1.25071e-55,-0.00181617,-3.91964e-06,0,122,-0,0,122.139,0.453063,1.172
0,-0.000238734,0.391763,0.554622,0,8.33805e-56,-0.00182789,-6.01949e-05,0,122,-0,0,122.144,0.441923,1.176
0,-0.000238734,0.391756,0.554622,0,5.5587e-56,-0.00183964,1.74519e-05,0,122,-0,0,122.15,0.464272,1.18
0,-0.000238734,0.391748,0.554622,0,3.7058e-56,-0.00185142,1.16346e-05,0,122,-0,0,122.156,0.465763,1.184
0,-0.000238734,0.391741,0.554623,0,2.47053e-56,-0.00186323,3.65473e-05,0,122,-0,0,122.161,0.474945,1.188
0,-0.000238734,0.391733,0.554623,0,1.64702e-56,-0.00187508,2.43649e-05,0,122,-0,0,122.167,0.474861,1.192
0,-0.000238734,0.391726,0.554622,0,1.09801e-56,-0.00188696,-1.25477e-05,0,122,-0,0,122.172,0.468603,1.196
0,-0.000238734,0.391718,0.554622,0,7.32009e-57,-0.00189887,-8.36511e-06,0,122,-0,0,122.178,0.472627,1.2
0,-0.000238734,0.391711,0.554622,0,4.88006e-57,-0.00191082,-5.57674e-06,0,122,-0,0,122.184,0.47631,1.204
0,-0.000238734,0.391703,0.554622,0,3.25338e-57,-0.00192279,-6.12997e-05,0,122,-0,0,122.189,0.465374,1.208
0,-0.000238734,0.391695,0.554622,0,2.16892e-57,-0.0019348,1.67154e-05,0,122,-0,0,122.195,0.48788,1.212
0,-0.000238734,0.391688,0.554622,0,1.44594e-57,-0.00194685,-4.64383e-05,0,122,-0,0,122.201,0.475102,1.216
0,-0.000238734,0.39168,0.554622,0,9.63963e-58,-0.00195892,2.6623e-05,0,122,-0,0,122.207,0.496386,1.22
0,-0.000238734,0.391672,0.554622,0,6.42642e-58,-0.00197103,1.77487e-05,0,122,-0,0,122.213,0.497195,1.224
0,-0.000238734,0.391664,0.554623,0,4.28428e-58,-0.00198317,4.06234e-05,0,122,-0,0,122.219,0.505948,1.228
0,-0.000238734,0.391656,0.554622,0,2.85619e-58,-0.00199534,-1.70867e-06,0,122,-0,0,122.225,0.498408,1.232
0,-0.000238734,0.391648,0.554622,0,1.90412e-58,-0.00200755,-1.13912e-06,0,122,-0,0,122.231,0.501602,1.236
0,-0.000238734,0.39164,0.554622,0,1.26942e-58,-0.00201978,-5.83413e-05,0,122,-0,0,122.236,0.49036,1.24
0,-0.000238734,0.391632,0.554622,0,8.46278e-59,-0.00203205,1.86877e-05,0,122,-0,0,122.243,0.512685,1.244
0,-0.000238734,0.391624,0.554622,0,5.64185e-59,-0.00204435,1.24585e-05,0,122,-0,0,122.249,0.514202,1.248
0,-0.000238734,0.391615,0.554623,0,3.76123e-59,-0.00205668,3.70966e-05,0,122,-0,0,122.255,0.523445,1.252
0,-0.000238734,0.391607,0.554622,0,2.50749e-59,-0.00206905,-6.16417e-05,0,122,-0,0,122.261,0.501852,1.256
0,-0.000238734,0.391599,0.554623,0,1.67166e-59,-0.00208145,4.52783e-05,0,122,-0,0,122.268,0.531681,1.26
0,-0.000238734,0.391591,0.554622,0,1.11444e-59,-0.00209387,1.3946e-06,0,122,-0,0,122.274,0.523817,1.264
0,-0.000238734,0.391582,0.554622,0,7.4296e-60,-0.00210633,-5.66521e-05,0,122,-0,0,122.28,0.512421,1.268
0,-0.000238734,0.391574,0.554622,0,4.95307e-60,-0.00211883,-3.77681e-05,0,122,-0,0,122.286,0.520265,1.272
0,-0.000238734,0.391565,0.554623,0,3.30204e-60,-0.00213135,6.11941e-05,0,122,-0,0,122.293,0.548136,1.276
0,-0.000238734,0.391557,0.554622,0,2.20136e-60,-0.00214391,1.20051e-05,0,122,-0,0,122.299,0.538978,1.28
0,-0.000238734,0.391548,0.554622,0,1.46757e-60,-0.00215649,8.00341e-06,0,122,-0,0,122.306,0.541124,1.284
0,-0.000238734,0.391539,0.554622,0,9.78383e-61,-0.00216911,5.33561e-06,0,122,-0,0,122.312,0.543612,1.288
0,-0.000238734,0.391531,0.554622,0,6.52256e-61,-0.00218176,3.55707e-06,0,122,-0,0,122.319,0.54633,1.292
0,-0.000238734,0.391522,0.554622,0,4.34837e-61,-0.00219445,2.37138e-06,0,122,-0,0,122.325,0.549204,1.296
0,-0.000238734,0.391513,0.554622,0,2.89891e-61,-0.00220716,1.58092e-06,0,122,-0,0,122.332,0.552185,1.3
0,-0.000238734,0.391504,0.554622,0,1.93261e-61,-0.00221991,1.05395e-06,0,122,-0,0,122.339,0.55524,1.304
0,-0.000238734,0.391495,0.554622,0,1.28841e-61,-0.00223268,7.02631e-07,0,122,-0,0,122.345,0.558346,1.308
0,-0.000238734,0.391486,0.554622,0,8.58937e-62,-0.00224549,4.68421e-07,0,122,-0,0,122.352,0.56149,1.312
0,-0.000238734,0.391477,0.554622,0,5.72625e-62,-0.00225833,3.12281e-07,0,122,-0,0,122.359,0.56466,1.316
0,-0.000238734,0.391468,0.554623,0,3.8175e-62,-0.0022712,2.89991e-05,0,122,-0,0,122.366,0.57505,1.32
0,-0.000238734,0.391459,0.554622,0,2.545e-62,-0.0022841,-6.704e-05,0,122,-0,0,122.372,0.554265,1.324
0,-0.000238734,0.39145,0.554623,0,1.69667e-62,-0.00229704,4.16794e-05,0,122,-0,0,122.379,0.584679,1.328
0,-0.000238734,0.391441,0.554623,0,1.13111e-62,-0.00231,2.77863e-05,0,122,-0,0,122.386,0.584446,1.332
0,-0.000238734,0.391432,0.554622,0,7.54074e-63,-0.00232299,-6.78486e-05,0,122,-0,0,122.393,0.563786,1.336
0,-0.000238734,0.391422,0.554622,0,5.02716e-63,-0.00233602,-1.64415e-05,0,122,-0,0,122.4,0.579895,1.34
0,-0.000238734,0.391413,0.554622,0,3.35144e-63,-0.00234908,-3.97519e-05,0,122,-0,0,122.407,0.577332,1.344
0,-0.000238734,0.391404,0.554623,0,2.23429e-63,-0.00236217,5.98715e-05,0,123,-0,0,122.414,0.605509,1.348
0,-0.000238734,0.391394,0.554622,0,1.48953e-63,-0.00237529,1.11234e-05,0,123,-0,0,122.421,0.596602,1.352
0,-0.000238734,0.391385,0.554622,0,9.93019e-64,-0.00238844,7.41561e-06,0,123,-0,0,122.428,0.598963,1.356
0,-0.000238734,0.391375,0.554622,0,6.62013e-64,-0.00240162,4.94374e-06,0,123,-0,0,122.436,0.60164,1.36
0,-0.000238734,0.391365,0.554623,0,4.41342e-64,-0.00241483,3.20868e-05,0,123,-0,0,122.443,0.611729,1.364
0,-0.000238734,0.391356,0.554622,0,2.94228e-64,-0.00242807,-7.39976e-06,0,123,-0,0,122.45,0.605168,1.368
0,-0.000238734,0.391346,0.554623,0,1.96152e-64,-0.00244134,2.38578e-05,0,123,-0,0,122.458,0.6163,1.372
0,-0.000238734,0.391336,0.554622,0,1.30768e-64,-0.00245465,-1.28858e-05,0,123,-0,0,122.465,0.61044,1.376
0,-0.000238734,0.391326,0.554622,0,8.71786e-65,-0.00246798,-8.5905e-06,0,123,-0,0,122.472,0.614848,1.38
0,-0.000238734,0.391316,0.554622,0,5.81191e-65,-0.00248135,-5.727e-06,0,123,-0,0,122.48,0.618905,1.384
0,-0.000238734,0.391306,0.554622,0,3.87461e-65,-0.00249474,-3.818e-06,0,123,-0,0,122.487,0.622731,1.388
0,-0.000238734,0.391296,0.554622,0,2.58307e-65,-0.00250817,-2.54533e-06,0,123,-0,0,122.495,0.626406,1.392
0,-0.000238734,0.391286,0.554622,0,1.72205e-65,-0.00252162,-1.69689e-06,0,123,-0,0,122.502,0.629982,1.396
0,-0.000238734,0.391276,0.554622,0,1.14803e-65,-0.00253511,-1.13126e-06,0,123,-0,0,122.51,0.633495,1.4
0,-0.000238734,0.391266,0.554622,0,7.65354e-66,-0.00254863,-7.54173e-07,0,123,-0,0,122.517,0.636968,1.404
0,-0.000238734,0.391256,0.554622,0,5.10236e-66,-0.00256218,-5.02782e-07,0,123,-0,0,122.525,0.640418,1.408
0,-0.000238734,0.391246,0.554622,0,3.40157e-66,-0.00257575,-3.35188e-07,0,123,-0,0,122.533,0.643854,1.412
0,-0.000238734,0.391235,0.554622,0,2.26772e-66,-0.00258936,-2.23459e-07,0,123,-0,0,122.54,0.647284,1.416
0,-0.000238734,0.391225,0.554622,0,1.51181e-66,-0.002603,-1.48972e-07,0,123,-0,0,122.548,0.650712,1.42
0,-0.000238734,0.391214,0.554622,0,1.00787e-66,-0.00261667,-9.9315e-08,0,123,-0,0,122.556,0.654142,1.424
0,-0.000238734,0.391204,0.554622,0,6.71916e-67,-0.00263036,-6.621e-08,0,123,-0,0,122.564,0.657575,1.428
0,-0.000238734,0.391193,0.554622,0,4.47944e-67,-0.00264409,-5.7626e-05,0,123,-0,0,122.571,0.646617,1.432
0,-0.000238734,0.391183,0.554622,0,2.98629e-67,-0.00265785,1.91645e-05,0,123,-0,0,122.58,0.669254,1.436
0,-0.000238734,0.391172,0.554622,0,1.99086e-67,-0.00267164,1.27763e-05,0,123,-0,0,122.588,0.671104,1.44
0,-0.000238734,0.391161,0.554622,0,1.32724e-67,-0.00268546,8.51757e-06,0,123,-0,0,122.596,0.673493,1.444
0,-0.000238734,0.391151,0.554623,0,8.84828e-68,-0.0026993,3.44693e-05,0,123,-0,0,122.604,0.683443,1.448
0,-0.000238734,0.39114,0.554622,0,5.89885e-68,-0.00271318,-5.81139e-06,0,123,-0,0,122.612,0.676842,1.452
0,-0.000238734,0.391129,0.554622,0,3.93257e-68,-0.00272709,-3.87426e-06,0,123,-0,0,122.62,0.680804,1.456
0,-0.000238734,0.391118,0.554622,0,2.62171e-68,-0.00274103,-2.58284e-06,0,123,-0,0,122.628,0.684611,1.46
0,-0.000238734,0.391107,0.554622,0,1.74781e-68,-0.00275499,-1.72189e-06,0,123,-0,0,122.637,0.688318,1.464
0,-0.000238734,0.391096,0.554622,0,1.16521e-68,-0.00276899,-1.14793e-06,0,123,-0,0,122.645,0.69196,1.468
0,-0.000238734,0.391085,0.554622,0,7.76803e-69,-0.00278301,-7.65286e-07,0,123,-0,0,122.653,0.695562,1.472
0,-0.000238734,0.391074,0.554622,0,5.17869e-69,-0.00279707,-5.10191e-07,0,123,-0,0,122.662,0.69914,1.476
0,-0.000238734,0.391062,0.554622,0,3.45246e-69,-0.00281115,-5.7922e-05,0,123,-0,0,122.669,0.688308,1.48
0,-0.000238734,0.391051,0.554622,0,2.30164e-69,-0.00282527,1.89672e-05,0,123,-0,0,122.678,0.711059,1.484
0,-0.000238734,0.39104,0.554622,0,1.53443e-69,-0.00283941,1.26448e-05,0,123,-0,0,122.687,0.713014,1.488
0,-0.000238734,0.391028,0.554623,0,1.02295e-69,-0.00285358,3.72208e-05,0,123,-0,0,122.696,0.722701,1.492
0,-0.000238734,0.391017,0.554622,0,6.81967e-70,-0.00286779,-3.97706e-06,0,123,-0,0,122.704,0.715952,1.496
0,-0.000238734,0.391005,0.554622,0,4.54645e-70,-0.00288202,-2.65138e-06,0,123,-0,0,122.713,0.719842,1.5
0,-0.000238734,0.390994,0.554622,0,3.03097e-70,-0.00289628,-1.76758e-06,0,123,-0,0,122.721,0.723628,1.504
0,-0.000238734,0.390982,0.554622,0,2.02064e-70,-0.00291057,-1.17839e-06,0,123,-0,0,122.73,0.727348,1.508
0,-0.000238734,0.390971,0.554623,0,1.3471e-70,-0.00292489,2.80053e-05,0,123,-0,0,122.739,0.738223,1.512
0,-0.000238734,0.390959,0.554622,0,8.98064e-71,-0.00293924,-6.77026e-05,0,123,-0,0,122.747,0.717883,1.516
0,-0.000238734,0.390947,0.554622,0,5.98709e-71,-0.00295361,-1.63441e-05,0,123,-0,0,122.756,0.734317,1.52
0,-0.000238734,0.390935,0.554622,0,3.9914e-71,-0.00296802,1.78949e-05,0,123,-0,0,122.765,0.746478,1.524
0,-0.000238734,0.390923,0.554622,0,2.66093e-71,-0.00298245,-4.56519e-05,0,123,-0,0,122.774,0.7342,1.528
0,-0.000238734,0.390911,0.554622,0,1.77395e-71,-0.00299692,2.71472e-05,0,123,-0,0,122.783,0.756016,1.532
0,-0.000238734,0.390899,0.554622,0,1.18264e-71,-0.00301141,1.80981e-05,0,123,-0,0,122.792,0.757377,1.536
0,-0.000238734,0.390887,0.554622,0,7.88424e-72,-0.00302593,1.20654e-05,0,123,-0,0,122.801,0.759499,1.54
0,-0.000238734,0.390875,0.554622,0,5.25616e-72,-0.00304048,8.04362e-06,0,123,-0,0,122.81,0.762132,1.544
0,-0.000238734,0.390863,0.554622,0,3.50411e-72,-0.00305506,5.36241e-06,0,123,-0,0,122.82,0.765106,1.548
0,-0.000238734,0.390851,0.554622,0,2.33607e-72,-0.00306967,3.57494e-06,0,123,-0,0,122.829,0.768311,1.552
0,-0.000238734,0.390838,0.554622,0,1.55738e-72,-0.00308431,-5.51986e-05,0,123,-0,0,122.837,0.757277,1.556
0,-0.000238734,0.390826,0.554622,0,1.03825e-72,-0.00309897,2.07828e-05,0,123,-0,0,122.847,0.779938,1.56
0,-0.000238734,0.390814,0.554622,0,6.92169e-73,-0.00311366,1.38552e-05,0,123,-0,0,122.857,0.78188,1.564
0,-0.000238734,0.390801,0.554622,0,4.61446e-73,-0.00312839,9.23681e-06,0,123,-0,0,122.866,0.784406,1.568
0,-0.000238734,0.390789,0.554622,0,3.07631e-73,-0.00314314,6.15787e-06,0,123,-0,0,122.875,0.787324,1.572
0,-0.000238734,0.390776,0.554622,0,2.05087e-73,-0.00315792,4.10525e-06,0,123,-0,0,122.885,0.790505,1.576
0,-0.000238734,0.390763,0.554622,0,1.36725e-73,-0.00317272,2.73683e-06,0,123,-0,0,122.894,0.793865,1.58
0,-0.000238734,0.390751,0.554622,0,9.11498e-74,-0.00318756,-2.69664e-05,0,123,-0,0,122.904,0.790148,1.584
0,-0.000238734,0.390738,0.554622,0,6.07666e-74,-0.00320242,1.08133e-05,0,123,-0,0,122.913,0.803309,1.588
0,-0.000238734,0.390725,0.554622,0,4.0511e-74,-0.00321731,7.2089e-06,0,123,-0,0,122.923,0.806131,1.592
0,-0.000238734,0.390712,0.554622,0,2.70074e-74,-0.00323223,-2.3985e-05,0,123,-0,0,122.932,0.802062,1.596
0,-0.000238734,0.390699,0.554622,0,1.80049e-74,-0.00324718,1.28009e-05,0,123,-0,0,122.942,0.814996,1.6
0,-0.000238734,0.390686,0.554622,0,1.20033e-74,-0.00326216,8.53395e-06,0,123,-0,0,122.952,0.817673,1.604
0,-0.000238734,0.390673,0.554622,0,8.00218e-75,-0.00327716,5.6893e-06,0,123,-0,0,122.962,0.820713,1.608
0,-0.000238734,0.39066,0.554622,0,5.33479e-75,-0.0032922,3.79287e-06,0,123,-0,0,122.972,0.823997,1.612
0,-0.000238734,0.390647,0.554622,0,3.55652e-75,-0.00330726,2.52858e-06,0,123,-0,0,122.982,0.827447,1.616
0,-0.000238734,0.390633,0.554622,0,2.37102e-75,-0.00332235,1.68572e-06,0,123,-0,0,122.992,0.831008,1.62
0,-0.000238734,0.39062,0.554622,0,1.58068e-75,-0.00333746,1.12381e-06,0,123,-0,0,123.002,0.834647,1.624
0,-0.000238734,0.390607,0.554622,0,1.05378e-75,-0.00335261,7.49208e-07,0,123,-0,0,123.012,0.838339,1.628
0,-0.000238734,0.390593,0.554622,0,7.02523e-76,-0.00336778,4.99472e-07,0,123,-0,0,123.022,0.84207,1.632
0,-0.000238734,0.39058,0.554622,0,4.68349e-76,-0.00338298,3.32982e-07,0,123,-0,0,123.032,0.845828,1.636
0,-0.000238734,0.390566,0.554622,0,3.12233e-76,-0.00339821,2.21988e-07,0,123,-0,0,123.042,0.849607,1.64
0,-0.000238734,0.390553,0.554622,0,2.08155e-76,-0.00341346,1.47992e-07,0,123,-0,0,123.052,0.853402,1.644
0,-0.000238734,0.390539,0.554622,0,1.3877e-76,-0.00342874,-2.86923e-05,0,123,-0,0,123.062,0.850013,1.648
0,-0.000238734,0.390525,0.554622,0,9.25134e-77,-0.00344405,9.66275e-06,0,123,-0,0,123.073,0.863429,1.652
0,-0.000238734,0.390511,0.554622,0,6.16756e-77,-0.00345939,6.44183e-06,0,123,-0,0,123.083,0.866459,1.656
0,-0.000238734,0.390498,0.554622,0,4.1117e-77,-0.00347476,4.29456e-06,0,123,-0,0,123.094,0.869763,1.66
0,-0.000238734,0.390484,0.554622,0,2.74114e-77,-0.00349015,2.86304e-06,0,123,-0,0,123.104,0.873253,1.664
0,-0.000238734,0.39047,0.554622,0,1.82742e-77,-0.00350557,1.90869e-06,0,123,-0,0,123.115,0.87687,1.668
0,-0.000238734,0.390456,0.554622,0,1.21828e-77,-0.00352102,1.27246e-06,0,124,-0,0,123.125,0.880573,1.672
0,-0.000238734,0.390441,0.554622,0,8.12189e-78,-0.00353649,8.48307e-07,0,124,-0,0,123.136,0.884335,1.676
0,-0.000238734,0.390427,0.554622,0,5.41459e-78,-0.003552,5.65538e-07,0,124,-0,0,123.146,0.88814,1.68
0,-0.000238734,0.390413,0.554622,0,3.60973e-78,-0.00356753,3.77025e-07,0,124,-0,0,123.157,0.891976,1.684
0,-0.000238734,0.390399,0.554622,0,2.40648e-78,-0.00358308,2.5135e-07,0,124,-0,0,123.168,0.895833,1.688
0,-0.000238734,0.390384,0.554622,0,1.60432e-78,-0.00359867,-2.86234e-05,0,124,-0,0,123.178,0.892511,1.692
0,-0.000238734,0.39037,0.554622,0,1.06955e-78,-0.00361428,-1.90822e-05,0,124,-0,0,123.189,0.898799,1.696
0,-0.000238734,0.390355,0.554622,0,7.13033e-79,-0.00362991,1.60694e-05,0,124,-0,0,123.2,0.911496,1.7
0,-0.000238734,0.390341,0.554622,0,4.75355e-79,-0.00364558,1.0713e-05,0,124,-0,0,123.211,0.914073,1.704
0,-0.000238734,0.390326,0.554622,0,3.16903e-79,-0.00366127,7.14197e-06,0,124,-0,0,123.222,0.917103,1.708
0,-0.000238734,0.390312,0.554622,0,2.11269e-79,-0.00367699,4.76131e-06,0,124,-0,0,123.233,0.920438,1.712
0,-0.000238734,0.390297,0.554622,0,1.40846e-79,-0.00369274,3.17421e-06,0,124,-0,0,123.244,0.923978,1.716
0,-0.000238734,0.390282,0.554622,0,9.38973e-80,-0.00370851,-2.66748e-05,0,124,-0,0,123.255,0.920458,1.72
0,-0.000238734,0.390267,0.554622,0,6.25982e-80,-0.00372431,1.10077e-05,0,124,-0,0,123.266,0.933829,1.724
0,-0.000238734,0.390252,0.554622,0,4.17321e-80,-0.00374013,-2.14524e-05,0,124,-0,0,123.277,0.92967,1.728
0,-0.000238734,0.390237,0.554622,0,2.78214e-80,-0.00375599,-1.43016e-05,0,124,-0,0,123.289,0.935421,1.732
0,-0.000238734,0.390222,0.554622,0,1.85476e-80,-0.00377187,1.92565e-05,0,124,-0,0,123.3,0.947781,1.736
0,-0.000238734,0.390207,0.554622,0,1.23651e-80,-0.00378777,1.28377e-05,0,124,-0,0,123.311,0.950152,1.74
0,-0.000238734,0.390192,0.554622,0,8.24338e-81,-0.0038037,8.55845e-06,0,124,-0,0,123.323,0.953066,1.744
0,-0.000238734,0.390177,0.554622,0,5.49559e-81,-0.00381966,5.70563e-06,0,124,-0,0,123.334,0.956342,1.748
0,-0.000238734,0.390161,0.554622,0,3.66373e-81,-0.00383565,3.80375e-06,0,124,-0,0,123.346,0.959863,1.752
0,-0.000238734,0.390146,0.554622,0,2.44248e-81,-0.00385166,2.53584e-06,0,124,-0,0,123.357,0.963549,1.756
0,-0.000238734,0.390131,0.554622,0,1.62832e-81,-0.0038677,1.69056e-06,0,124,-0,0,123.369,0.967348,1.76
0,-0.000238734,0.390115,0.554622,0,1.08555e-81,-0.00388377,-2.76639e-05,0,124,-0,0,123.38,0.964025,1.764
0,-0.000238734,0.3901,0.554622,0,7.23699e-82,-0.00389986,1.03483e-05,0,124,-0,0,123.392,0.977551,1.768
0,-0.000238734,0.390084,0.554622,0,4.82466e-82,-0.00391597,6.89889e-06,0,124,-0,0,123.404,0.980718,1.772
0,-0.000238734,0.390068,0.554622,0,3.21644e-82,-0.00393212,4.59926e-06,0,124,-0,0,123.416,0.984179,1.776
0,-0.000238734,0.390052,0.554622,0,2.14429e-82,-0.00394829,3.06617e-06,0,124,-0,0,123.427,0.987838,1.78
0,-0.000238734,0.390037,0.554622,0,1.42953e-82,-0.00396448,2.04412e-06,0,124,-0,0,123.439,0.991632,1.784
0,-0.000238734,0.390021,0.554622,0,9.53019e-83,-0.00398071,1.36274e-06,0,124,-0,0,123.451,0.995517,1.788
0,-0.000238734,0.390005,0.554622,0,6.35346e-83,-0.00399695,9.08496e-07,0,124,-0,0,123.463,0.999466,1.792
0,-0.000238734,0.389989,0.554622,0,4.23564e-83,-0.00401323,6.05664e-07,0,124,-0,0,123.475,1.00346,1.796
0,-0.000238734,0.389973,0.554622,0,2.82376e-83,-0.00402953,4.03776e-07,0,124,-0,0,123.487,1.00748,1.8
0,-0.000238734,0.389956,0.554622,0,1.88251e-83,-0.00404585,2.69184e-07,0,124,-0,0,123.499,1.01153,1.804
0,-0.000238734,0.38994,0.554622,0,1.255e-83,-0.00406221,1.79456e-07,0,124,-0,0,123.512,1.0156,1.808
0,-0.000238734,0.389924,0.554622,0,8.3667e-84,-0.00407858,1.19637e-07,0,124,-0,0,123.524,1.01968,1.812
0,-0.000238734,0.389908,0.554622,0,5.5778e-84,-0.00409499,7.97582e-08,0,124,-0,0,123.536,1.02377,1.816
0,-0.000238734,0.389891,0.554622,0,3.71853e-84,-0.00411142,5.31721e-08,0,124,-0,0,123.548,1.02787,1.82
0,-0.000238734,0.389875,0.554622,0,2.47902e-84,-0.00412787,3.54481e-08,0,124,-0,0,123.561,1.03198,1.824
0,-0.000238734,0.389858,0.554622,0,1.65268e-84,-0.00414435,2.36321e-08,0,124,-0,0,123.573,1.03609,1.828
0,-0.000238734,0.389842,0.554622,0,1.10179e-84,-0.00416086,1.57547e-08,0,124,-0,0,123.586,1.04022,1.832
0,-0.000238734,0.389825,0.554622,0,7.34525e-85,-0.00417739,1.05031e-08,0,124,-0,0,123.598,1.04435,1.836
0,-0.000238734,0.389808,0.554622,0,4.89683e-85,-0.00419395,7.00209e-09,0,124,-0,0,123.611,1.04849,1.84
0,-0.000238734,0.389791,0.554622,0,3.26456e-85,-0.00421053,4.66806e-09,0,124,-0,0,123.623,1.05263,1.844
0,-0.000238734,0.389774,0.554622,0,2.17637e-85,-0.00422714,3.11204e-09,0,124,-0,0,123.636,1.05679,1.848
0,-0.000238734,0.389758,0.554622,0,1.45091e-85,-0.00424377,2.07469e-09,0,124,-0,0,123.649,1.06094,1.852
0,-0.000238734,0.389741,0.554622,0,9.67276e-86,-0.00426043,1.38313e-09,0,124,-0,0,123.661,1.06511,1.856
0,-0.000238734,0.389723,0.554622,0,6.4485e-86,-0.00427712,9.22086e-10,0,124,-0,0,123.674,1.06928,1.86
0,-0.000238734,0.389706,0.554622,0,4.299e-86,-0.00429383,6.14724e-10,0,124,-0,0,123.687,1.07346,1.864
0,-0.000238734,0.389689,0.554622,0,2.866e-86,-0.00431056,4.09816e-10,0,124,-0,0,123.7,1.07764,1.868
0,-0.000238734,0.389672,0.554622,0,1.91067e-86,-0.00432732,2.73211e-10,0,124,-0,0,123.713,1.08183,1.872
0,-0.000238734,0.389655,0.554622,0,1.27378e-86,-0.00434411,1.8214e-10,0,124,-0,0,123.726,1.08603,1.876
0,-0.000238734,0.389637,0.554622,0,8.49186e-87,-0.00436092,1.21427e-10,0,124,-0,0,123.739,1.09023,1.88
0,-0.000238734,0.38962,0.554622,0,5.66124e-87,-0.00437776,8.09513e-11,0,124,-0,0,123.752,1.09444,1.884
0,-0.000238734,0.389602,0.554622,0,3.77416e-87,-0.00439462,5.39675e-11,0,124,-0,0,123.765,1.09865,1.888
0,-0.000238734,0.389584,0.554622,0,2.51611e-87,-0.0044115,-2.87909e-05,0,124,-0,0,123.778,1.09568,1.892
0,-0.000238734,0.389567,0.554622,0,1.6774e-87,-0.00442841,9.597e-06,0,124,-0,0,123.792,1.1095,1.896
0,-0.000238734,0.389549,0.554622,0,1.11827e-87,-0.00444535,6.398e-06,0,124,-0,0,123.805,1.11294,1.9
0,-0.000238734,0.389531,0.554622,0,7.45513e-88,-0.00446231,4.26533e-06,0,124,-0,0,123.818,1.11664,1.904
0,-0.000238734,0.389513,0.554622,0,4.97009e-88,-0.00447929,-2.59474e-05,0,124,-0,0,123.832,1.11334,1.908
0,-0.000238734,0.389495,0.554622,0,3.31339e-88,-0.0044963,1.14927e-05,0,124,-0,0,123.845,1.12695,1.912
0,-0.000238734,0.389477,0.554622,0,2.20893e-88,-0.00451334,7.66179e-06,0,124,-0,0,123.859,1.13025,1.916
0,-0.000238734,0.389459,0.554622,0,1.47262e-88,-0.0045304,5.10786e-06,0,125,-0,0,123.872,1.13388,1.92
0,-0.000238734,0.389441,0.554622,0,9.81745e-89,-0.00454748,-2.53857e-05,0,125,-0,0,123.886,1.13052,1.924
0,-0.000238734,0.389423,0.554622,0,6.54497e-89,-0.00456459,1.18671e-05,0,125,-0,0,123.9,1.14411,1.928
0,-0.000238734,0.389405,0.554622,0,4.36331e-89,-0.00458172,7.91142e-06,0,125,-0,0,123.913,1.14741,1.932
0,-0.000238734,0.389386,0.554622,0,2.90887e-89,-0.00459888,5.27428e-06,0,125,-0,0,123.927,1.15104,1.936
0,-0.000238734,0.389368,0.554622,0,1.93925e-89,-0.00461606,3.51619e-06,0,125,-0,0,123.941,1.15489,1.94
0,-0.000238734,0.389349,0.554622,0,1.29283e-89,-0.00463327,-2.64468e-05,0,125,-0,0,123.955,1.15171,1.944
0,-0.000238734,0.389331,0.554622,0,8.61889e-90,-0.0046505,1.11597e-05,0,125,-0,0,123.969,1.16542,1.948
0,-0.000238734,0.389312,0.554622,0,5.74593e-90,-0.00466776,7.43982e-06,0,125,-0,0,123.983,1.1688,1.952
0,-0.000238734,0.389293,0.554622,0,3.83062e-90,-0.00468504,4.95988e-06,0,125,-0,0,123.997,1.1725,1.956
0,-0.000238734,0.389275,0.554622,0,2.55374e-90,-0.00470234,3.30659e-06,0,125,-0,0,124.011,1.17641,1.96
0,-0.000238734,0.389256,0.554622,0,1.7025e-90,-0.00471967,2.20439e-06,0,125,-0,0,124.025,1.18047,1.964
0,-0.000238734,0.389237,0.554622,0,1.135e-90,-0.00473702,1.46959e-06,0,125,-0,0,124.039,1.18462,1.968
0,-0.000238734,0.389218,0.554622,0,7.56665e-91,-0.0047544,-2.78112e-05,0,125,-0,0,124.053,1.18165,1.972
0,-0.000238734,0.389199,0.554622,0,5.04443e-91,-0.0047718,1.02501e-05,0,125,-0,0,124.068,1.19551,1.976
0,-0.000238734,0.38918,0.554622,0,3.36296e-91,-0.00478922,6.83342e-06,0,125,-0,0,124.082,1.19901,1.98
0,-0.000238734,0.389161,0.554622,0,2.24197e-91,-0.00480667,4.55561e-06,0,125,-0,0,124.096,1.20281,1.984
0,-0.000238734,0.389141,0.554622,0,1.49465e-91,-0.00482414,3.03707e-06,0,125,-0,0,124.111,1.2068,1.988
0,-0.000238734,0.389122,0.554622,0,9.96431e-92,-0.00484164,2.02472e-06,0,125,-0,0,124.125,1.21092,1.992
0,-0.000238734,0.389103,0.554622,0,6.64288e-92,-0.00485916,1.34981e-06,0,125,-0,0,124.14,1.21513,1.996
0,-0.000238734,0.389083,0.554622,0,4.42858e-92,-0.0048767,8.99874e-07,0,125,-0,0,124.154,1.2194,2
0,-0.000238734,0.389064,0.554622,0,2.95239e-92,-0.00489427,-2.8191e-05,0,125,-0,0,124.169,1.21652,2.004
0,-0.000238734,0.389044,0.554622,0,1.96826e-92,-0.00491186,-1.8794e-05,0,125,-0,0,124.184,1.22327,2.008
0,-0.000238734,0.389024,0.554622,0,1.31217e-92,-0.00492948,1.62616e-05,0,125,-0,0,124.199,1.23644,2.012
0,-0.000238734,0.389004,0.554622,0,8.74782e-93,-0.00494712,-1.79499e-05,0,125,-0,0,124.213,1.23229,2.016
0,-0.000238734,0.388985,0.554622,0,5.83188e-93,-0.00496478,1.68243e-05,0,125,-0,0,124.228,1.2454,2.02
0,-0.000238734,0.388965,0.554622,0,3.88792e-93,-0.00498247,1.12162e-05,0,125,-0,0,124.243,1.24842,2.024
0,-0.000238734,0.388945,0.554622,0,2.59195e-93,-0.00500018,7.47749e-06,0,125,-0,0,124.258,1.25191,2.028
0,-0.000238734,0.388925,0.554622,0,1.72796e-93,-0.00501791,4.98499e-06,0,125,-0,0,124.273,1.25572,2.032
0,-0.000238734,0.388905,0.554622,0,1.15198e-93,-0.00503567,3.32333e-06,0,125,-0,0,124.288,1.25975,2.036
0,-0.000238734,0.388884,0.554622,0,7.67984e-94,-0.00505345,2.21555e-06,0,125,-0,0,124.303,1.26392,2.04
0,-0.000238734,0.388864,0.554622,0,5.11989e-94,-0.00507125,1.47703e-06,0,125,-0,0,124.319,1.26818,2.044
0,-0.000238734,0.388844,0.554622,0,3.41326e-94,-0.00508908,9.8469e-07,0,125,-0,0,124.334,1.27252,2.048
0,-0.000238734,0.388823,0.554622,0,2.27551e-94,-0.00510693,6.5646e-07,0,125,-0,0,124.349,1.2769,2.052
0,-0.000238734,0.388803,0.554622,0,1.51701e-94,-0.0051248,4.3764e-07,0,125,-0,0,124.365,1.28131,2.056
0,-0.000238734,0.388782,0.554622,0,1.01134e-94,-0.0051427,2.9176e-07,0,125,-0,0,124.38,1.28575,2.06
0,-0.000238734,0.388762,0.554622,0,6.74225e-95,-0.00516062,1.94507e-07,0,125,-0,0,124.395,1.2902,2.064
0,-0.000238734,0.388741,0.554622,0,4.49483e-95,-0.00517856,1.29671e-07,0,125,-0,0,124.411,1.29467,2.068
0,-0.000238734,0.38872,0.554622,0,2.99655e-95,-0.00519653,8.64474e-08,0,125,-0,0,124.426,1.29915,2.072
0,-0.000238734,0.3887,0.554622,0,1.9977e-95,-0.00521452,5.76316e-08,0,125,-0,0,124.442,1.30364,2.076
0,-0.000238734,0.388679,0.554622,0,1.3318e-95,-0.00523253,3.84211e-08,0,125,-0,0,124.458,1.30814,2.08
0,-0.000238734,0.388658,0.554622,0,8.87868e-96,-0.00525057,2.5614e-08,0,125,-0,0,124.473,1.31265,2.084
0,-0.000238734,0.388637,0.554622,0,5.91912e-96,-0.00526862,-2.87738e-05,0,125,-0,0,124.489,1.30996,2.088
0,-0.000238734,0.388616,0.554622,0,3.94608e-96,-0.00528671,9.60836e-06,0,125,-0,0,124.505,1.32408,2.092
0,-0.000238734,0.388594,0.554622,0,2.63072e-96,-0.00530481,6.40557e-06,0,125,-0,0,124.521,1.3278,2.096
0,-0.000238734,0.388573,0.554622,0,1.75381e-96,-0.00532294,4.27038e-06,0,125,-0,0,124.537,1.3318,2.1
0,-0.000238734,0.388552,0.554622,0,1.16921e-96,-0.00534108,2.84692e-06,0,125,-0,0,124.553,1.33598,2.104
0,-0.000238734,0.38853,0.554622,0,7.79473e-97,-0.00535926,1.89795e-06,0,125,-0,0,124.569,1.34029,2.108
0,-0.000238734,0.388509,0.554622,0,5.19648e-97,-0.00537745,1.2653e-06,0,125,-0,0,124.585,1.34468,2.112
0,-0.000238734,0.388487,0.554622,0,3.46432e-97,-0.00539567,8.43532e-07,0,125,-0,0,124.601,1.34913,2.116
0,-0.000238734,0.388466,0.554622,0,2.30955e-97,-0.00541391,5.62355e-07,0,125,-0,0,124.617,1.35362,2.12
0,-0.000238734,0.388444,0.554622,0,1.5397e-97,-0.00543217,3.74903e-07,0,125,-0,0,124.634,1.35814,2.124
0,-0.000238734,0.388422,0.554622,0,1.02647e-97,-0.00545046,2.49935e-07,0,126,-0,0,124.65,1.36268,2.128
0,-0.000238734,0.388401,0.554622,0,6.84311e-98,-0.00546876,-5.74152e-05,0,126,-0,0,124.666,1.35284,2.132
0,-0.000238734,0.388379,0.554622,0,4.56207e-98,-0.00548709,1.9305e-05,0,126,-0,0,124.683,1.3766,2.136
0,-0.000238734,0.388357,0.554622,0,3.04138e-98,-0.00550545,1.287e-05,0,126,-0,0,124.699,1.37958,2.14
0,-0.000238734,0.388335,0.554622,0,2.02759e-98,-0.00552382,8.58001e-06,0,126,-0,0,124.716,1.3831,2.144
0,-0.000238734,0.388312,0.554622,0,1.35172e-98,-0.00554222,-5.18618e-05,0,126,-0,0,124.732,1.37259,2.148
0,-0.000238734,0.38829,0.554622,0,9.0115e-99,-0.00556064,2.30073e-05,0,126,-0,0,124.749,1.39591,2.152
0,-0.000238734,0.388268,0.554622,0,6.00767e-99,-0.00557908,1.53382e-05,0,126,-0,0,124.766,1.3986,2.156
0,-0.000238734,0.388246,0.554622,0,4.00511e-99,-0.00559754,1.02255e-05,0,126,-0,0,124.783,1.40194,2.16
0,-0.000238734,0.388223,0.554623,0,2.67007e-99,-0.00561603,3.56079e-05,0,126,-0,0,124.8,1.41291,2.164
0,-0.000238734,0.388201,0.554622,0,1.78005e-99,-0.00563453,-5.05233e-06,0,126,-0,0,124.816,1.40737,2.168
0,-0.000238734,0.388178,0.554622,0,1.1867e-99,-0.00565306,-3.36822e-06,0,126,-0,0,124.833,1.41242,2.172
0,-0.000238734,0.388155,0.554622,0,7.91133e-100,-0.00567162,-2.24548e-06,0,126,-0,0,124.85,1.41734,2.176
0,-0.000238734,0.388133,0.554622,0,5.27422e-100,-0.00569019,-1.49699e-06,0,126,-0,0,124.867,1.42217,2.18
0,-0.000238734,0.38811,0.554622,0,3.51615e-100,-0.00570879,-9.9799e-07,0,126,-0,0,124.884,1.42695,2.184
0,-0.000238734,0.388087,0.554622,0,2.3441e-100,-0.0057274,-6.65327e-07,0,126,-0,0,124.901,1.43168,2.188
0,-0.000238734,0.388064,0.554622,0,1.56273e-100,-0.00574604,-2.92345e-05,0,126,-0,0,124.918,1.4292,2.192
0,-0.000238734,0.388041,0.554622,0,1.04182e-100,-0.0057647,9.30127e-06,0,126,-0,0,124.936,1.4435,2.196
0,-0.000238734,0.388018,0.554622,0,6.94547e-101,-0.00578339,-2.25901e-05,0,126,-0,0,124.953,1.4402,2.2
0,-0.000238734,0.387995,0.554622,0,4.63032e-101,-0.00580209,1.37309e-05,0,126,-0,0,124.971,1.45396,2.204
0,-0.000238734,0.387972,0.554622,0,3.08688e-101,-0.00582082,9.15392e-06,0,126,-0,0,124.988,1.45749,2.208
0,-0.000238734,0.387948,0.554622,0,2.05792e-101,-0.00583957,6.10261e-06,0,126,-0,0,125.006,1.46142,2.212
0,-0.000238734,0.387925,0.554622,0,1.37195e-101,-0.00585833,4.06841e-06,0,126,-0,0,125.023,1.4656,2.216
0,-0.000238734,0.387901,0.554623,0,9.1463e-102,-0.00587713,3.15032e-05,0,126,-0,0,125.041,1.47716,2.22
0,-0.000238734,0.387878,0.554622,0,6.09754e-102,-0.00589594,-7.78879e-06,0,126,-0,0,125.058,1.47204,2.224
0,-0.000238734,0.387854,0.554622,0,4.06502e-102,-0.00591477,-5.19253e-06,0,126,-0,0,125.076,1.4774,2.228
0,-0.000238734,0.387831,0.554622,0,2.71002e-102,-0.00593363,-3.46169e-06,0,126,-0,0,125.094,1.48254,2.232
0,-0.000238734,0.387807,0.554622,0,1.80668e-102,-0.0059525,-3.10987e-05,0,126,-0,0,125.111,1.48035,2.236
0,-0.000238734,0.387783,0.554622,0,1.20445e-102,-0.0059714,8.05845e-06,0,126,-0,0,125.13,1.49487,2.24
0,-0.000238734,0.387759,0.554622,0,8.02968e-103,-0.00599032,5.3723e-06,0,126,-0,0,125.148,1.49892,2.244
0,-0.000238734,0.387735,0.554623,0,5.35312e-103,-0.00600926,3.23725e-05,0,126,-0,0,125.166,1.51041,2.248
0,-0.000238734,0.387711,0.554623,0,3.56875e-103,-0.00602823,2.15816e-05,0,126,-0,0,125.184,1.51245,2.252
0,-0.000238734,0.387687,0.554622,0,2.37916e-103,-0.00604721,-1.44032e-05,0,126,-0,0,125.202,1.5082,2.256
0,-0.000238734,0.387663,0.554622,0,1.58611e-103,-0.00606621,-9.60211e-06,0,126,-0,0,125.22,1.51415,2.26
0,-0.000238734,0.387638,0.554623,0,1.05741e-103,-0.00608524,2.23895e-05,0,126,-0,0,125.238,1.52691,2.264
0,-0.000238734,0.387614,0.554622,0,7.04937e-104,-0.00610428,-7.14464e-05,0,126,-0,0,125.256,1.50821,2.268
0,-0.000238734,0.387589,0.554622,0,4.69958e-104,-0.00612335,9.9509e-06,0,126,-0,0,125.275,1.53333,2.272
0,-0.000238734,0.387565,0.554622,0,3.13306e-104,-0.00614244,6.63393e-06,0,126,-0,0,125.293,1.53727,2.276
0,-0.000238734,0.38754,0.554622,0,2.0887e-104,-0.00616155,4.42262e-06,0,126,-0,0,125.312,1.54149,2.28
0,-0.000238734,0.387516,0.554622,0,1.39247e-104,-0.00618068,-2.58425e-05,0,126,-0,0,125.33,1.53871,2.284
0,-0.000238734,0.387491,0.554622,0,9.28313e-105,-0.00619983,1.15626e-05,0,126,-0,0,125.349,1.55285,2.288
0,-0.000238734,0.387466,0.554622,0,6.18875e-105,-0.006219,-2.10825e-05,0,126,-0,0,125.367,1.54948,2.292
0,-0.000238734,0.387441,0.554622,0,4.12583e-105,-0.0062382,1.47359e-05,0,126,-0,0,125.386,1.56323,2.296
0,-0.000238734,0.387416,0.554622,0,2.75056e-105,-0.00625741,9.82393e-06,0,126,-0,0,125.405,1.56681,2.3
0,-0.000238734,0.387391,0.554622,0,1.8337e-105,-0.00627664,6.54929e-06,0,126,-0,0,125.424,1.5708,2.304
0,-0.000238734,0.387366,0.554622,0,1.22247e-105,-0.0062959,4.36619e-06,0,127,-0,0,125.442,1.57507,2.308
0,-0.000238734,0.387341,0.554622,0,8.1498e-106,-0.00631517,2.9108e-06,0,127,-0,0,125.461,1.57952,2.312
0,-0.000238734,0.387315,0.554622,0,5.4332e-106,-0.00633447,1.94053e-06,0,127,-0,0,125.48,1.5841,2.316
0,-0.000238734,0.38729,0.554622,0,3.62213e-106,-0.00635379,-2.74972e-05,0,127,-0,0,125.499,1.58157,2.32
0,-0.000238734,0.387265,0.554622,0,2.41475e-106,-0.00637312,1.04594e-05,0,127,-0,0,125.518,1.5959,2.324
0,-0.000238734,0.387239,0.554622,0,1.60984e-106,-0.00639248,6.97296e-06,0,127,-0,0,125.538,1.59986,2.328
0,-0.000238734,0.387213,0.554622,0,1.07322e-106,-0.00641186,4.64864e-06,0,127,-0,0,125.557,1.60413,2.332
0,-0.000238734,0.387188,0.554622,0,7.15483e-107,-0.00643126,3.09909e-06,0,127,-0,0,125.576,1.60859,2.336
0,-0.000238734,0.387162,0.554622,0,4.76988e-107,-0.00645068,2.06606e-06,0,127,-0,0,125.595,1.61319,2.34
0,-0.000238734,0.387136,0.554622,0,3.17992e-107,-0.00647011,1.37737e-06,0,127,-0,0,125.615,1.61787,2.344
0,-0.000238734,0.38711,0.554622,0,2.11995e-107,-0.00648957,9.18249e-07,0,127,-0,0,125.634,1.62262,2.348
0,-0.000238734,0.387084,0.554622,0,1.4133e-107,-0.00650905,-2.81788e-05,0,127,-0,0,125.653,1.62022,2.352
0,-0.000238734,0.387058,0.554622,0,9.42199e-108,-0.00652855,1.00051e-05,0,127,-0,0,125.673,1.63464,2.356
0,-0.000238734,0.387032,0.554622,0,6.28133e-108,-0.00654807,6.67006e-06,0,127,-0,0,125.693,1.63869,2.36
0,-0.000238734,0.387006,0.554622,0,4.18755e-108,-0.00656761,-2.43442e-05,0,127,-0,0,125.712,1.63582,2.364
0,-0.000238734,0.386979,0.554622,0,2.7917e-108,-0.00658717,-1.62295e-05,0,127,-0,0,125.732,1.64274,2.368
0,-0.000238734,0.386953,0.554622,0,1.86113e-108,-0.00660675,1.79713e-05,0,127,-0,0,125.752,1.65618,2.372
0,-0.000238734,0.386927,0.554622,0,1.24076e-108,-0.00662635,1.19808e-05,0,127,-0,0,125.772,1.65958,2.376
0,-0.000238734,0.3869,0.554622,0,8.27171e-109,-0.00664597,7.98723e-06,0,127,-0,0,125.792,1.66349,2.38
0,-0.000238734,0.386873,0.554622,0,5.51447e-109,-0.00666561,-2.34661e-05,0,127,-0,0,125.812,1.66054,2.384
0,-0.000238734,0.386847,0.554622,0,3.67632e-109,-0.00668527,1.31469e-05,0,127,-0,0,125.832,1.6746,2.388
0,-0.000238734,0.38682,0.554622,0,2.45088e-109,-0.00670495,8.76457e-06,0,127,-0,0,125.852,1.67843,2.392
0,-0.000238734,0.386793,0.554622,0,1.63392e-109,-0.00672465,5.84305e-06,0,127,-0,0,125.872,1.68262,2.396
0,-0.000238734,0.386766,0.554622,0,1.08928e-109,-0.00674437,3.89536e-06,0,127,-0,0,125.892,1.68707,2.4
0,-0.000238734,0.386739,0.554622,0,7.26186e-110,-0.0067641,2.59691e-06,0,127,-0,0,125.912,1.69168,2.404
0,-0.000238734,0.386712,0.554622,0,4.84124e-110,-0.00678386,1.73127e-06,0,127,-0,0,125.933,1.6964,2.408
0,-0.000238734,0.386685,0.554622,0,3.22749e-110,-0.00680364,1.15418e-06,0,127,-0,0,125.953,1.7012,2.412
0,-0.000238734,0.386658,0.554622,0,2.15166e-110,-0.00682344,7.69455e-07,0,127,-0,0,125.974,1.70605,2.416
0,-0.000238734,0.38663,0.554622,0,1.43444e-110,-0.00684325,5.1297e-07,0,127,-0,0,125.994,1.71094,2.42
0,-0.000238734,0.386603,0.554622,0,9.56294e-111,-0.00686309,3.4198e-07,0,127,-0,0,126.015,1.71586,2.424
0,-0.000238734,0.386575,0.554622,0,6.37529e-111,-0.00688294,2.27987e-07,0,127,-0,0,126.035,1.72079,2.428
0,-0.000238734,0.386548,0.554622,0,4.2502e-111,-0.00690282,1.51991e-07,0,127,-0,0,126.056,1.72574,2.432
0,-0.000238734,0.38652,0.554622,0,2.83346e-111,-0.00692271,1.01327e-07,0,127,-0,0,126.077,1.7307,2.436
0,-0.000238734,0.386492,0.554622,0,1.88898e-111,-0.00694263,-5.75143e-05,0,127,-0,0,126.097,1.72128,2.44
0,-0.000238734,0.386465,0.554622,0,1.25932e-111,-0.00696256,1.9239e-05,0,127,-0,0,126.118,1.74545,2.444
0,-0.000238734,0.386437,0.554623,0,8.39545e-112,-0.00698251,4.16169e-05,0,127,-0,0,126.14,1.75603,2.448
0,-0.000238734,0.386409,0.554622,0,5.59697e-112,-0.00700248,-5.86282e-05,0,127,-0,0,126.16,1.73596,2.452
0,-0.000238734,0.386381,0.554622,0,3.73131e-112,-0.00702247,1.84964e-05,0,127,-0,0,126.181,1.76024,2.456
0,-0.000238734,0.386352,0.554623,0,2.48754e-112,-0.00704248,4.11219e-05,0,127,-0,0,126.203,1.7709,2.46
0,-0.000238734,0.386324,0.554623,0,1.65836e-112,-0.00706251,2.74146e-05,0,127,-0,0,126.224,1.77248,2.464
0,-0.000238734,0.386296,0.554622,0,1.10557e-112,-0.00708256,-6.80964e-05,0,127,-0,0,126.244,1.75362,2.468
0,-0.000238734,0.386268,0.554622,0,7.37049e-113,-0.00710263,1.21843e-05,0,128,-0,0,126.266,1.7787,2.472
0,-0.000238734,0.386239,0.554622,0,4.91366e-113,-0.00712271,8.12284e-06,0,128,-0,0,126.287,1.78271,2.476
0,-0.000238734,0.386211,0.554622,0,3.27577e-113,-0.00714282,5.41522e-06,0,128,-0,0,126.309,1.78706,2.48
0,-0.000238734,0.386182,0.554622,0,2.18385e-113,-0.00716294,3.61015e-06,0,128,-0,0,126.33,1.79164,2.484
0,-0.000238734,0.386153,0.554623,0,1.4559e-113,-0.00718308,3.11977e-05,0,128,-0,0,126.352,1.80357,2.488
0,-0.000238734,0.386125,0.554622,0,9.70599e-114,-0.00720324,-7.99246e-06,0,128,-0,0,126.373,1.79881,2.492
0,-0.000238734,0.386096,0.554622,0,6.47066e-114,-0.00722342,-6.29102e-05,0,128,-0,0,126.394,1.79013,2.496
0,-0.000238734,0.386067,0.554622,0,4.31378e-114,-0.00724362,1.56417e-05,0,128,-0,0,126.417,1.81482,2.5
0,-0.000238734,0.386038,0.554622,0,2.87585e-114,-0.00726384,1.04278e-05,0,128,-0,0,126.438,1.81857,2.504
0,-0.000238734,0.386009,0.554622,0,1.91723e-114,-0.00728407,6.95189e-06,0,128,-0,0,126.46,1.82276,2.508
0,-0.000238734,0.385979,0.554622,0,1.27816e-114,-0.00730433,4.63459e-06,0,128,-0,0,126.482,1.82724,2.512
0,-0.000238734,0.38595,0.554622,0,8.52104e-115,-0.0073246,3.08973e-06,0,128,-0,0,126.504,1.83192,2.516
0,-0.000238734,0.385921,0.554622,0,5.68069e-115,-0.00734489,2.05982e-06,0,128,-0,0,126.526,1.83674,2.52
0,-0.000238734,0.385891,0.554622,0,3.78713e-115,-0.0073652,1.37321e-06,0,128,-0,0,126.548,1.84164,2.524
0,-0.000238734,0.385862,0.554622,0,2.52475e-115,-0.00738553,9.15475e-07,0,128,-0,0,126.57,1.84661,2.528
0,-0.000238734,0.385832,0.554622,0,1.68317e-115,-0.00740588,-2.81806e-05,0,128,-0,0,126.592,1.84442,2.532
0,-0.000238734,0.385803,0.554622,0,1.12211e-115,-0.00742624,1.00039e-05,0,128,-0,0,126.615,1.85906,2.536
0,-0.000238734,0.385773,0.554622,0,7.48075e-116,-0.00744663,6.66924e-06,0,128,-0,0,126.637,1.86332,2.54
0,-0.000238734,0.385743,0.554622,0,4.98716e-116,-0.00746703,4.44616e-06,0,128,-0,0,126.659,1.86787,2.544
0,-0.000238734,0.385713,0.554622,0,3.32478e-116,-0.00748745,-5.46177e-05,0,128,-0,0,126.681,1.85821,2.548
0,-0.000238734,0.385683,0.554622,0,2.21652e-116,-0.00750789,-3.64118e-05,0,128,-0,0,126.704,1.86787,2.552
0,-0.000238734,0.385653,0.554622,0,1.47768e-116,-0.00752834,-2.42746e-05,0,128,-0,0,126.726,1.87602,2.556
0,-0.000238734,0.385623,0.554622,0,9.85119e-117,-0.00754882,1.26079e-05,0,128,-0,0,126.749,1.89036,2.56
0,-0.000238734,0.385593,0.554623,0,6.56746e-117,-0.00756931,6.59871e-05,0,128,-0,0,126.772,1.90882,2.564
0,-0.000238734,0.385562,0.554622,0,4.37831e-117,-0.00758982,1.52005e-05,0,128,-0,0,126.795,1.90126,2.568
0,-0.000238734,0.385532,0.554623,0,2.91887e-117,-0.00761035,3.89246e-05,0,128,-0,0,126.818,1.91232,2.572
0,-0.000238734,0.385502,0.554622,0,1.94591e-117,-0.0076309,-2.84121e-06,0,128,-0,0,126.841,1.90701,2.576
0,-0.000238734,0.385471,0.554623,0,1.29728e-117,-0.00765146,2.68968e-05,0,128,-0,0,126.864,1.91959,2.58
0,-0.000238734,0.38544,0.554622,0,8.64851e-118,-0.00767204,-1.08597e-05,0,128,-0,0,126.887,1.9153,2.584
0,-0.000238734,0.38541,0.554622,0,5.76567e-118,-0.00769264,-6.48217e-05,0,128,-0,0,126.909,1.90696,2.588
0,-0.000238734,0.385379,0.554622,0,3.84378e-118,-0.00771326,1.43674e-05,0,128,-0,0,126.933,1.93191,2.592
0,-0.000238734,0.385348,0.554622,0,2.56252e-118,-0.0077339,9.57827e-06,0,128,-0,0,126.956,1.93587,2.596
0,-0.000238734,0.385317,0.554622,0,1.70835e-118,-0.00775455,6.38551e-06,0,128,-0,0,126.979,1.94023,2.6
0,-0.000238734,0.385286,0.554623,0,1.1389e-118,-0.00777522,3.30479e-05,0,128,-0,0,127.003,1.95207,2.604
0,-0.000238734,0.385255,0.554622,0,7.59265e-119,-0.00779591,-6.75897e-06,0,128,-0,0,127.026,1.94729,2.608
0,-0.000238734,0.385224,0.554622,0,5.06177e-119,-0.00781662,-4.50598e-06,0,129,-0,0,127.049,1.95303,2.612
0,-0.000238734,0.385192,0.554622,0,3.37451e-119,-0.00783734,-6.05858e-05,0,129,-0,0,127.072,1.94419,2.616
0,-0.000238734,0.385161,0.554622,0,2.24967e-119,-0.00785808,-4.03906e-05,0,129,-0,0,127.096,1.95442,2.62
0,-0.000238734,0.385129,0.554622,0,1.49978e-119,-0.00787884,3.06548e-05,0,129,-0,0,127.12,1.97737,2.624
0,-0.000238734,0.385098,0.554622,0,9.99855e-120,-0.00789962,-3.71453e-05,0,129,-0,0,127.143,1.96562,2.628
0,-0.000238734,0.385066,0.554622,0,6.6657e-120,-0.00792041,3.28183e-05,0,129,-0,0,127.167,1.98831,2.632
0,-0.000238734,0.385034,0.554622,0,4.4438e-120,-0.00794122,2.18789e-05,0,129,-0,0,127.191,1.99078,2.636
0,-0.000238734,0.385003,0.554622,0,2.96253e-120,-0.00796205,1.45859e-05,0,129,-0,0,127.215,1.99416,2.64
0,-0.000238734,0.384971,0.554622,0,1.97502e-120,-0.0079829,9.72394e-06,0,129,-0,0,127.239,1.99816,2.644
0,-0.000238734,0.384939,0.554622,0,1.31668e-120,-0.00800376,6.48263e-06,0,129,-0,0,127.263,2.00256,2.648
0,-0.000238734,0.384907,0.554622,0,8.77788e-121,-0.00802464,4.32175e-06,0,129,-0,0,127.287,2.00724,2.652
0,-0.000238734,0.384875,0.554622,0,5.85192e-121,-0.00804554,2.88117e-06,0,129,-0,0,127.311,2.01211,2.656
0,-0.000238734,0.384842,0.554622,0,3.90128e-121,-0.00806645,1.92078e-06,0,129,-0,0,127.335,2.01709,2.66
0,-0.000238734,0.38481,0.554622,0,2.60085e-121,-0.00808739,1.28052e-06,0,129,-0,0,127.359,2.02217,2.664
0,-0.000238734,0.384778,0.554622,0,1.7339e-121,-0.00810834,8.5368e-07,0,129,-0,0,127.384,2.0273,2.668
0,-0.000238734,0.384745,0.554622,0,1.15593e-121,-0.0081293,5.6912e-07,0,129,-0,0,127.408,2.03247,2.672
0,-0.000238734,0.384713,0.554622,0,7.70623e-122,-0.00815028,3.79413e-07,0,129,-0,0,127.432,2.03767,2.676
0,-0.000238734,0.38468,0.554622,0,5.13749e-122,-0.00817128,2.52942e-07,0,129,-0,0,127.457,2.04288,2.68
0,-0.000238734,0.384647,0.554622,0,3.42499e-122,-0.0081923,1.68628e-07,0,129,-0,0,127.481,2.04812,2.684
0,-0.000238734,0.384614,0.554622,0,2.28333e-122,-0.00821333,1.12419e-07,0,129,-0,0,127.506,2.05336,2.688
0,-0.000238734,0.384582,0.554622,0,1.52222e-122,-0.00823438,7.49458e-08,0,129,-0,0,127.531,2.05861,2.692
0,-0.000238734,0.384549,0.554622,0,1.01481e-122,-0.00825545,4.99639e-08,0,129,-0,0,127.555,2.06388,2.696
0,-0.000238734,0.384516,0.554622,0,6.76542e-123,-0.00827654,-2.87576e-05,0,129,-0,0,127.58,2.06194,2.7
0,-0.000238734,0.384482,0.554622,0,4.51028e-123,-0.00829764,9.61918e-06,0,129,-0,0,127.605,2.07681,2.704
0,-0.000238734,0.384449,0.554623,0,3.00685e-123,-0.00831875,3.52037e-05,0,129,-0,0,127.63,2.08849,2.708
0,-0.000238734,0.384416,0.554622,0,2.00457e-123,-0.00833989,-5.32178e-06,0,129,-0,0,127.655,2.08364,2.712
0,-0.000238734,0.384382,0.554622,0,1.33638e-123,-0.00836104,-3.54786e-06,0,129,-0,0,127.68,2.08937,2.716
0,-0.000238734,0.384349,0.554622,0,8.90919e-124,-0.00838221,-2.36524e-06,0,129,-0,0,127.705,2.09496,2.72
0,-0.000238734,0.384315,0.554623,0,5.93946e-124,-0.00840339,2.72141e-05,0,129,-0,0,127.731,2.10765,2.724
0,-0.000238734,0.384282,0.554622,0,3.95964e-124,-0.00842459,-3.94391e-05,0,129,-0,0,127.755,2.09629,2.728
0,-0.000238734,0.384248,0.554622,0,2.63976e-124,-0.00844581,2.49818e-06,0,129,-0,0,127.781,2.11208,2.732
0,-0.000238734,0.384214,0.554622,0,1.75984e-124,-0.00846704,-2.71255e-05,0,129,-0,0,127.806,2.10998,2.736
0,-0.000238734,0.38418,0.554622,0,1.17323e-124,-0.00848829,-4.68746e-05,0,129,-0,0,127.831,2.11035,2.74
0,-0.000238734,0.384146,0.554622,0,7.82151e-125,-0.00850955,2.63321e-05,0,129,-0,0,127.857,2.13397,2.744
0,-0.000238734,0.384112,0.554622,0,5.21434e-125,-0.00853084,1.75548e-05,0,130,-0,0,127.883,2.1371,2.748
0,-0.000238734,0.384078,0.554622,0,3.47623e-125,-0.00855214,1.17032e-05,0,130,-0,0,127.908,2.14096,2.752
0,-0.000238734,0.384044,0.554622,0,2.31749e-125,-0.00857345,-2.09888e-05,0,130,-0,0,127.934,2.13812,2.756
0,-0.000238734,0.384009,0.554622,0,1.54499e-125,-0.00859478,1.47984e-05,0,130,-0,0,127.96,2.15239,2.76
0,-0.000238734,0.383975,0.554622,0,1.02999e-125,-0.00861613,9.86559e-06,0,130,-0,0,127.986,2.1565,2.764
0,-0.000238734,0.38394,0.554622,0,6.86662e-126,-0.00863749,6.57706e-06,0,130,-0,0,128.011,2.16102,2.768
0,-0.000238734,0.383906,0.554622,0,4.57775e-126,-0.00865887,4.38471e-06,0,130,-0,0,128.037,2.16581,2.772
0,-0.000238734,0.383871,0.554622,0,3.05183e-126,-0.00868026,2.92314e-06,0,130,-0,0,128.063,2.1708,2.776
0,-0.000238734,0.383836,0.554622,0,2.03455e-126,-0.00870167,1.94876e-06,0,130,-0,0,128.089,2.17591,2.78
0,-0.000238734,0.383802,0.554622,0,1.35637e-126,-0.0087231,1.29917e-06,0,130,-0,0,128.116,2.1811,2.784
0,-0.000238734,0.383767,0.554622,0,9.04247e-127,-0.00874454,8.66115e-07,0,130,-0,0,128.142,2.18635,2.788
0,-0.000238734,0.383732,0.554622,0,6.02831e-127,-0.008766,-2.82135e-05,0,130,-0,0,128.168,2.18445,2.792
0,-0.000238734,0.383697,0.554622,0,4.01887e-127,-0.00878748,9.98191e-06,0,130,-0,0,128.194,2.19936,2.796
0,-0.000238734,0.383661,0.554622,0,2.67925e-127,-0.00880897,6.65461e-06,0,130,-0,0,128.221,2.20391,2.8
0,-0.000238734,0.383626,0.554622,0,1.78617e-127,-0.00883047,4.43641e-06,0,130,-0,0,128.247,2.20873,2.804
0,-0.000238734,0.383591,0.554623,0,1.19078e-127,-0.00885199,3.17485e-05,0,130,-0,0,128.274,2.22094,2.808
0,-0.000238734,0.383555,0.554622,0,7.93852e-128,-0.00887353,-7.62524e-06,0,130,-0,0,128.3,2.21648,2.812
0,-0.000238734,0.38352,0.554622,0,5.29234e-128,-0.00889509,-5.08349e-06,0,130,-0,0,128.327,2.2225,2.816
0,-0.000238734,0.383484,0.554622,0,3.52823e-128,-0.00891665,-3.38899e-06,0,130,-0,0,128.354,2.22832,2.82
0,-0.000238734,0.383448,0.554622,0,2.35215e-128,-0.00893824,-2.25933e-06,0,130,-0,0,128.381,2.23399,2.824
0,-0.000238734,0.383413,0.554622,0,1.5681e-128,-0.00895984,-1.50622e-06,0,130,-0,0,128.407,2.23958,2.828
0,-0.000238734,0.383377,0.554622,0,1.0454e-128,-0.00898145,-5.8586e-05,0,130,-0,0,128.434,2.23072,2.832
0,-0.000238734,0.383341,0.554623,0,6.96934e-129,-0.00900308,4.73154e-05,0,130,-0,0,128.462,2.2626,2.836
0,-0.000238734,0.383305,0.554622,0,4.64623e-129,-0.00902473,2.7527e-06,0,130,-0,0,128.488,2.25687,2.84
0,-0.000238734,0.383269,0.554622,0,3.09749e-129,-0.00904639,1.83514e-06,0,130,-0,0,128.515,2.26206,2.844
0,-0.000238734,0.383232,0.554622,0,2.06499e-129,-0.00906807,-5.63584e-05,0,130,-0,0,128.542,2.25293,2.848
0,-0.000238734,0.383196,0.554622,0,1.37666e-129,-0.00908976,2.00096e-05,0,130,-0,0,128.57,2.27744,2.852
0,-0.000238734,0.38316,0.554622,0,9.17773e-130,-0.00911147,1.33397e-05,0,130,-0,0,128.597,2.2812,2.856
0,-0.000238734,0.383123,0.554622,0,6.11849e-130,-0.00913319,8.89314e-06,0,130,-0,0,128.624,2.28552,2.86
0,-0.000238734,0.383086,0.554622,0,4.07899e-130,-0.00915493,5.92876e-06,0,130,-0,0,128.652,2.29021,2.864
0,-0.000238734,0.38305,0.554622,0,2.71933e-130,-0.00917668,3.95251e-06,0,130,-0,0,128.679,2.29516,2.868
0,-0.000238734,0.383013,0.554622,0,1.81289e-130,-0.00919845,2.635e-06,0,131,-0,0,128.707,2.30027,2.872
0,-0.000238734,0.382976,0.554622,0,1.20859e-130,-0.00922023,1.75667e-06,0,131,-0,0,128.735,2.3055,2.876
0,-0.000238734,0.382939,0.554623,0,8.05727e-131,-0.00924203,2.9962e-05,0,131,-0,0,128.763,2.318,2.88
0,-0.000238734,0.382902,0.554622,0,5.37151e-131,-0.00926384,-8.81623e-06,0,131,-0,0,128.79,2.31376,2.884
0,-0.000238734,0.382865,0.554622,0,3.58101e-131,-0.00928567,-5.87749e-06,0,131,-0,0,128.818,2.31995,2.888
0,-0.000238734,0.382828,0.554622,0,2.38734e-131,-0.00930751,-3.91833e-06,0,131,-0,0,128.846,2.3259,2.892
0,-0.000238734,0.382791,0.554622,0,1.59156e-131,-0.00932937,-2.61222e-06,0,131,-0,0,128.874,2.33169,2.896
0,-0.000238734,0.382753,0.554622,0,1.06104e-131,-0.00935124,-1.74148e-06,0,131,-0,0,128.902,2.33737,2.9
0,-0.000238734,0.382716,0.554622,0,7.0736e-132,-0.00937313,-1.16099e-06,0,131,-0,0,128.93,2.34299,2.904
0,-0.000238734,0.382678,0.554623,0,4.71573e-132,-0.00939503,2.80169e-05,0,131,-0,0,128.958,2.35576,2.908
0,-0.000238734,0.382641,0.554622,0,3.14382e-132,-0.00941695,-1.0113e-05,0,131,-0,0,128.986,2.35171,2.912
0,-0.000238734,0.382603,0.554622,0,2.09588e-132,-0.00943888,-6.43238e-05,0,131,-0,0,129.014,2.34364,2.916
0,-0.000238734,0.382565,0.554623,0,1.39725e-132,-0.00946082,4.34902e-05,0,131,-0,0,129.043,2.37608,2.92
0,-0.000238734,0.382527,0.554622,0,9.31503e-133,-0.00948278,2.02557e-07,0,131,-0,0,129.071,2.37075,2.924
0,-0.000238734,0.382489,0.554623,0,6.21002e-133,-0.00950476,2.8926e-05,0,131,-0,0,129.1,2.38342,2.928
0,-0.000238734,0.382451,0.554622,0,4.14001e-133,-0.00952675,-9.50695e-06,0,131,-0,0,129.128,2.37931,2.932
0,-0.000238734,0.382413,0.554622,0,2.76001e-133,-0.00954875,-6.33797e-06,0,131,-0,0,129.157,2.3856,2.936
0,-0.000238734,0.382375,0.554622,0,1.84001e-133,-0.00957077,-4.22531e-06,0,131,-0,0,129.186,2.39164,2.94
0,-0.000238734,0.382337,0.554622,0,1.22667e-133,-0.0095928,-2.81687e-06,0,131,-0,0,129.214,2.3975,2.944
0,-0.000238734,0.382298,0.554622,0,8.1778e-134,-0.00961485,-3.06688e-05,0,131,-0,0,129.243,2.39605,2.948
0,-0.000238734,0.38226,0.554622,0,5.45187e-134,-0.00963691,-2.04459e-05,0,131,-0,0,129.272,2.40412,2.952
0,-0.000238734,0.382221,0.554622,0,3.63458e-134,-0.00965899,1.51603e-05,0,131,-0,0,129.301,2.41854,2.956
0,-0.000238734,0.382182,0.554622,0,2.42305e-134,-0.00968108,-1.8684e-05,0,131,-0,0,129.33,2.4156,2.96
0,-0.000238734,0.382144,0.554622,0,1.61537e-134,-0.00970318,1.63349e-05,0,131,-0,0,129.359,2.42988,2.964
0,-0.000238734,0.382105,0.554622,0,1.07691e-134,-0.0097253,1.08899e-05,0,131,-0,0,129.388,2.43405,2.968
0,-0.000238734,0.382066,0.554622,0,7.17941e-135,-0.00974744,7.25996e-06,0,131,-0,0,129.417,2.43867,2.972
0,-0.000238734,0.382027,0.554622,0,4.78628e-135,-0.00976958,-5.27419e-05,0,131,-0,0,129.446,2.42921,2.976
0,-0.000238734,0.381988,0.554622,0,3.19085e-135,-0.00979174,2.24206e-05,0,131,-0,0,129.476,2.45354,2.98
0,-0.000238734,0.381948,0.554622,0,2.12723e-135,-0.00981392,1.49471e-05,0,131,-0,0,129.505,2.45722,2.984
0,-0.000238734,0.381909,0.554622,0,1.41816e-135,-0.00983611,9.96471e-06,0,131,-0,0,129.535,2.46152,2.988
0,-0.000238734,0.38187,0.554622,0,9.45437e-136,-0.00985831,6.64314e-06,0,132,-0,0,129.564,2.46624,2.992
0,-0.000238734,0.38183,0.554623,0,6.30291e-136,-0.00988053,3.32197e-05,0,132,-0,0,129.594,2.47844,2.996
0,-0.000238734,0.381791,0.554622,0,4.20194e-136,-0.00990276,-6.64447e-06,0,132,-0,0,129.624,2.47403,3
0,-0.000238734,0.381751,0.554623,0,2.8013e-136,-0.009925,2.43613e-05,0,132,-0,0,129.654,2.48734,3.004
0,-0.000238734,0.381711,0.554622,0,1.86753e-136,-0.00994726,-7.01319e-05,0,132,-0,0,129.683,2.46928,3.008
0,-0.000238734,0.381672,0.554622,0,1.24502e-136,-0.00996953,-1.79637e-05,0,132,-0,0,129.713,2.48789,3.012
0,-0.000238734,0.381632,0.554622,0,8.30013e-137,-0.00999182,1.68151e-05,0,132,-0,0,129.743,2.50216,3.016
0,-0.000238734,0.381592,0.554622,0,5.53342e-137,-0.0100141,1.12101e-05,0,132,-0,0,129.773,2.50633,3.02
0,-0.000238734,0.381551,0.554622,0,3.68895e-137,-0.0100364,7.47339e-06,0,132,-0,0,129.803,2.51098,3.024
0,-0.000238734,0.381511,0.554622,0,2.4593e-137,-0.0100588,4.98226e-06,0,132,-0,0,129.833,2.51594,3.028
0,-0.000238734,0.381471,0.554622,0,1.63953e-137,-0.0100811,3.32151e-06,0,132,-0,0,129.864,2.52111,3.032
0,-0.000238734,0.381431,0.554622,0,1.09302e-137,-0.0101035,-2.65766e-05,0,132,-0,0,129.894,2.51922,3.036
0,-0.000238734,0.38139,0.554622,0,7.28681e-138,-0.0101258,1.10732e-05,0,132,-0,0,129.924,2.53422,3.04
0,-0.000238734,0.38135,0.554622,0,4.85787e-138,-0.0101482,7.38213e-06,0,132,-0,0,129.955,2.5389,3.044
0,-0.000238734,0.381309,0.554622,0,3.23858e-138,-0.0101706,4.92142e-06,0,132,-0,0,129.985,2.54388,3.048
0,-0.000238734,0.381268,0.554622,0,2.15906e-138,-0.010193,3.28095e-06,0,132,-0,0,130.016,2.54907,3.052
0,-0.000238734,0.381227,0.554622,0,1.43937e-138,-0.0102154,2.1873e-06,0,132,-0,0,130.046,2.5544,3.056
0,-0.000238734,0.381187,0.554622,0,9.5958e-139,-0.0102379,-2.73327e-05,0,132,-0,0,130.077,2.55263,3.06
0,-0.000238734,0.381146,0.554622,0,6.3972e-139,-0.0102603,1.05691e-05,0,132,-0,0,130.108,2.56772,3.064
0,-0.000238734,0.381104,0.554622,0,4.2648e-139,-0.0102828,7.04607e-06,0,132,-0,0,130.138,2.57245,3.068
0,-0.000238734,0.381063,0.554622,0,2.8432e-139,-0.0103052,4.69738e-06,0,132,-0,0,130.169,2.57749,3.072
0,-0.000238734,0.381022,0.554622,0,1.89547e-139,-0.0103277,3.13159e-06,0,132,-0,0,130.2,2.58272,3.076
0,-0.000238734,0.380981,0.554622,0,1.26364e-139,-0.0103502,2.08772e-06,0,132,-0,0,130.231,2.58808,3.08
0,-0.000238734,0.380939,0.554622,0,8.4243e-140,-0.0103727,1.39182e-06,0,132,-0,0,130.262,2.59353,3.084
0,-0.000238734,0.380898,0.554622,0,5.6162e-140,-0.0103953,9.27878e-07,0,132,-0,0,130.294,2.59905,3.088
0,-0.000238734,0.380856,0.554622,0,3.74413e-140,-0.0104178,6.18585e-07,0,132,-0,0,130.325,2.60461,3.092
0,-0.000238734,0.380814,0.554622,0,2.49609e-140,-0.0104404,4.1239e-07,0,132,-0,0,130.356,2.6102,3.096
0,-0.000238734,0.380773,0.554622,0,1.66406e-140,-0.0104629,2.74927e-07,0,133,-0,0,130.387,2.6158,3.1
0,-0.000238734,0.380731,0.554622,0,1.10937e-140,-0.0104855,1.83284e-07,0,133,-0,0,130.419,2.62142,3.104
0,-0.000238734,0.380689,0.554622,0,7.39582e-141,-0.0105081,1.2219e-07,0,133,-0,0,130.45,2.62706,3.108
0,-0.000238734,0.380647,0.554623,0,4.93054e-141,-0.0105307,2.88724e-05,0,133,-0,0,130.482,2.6399,3.112
0,-0.000238734,0.380604,0.554623,0,3.28703e-141,-0.0105533,1.92483e-05,0,133,-0,0,130.514,2.64314,3.116
0,-0.000238734,0.380562,0.554622,0,2.19135e-141,-0.010576,-1.59588e-05,0,133,-0,0,130.545,2.64,3.12
0,-0.000238734,0.38052,0.554622,0,1.4609e-141,-0.0105986,-6.8221e-05,0,133,-0,0,130.576,2.63259,3.124
0,-0.000238734,0.380477,0.554622,0,9.73935e-142,-0.0106213,1.21012e-05,0,133,-0,0,130.609,2.65834,3.128
0,-0.000238734,0.380435,0.554622,0,6.4929e-142,-0.0106439,8.06745e-06,0,133,-0,0,130.641,2.663,3.132
0,-0.000238734,0.380392,0.554622,0,4.3286e-142,-0.0106666,5.3783e-06,0,133,-0,0,130.673,2.668,3.136
0,-0.000238734,0.38035,0.554622,0,2.88573e-142,-0.0106893,3.58553e-06,0,133,-0,0,130.705,2.67322,3.14
0,-0.000238734,0.380307,0.554622,0,1.92382e-142,-0.010712,-5.51915e-05,0,133,-0,0,130.736,2.6642,3.144
0,-0.000238734,0.380264,0.554622,0,1.28255e-142,-0.0107347,2.07875e-05,0,133,-0,0,130.769,2.68888,3.148
0,-0.000238734,0.380221,0.554622,0,8.55032e-143,-0.0107575,1.38583e-05,0,133,-0,0,130.801,2.69283,3.152
0,-0.000238734,0.380178,0.554622,0,5.70021e-143,-0.0107802,9.2389e-06,0,133,-0,0,130.833,2.69736,3.156
0,-0.000238734,0.380135,0.554622,0,3.80014e-143,-0.010803,6.15927e-06,0,133,-0,0,130.866,2.70228,3.16
0,-0.000238734,0.380091,0.554622,0,2.53343e-143,-0.0108257,4.10618e-06,0,133,-0,0,130.898,2.70746,3.164
0,-0.000238734,0.380048,0.554623,0,1.68895e-143,-0.0108485,3.15284e-05,0,133,-0,0,130.931,2.72001,3.168
0,-0.000238734,0.380005,0.554623,0,1.12597e-143,-0.0108713,2.10189e-05,0,133,-0,0,130.964,2.72308,3.172
0,-0.000238734,0.379961,0.554622,0,7.50645e-144,-0.0108941,-1.47783e-05,0,133,-0,0,130.996,2.71983,3.176
0,-0.000238734,0.379917,0.554622,0,5.0043e-144,-0.0109169,-9.85221e-06,0,133,-0,0,131.029,2.72677,3.18
0,-0.000238734,0.379874,0.554622,0,3.3362e-144,-0.0109397,-6.56814e-06,0,133,-0,0,131.062,2.73329,3.184
0,-0.000238734,0.37983,0.554622,0,2.22413e-144,-0.0109626,-4.37876e-06,0,133,-0,0,131.094,2.73955,3.188
0,-0.000238734,0.379786,0.554622,0,1.48276e-144,-0.0109854,-2.91917e-06,0,133,-0,0,131.127,2.74563,3.192
0,-0.000238734,0.379742,0.554623,0,9.88504e-145,-0.0110083,2.68448e-05,0,133,-0,0,131.161,2.75879,3.196
0,-0.000238734,0.379698,0.554622,0,6.59003e-145,-0.0110312,-1.08944e-05,0,133,-0,0,131.193,2.75507,3.2
0,-0.000238734,0.379654,0.554622,0,4.39335e-145,-0.0110541,-7.26292e-06,0,133,-0,0,131.226,2.7617,3.204
0,-0.000238734,0.379609,0.554622,0,2.9289e-145,-0.011077,-4.84195e-06,0,134,-0,0,131.26,2.76803,3.208
0,-0.000238734,0.379565,0.554622,0,1.9526e-145,-0.0110999,-3.22797e-06,0,134,-0,0,131.293,2.77417,3.212
0,-0.000238734,0.379521,0.554622,0,1.30173e-145,-0.0111228,-2.15198e-06,0,134,-0,0,131.326,2.78017,3.216
0,-0.000238734,0.379476,0.554622,0,8.67822e-146,-0.0111458,-3.02256e-05,0,134,-0,0,131.359,2.77888,3.22
0,-0.000238734,0.379432,0.554622,0,5.78548e-146,-0.0111687,8.64054e-06,0,134,-0,0,131.393,2.79434,3.224
0,-0.000238734,0.379387,0.554622,0,3.85699e-146,-0.0111917,5.76036e-06,0,134,-0,0,131.427,2.79936,3.228
0,-0.000238734,0.379342,0.554622,0,2.57133e-146,-0.0112146,3.84024e-06,0,134,-0,0,131.46,2.80462,3.232
0,-0.000238734,0.379297,0.554622,0,1.71422e-146,-0.0112376,-2.62308e-05,0,134,-0,0,131.494,2.80285,3.236
0,-0.000238734,0.379252,0.554622,0,1.14281e-146,-0.0112606,1.13037e-05,0,134,-0,0,131.528,2.81798,3.24
0,-0.000238734,0.379207,0.554622,0,7.61874e-147,-0.0112836,7.53583e-06,0,134,-0,0,131.562,2.82279,3.244
0,-0.000238734,0.379162,0.554622,0,5.07916e-147,-0.0113066,5.02389e-06,0,134,-0,0,131.595,2.82792,3.248
0,-0.000238734,0.379117,0.554622,0,3.38611e-147,-0.0113297,-2.54417e-05,0,134,-0,0,131.629,2.82606,3.252
0,-0.000238734,0.379071,0.554622,0,2.25741e-147,-0.0113527,1.18298e-05,0,134,-0,0,131.663,2.84114,3.256
0,-0.000238734,0.379026,0.554622,0,1.50494e-147,-0.0113758,7.88654e-06,0,134,-0,0,131.698,2.84591,3.26
0,-0.000238734,0.37898,0.554622,0,1.00329e-147,-0.0113988,5.2577e-06,0,134,-0,0,131.732,2.85102,3.264
0,-0.000238734,0.378935,0.554622,0,6.68861e-148,-0.0114219,3.50513e-06,0,134,-0,0,131.766,2.85635,3.268
0,-0.000238734,0.378889,0.554622,0,4.45907e-148,-0.011445,2.33675e-06,0,134,-0,0,131.8,2.86183,3.272
0,-0.000238734,0.378843,0.554622,0,2.97271e-148,-0.0114681,1.55784e-06,0,134,-0,0,131.835,2.86741,3.276
0,-0.000238734,0.378797,0.554622,0,1.98181e-148,-0.0114912,1.03856e-06,0,134,-0,0,131.869,2.87306,3.28
0,-0.000238734,0.378751,0.554622,0,1.32121e-148,-0.0115143,6.92371e-07,0,134,-0,0,131.904,2.87876,3.284
0,-0.000238734,0.378705,0.554622,0,8.80804e-149,-0.0115375,-2.83293e-05,0,134,-0,0,131.938,2.87728,3.288
0,-0.000238734,0.378659,0.554622,0,5.87203e-149,-0.0115606,9.9047e-06,0,134,-0,0,131.973,2.89263,3.292
0,-0.000238734,0.378612,0.554622,0,3.91469e-149,-0.0115838,6.60313e-06,0,134,-0,0,132.007,2.89759,3.296
0,-0.000238734,0.378566,0.554622,0,2.60979e-149,-0.0116069,4.40209e-06,0,134,-0,0,132.042,2.90283,3.3
0,-0.000238734,0.37852,0.554622,0,1.73986e-149,-0.0116301,2.93472e-06,0,134,-0,0,132.077,2.90826,3.304
0,-0.000238734,0.378473,0.554622,0,1.15991e-149,-0.0116533,1.95648e-06,0,135,-0,0,132.112,2.91381,3.308
0,-0.000238734,0.378426,0.554622,0,7.73271e-150,-0.0116765,1.30432e-06,0,135,-0,0,132.147,2.91945,3.312
0,-0.000238734,0.37838,0.554622,0,5.15514e-150,-0.0116997,-2.79214e-05,0,135,-0,0,132.182,2.91795,3.316
0,-0.000238734,0.378333,0.554622,0,3.43676e-150,-0.0117229,1.01767e-05,0,135,-0,0,132.217,2.93328,3.32
0,-0.000238734,0.378286,0.554622,0,2.29117e-150,-0.0117462,-2.20065e-05,0,135,-0,0,132.252,2.93104,3.324
0,-0.000238734,0.378239,0.554622,0,1.52745e-150,-0.0117694,-1.4671e-05,0,135,-0,0,132.287,2.93869,3.328
0,-0.000238734,0.378192,0.554622,0,1.0183e-150,-0.0117927,-9.78066e-06,0,135,-0,0,132.323,2.94572,3.332
0,-0.000238734,0.378144,0.554622,0,6.78866e-151,-0.0118159,-6.52044e-06,0,135,-0,0,132.358,2.95235,3.336
0,-0.000238734,0.378097,0.554622,0,4.52578e-151,-0.0118392,2.4444e-05,0,135,-0,0,132.394,2.96591,3.34
0,-0.000238734,0.37805,0.554622,0,3.01718e-151,-0.0118625,-1.24949e-05,0,135,-0,0,132.429,2.9625,3.344
0,-0.000238734,0.378002,0.554622,0,2.01146e-151,-0.0118858,2.0461e-05,0,135,-0,0,132.465,2.97656,3.348
0,-0.000238734,0.377955,0.554622,0,1.34097e-151,-0.0119091,1.36406e-05,0,135,-0,0,132.501,2.98069,3.352
0,-0.000238734,0.377907,0.554622,0,8.93981e-152,-0.0119324,9.09376e-06,0,135,-0,0,132.537,2.98538,3.356
0,-0.000238734,0.377859,0.554622,0,5.95987e-152,-0.0119558,6.06251e-06,0,135,-0,0,132.572,2.99045,3.36
0,-0.000238734,0.377811,0.554622,0,3.97325e-152,-0.0119791,-2.47493e-05,0,135,-0,0,132.608,2.98859,3.364
0,-0.000238734,0.377763,0.554622,0,2.64883e-152,-0.0120024,1.22914e-05,0,135,-0,0,132.644,3.00368,3.368
0,-0.000238734,0.377715,0.554622,0,1.76589e-152,-0.0120258,8.19428e-06,0,135,-0,0,132.68,3.0085,3.372
0,-0.000238734,0.377667,0.554622,0,1.17726e-152,-0.0120492,5.46285e-06,0,135,-0,0,132.716,3.01366,3.376
0,-0.000238734,0.377619,0.554622,0,7.84839e-153,-0.0120726,3.6419e-06,0,135,-0,0,132.753,3.01905,3.38
0,-0.000238734,0.377571,0.554622,0,5.23226e-153,-0.0120959,2.42794e-06,0,135,-0,0,132.789,3.02459,3.384
0,-0.000238734,0.377522,0.554622,0,3.48817e-153,-0.0121194,-2.71723e-05,0,135,-0,0,132.825,3.02304,3.388
0,-0.000238734,0.377474,0.554622,0,2.32545e-153,-0.0121428,1.06761e-05,0,135,-0,0,132.862,3.03836,3.392
0,-0.000238734,0.377425,0.554622,0,1.5503e-153,-0.0121662,-2.16736e-05,0,135,-0,0,132.898,3.03613,3.396
0,-0.000238734,0.377376,0.554622,0,1.03353e-153,-0.0121896,1.43419e-05,0,135,-0,0,132.935,3.05099,3.4
0,-0.000238734,0.377327,0.554622,0,6.89022e-154,-0.0122131,-1.92297e-05,0,136,-0,0,132.971,3.04846,3.404
0,-0.000238734,0.377279,0.554622,0,4.59348e-154,-0.0122365,1.59711e-05,0,136,-0,0,133.008,3.06312,3.408
0,-0.000238734,0.37723,0.554622,0,3.06232e-154,-0.01226,-1.81435e-05,0,136,-0,0,133.044,3.06046,3.412
0,-0.000238734,0.37718,0.554622,0,2.04155e-154,-0.0122835,1.66953e-05,0,136,-0,0,133.081,3.07504,3.416
0,-0.000238734,0.377131,0.554622,0,1.36103e-154,-0.0123069,1.11302e-05,0,136,-0,0,133.118,3.07952,3.42
0,-0.000238734,0.377082,0.554622,0,9.07354e-155,-0.0123304,7.42012e-06,0,136,-0,0,133.155,3.08446,3.424
0,-0.000238734,0.377033,0.554622,0,6.04903e-155,-0.0123539,4.94674e-06,0,136,-0,0,133.192,3.08972,3.428
0,-0.000238734,0.376983,0.554622,0,4.03268e-155,-0.0123775,-2.54931e-05,0,136,-0,0,133.229,3.08799,3.432
0,-0.000238734,0.376934,0.554622,0,2.68846e-155,-0.012401,1.17955e-05,0,136,-0,0,133.267,3.10319,3.436
0,-0.000238734,0.376884,0.554622,0,1.7923e-155,-0.0124245,-2.09272e-05,0,136,-0,0,133.304,3.1009,3.44
0,-0.000238734,0.376834,0.554622,0,1.19487e-155,-0.0124481,1.48394e-05,0,136,-0,0,133.341,3.11572,3.444
0,-0.000238734,0.376784,0.554622,0,7.96579e-156,-0.0124716,9.89295e-06,0,136,-0,0,133.378,3.12038,3.448
0,-0.000238734,0.376734,0.554622,0,5.31053e-156,-0.0124952,6.5953e-06,0,136,-0,0,133.416,3.12544,3.452
0,-0.000238734,0.376684,0.554622,0,3.54035e-156,-0.0125187,4.39687e-06,0,136,-0,0,133.453,3.13079,3.456
0,-0.000238734,0.376634,0.554622,0,2.36024e-156,-0.0125423,2.93125e-06,0,136,-0,0,133.491,3.13631,3.46
0,-0.000238734,0.376584,0.554622,0,1.57349e-156,-0.0125659,1.95416e-06,0,136,-0,0,133.529,3.14197,3.464
0,-0.000238734,0.376534,0.554622,0,1.04899e-156,-0.0125895,1.30278e-06,0,136,-0,0,133.566,3.14771,3.468
0,-0.000238734,0.376483,0.554622,0,6.99329e-157,-0.0126131,8.68517e-07,0,136,-0,0,133.604,3.1535,3.472
0,-0.000238734,0.376433,0.554622,0,4.66219e-157,-0.0126368,5.79012e-07,0,136,-0,0,133.642,3.15933,3.476
0,-0.000238734,0.376382,0.554622,0,3.10813e-157,-0.0126604,3.86008e-07,0,136,-0,0,133.68,3.16519,3.48
0,-0.000238734,0.376332,0.554622,0,2.07209e-157,-0.012684,-2.85336e-05,0,136,-0,0,133.718,3.16387,3.484
0,-0.000238734,0.376281,0.554622,0,1.38139e-157,-0.0127077,9.76853e-06,0,136,-0,0,133.756,3.17936,3.488
0,-0.000238734,0.37623,0.554622,0,9.20927e-158,-0.0127313,6.51236e-06,0,136,-0,0,133.794,3.18446,3.492
0,-0.000238734,0.376179,0.554622,0,6.13951e-158,-0.012755,4.34157e-06,0,137,-0,0,133.833,3.18984,3.496
0,-0.000238734,0.376128,0.554622,0,4.09301e-158,-0.0127787,2.89438e-06,0,137,-0,0,133.871,3.19539,3.5
0,-0.000238734,0.376077,0.554622,0,2.72867e-158,-0.0128024,1.92959e-06,0,137,-0,0,133.909,3.20107,3.504
0,-0.000238734,0.376025,0.554622,0,1.81912e-158,-0.0128261,1.28639e-06,0,137,-0,0,133.948,3.20684,3.508
0,-0.000238734,0.375974,0.554622,0,1.21274e-158,-0.0128498,8.57594e-07,0,137,-0,0,133.986,3.21266,3.512
0,-0.000238734,0.375923,0.554622,0,8.08496e-159,-0.0128735,5.71729e-07,0,137,-0,0,134.025,3.21851,3.516
0,-0.000238734,0.375871,0.554622,0,5.38997e-159,-0.0128972,-2.84098e-05,0,137,-0,0,134.063,3.2172,3.52
0,-0.000238734,0.37582,0.554622,0,3.59331e-159,-0.0129209,9.85108e-06,0,137,-0,0,134.102,3.2327,3.524
0,-0.000238734,0.375768,0.554622,0,2.39554e-159,-0.0129447,-2.22235e-05,0,137,-0,0,134.141,3.23062,3.528
0,-0.000238734,0.375716,0.554622,0,1.59703e-159,-0.0129684,1.39752e-05,0,137,-0,0,134.18,3.2456,3.532
0,-0.000238734,0.375664,0.554622,0,1.06469e-159,-0.0129922,9.31682e-06,0,137,-0,0,134.219,3.25038,3.536
0,-0.000238734,0.375612,0.554622,0,7.0979e-160,-0.013016,-2.25797e-05,0,137,-0,0,134.258,3.24835,3.54
0,-0.000238734,0.37556,0.554622,0,4.73194e-160,-0.0130397,1.37378e-05,0,137,-0,0,134.297,3.26337,3.544
0,-0.000238734,0.375508,0.554622,0,3.15462e-160,-0.0130635,9.15852e-06,0,137,-0,0,134.336,3.26817,3.548
0,-0.000238734,0.375455,0.554622,0,2.10308e-160,-0.0130873,6.10568e-06,0,137,-0,0,134.375,3.27336,3.552
0,-0.000238734,0.375403,0.554622,0,1.40206e-160,-0.0131111,-2.47205e-05,0,137,-0,0,134.414,3.2716,3.556
0,-0.000238734,0.375351,0.554622,0,9.34703e-161,-0.0131349,1.23106e-05,0,137,-0,0,134.454,3.28681,3.56
0,-0.000238734,0.375298,0.554622,0,6.23136e-161,-0.0131588,-2.05839e-05,0,137,-0,0,134.493,3.28455,3.564
0,-0.000238734,0.375245,0.554622,0,4.15424e-161,-0.0131826,-1.37226e-05,0,137,-0,0,134.533,3.29222,3.568
0,-0.000238734,0.375192,0.554622,0,2.76949e-161,-0.0132064,1.96425e-05,0,137,-0,0,134.572,3.30652,3.572
0,-0.000238734,0.37514,0.554622,0,1.84633e-161,-0.0132303,1.3095e-05,0,137,-0,0,134.612,3.31085,3.576
0,-0.000238734,0.375087,0.554622,0,1.23089e-161,-0.0132541,8.73002e-06,0,137,-0,0,134.652,3.31572,3.58
0,-0.000238734,0.375034,0.554622,0,8.2059e-162,-0.013278,5.82001e-06,0,138,-0,0,134.692,3.32096,3.584
0,-0.000238734,0.37498,0.554622,0,5.4706e-162,-0.0133019,3.88001e-06,0,138,-0,0,134.731,3.32644,3.588
0,-0.000238734,0.374927,0.554622,0,3.64707e-162,-0.0133258,2.58667e-06,0,138,-0,0,134.771,3.33209,3.592
0,-0.000238734,0.374874,0.554622,0,2.43138e-162,-0.0133497,1.72445e-06,0,138,-0,0,134.811,3.33785,3.596
0,-0.000238734,0.37482,0.554622,0,1.62092e-162,-0.0133736,1.14963e-06,0,138,-0,0,134.852,3.34368,3.6
0,-0.000238734,0.374767,0.554622,0,1.08061e-162,-0.0133975,-2.80245e-05,0,138,-0,0,134.891,3.34236,3.604
0,-0.000238734,0.374713,0.554622,0,7.20408e-163,-0.0134214,1.01079e-05,0,138,-0,0,134.932,3.35787,3.608
0,-0.000238734,0.374659,0.554622,0,4.80272e-163,-0.0134453,6.73862e-06,0,138,-0,0,134.972,3.36301,3.612
0,-0.000238734,0.374606,0.554622,0,3.20182e-163,-0.0134692,4.49241e-06,0,138,-0,0,135.013,3.36844,3.616
0,-0.000238734,0.374552,0.554622,0,2.13454e-163,-0.0134932,2.99494e-06,0,138,-0,0,135.053,3.37405,3.62
0,-0.000238734,0.374498,0.554622,0,1.42303e-163,-0.0135171,1.99663e-06,0,138,-0,0,135.094,3.37978,3.624
0,-0.000238734,0.374444,0.554622,0,9.48686e-164,-0.0135411,1.33108e-06,0,138,-0,0,135.134,3.38561,3.628
0,-0.000238734,0.374389,0.554622,0,6.32457e-164,-0.0135651,8.8739e-07,0,138,-0,0,135.175,3.39149,3.632
0,-0.000238734,0.374335,0.554622,0,4.21638e-164,-0.013589,5.91593e-07,0,138,-0,0,135.216,3.39741,3.636
0,-0.000238734,0.374281,0.554622,0,2.81092e-164,-0.013613,-2.83965e-05,0,138,-0,0,135.256,3.39616,3.64
0,-0.000238734,0.374226,0.554622,0,1.87395e-164,-0.013637,9.85991e-06,0,138,-0,0,135.297,3.41172,3.644
0,-0.000238734,0.374172,0.554622,0,1.2493e-164,-0.013661,6.57327e-06,0,138,-0,0,135.338,3.4169,3.648
0,-0.000238734,0.374117,0.554622,0,8.32866e-165,-0.013685,4.38218e-06,0,138,-0,0,135.379,3.42235,3.652
0,-0.000238734,0.374062,0.554622,0,5.55244e-165,-0.013709,2.92145e-06,0,138,-0,0,135.42,3.42799,3.656
0,-0.000238734,0.374007,0.554622,0,3.70162e-165,-0.0137331,1.94764e-06,0,138,-0,0,135.461,3.43375,3.66
0,-0.000238734,0.373952,0.554622,0,2.46775e-165,-0.0137571,1.29842e-06,0,138,-0,0,135.503,3.4396,3.664
0,-0.000238734,0.373897,0.554622,0,1.64517e-165,-0.0137811,8.65616e-07,0,138,-0,0,135.544,3.4455,3.668
0,-0.000238734,0.373842,0.554622,0,1.09678e-165,-0.0138052,5.77077e-07,0,139,-0,0,135.585,3.45144,3.672
0,-0.000238734,0.373787,0.554622,0,7.31185e-166,-0.0138292,3.84718e-07,0,139,-0,0,135.627,3.4574,3.676
0,-0.000238734,0.373731,0.554622,0,4.87457e-166,-0.0138533,2.56479e-07,0,139,-0,0,135.668,3.46339,3.68
0,-0.000238734,0.373676,0.554622,0,3.24971e-166,-0.0138774,1.70986e-07,0,139,-0,0,135.71,3.46938,3.684
0,-0.000238734,0.37362,0.554622,0,2.16647e-166,-0.0139014,-2.86769e-05,0,139,-0,0,135.751,3.46819,3.688
0,-0.000238734,0.373565,0.554622,0,1.44432e-166,-0.0139255,9.67297e-06,0,139,-0,0,135.793,3.4838,3.692
0,-0.000238734,0.373509,0.554622,0,9.62878e-167,-0.0139496,6.44865e-06,0,139,-0,0,135.835,3.48902,3.696
0,-0.000238734,0.373453,0.554622,0,6.41918e-167,-0.0139737,-2.44918e-05,0,139,-0,0,135.877,3.48731,3.7
0,-0.000238734,0.373397,0.554622,0,4.27946e-167,-0.0139978,1.2463e-05,0,139,-0,0,135.919,3.50257,3.704
0,-0.000238734,0.373341,0.554622,0,2.85297e-167,-0.0140219,8.30869e-06,0,139,-0,0,135.961,3.50756,3.708
0,-0.000238734,0.373285,0.554622,0,1.90198e-167,-0.0140461,5.53913e-06,0,139,-0,0,136.003,3.5129,3.712
0,-0.000238734,0.373229,0.554622,0,1.26799e-167,-0.0140702,3.69275e-06,0,139,-0,0,136.045,3.51847,3.716
0,-0.000238734,0.373172,0.554623,0,8.45325e-168,-0.0140943,3.12528e-05,0,139,-0,0,136.088,3.5314,3.72
0,-0.000238734,0.373116,0.554622,0,5.6355e-168,-0.0141185,-7.95575e-06,0,139,-0,0,136.13,3.52763,3.724
0,-0.000238734,0.373059,0.554622,0,3.757e-168,-0.0141426,-5.30383e-06,0,139,-0,0,136.172,3.53433,3.728
0,-0.000238734,0.373003,0.554622,0,2.50467e-168,-0.0141668,-3.53589e-06,0,139,-0,0,136.215,3.54082,3.732
0,-0.000238734,0.372946,0.554622,0,1.66978e-168,-0.014191,-2.35726e-06,0,139,-0,0,136.257,3.54715,3.736
0,-0.000238734,0.372889,0.554622,0,1.11318e-168,-0.0142151,-3.03624e-05,0,139,-0,0,136.3,3.5462,3.74
0,-0.000238734,0.372832,0.554622,0,7.42123e-169,-0.0142393,8.5493e-06,0,139,-0,0,136.343,3.56197,3.744
0,-0.000238734,0.372775,0.554622,0,4.94749e-169,-0.0142635,5.69954e-06,0,139,-0,0,136.385,3.5673,3.748
0,-0.000238734,0.372718,0.554622,0,3.29832e-169,-0.0142877,-2.49912e-05,0,139,-0,0,136.428,3.56568,3.752
0,-0.000238734,0.372661,0.554622,0,2.19888e-169,-0.0143119,1.21301e-05,0,140,-0,0,136.471,3.58101,3.756
0,-0.000238734,0.372604,0.554622,0,1.46592e-169,-0.0143361,-2.07042e-05,0,140,-0,0,136.514,3.57886,3.76
0,-0.000238734,0.372546,0.554622,0,9.77281e-170,-0.0143603,1.49881e-05,0,140,-0,0,136.557,3.59383,3.764
0,-0.000238734,0.372489,0.554622,0,6.51521e-170,-0.0143846,-1.87988e-05,0,140,-0,0,136.6,3.59144,3.768
0,-0.000238734,0.372431,0.554622,0,4.34347e-170,-0.0144088,1.62584e-05,0,140,-0,0,136.643,3.60627,3.772
0,-0.000238734,0.372374,0.554622,0,2.89565e-170,-0.014433,1.08389e-05,0,140,-0,0,136.687,3.61097,3.776
0,-0.000238734,0.372316,0.554622,0,1.93043e-170,-0.0144573,-2.1565e-05,0,140,-0,0,136.73,3.60893,3.78
0,-0.000238734,0.372258,0.554622,0,1.28695e-170,-0.0144815,-1.43767e-05,0,140,-0,0,136.773,3.61679,3.784
0,-0.000238734,0.3722,0.554622,0,8.5797e-171,-0.0145058,1.92065e-05,0,140,-0,0,136.817,3.63125,3.788
0,-0.000238734,0.372142,0.554622,0,5.7198e-171,-0.0145301,1.28043e-05,0,140,-0,0,136.86,3.63572,3.792
0,-0.000238734,0.372084,0.554622,0,3.8132e-171,-0.0145543,-2.02547e-05,0,140,-0,0,136.904,3.63352,3.796
0,-0.000238734,0.372025,0.554622,0,2.54213e-171,-0.0145786,-1.35031e-05,0,140,-0,0,136.947,3.64128,3.8
0,-0.000238734,0.371967,0.554622,0,1.69476e-171,-0.0146029,1.97888e-05,0,140,-0,0,136.991,3.65567,3.804
0,-0.000238734,0.371909,0.554622,0,1.12984e-171,-0.0146272,1.31926e-05,0,140,-0,0,137.035,3.6601,3.808
0,-0.000238734,0.37185,0.554622,0,7.53225e-172,-0.0146515,8.79504e-06,0,140,-0,0,137.079,3.66507,3.812
0,-0.000238734,0.371791,0.554622,0,5.0215e-172,-0.0146758,5.86336e-06,0,140,-0,0,137.123,3.67042,3.816
0,-0.000238734,0.371733,0.554622,0,3.34767e-172,-0.0147001,3.90891e-06,0,140,-0,0,137.167,3.67601,3.82
