peachynonah/Fire_monitor_KIRO_CDSL/csv_datas/trial10/cdsl_data_t10_1.csv
joint1_pos_desired, joint1_pos, joint2_pos_desired, joint2_pos, joint1_vel_desired, joint1_vel_filtered, joint2_vel_desired, joint2_vel_filtered, target_torque_joint1, target_torque_joint2, propo_term_torque_joint1, deriv_term_torque_joint1, propo_term_torque_joint2, deriv_term_torque_joint2, current_time
-0.5036,-0.503697,0.117,0.114539,-0,0,2.35947e-08,0,0,-18,-0.531586,0,-18.4606,-0.000106176,0.004
-0.5036,-0.503697,0.117,0.114405,-0,0,9.43444e-08,-0.0111421,0,-69,-0.531586,0,-19.4634,-50.1398,0.008
-0.5036,-0.503697,0.117,0.114311,-0,0,2.12198e-07,-0.0152304,0,-88,-0.531586,0,-20.1656,-68.5378,0.012
-0.5036,-0.503697,0.117,0.114238,-0,0,3.77103e-07,-0.0162861,0,-94,-0.531586,0,-20.7175,-73.289,0.016
-0.5036,-0.503697,0.117,0.114184,-0,0,5.89009e-07,-0.0152912,0,-89,-0.531586,0,-21.1166,-68.813,0.02
-0.5036,-0.503697,0.117,0.114153,-0,0,8.47864e-07,-0.0128141,0,-79,-0.531586,0,-21.3524,-57.6672,0.024
-0.5036,-0.503697,0.117,0.114144,-0,0,1.15362e-06,-0.00929129,0,-63,-0.531586,0,-21.4198,-41.816,0.028
-0.5036,-0.503697,0.117,0.11415,-0,0,1.50622e-06,-0.00573354,0,-47,-0.531586,0,-21.3784,-25.8077,0.032
-0.5036,-0.503697,0.117,0.114163,-0,0,1.90561e-06,-0.00272831,0,-33,-0.531586,0,-21.28,-12.2859,0.036
-0.5036,-0.503697,0.117,0.114183,-0,0,2.35175e-06,-0.000120206,0,-21,-0.531586,0,-21.1271,-0.551509,0.04
-0.5036,-0.503697,0.117,0.114208,-0,0,2.84458e-06,0.00196402,0,-12,-0.531586,0,-20.9432,8.82528,0.044
-0.5036,-0.503697,0.117,0.114235,-0,0,3.38405e-06,0.00355504,0,-4,-0.531586,0,-20.7412,15.9824,0.048
-0.5036,-0.503697,0.117,0.114263,-0,0,3.97011e-06,0.00470209,0,0,-0.531586,0,-20.5314,21.1415,0.052
-0.5036,-0.503697,0.117,0.114289,-0,0,4.60272e-06,0.00532284,0,3,-0.531586,0,-20.3346,23.9321,0.056
-0.5036,-0.503697,0.117,0.114312,-0,0,5.2818e-06,0.00547755,0,4,-0.531586,0,-20.1612,24.6252,0.06
-0.5036,-0.503697,0.117,0.114333,-0,0,6.00733e-06,0.00537916,0,4,-0.531586,0,-20.0059,24.1792,0.064
-0.5036,-0.503697,0.117,0.11435,-0,0,6.77924e-06,0.00502565,0,2,-0.531586,0,-19.8765,22.5849,0.068
-0.5036,-0.503697,0.117,0.114365,-0,0,7.59748e-06,0.00461723,0,0,-0.531586,0,-19.7627,20.7434,0.072
-0.5036,-0.503697,0.117,0.114377,-0,0,8.462e-06,0.00408584,0,-1,-0.531586,0,-19.6723,18.3482,0.076
-0.5036,-0.503697,0.117,0.114387,-0,0,9.37276e-06,0.00353004,0,-3,-0.531586,0,-19.6,15.843,0.08
-0.5036,-0.503697,0.117,0.114394,-0,0,1.03297e-05,0.00295797,0,-6,-0.531586,0,-19.5459,13.2644,0.084
-0.5036,-0.503697,0.117,0.1144,-0,0,1.13328e-05,0.00243263,0,-8,-0.531586,0,-19.5047,10.8959,0.088
-0.5036,-0.503697,0.117,0.114403,-0,0,1.23819e-05,0.00190966,0,-10,-0.531586,0,-19.4792,8.53777,0.092
-0.5036,-0.503697,0.117,0.114405,-0,0,1.34771e-05,0.00141706,0,-13,-0.531586,0,-19.4666,6.31614,0.096
-0.5036,-0.503697,0.117,0.114405,-0,0,1.46182e-05,0.000973501,0,-15,-0.531586,0,-19.4644,4.31497,0.1
-0.5036,-0.503697,0.117001,0.114405,-0,0,1.58053e-05,0.000649,0,-16,-0.531586,0,-19.4649,2.84938,0.104
-0.5036,-0.503697,0.117001,0.114405,-0,0,1.70382e-05,0.000432667,0,-17,-0.531586,0,-19.4654,1.87033,0.108
-0.5036,-0.503697,0.117001,0.114405,-0,0,1.8317e-05,0.000288445,0,-18,-0.531586,0,-19.4659,1.21557,0.112
-0.5036,-0.503697,0.117001,0.114405,-0,0,1.96416e-05,0.000192296,0,-18,-0.531586,0,-19.4665,0.776947,0.116
-0.5036,-0.503697,0.117001,0.114406,-0,0,2.10118e-05,0.000156989,0,-18,-0.531586,0,-19.4645,0.611895,0.12
-0.5036,-0.503697,0.117001,0.114406,-0,0,2.24277e-05,0.00013345,0,-18,-0.531586,0,-19.4626,0.4996,0.124
-0.5036,-0.503697,0.117001,0.114406,-0,0,2.38893e-05,0.000117758,0,-19,-0.531586,0,-19.4607,0.422407,0.128
-0.5036,-0.503697,0.117001,0.114407,-0,0,2.53964e-05,0.000107296,0,-19,-0.531586,0,-19.4588,0.368548,0.132
-0.5036,-0.503697,0.117001,0.114407,-0,0,2.69491e-05,0.000100322,0,-19,-0.531586,0,-19.457,0.330176,0.136
-0.5036,-0.503697,0.117001,0.114408,-0,0,2.85472e-05,0.000124463,0,-19,-0.531586,0,-19.4527,0.431621,0.14
-0.5036,-0.503697,0.117001,0.114408,-0,0,3.01907e-05,0.000140557,0,-18,-0.531586,0,-19.4484,0.496649,0.144
-0.5036,-0.503697,0.117002,0.114409,-0,0,3.18796e-05,0.000180078,0,-18,-0.531586,0,-19.4415,0.666891,0.148
-0.5036,-0.503697,0.117002,0.11441,-0,0,3.36138e-05,0.000206424,0,-18,-0.531586,0,-19.4347,0.777648,0.152
-0.5036,-0.503697,0.117002,0.114411,-0,0,3.53932e-05,0.000223989,0,-18,-0.531586,0,-19.428,0.848681,0.156
-0.5036,-0.503697,0.117002,0.114412,-0,0,3.72179e-05,0.000235699,0,-18,-0.531586,0,-19.4213,0.893164,0.16
-0.5036,-0.503697,0.117002,0.114414,-0,0,3.90877e-05,0.000272296,0,-18,-0.531586,0,-19.4121,1.04944,0.164
-0.5036,-0.503697,0.117002,0.114415,-0,0,4.10027e-05,0.000267904,0,-18,-0.531586,0,-19.4055,1.02105,0.168
-0.5036,-0.503697,0.117002,0.114416,-0,0,4.29627e-05,0.000293766,0,-18,-0.531586,0,-19.3964,1.12862,0.172
-0.5036,-0.503697,0.117003,0.114418,-0,0,4.49677e-05,0.000311008,0,-18,-0.531586,0,-19.3874,1.19718,0.176
-0.5036,-0.503697,0.117003,0.114419,-0,0,4.70177e-05,0.000293711,0,-18,-0.531586,0,-19.381,1.11012,0.18
-0.5036,-0.503697,0.117003,0.11442,-0,0,4.91125e-05,0.000310971,0,-18,-0.531586,0,-19.372,1.17836,0.184
-0.5036,-0.503697,0.117003,0.114421,-0,0,5.12523e-05,0.000322478,0,-18,-0.531586,0,-19.3632,1.22052,0.188
-0.5036,-0.503697,0.117003,0.114422,-0,0,5.34368e-05,0.000272567,0,-18,-0.531586,0,-19.3596,0.986086,0.192
-0.5036,-0.503697,0.117004,0.114424,-0,0,5.56661e-05,0.000296875,0,-18,-0.531586,0,-19.3508,1.08544,0.196
-0.5036,-0.503697,0.117004,0.114425,-0,0,5.79401e-05,0.00031308,0,-18,-0.531586,0,-19.3422,1.14813,0.2
-0.5036,-0.503697,0.117004,0.114426,-0,0,6.02588e-05,0.000323884,0,-18,-0.531586,0,-19.3336,1.18631,0.204
-0.5036,-0.503697,0.117004,0.114428,-0,0,6.26221e-05,0.000331086,0,-18,-0.531586,0,-19.3251,1.20809,0.208
-0.5036,-0.503697,0.117005,0.114429,-0,0,6.50299e-05,0.000335888,0,-18,-0.531586,0,-19.3166,1.21886,0.212
-0.5036,-0.503697,0.117005,0.11443,-0,0,6.74822e-05,0.000339089,0,-18,-0.531586,0,-19.3082,1.22223,0.216
-0.5036,-0.503697,0.117005,0.114432,-0,0,6.9979e-05,0.000370014,0,-17,-0.531586,0,-19.2973,1.35016,0.22
-0.5036,-0.503697,0.117005,0.114434,-0,0,7.25202e-05,0.00036184,0,-17,-0.531586,0,-19.2891,1.30194,0.224
-0.5036,-0.503697,0.117006,0.114435,-0,0,7.51057e-05,0.000385181,0,-17,-0.531586,0,-19.2784,1.39534,0.228
-0.5036,-0.503697,0.117006,0.114437,-0,0,7.77355e-05,0.000400742,0,-17,-0.531586,0,-19.2677,1.45353,0.232
-0.5036,-0.503697,0.117006,0.114439,-0,0,8.04096e-05,0.000411116,0,-17,-0.531586,0,-19.2571,1.48818,0.236
-0.5036,-0.503697,0.117007,0.11444,-0,0,8.31279e-05,0.00036045,0,-18,-0.531586,0,-19.2518,1.24795,0.24
-0.5036,-0.503697,0.117007,0.114441,-0,0,8.58903e-05,0.000355464,0,-18,-0.531586,0,-19.244,1.21308,0.244
-0.5036,-0.503697,0.117007,0.114442,-0,0,8.86969e-05,0.000323349,0,-18,-0.531586,0,-19.2388,1.05593,0.248
-0.5036,-0.503697,0.117008,0.114443,-0,0,9.15474e-05,0.000273148,0,-18,-0.531586,0,-19.2363,0.817201,0.252
-0.5036,-0.503697,0.117008,0.114444,-0,0,9.4442e-05,0.00023968,0,-18,-0.531586,0,-19.2339,0.653572,0.256
-0.5036,-0.503697,0.117008,0.114444,-0,0,9.73806e-05,0.000217369,0,-18,-0.531586,0,-19.2316,0.539947,0.26
-0.5036,-0.503697,0.117009,0.114445,-0,0,0.000100363,0.000173703,0,-18,-0.531586,0,-19.232,0.330032,0.264
-0.5036,-0.503697,0.117009,0.114445,-0,0,0.000103389,0.000144593,0,-19,-0.531586,0,-19.2325,0.185418,0.268
-0.5036,-0.503697,0.11701,0.114445,-0,0,0.000106459,9.63955e-05,0,-19,-0.531586,0,-19.2356,-0.0452875,0.272
-0.5036,-0.503697,0.11701,0.114445,-0,0,0.000109573,6.42636e-05,0,-19,-0.531586,0,-19.2389,-0.203893,0.276
-0.5036,-0.503697,0.117011,0.114445,-0,0,0.000112731,4.28424e-05,0,-19,-0.531586,0,-19.2422,-0.314497,0.28
-0.5036,-0.503697,0.117011,0.114445,-0,0,0.000115932,2.85616e-05,0,-19,-0.531586,0,-19.2456,-0.393166,0.284
-0.5036,-0.503697,0.117012,0.114445,-0,0,0.000119177,4.7832e-05,0,-19,-0.531586,0,-19.2466,-0.321051,0.288
-0.5036,-0.503697,0.117012,0.114445,-0,0,0.000122465,3.1888e-05,0,-19,-0.531586,0,-19.2502,-0.407596,0.292
-0.5036,-0.503697,0.117012,0.114445,-0,0,0.000125797,2.12587e-05,0,-19,-0.531586,0,-19.2539,-0.470421,0.296
-0.5036,-0.503697,0.117013,0.114446,-0,0,0.000129172,4.29634e-05,0,-19,-0.531586,0,-19.2552,-0.387939,0.3
-0.5036,-0.503697,0.117014,0.114446,-0,0,0.000132591,2.86422e-05,0,-19,-0.531586,0,-19.2591,-0.467768,0.304
-0.5036,-0.503697,0.117014,0.114446,-0,0,0.000136053,4.78858e-05,0,-19,-0.531586,0,-19.2605,-0.396751,0.308
-0.5036,-0.503697,0.117015,0.114446,-0,0,0.000139558,3.19238e-05,0,-19,-0.531586,0,-19.2647,-0.484354,0.312
-0.5036,-0.503697,0.117015,0.114446,-0,0,0.000143107,2.12826e-05,0,-19,-0.531586,0,-19.2689,-0.548208,0.316
-0.5036,-0.503697,0.117016,0.114446,-0,0,0.000146698,1.41884e-05,0,-19,-0.531586,0,-19.2732,-0.596295,0.32
-0.5036,-0.503697,0.117016,0.114446,-0,0,0.000150333,9.45891e-06,0,-19,-0.531586,0,-19.2777,-0.633934,0.324
-0.5036,-0.503697,0.117017,0.114446,-0,0,0.000154011,3.50969e-05,0,-19,-0.531586,0,-19.2797,-0.535114,0.328
-0.5036,-0.503697,0.117018,0.114446,-0,0,0.000157732,2.33979e-05,0,-19,-0.531586,0,-19.2843,-0.604504,0.332
-0.5036,-0.503697,0.117018,0.114446,-0,0,0.000161496,1.55986e-05,0,-19,-0.531586,0,-19.2891,-0.656539,0.336
-0.5036,-0.503697,0.117019,0.114446,-0,0,0.000165303,1.03991e-05,0,-19,-0.531586,0,-19.294,-0.697068,0.34
-0.5036,-0.503697,0.11702,0.114446,-0,0,0.000169153,6.93271e-06,0,-20,-0.531586,0,-19.299,-0.729992,0.344
-0.5036,-0.503697,0.11702,0.114446,-0,0,0.000173046,4.62181e-06,0,-20,-0.531586,0,-19.3042,-0.757908,0.348
-0.5036,-0.503697,0.117021,0.114446,-0,0,0.000176981,3.08121e-06,0,-20,-0.531586,0,-19.3094,-0.78255,0.352
-0.5036,-0.503697,0.117022,0.114447,-0,0,0.00018096,3.08451e-05,0,-19,-0.531586,0,-19.3122,-0.675515,0.356
-0.5036,-0.503697,0.117022,0.114447,-0,0,0.000184981,4.93543e-05,0,-19,-0.531586,0,-19.3151,-0.610318,0.36
-0.5036,-0.503697,0.117023,0.114447,-0,0,0.000189044,3.29029e-05,0,-20,-0.531586,0,-19.3207,-0.702636,0.364
-0.5036,-0.503697,0.117024,0.114447,-0,0,0.00019315,2.19352e-05,0,-20,-0.531586,0,-19.3265,-0.770468,0.368
-0.5036,-0.503697,0.117025,0.114447,-0,0,0.000197299,1.46235e-05,0,-20,-0.531586,0,-19.3323,-0.82204,0.372
-0.5036,-0.503697,0.117025,0.114447,-0,0,0.00020149,9.749e-06,0,-20,-0.531586,0,-19.3383,-0.862836,0.376
-0.5036,-0.503697,0.117026,0.114447,-0,0,0.000205724,3.52903e-05,0,-20,-0.531586,0,-19.3418,-0.766952,0.38
-0.5036,-0.503697,0.117027,0.114447,-0,0,0.00021,-5.26409e-06,0,-20,-0.531586,0,-19.3506,-0.968689,0.384
-0.5036,-0.503697,0.117028,0.114447,-0,0,0.000214319,2.52815e-05,0,-20,-0.531586,0,-19.3544,-0.850667,0.388
-0.5036,-0.503697,0.117029,0.114447,-0,0,0.000218679,1.68544e-05,0,-20,-0.531586,0,-19.3609,-0.908212,0.392
-0.5036,-0.503697,0.11703,0.114448,-0,0,0.000223082,4.00272e-05,0,-20,-0.531586,0,-19.3649,-0.823748,0.396
-0.5036,-0.503697,0.117031,0.114448,-0,0,0.000227528,5.54757e-05,0,-20,-0.531586,0,-19.3691,-0.774233,0.4
-0.5036,-0.503697,0.117032,0.114448,-0,0,0.000232015,6.57747e-05,0,-20,-0.531586,0,-19.3734,-0.748081,0.404
-0.5036,-0.503697,0.117032,0.114449,-0,0,0.000236544,7.26407e-05,0,-20,-0.531586,0,-19.3778,-0.737566,0.408
-0.5036,-0.503697,0.117033,0.114449,-0,0,0.000241116,7.72181e-05,0,-20,-0.531586,0,-19.3824,-0.73754,0.412
-0.5036,-0.503697,0.117034,0.114449,-0,0,0.000245729,5.14787e-05,0,-20,-0.531586,0,-19.3897,-0.874128,0.416
-0.5036,-0.503697,0.117035,0.114449,-0,0,0.000250385,6.31101e-05,0,-20,-0.531586,0,-19.3946,-0.842736,0.42
-0.5036,-0.503697,0.117036,0.114449,-0,0,0.000255082,4.20734e-05,0,-20,-0.531586,0,-19.4022,-0.958539,0.424
-0.5036,-0.503697,0.117037,0.114449,-0,0,0.000259821,2.80489e-05,0,-20,-0.531586,0,-19.4099,-1.04298,0.428
-0.5036,-0.503697,0.117038,0.114449,-0,0,0.000264602,1.86993e-05,0,-20,-0.531586,0,-19.4177,-1.10656,0.432
-0.5036,-0.503697,0.11704,0.114449,-0,0,0.000269425,1.24662e-05,0,-20,-0.531586,0,-19.4258,-1.15632,0.436
-0.5036,-0.503697,0.117041,0.114449,-0,0,0.00027429,8.31079e-06,0,-20,-0.531586,0,-19.4339,-1.1969,0.44
-0.5036,-0.503697,0.117042,0.114449,-0,0,0.000279196,5.54053e-06,0,-20,-0.531586,0,-19.4422,-1.23145,0.444
-0.5036,-0.503697,0.117043,0.11445,-0,0,0.000284143,6.12755e-05,0,-20,-0.531586,0,-19.4455,-1.00291,0.448
-0.5036,-0.503697,0.117044,0.114449,-0,0,0.000289133,-1.67315e-05,0,-20,-0.531586,0,-19.4593,-1.37639,0.452
-0.5036,-0.503697,0.117045,0.114449,-0,0,0.000294164,-1.11543e-05,0,-20,-0.531586,0,-19.468,-1.37393,0.456
-0.5036,-0.503697,0.117046,0.11445,-0,0,0.000299236,2.13547e-05,0,-20,-0.531586,0,-19.4743,-1.25046,0.46
-0.5036,-0.503697,0.117048,0.11445,-0,0,0.000304349,1.42365e-05,0,-20,-0.531586,0,-19.4834,-1.30551,0.464
-0.5036,-0.503697,0.117049,0.11445,-0,0,0.000309504,9.49098e-06,0,-20,-0.531586,0,-19.4926,-1.35006,0.468
-0.5036,-0.503697,0.11705,0.11445,-0,0,0.000314701,6.32732e-06,0,-20,-0.531586,0,-19.5019,-1.38768,0.472
-0.5036,-0.503697,0.117051,0.11445,-0,0,0.000319938,4.21821e-06,0,-20,-0.531586,0,-19.5115,-1.42074,0.476
-0.5036,-0.503697,0.117053,0.11445,-0,0,0.000325217,2.81214e-06,0,-20,-0.531586,0,-19.5211,-1.45082,0.48
-0.5036,-0.503697,0.117054,0.11445,-0,0,0.000330537,1.87476e-06,0,-21,-0.531586,0,-19.531,-1.47898,0.484
-0.5036,-0.503697,0.117055,0.11445,-0,0,0.000335898,1.24984e-06,0,-21,-0.531586,0,-19.541,-1.50592,0.488
-0.5036,-0.503697,0.117057,0.11445,-0,0,0.0003413,8.33227e-07,0,-21,-0.531586,0,-19.5511,-1.5321,0.492
-0.5036,-0.503697,0.117058,0.11445,-0,0,0.000346744,5.55485e-07,0,-21,-0.531586,0,-19.5615,-1.55785,0.496
-0.5036,-0.503697,0.117059,0.11445,-0,0,0.000352228,3.70323e-07,0,-21,-0.531586,0,-19.5719,-1.58336,0.5
-0.5036,-0.503697,0.117061,0.11445,-0,0,0.000357753,2.46882e-07,0,-21,-0.531586,0,-19.5826,-1.60878,0.504
-0.5036,-0.503697,0.117062,0.11445,-0,0,0.000363319,5.77464e-05,0,-20,-0.531586,0,-19.5882,-1.37507,0.508
-0.5036,-0.503697,0.117064,0.11445,-0,0,0.000368925,3.84976e-05,0,-21,-0.531586,0,-19.5992,-1.48692,0.512
-0.5036,-0.503697,0.117065,0.11445,-0,0,0.000374573,-3.19168e-05,0,-21,-0.531586,0,-19.6155,-1.8292,0.516
-0.5036,-0.503697,0.117067,0.11445,-0,0,0.000380261,3.6304e-05,0,-21,-0.531586,0,-19.6217,-1.54781,0.52
-0.5036,-0.503697,0.117068,0.114449,-0,0,0.00038599,-6.21701e-05,0,-21,-0.531586,0,-19.6409,-2.01672,0.524
-0.5036,-0.503697,0.11707,0.11445,-0,0,0.000391759,1.61351e-05,0,-21,-0.531586,0,-19.6474,-1.69031,0.528
-0.5036,-0.503697,0.117071,0.11445,-0,0,0.000397569,1.07567e-05,0,-21,-0.531586,0,-19.6593,-1.74066,0.532
-0.5036,-0.503697,0.117073,0.11445,-0,0,0.00040342,7.17116e-06,0,-21,-0.531586,0,-19.6713,-1.78312,0.536
-0.5036,-0.503697,0.117075,0.11445,-0,0,0.000409311,4.78077e-06,0,-21,-0.531586,0,-19.6835,-1.82039,0.54
-0.5036,-0.503697,0.117076,0.11445,-0,0,0.000415242,3.18718e-06,0,-21,-0.531586,0,-19.6958,-1.85425,0.544
-0.5036,-0.503697,0.117078,0.11445,-0,0,0.000421214,2.12479e-06,0,-21,-0.531586,0,-19.7084,-1.8859,0.548
-0.5036,-0.503697,0.11708,0.11445,-0,0,0.000427227,1.41653e-06,0,-21,-0.531586,0,-19.7211,-1.91615,0.552
-0.5036,-0.503697,0.117081,0.11445,-0,0,0.000433279,9.4435e-07,0,-21,-0.531586,0,-19.734,-1.94551,0.556
-0.5036,-0.503697,0.117083,0.11445,-0,0,0.000439372,6.29567e-07,0,-21,-0.531586,0,-19.7471,-1.97434,0.56
-0.5036,-0.503697,0.117085,0.11445,-0,0,0.000445505,4.19711e-07,0,-21,-0.531586,0,-19.7604,-2.00288,0.564
-0.5036,-0.503697,0.117087,0.11445,-0,0,0.000451678,2.79808e-07,0,-21,-0.531586,0,-19.7738,-2.03129,0.568
-0.5036,-0.503697,0.117088,0.11445,-0,0,0.000457891,1.86538e-07,0,-21,-0.531586,0,-19.7875,-2.05967,0.572
-0.5036,-0.503697,0.11709,0.11445,-0,0,0.000464144,1.24359e-07,0,-21,-0.531586,0,-19.8013,-2.08809,0.576
-0.5036,-0.503697,0.117092,0.11445,-0,0,0.000470437,8.29059e-08,0,-21,-0.531586,0,-19.8153,-2.11659,0.58
-0.5036,-0.503697,0.117094,0.11445,-0,0,0.00047677,5.52706e-08,0,-21,-0.531586,0,-19.8295,-2.14522,0.584
-0.5036,-0.503697,0.117096,0.11445,-0,0,0.000483143,3.68471e-08,0,-22,-0.531586,0,-19.8439,-2.17398,0.588
-0.5036,-0.503697,0.117098,0.11445,-0,0,0.000489556,2.88155e-05,0,-21,-0.531586,0,-19.8559,-2.07333,0.592
-0.5036,-0.503697,0.1171,0.11445,-0,0,0.000496008,1.92103e-05,0,-22,-0.531586,0,-19.8707,-2.14559,0.596
-0.5036,-0.503697,0.117102,0.11445,-0,0,0.000502501,1.28069e-05,0,-22,-0.531586,0,-19.8857,-2.20362,0.6
-0.5036,-0.503697,0.117104,0.11445,-0,0,0.000509033,8.53792e-06,0,-22,-0.531586,0,-19.9009,-2.25223,0.604
-0.5036,-0.503697,0.117106,0.11445,-0,0,0.000515604,5.69195e-06,0,-22,-0.531586,0,-19.9162,-2.2946,0.608
-0.5036,-0.503697,0.117108,0.11445,-0,0,0.000522215,3.79463e-06,0,-22,-0.531586,0,-19.9318,-2.33289,0.612
-0.5036,-0.503697,0.11711,0.11445,-0,0,0.000528866,2.52975e-06,0,-22,-0.531586,0,-19.9476,-2.36851,0.616
-0.5036,-0.503697,0.117112,0.11445,-0,0,0.000535556,1.6865e-06,0,-22,-0.531586,0,-19.9635,-2.40241,0.62
-0.5036,-0.503697,0.117114,0.114451,-0,0,0.000542286,2.99153e-05,0,-22,-0.531586,0,-19.9771,-2.30567,0.624
-0.5036,-0.503697,0.117117,0.114451,-0,0,0.000549055,1.99435e-05,0,-22,-0.531586,0,-19.9935,-2.381,0.628
-0.5036,-0.503697,0.117119,0.114451,-0,0,0.000555864,1.32957e-05,0,-22,-0.531586,0,-20.0101,-2.44156,0.632
-0.5036,-0.503697,0.117121,0.114451,-0,0,0.000562712,8.86378e-06,0,-22,-0.531586,0,-20.0268,-2.49232,0.636
-0.5036,-0.503697,0.117123,0.114451,-0,0,0.000569599,3.47001e-05,0,-22,-0.531586,0,-20.0412,-2.40704,0.64
-0.5036,-0.503697,0.117126,0.114452,-0,0,0.000576525,5.19243e-05,0,-22,-0.531586,0,-20.0558,-2.3607,0.644
-0.5036,-0.503697,0.117128,0.114452,-0,0,0.00058349,3.46162e-05,0,-22,-0.531586,0,-20.0732,-2.46993,0.648
-0.5036,-0.503697,0.11713,0.114452,-0,0,0.000590495,5.18684e-05,0,-22,-0.531586,0,-20.0883,-2.42382,0.652
-0.5036,-0.503697,0.117133,0.114452,-0,0,0.000597538,3.45789e-05,0,-22,-0.531586,0,-20.1061,-2.53332,0.656
-0.5036,-0.503697,0.117135,0.114453,-0,0,0.000604621,8.06345e-05,0,-22,-0.531586,0,-20.1189,-2.35794,0.66
-0.5036,-0.503697,0.117138,0.114452,-0,0,0.000611742,2.49654e-05,0,-22,-0.531586,0,-20.1398,-2.6405,0.664
-0.5036,-0.503697,0.11714,0.114452,-0,0,0.000618903,1.66436e-05,0,-22,-0.531586,0,-20.1582,-2.71017,0.668
-0.5036,-0.503697,0.117142,0.114452,-0,0,0.000626102,1.10957e-05,0,-22,-0.531586,0,-20.1769,-2.76753,0.672
-0.5036,-0.503697,0.117145,0.114452,-0,0,0.00063334,7.39715e-06,0,-23,-0.531586,0,-20.1958,-2.81674,0.676
-0.5036,-0.503697,0.117148,0.114452,-0,0,0.000640617,4.93144e-06,0,-23,-0.531586,0,-20.2149,-2.86059,0.68
-0.5036,-0.503697,0.11715,0.114452,-0,0,0.000647933,3.28762e-06,0,-23,-0.531586,0,-20.2342,-2.9009,0.684
-0.5036,-0.503697,0.117153,0.114453,-0,0,0.000655287,5.97736e-05,0,-22,-0.531586,0,-20.2486,-2.67981,0.688
-0.5036,-0.503697,0.117155,0.114453,-0,0,0.00066268,1.10581e-05,0,-23,-0.531586,0,-20.271,-2.9323,0.692
-0.5036,-0.503697,0.117158,0.114453,-0,0,0.000670112,3.6163e-05,0,-23,-0.531586,0,-20.2884,-2.85277,0.696
-0.5036,-0.503697,0.117161,0.114453,-0,0,0.000677582,2.41087e-05,0,-23,-0.531586,0,-20.3086,-2.94063,0.7
-0.5036,-0.503697,0.117163,0.114453,-0,0,0.00068509,1.60725e-05,0,-23,-0.531586,0,-20.329,-3.01058,0.704
-0.5036,-0.503697,0.117166,0.114453,-0,0,0.000692637,-1.8076e-05,0,-23,-0.531586,0,-20.3523,-3.19821,0.708
-0.5036,-0.503697,0.117169,0.114453,-0,0,0.000700223,4.55312e-05,0,-23,-0.531586,0,-20.368,-2.94611,0.712
-0.5036,-0.503697,0.117172,0.114453,-0,0,0.000707846,3.03541e-05,0,-23,-0.531586,0,-20.3891,-3.04872,0.716
-0.5036,-0.503697,0.117175,0.114453,-0,0,0.000715508,2.02361e-05,0,-23,-0.531586,0,-20.4104,-3.12873,0.72
-0.5036,-0.503697,0.117178,0.114453,-0,0,0.000723209,1.34907e-05,0,-23,-0.531586,0,-20.432,-3.19373,0.724
-0.5036,-0.503697,0.11718,0.114453,-0,0,0.000730947,8.99382e-06,0,-23,-0.531586,0,-20.4538,-3.24879,0.728
-0.5036,-0.503697,0.117183,0.114454,-0,0,0.000738724,6.35777e-05,0,-23,-0.531586,0,-20.4707,-3.03816,0.732
-0.5036,-0.503697,0.117186,0.114454,-0,0,0.000746538,1.35942e-05,0,-23,-0.531586,0,-20.4956,-3.29825,0.736
-0.5036,-0.503697,0.117189,0.114454,-0,0,0.000754391,9.06282e-06,0,-23,-0.531586,0,-20.5181,-3.35398,0.74
-0.5036,-0.503697,0.117192,0.114454,-0,0,0.000762282,6.04188e-06,0,-23,-0.531586,0,-20.5408,-3.40308,0.744
-0.5036,-0.503697,0.117195,0.114454,-0,0,0.00077021,4.02792e-06,0,-24,-0.531586,0,-20.5638,-3.44782,0.748
-0.5036,-0.503697,0.117199,0.114454,-0,0,0.000778177,2.68528e-06,0,-24,-0.531586,0,-20.587,-3.48971,0.752
-0.5036,-0.503697,0.117202,0.114454,-0,0,0.000786181,1.79019e-06,0,-24,-0.531586,0,-20.6105,-3.52976,0.756
-0.5036,-0.503697,0.117205,0.114454,-0,0,0.000794223,2.99844e-05,0,-24,-0.531586,0,-20.6316,-3.43908,0.76
-0.5036,-0.503697,0.117208,0.114454,-0,0,0.000802303,1.99896e-05,0,-24,-0.531586,0,-20.6556,-3.52041,0.764
-0.5036,-0.503697,0.117211,0.114454,-0,0,0.000810421,1.33264e-05,0,-24,-0.531586,0,-20.6798,-3.58693,0.768
-0.5036,-0.503697,0.117215,0.114454,-0,0,0.000818576,-1.99067e-05,0,-24,-0.531586,0,-20.7068,-3.77317,0.772
-0.5036,-0.503697,0.117218,0.114454,-0,0,0.000826769,4.43107e-05,0,-24,-0.531586,0,-20.7263,-3.52106,0.776
-0.5036,-0.503697,0.117221,0.114454,-0,0,0.000835,2.95405e-05,0,-24,-0.531586,0,-20.7512,-3.62457,0.78
-0.5036,-0.503697,0.117224,0.114455,-0,0,0.000843268,4.84846e-05,0,-24,-0.531586,0,-20.7738,-3.57653,0.784
-0.5036,-0.503697,0.117228,0.114455,-0,0,0.000851574,3.23231e-05,0,-24,-0.531586,0,-20.7992,-3.68663,0.788
-0.5036,-0.503697,0.117231,0.114455,-0,0,0.000859916,2.15487e-05,0,-24,-0.531586,0,-20.8249,-3.77265,0.792
-0.5036,-0.503697,0.117235,0.114455,-0,0,0.000868297,1.43658e-05,0,-24,-0.531586,0,-20.8508,-3.84269,0.796
-0.5036,-0.503697,0.117238,0.114455,-0,0,0.000876714,9.5772e-06,0,-24,-0.531586,0,-20.877,-3.90212,0.8
-0.5036,-0.503697,0.117242,0.114455,-0,0,0.000885169,6.3848e-06,0,-24,-0.531586,0,-20.9034,-3.95453,0.804
-0.5036,-0.503697,0.117245,0.114455,-0,0,0.000893662,3.30475e-05,0,-24,-0.531586,0,-20.9275,-3.87276,0.808
-0.5036,-0.503697,0.117249,0.114455,-0,0,0.000902191,2.20316e-05,0,-24,-0.531586,0,-20.9544,-3.96072,0.812
-0.5036,-0.503697,0.117253,0.114455,-0,0,0.000910757,1.46878e-05,0,-25,-0.531586,0,-20.9816,-4.03231,0.816
-0.5036,-0.503697,0.117256,0.114455,-0,0,0.000919361,9.79184e-06,0,-25,-0.531586,0,-21.0091,-4.09306,0.82
-0.5036,-0.503697,0.11726,0.114455,-0,0,0.000928002,6.52789e-06,0,-25,-0.531586,0,-21.0368,-4.14663,0.824
-0.5036,-0.503697,0.117264,0.114455,-0,0,0.000936679,3.31429e-05,0,-25,-0.531586,0,-21.0622,-4.06591,0.828
-0.5036,-0.503697,0.117267,0.114456,-0,0,0.000945394,5.08862e-05,0,-25,-0.531586,0,-21.0878,-4.02528,0.832
-0.5036,-0.503697,0.117271,0.114456,-0,0,0.000954145,3.39241e-05,0,-25,-0.531586,0,-21.1163,-4.141,0.836
-0.5036,-0.503697,0.117275,0.114456,-0,0,0.000962934,5.1407e-05,0,-25,-0.531586,0,-21.1425,-4.10187,0.84
-0.5036,-0.503697,0.117279,0.114456,-0,0,0.000971759,6.30623e-05,0,-25,-0.531586,0,-21.1689,-4.08913,0.844
-0.5036,-0.503697,0.117283,0.114456,-0,0,0.000980621,4.20415e-05,0,-25,-0.531586,0,-21.1982,-4.22361,0.848
-0.5036,-0.503697,0.117287,0.114457,-0,0,0.000989519,5.68186e-05,0,-25,-0.531586,0,-21.2252,-4.19715,0.852
-0.5036,-0.503697,0.117291,0.114457,-0,0,0.000998455,3.78791e-05,0,-25,-0.531586,0,-21.255,-4.32259,0.856
-0.5036,-0.503697,0.117295,0.114457,-0,0,0.00100743,5.40436e-05,0,-25,-0.531586,0,-21.2825,-4.29022,0.86
-0.5036,-0.503697,0.117299,0.114458,-0,0,0.00101643,9.36109e-05,0,-25,-0.531586,0,-21.3076,-4.15271,0.864
-0.5036,-0.503697,0.117303,0.114458,-0,0,0.00102548,6.24073e-05,0,-25,-0.531586,0,-21.3383,-4.33383,0.868
-0.5036,-0.503697,0.117307,0.114458,-0,0,0.00103456,7.03958e-05,0,-25,-0.531586,0,-21.3666,-4.33874,0.872
-0.5036,-0.503697,0.117311,0.114458,-0,0,0.00104368,4.69305e-05,0,-25,-0.531586,0,-21.3978,-4.48537,0.876
-0.5036,-0.503697,0.117315,0.114458,-0,0,0.00105283,2.49609e-06,0,-26,-0.531586,0,-21.4318,-4.72652,0.88
-0.5036,-0.503697,0.11732,0.114458,-0,0,0.00106202,5.92459e-05,0,-25,-0.531586,0,-21.4583,-4.5125,0.884
-0.5036,-0.503697,0.117324,0.114458,-0,0,0.00107125,3.94973e-05,0,-26,-0.531586,0,-21.4903,-4.64289,0.888
-0.5036,-0.503697,0.117328,0.114458,-0,0,0.00108051,2.63315e-05,0,-26,-0.531586,0,-21.5226,-4.74382,0.892
-0.5036,-0.503697,0.117332,0.114458,-0,0,0.00108981,1.75543e-05,0,-26,-0.531586,0,-21.5552,-4.82516,0.896
-0.5036,-0.503697,0.117337,0.114459,-0,0,0.00109915,4.04938e-05,0,-26,-0.531586,0,-21.5854,-4.76395,0.9
-0.5036,-0.503697,0.117341,0.114459,-0,0,0.00110852,2.69959e-05,0,-26,-0.531586,0,-21.6185,-4.86686,0.904
-0.5036,-0.503697,0.117346,0.114459,-0,0,0.00111793,7.55791e-05,0,-26,-0.531586,0,-21.6467,-4.69057,0.908
-0.5036,-0.503697,0.11735,0.114459,-0,0,0.00112737,5.03861e-05,0,-26,-0.531586,0,-21.6804,-4.84643,0.912
-0.5036,-0.503697,0.117355,0.114459,-0,0,0.00113685,4.79979e-06,0,-26,-0.531586,0,-21.717,-5.09423,0.916
-0.5036,-0.503697,0.117359,0.114459,-0,0,0.00114637,3.19986e-06,0,-26,-0.531586,0,-21.7512,-5.14425,0.92
-0.5036,-0.503697,0.117364,0.114459,-0,0,0.00115592,2.13324e-06,0,-26,-0.531586,0,-21.7858,-5.19203,0.924
-0.5036,-0.503697,0.117369,0.114459,-0,0,0.0011655,1.42216e-06,0,-27,-0.531586,0,-21.8206,-5.23837,0.928
-0.5036,-0.503697,0.117373,0.114459,-0,0,0.00117513,9.48106e-07,0,-27,-0.531586,0,-21.8557,-5.28381,0.932
-0.5036,-0.503697,0.117378,0.114459,-0,0,0.00118479,-2.81589e-05,0,-27,-0.531586,0,-21.8937,-5.45825,0.936
-0.5036,-0.503697,0.117383,0.114459,-0,0,0.00119448,3.88093e-05,0,-27,-0.531586,0,-21.9242,-5.20052,0.94
-0.5036,-0.503697,0.117387,0.11446,-0,0,0.00120421,5.46638e-05,0,-27,-0.531586,0,-21.9576,-5.17296,0.944
-0.5036,-0.503697,0.117392,0.11446,-0,0,0.00121398,6.52334e-05,0,-27,-0.531586,0,-21.9913,-5.16934,0.948
-0.5036,-0.503697,0.117397,0.114461,-0,0,0.00122378,7.22799e-05,0,-27,-0.531586,0,-22.0252,-5.18173,0.952
-0.5036,-0.503697,0.117402,0.114461,-0,0,0.00123361,0.000105768,0,-27,-0.531586,0,-22.0569,-5.0753,0.956
-0.5036,-0.503697,0.117407,0.114461,-0,0,0.00124348,4.17214e-05,0,-27,-0.531586,0,-22.0967,-5.40793,0.96
-0.5036,-0.503697,0.117412,0.114461,-0,0,0.00125339,2.78142e-05,0,-27,-0.531586,0,-22.1341,-5.5151,0.964
-0.5036,-0.503697,0.117417,0.114461,-0,0,0.00126333,1.85428e-05,0,-27,-0.531586,0,-22.1719,-5.60156,0.968
-0.5036,-0.503697,0.117422,0.114462,-0,0,0.00127331,6.99437e-05,0,-27,-0.531586,0,-22.2047,-5.41516,0.972
-0.5036,-0.503697,0.117427,0.114462,-0,0,0.00128333,4.66292e-05,0,-27,-0.531586,0,-22.2431,-5.56513,0.976
-0.5036,-0.503697,0.117432,0.114461,-0,0,0.00129337,2.29518e-06,0,-28,-0.531586,0,-22.2843,-5.80985,0.98
-0.5036,-0.503697,0.117438,0.114462,-0,0,0.00130346,3.0321e-05,0,-28,-0.531586,0,-22.3207,-5.72911,0.984
-0.5036,-0.503697,0.117443,0.114462,-0,0,0.00131358,4.9005e-05,0,-28,-0.531586,0,-22.3573,-5.69057,0.988
-0.5036,-0.503697,0.117448,0.114463,-0,0,0.00132373,0.000119043,0,-27,-0.531586,0,-22.3891,-5.42109,0.992
-0.5036,-0.503697,0.117453,0.114463,-0,0,0.00133392,7.93618e-05,0,-28,-0.531586,0,-22.429,-5.6455,0.996
-0.5036,-0.503697,0.117459,0.114463,-0,0,0.00134414,8.16988e-05,0,-28,-0.531586,0,-22.4666,-5.68099,1
-0.5036,-0.503697,0.117464,0.114464,-0,-2.87909e-05,0.0013544,8.32568e-05,0,-28,-0.533486,-0.100768,-22.5045,-5.72015,1.004
-0.5036,-0.503697,0.11747,0.114464,-0,9.59697e-06,0.00136469,8.42955e-05,0,-28,-0.531586,0.0335894,-22.5427,-5.76179,1.008
-0.5036,-0.503697,0.117475,0.114464,-0,6.39798e-06,0.00137502,8.49879e-05,0,-28,-0.531586,0.0223929,-22.5812,-5.80515,1.012
-0.5036,-0.503697,0.117481,0.114465,-0,4.26532e-06,0.00138538,8.54495e-05,0,-28,-0.531586,0.0149286,-22.62,-5.84971,1.016
-0.5036,-0.503697,0.117486,0.114465,-0,2.84355e-06,0.00139578,8.57573e-05,0,-28,-0.531586,0.00995242,-22.6591,-5.89511,1.02
-0.5036,-0.503697,0.117492,0.114466,-0,1.8957e-06,0.00140622,0.000114753,0,-28,-0.531586,0.00663495,-22.696,-5.81158,1.024
-0.5036,-0.503697,0.117497,0.114465,-0,1.2638e-06,0.00141668,4.77113e-05,0,-28,-0.531586,0.0044233,-22.7409,-6.16037,1.028
-0.5036,-0.503697,0.117503,0.114466,-0,8.42533e-07,0.00142718,6.05985e-05,0,-28,-0.531586,0.00294886,-22.781,-6.14963,1.032
-0.5036,-0.503697,0.117509,0.114466,-0,5.61689e-07,0.00143772,4.0399e-05,0,-29,-0.531586,0.00196591,-22.8239,-6.28794,1.036
-0.5036,-0.503697,0.117515,0.114466,-0,3.74459e-07,0.00144829,2.69327e-05,0,-29,-0.531586,0.00131061,-22.8672,-6.39611,1.04
-0.5036,-0.503697,0.11752,0.114466,-0,2.49639e-07,0.0014589,1.79551e-05,0,-29,-0.531586,0.000873738,-22.9108,-6.48423,1.044
-0.5036,-0.503697,0.117526,0.114466,-0,1.66426e-07,0.00146954,1.19701e-05,0,-29,-0.531586,0.000582492,-22.9547,-6.55904,1.048
-0.5036,-0.503697,0.117532,0.114466,-0,1.10951e-07,0.00148021,3.6771e-05,0,-29,-0.531586,0.000388328,-22.9964,-6.49547,1.052
-0.5036,-0.503697,0.117538,0.114466,-0,7.39672e-08,0.00149092,2.4514e-05,0,-29,-0.531586,0.000258885,-23.041,-6.59882,1.056
-0.5036,-0.503697,0.117544,0.114466,-0,4.93115e-08,0.00150166,1.63427e-05,0,-29,-0.531586,0.00017259,-23.0859,-6.68393,1.06
-0.5036,-0.503697,0.11755,0.114467,-0,3.28743e-08,0.00151244,6.8477e-05,0,-29,-0.531586,0.00011506,-23.1259,-6.49782,1.064
-0.5036,-0.503697,0.117556,0.114466,-0,2.19162e-08,0.00152325,1.68604e-05,0,-29,-0.531586,7.67067e-05,-23.174,-6.77874,1.068
-0.5036,-0.503697,0.117562,0.114466,-0,1.46108e-08,0.00153409,1.12403e-05,0,-30,-0.531586,5.11378e-05,-23.2199,-6.85283,1.072
-0.5036,-0.503697,0.117569,0.114466,-0,9.74054e-09,0.00154497,7.4935e-06,0,-30,-0.531586,3.40919e-05,-23.2661,-6.91865,1.076
-0.5036,-0.503697,0.117575,0.114467,-0,6.49369e-09,0.00155588,3.37866e-05,0,-30,-0.531586,2.27279e-05,-23.31,-6.84944,1.08
-0.5036,-0.503697,0.117581,0.114467,-0,4.32913e-09,0.00156683,2.25244e-05,0,-30,-0.531586,1.51519e-05,-23.3568,-6.94938,1.084
-0.5036,-0.503697,0.117587,0.114467,-0,2.88609e-09,0.00157781,1.50163e-05,0,-30,-0.531586,1.01013e-05,-23.404,-7.03258,1.088
-0.5036,-0.503697,0.117594,0.114467,-0,1.92406e-09,0.00158883,1.00108e-05,0,-30,-0.531586,6.7342e-06,-23.4515,-7.10467,1.092
-0.5036,-0.503697,0.1176,0.114467,-0,1.2827e-09,0.00159988,3.54648e-05,0,-30,-0.531586,4.48947e-06,-23.4967,-7.03985,1.096
-0.5036,-0.503697,0.117606,0.114467,-0,8.55136e-10,0.00161096,2.36432e-05,0,-30,-0.531586,2.99298e-06,-23.5449,-7.14292,1.1
-0.5036,-0.503697,0.117613,0.114467,-0,5.70091e-10,0.00162208,1.57621e-05,0,-30,-0.531586,1.99532e-06,-23.5934,-7.22841,1.104
-0.5036,-0.503697,0.117619,0.114467,-0,3.80061e-10,0.00163323,3.9299e-05,0,-30,-0.531586,1.33021e-06,-23.6396,-7.17267,1.108
-0.5036,-0.503697,0.117626,0.114468,-0,2.53374e-10,0.00164441,5.49903e-05,0,-30,-0.531586,8.86808e-07,-23.6862,-7.15238,1.112
-0.5036,-0.503697,0.117633,0.114468,-0,1.68916e-10,0.00165563,3.66602e-05,0,-31,-0.531586,5.91205e-07,-23.7357,-7.28535,1.116
-0.5036,-0.503697,0.117639,0.114468,-0,1.12611e-10,0.00166688,5.3231e-05,0,-31,-0.531586,3.94137e-07,-23.7829,-7.26141,1.12
-0.5036,-0.503697,0.117646,0.114468,-0,7.50737e-11,0.00167816,6.42783e-05,0,-31,-0.531586,2.62758e-07,-23.8305,-7.26247,1.124
-0.5036,-0.503697,0.117653,0.114469,-0,5.00491e-11,0.00168948,0.000100434,0,-31,-0.531586,1.75172e-07,-23.8759,-7.1507,1.128
-0.5036,-0.503697,0.117659,0.114469,-0,3.33661e-11,0.00170083,9.5747e-05,0,-31,-0.531586,1.16781e-07,-23.9241,-7.22288,1.132
-0.5036,-0.503697,0.117666,0.114471,-0,2.22441e-11,0.00171221,0.000150204,0,-30,-0.531586,7.78542e-08,-23.9675,-7.02905,1.136
-0.5036,-0.503697,0.117673,0.114471,-0,1.48294e-11,0.00172363,0.000100136,0,-31,-0.531586,5.19028e-08,-24.0191,-7.30574,1.14
-0.5036,-0.503697,0.11768,0.114471,-0,9.88625e-12,0.00173508,0.000124339,0,-31,-0.531586,3.46019e-08,-24.0658,-7.24835,1.144
-0.5036,-0.503697,0.117687,0.114471,-0,6.59083e-12,0.00174657,8.28928e-05,0,-31,-0.531586,2.30679e-08,-24.118,-7.48654,1.148
-0.5036,-0.503697,0.117694,0.114472,-0,4.39389e-12,0.00175809,8.40528e-05,0,-31,-0.531586,1.53786e-08,-24.168,-7.53315,1.152
-0.5036,-0.503697,0.117701,0.114472,-0,2.92926e-12,0.00176964,8.48261e-05,0,-31,-0.531586,1.02524e-08,-24.2183,-7.58165,1.156
-0.5036,-0.503697,0.117708,0.114472,-0,1.95284e-12,0.00178122,8.53417e-05,0,-31,-0.531586,6.83494e-09,-24.269,-7.63146,1.16
-0.5036,-0.503697,0.117715,0.114473,-0,1.30189e-12,0.00179284,8.56854e-05,0,-32,-0.531586,4.55663e-09,-24.32,-7.68219,1.164
-0.5036,-0.503697,0.117722,0.114473,-0,8.67929e-13,0.00180449,0.000114705,0,-31,-0.531586,3.03775e-09,-24.3688,-7.60402,1.168
-0.5036,-0.503697,0.11773,0.114474,-0,5.78619e-13,0.00181617,0.000105261,0,-32,-0.531586,2.02517e-09,-24.4205,-7.6991,1.172
-0.5036,-0.503697,0.117737,0.114474,-0,3.85746e-13,0.00182789,0.000127756,0,-32,-0.531586,1.35011e-09,-24.47,-7.65059,1.176
-0.5036,-0.503697,0.117744,0.114475,-0,2.57164e-13,0.00183964,0.000113962,0,-32,-0.531586,9.00074e-10,-24.5224,-7.76554,1.18
-0.5036,-0.503697,0.117752,0.114475,-0,1.71443e-13,0.00185142,0.000104765,0,-32,-0.531586,6.00049e-10,-24.5752,-7.85994,1.184
-0.5036,-0.503697,0.117759,0.114475,-0,1.14295e-13,0.00186323,9.86345e-05,0,-32,-0.531586,4.00033e-10,-24.6283,-7.94069,1.188
-0.5036,-0.503697,0.117767,0.114476,-0,7.61967e-14,0.00187508,9.45472e-05,0,-32,-0.531586,2.66689e-10,-24.6818,-8.01239,1.192
-0.5036,-0.503697,0.117774,0.114476,-0,5.07978e-14,0.00188696,9.18224e-05,0,-32,-0.531586,1.77792e-10,-24.7356,-8.07812,1.196
-0.5036,-0.503697,0.117782,0.114476,-0,3.38652e-14,0.00189887,9.00059e-05,0,-32,-0.531586,1.18528e-10,-24.7898,-8.1399,1.2
-0.5036,-0.503697,0.117789,0.114477,-0,2.25768e-14,0.00191082,8.87948e-05,0,-33,-0.531586,7.90189e-11,-24.8444,-8.1991,1.204
-0.5036,-0.503697,0.117797,0.114477,-0,1.50512e-14,0.00192279,8.79875e-05,0,-33,-0.531586,5.26792e-11,-24.8993,-8.25663,1.208
-0.5036,-0.503697,0.117805,0.114477,-0,1.00341e-14,0.0019348,5.86583e-05,0,-33,-0.531586,3.51195e-11,-24.9572,-8.44266,1.212
-0.5036,-0.503697,0.117812,0.114477,-0,6.68943e-15,0.00194685,6.78965e-05,0,-33,-0.531586,2.3413e-11,-25.0128,-8.45528,1.216
-0.5036,-0.503697,0.11782,0.114478,-0,4.45962e-15,0.00195892,7.40552e-05,0,-33,-0.531586,1.56087e-11,-25.0688,-8.4819,1.22
-0.5036,-0.503697,0.117828,0.114478,-0,2.97308e-15,0.00197103,4.93702e-05,0,-33,-0.531586,1.04058e-11,-25.1277,-8.64747,1.224
-0.5036,-0.503697,0.117836,0.114478,-0,1.98205e-15,0.00198317,6.17044e-05,0,-33,-0.531586,6.93718e-12,-25.1845,-8.64659,1.228
-0.5036,-0.503697,0.117844,0.114478,-0,1.32137e-15,0.00199534,4.11362e-05,0,-34,-0.531586,4.62479e-12,-25.2441,-8.79392,1.232
-0.5036,-0.503697,0.117852,0.114478,-0,8.80912e-16,0.00200755,5.62151e-05,0,-34,-0.531586,3.08319e-12,-25.3016,-8.78099,1.236
-0.5036,-0.503697,0.11786,0.114479,-0,5.87275e-16,0.00201978,6.62676e-05,0,-34,-0.531586,2.05546e-12,-25.3594,-8.79082,1.24
-0.5036,-0.503697,0.117868,0.114479,-0,3.91517e-16,0.00203205,4.41784e-05,0,-34,-0.531586,1.37031e-12,-25.4202,-8.94543,1.244
-0.5036,-0.503697,0.117876,0.114479,-0,2.61011e-16,0.00204435,5.82432e-05,0,-34,-0.531586,9.13539e-13,-25.4787,-8.93749,1.248
-0.5036,-0.503697,0.117885,0.11448,-0,1.74007e-16,0.00205668,6.76197e-05,0,-34,-0.531586,6.09026e-13,-25.5377,-8.95079,1.252
-0.5036,-0.503697,0.117893,0.11448,-0,1.16005e-16,0.00206905,7.38707e-05,0,-34,-0.531586,4.06017e-13,-25.597,-8.9783,1.256
-0.5036,-0.503697,0.117901,0.11448,-0,7.73366e-17,0.00208145,7.80381e-05,0,-34,-0.531586,2.70678e-13,-25.6566,-9.01533,1.26
-0.5036,-0.503697,0.117909,0.114481,-0,5.15577e-17,0.00209387,8.08163e-05,0,-34,-0.531586,1.80452e-13,-25.7167,-9.05876,1.264
-0.5036,-0.503697,0.117918,0.114481,-0,3.43718e-17,0.00210633,8.26685e-05,0,-34,-0.531586,1.20301e-13,-25.7771,-9.1065,1.268
-0.5036,-0.503697,0.117926,0.114481,-0,2.29145e-17,0.00211883,8.39032e-05,0,-34,-0.531586,8.02009e-14,-25.8379,-9.15716,1.272
-0.5036,-0.503697,0.117935,0.114482,-0,1.52764e-17,0.00213135,8.47264e-05,0,-35,-0.531586,5.34673e-14,-25.899,-9.20981,1.276
-0.5036,-0.503697,0.117943,0.114482,-0,1.01842e-17,0.00214391,8.52752e-05,0,-35,-0.531586,3.56448e-14,-25.9606,-9.26384,1.28
-0.5036,-0.503697,0.117952,0.114483,-0,6.7895e-18,0.00215649,0.000114432,0,-35,-0.531586,2.37632e-14,-26.0199,-9.18928,1.284
-0.5036,-0.503697,0.117961,0.114483,-0,4.52633e-18,0.00216911,0.000105079,0,-35,-0.531586,1.58422e-14,-26.0822,-9.28816,1.288
-0.5036,-0.503697,0.117969,0.114484,-0,3.01755e-18,0.00218176,0.000127634,0,-35,-0.531586,1.05614e-14,-26.1423,-9.24358,1.292
-0.5036,-0.503697,0.117978,0.114485,-0,2.0117e-18,0.00219445,0.000171462,0,-35,-0.531586,7.04096e-15,-26.2001,-9.10343,1.296
-0.5036,-0.503697,0.117987,0.114485,-0,1.34113e-18,0.00220716,0.00017189,0,-35,-0.531586,4.69397e-15,-26.261,-9.15872,1.3
-0.5036,-0.503697,0.117996,0.114486,-0,8.9409e-19,0.00221991,0.000200966,0,-35,-0.531586,3.12931e-15,-26.3196,-9.08523,1.304
-0.5036,-0.503697,0.118005,0.114488,-0,5.9606e-19,0.00223268,0.000249141,0,-35,-0.531586,2.08621e-15,-26.376,-8.92593,1.308
-0.5036,-0.503697,0.118014,0.114489,-0,3.97373e-19,0.00224549,0.000281258,0,-35,-0.531586,1.39081e-15,-26.4328,-8.83905,1.312
-0.5036,-0.503697,0.118023,0.114491,-0,2.64916e-19,0.00225833,0.000302669,0,-35,-0.531586,9.27204e-16,-26.49,-8.80047,1.316
-0.5036,-0.503697,0.118032,0.114492,-0,1.7661e-19,0.0022712,0.000316943,0,-35,-0.531586,6.18136e-16,-26.5476,-8.79416,1.32
-0.5036,-0.503697,0.118041,0.114493,-0,1.1774e-19,0.0022841,0.000326459,0,-35,-0.531586,4.12091e-16,-26.6056,-8.80939,1.324
-0.5036,-0.503697,0.11805,0.114495,-0,7.84935e-20,0.00229704,0.000332803,0,-35,-0.531586,2.74727e-16,-26.6639,-8.83904,1.328
-0.5036,-0.503697,0.118059,0.114496,-0,5.2329e-20,0.00231,0.000365823,0,-35,-0.531586,1.83151e-16,-26.7201,-8.74879,1.332
-0.5036,-0.503697,0.118068,0.114498,-0,3.4886e-20,0.00232299,0.000387837,0,-35,-0.531586,1.22101e-16,-26.7766,-8.70821,1.336
-0.5036,-0.503697,0.118078,0.1145,-0,2.32573e-20,0.00233602,0.000402513,0,-35,-0.531586,8.14007e-17,-26.8335,-8.70079,1.34
-0.5036,-0.503697,0.118087,0.114502,-0,1.55049e-20,0.00234908,0.000412296,0,-35,-0.531586,5.42671e-17,-26.8909,-8.71552,1.344
-0.5036,-0.503697,0.118096,0.114504,-0,1.03366e-20,0.00236217,0.00044761,0,-35,-0.531586,3.61781e-17,-26.946,-8.6155,1.348
-0.5036,-0.503697,0.118106,0.114506,-0,6.89106e-21,0.00237529,0.000499943,0,-35,-0.531586,2.41187e-17,-26.9989,-8.43904,1.352
-0.5036,-0.503697,0.118115,0.114509,-0,4.59404e-21,0.00238844,0.000563623,0,-35,-0.531586,1.60791e-17,-27.0496,-8.21166,1.356
-0.5036,-0.503697,0.118125,0.114512,-0,3.06269e-21,0.00240162,0.000606076,0,-35,-0.531586,1.07194e-17,-27.1007,-8.07993,1.36
-0.5036,-0.503697,0.118135,0.114515,-0,2.0418e-21,0.00241483,0.000720751,0,-34,-0.531586,7.14629e-18,-27.1445,-7.62335,1.364
-0.5036,-0.503697,0.118144,0.11452,-0,1.3612e-21,0.00242807,0.000854783,0,-34,-0.531586,4.76419e-18,-27.1834,-7.0798,1.368
-0.5036,-0.503697,0.118154,0.114525,-0,9.07465e-22,0.00244134,0.000972928,0,-33,-0.531586,3.17613e-18,-27.2202,-6.60787,1.372
-0.5036,-0.503697,0.118164,0.11453,-0,6.04977e-22,0.00245465,0.00105169,0,-33,-0.531586,2.11742e-18,-27.2574,-6.3133,1.376
-0.5036,-0.503697,0.118174,0.114535,-0,4.03318e-22,0.00246798,0.00113299,0,-33,-0.531586,1.41161e-18,-27.2923,-6.00746,1.38
-0.5036,-0.503697,0.118184,0.114541,-0,2.68878e-22,0.00248135,0.00124477,0,-32,-0.531586,9.41075e-19,-27.3225,-5.56458,1.384
-0.5036,-0.503697,0.118194,0.114547,-0,1.79252e-22,0.00249474,0.00137688,0,-32,-0.531586,6.27383e-19,-27.3479,-5.0304,1.388
-0.5036,-0.503697,0.118204,0.114554,-0,1.19502e-22,0.00250817,0.00146495,0,-32,-0.531586,4.18255e-19,-27.3738,-4.6945,1.392
-0.5036,-0.503697,0.118214,0.114561,-0,7.96677e-23,0.00252162,0.00158124,0,-31,-0.531586,2.78837e-19,-27.3948,-4.23173,1.396
-0.5036,-0.503697,0.118224,0.114569,-0,5.31118e-23,0.00253511,0.00174514,0,-30,-0.531586,1.85891e-19,-27.4085,-3.55486,1.4
-0.5036,-0.503697,0.118234,0.114578,-0,3.54079e-23,0.00254863,0.00185441,0,-30,-0.531586,1.23928e-19,-27.4225,-3.12398,1.404
-0.5036,-0.503697,0.118244,0.114587,-0,2.36052e-23,0.00256218,0.00201363,0,-29,-0.531586,8.26183e-20,-27.4292,-2.46846,1.408
-0.5036,-0.503697,0.118254,0.114596,-0,1.57368e-23,0.00257575,0.00211977,0,-29,-0.531586,5.50789e-20,-27.4363,-2.05191,1.412
-0.5036,-0.503697,0.118265,0.114606,-0,1.04912e-23,0.00258936,0.00219054,0,-29,-0.531586,3.67193e-20,-27.4438,-1.7947,1.416
-0.5036,-0.503697,0.118275,0.114614,-0,6.99415e-24,0.002603,0.00218013,0,-29,-0.531586,2.44795e-20,-27.4569,-1.9029,1.42
-0.5036,-0.503697,0.118286,0.114623,-0,4.66276e-24,0.00261667,0.00217319,0,-29,-0.531586,1.63197e-20,-27.4705,-1.99563,1.424
-0.5036,-0.503697,0.118296,0.114631,-0,3.10851e-24,0.00263036,0.00213978,0,-29,-0.531586,1.08798e-20,-27.487,-2.20764,1.428
-0.5036,-0.503697,0.118307,0.114639,-0,2.07234e-24,0.00264409,0.0021175,0,-29,-0.531586,7.25319e-21,-27.5039,-2.36966,1.432
-0.5036,-0.503697,0.118317,0.114646,-0,1.38156e-24,0.00265785,0.00198749,0,-30,-0.531586,4.83546e-21,-27.5316,-3.01664,1.436
-0.5036,-0.503697,0.118328,0.114654,-0,9.2104e-25,0.00267164,0.0019296,0,-30,-0.531586,3.22364e-21,-27.5571,-3.33917,1.44
-0.5036,-0.503697,0.118339,0.11466,-0,6.14027e-25,0.00268546,0.00183343,0,-31,-0.531586,2.14909e-21,-27.5883,-3.83413,1.444
-0.5036,-0.503697,0.118349,0.114666,-0,4.09351e-25,0.0026993,0.00171173,0,-32,-0.531586,1.43273e-21,-27.625,-4.44408,1.448
-0.5036,-0.503697,0.11836,0.114671,-0,2.72901e-25,0.00271318,0.00154423,0,-32,-0.531586,9.55152e-22,-27.6699,-5.2603,1.452
-0.5036,-0.503697,0.118371,0.114675,-0,1.81934e-25,0.00272709,0.00134618,0,-33,-0.531586,6.36768e-22,-27.723,-6.21407,1.456
-0.5036,-0.503697,0.118382,0.114678,-0,1.21289e-25,0.00274103,0.00118537,0,-34,-0.531586,4.24512e-22,-27.7791,-7.00047,1.46
-0.5036,-0.503697,0.118393,0.114682,-0,8.08595e-26,0.00275499,0.00107815,0,-35,-0.531586,2.83008e-22,-27.8356,-7.54578,1.464
-0.5036,-0.503697,0.118404,0.114685,-0,5.39063e-26,0.00276899,0.000977887,0,-35,-0.531586,1.88672e-22,-27.8952,-8.05996,1.468
-0.5036,-0.503697,0.118415,0.114687,-0,3.59375e-26,0.00278301,0.000853461,0,-36,-0.531586,1.25781e-22,-27.9603,-8.68299,1.472
-0.5036,-0.503697,0.118426,0.114689,-0,2.39584e-26,0.00279707,0.00074172,0,-37,-0.531586,8.38543e-23,-28.0285,-9.24907,1.476
-0.5036,-0.503697,0.118438,0.114691,-0,1.59722e-26,0.00281115,0.000667225,0,-37,-0.531586,5.59028e-23,-28.097,-9.64768,1.48
-0.5036,-0.503697,0.118449,0.114694,-0,1.06482e-26,0.00282527,0.000646353,0,-37,-0.531586,3.72686e-23,-28.1635,-9.80512,1.484
-0.5036,-0.503697,0.11846,0.114696,-0,7.09877e-27,0.00283941,0.000632439,0,-38,-0.531586,2.48457e-23,-28.2303,-9.93138,1.488
-0.5036,-0.503697,0.118472,0.114699,-0,4.73252e-27,0.00285358,0.000623162,0,-38,-0.531586,1.65638e-23,-28.2975,-10.0369,1.492
-0.5036,-0.503697,0.118483,0.114702,-0,3.15501e-27,0.00286779,0.00067456,0,-38,-0.531586,1.10425e-23,-28.36,-9.86952,1.496
-0.5036,-0.503697,0.118495,0.114705,-0,2.10334e-27,0.00288202,0.000708825,0,-38,-0.531586,7.36169e-24,-28.423,-9.77937,1.5
-0.5036,-0.503697,0.118506,0.114708,-0,1.40223e-27,0.00289628,0.000760459,0,-38,-0.531586,4.90779e-24,-28.4837,-9.61119,1.504
-0.5036,-0.503697,0.118518,0.114712,-0,9.34818e-28,0.00291057,0.000852464,0,-37,-0.531586,3.27186e-24,-28.5397,-9.26147,1.508
-0.5036,-0.503697,0.118529,0.114717,-0,6.23212e-28,0.00292489,0.000942591,0,-37,-0.531586,2.18124e-24,-28.5936,-8.92033,1.512
-0.5036,-0.503697,0.118541,0.114722,-0,4.15475e-28,0.00293924,0.00103147,0,-37,-0.531586,1.45416e-24,-28.6453,-8.58496,1.516
-0.5036,-0.503697,0.118553,0.114727,-0,2.76983e-28,0.00295361,0.00111951,0,-36,-0.531586,9.69441e-25,-28.6948,-8.25347,1.52
-0.5036,-0.503697,0.118565,0.114732,-0,1.84655e-28,0.00296802,0.0011782,0,-36,-0.531586,6.46294e-25,-28.7448,-8.05417,1.524
-0.5036,-0.503697,0.118577,0.114737,-0,1.23104e-28,0.00298245,0.00118854,0,-36,-0.531586,4.30863e-25,-28.7977,-8.07261,1.528
-0.5036,-0.503697,0.118589,0.114742,-0,8.20691e-29,0.00299692,0.00119543,0,-36,-0.531586,2.87242e-25,-28.8511,-8.10668,1.532
-0.5036,-0.503697,0.118601,0.114746,-0,5.47127e-29,0.00301141,0.00117124,0,-37,-0.531586,1.91494e-25,-28.9076,-8.28078,1.536
-0.5036,-0.503697,0.118613,0.114751,-0,3.64751e-29,0.00302593,0.0011839,0,-37,-0.531586,1.27663e-25,-28.9619,-8.28915,1.54
-0.5036,-0.503697,0.118625,0.114756,-0,2.43168e-29,0.00304048,0.00116355,0,-37,-0.531586,8.51086e-26,-29.0192,-8.44621,1.544
-0.5036,-0.503697,0.118637,0.11476,-0,1.62112e-29,0.00305506,0.00114998,0,-37,-0.531586,5.67391e-26,-29.0769,-8.57286,1.548
-0.5036,-0.503697,0.118649,0.114765,-0,1.08074e-29,0.00306967,0.00116973,0,-37,-0.531586,3.78261e-26,-29.1325,-8.54974,1.552
-0.5036,-0.503697,0.118662,0.11477,-0,7.20496e-30,0.00308431,0.00124047,0,-37,-0.531586,2.52174e-26,-29.1834,-8.29725,1.556
-0.5036,-0.503697,0.118674,0.114776,-0,4.80331e-30,0.00309897,0.00128764,0,-37,-0.531586,1.68116e-26,-29.2347,-8.151,1.56
-0.5036,-0.503697,0.118686,0.114782,-0,3.20221e-30,0.00311366,0.00137666,0,-37,-0.531586,1.12077e-26,-29.2812,-7.81651,1.564
-0.5036,-0.503697,0.118699,0.114789,-0,2.1348e-30,0.00312839,0.00149359,0,-36,-0.531586,7.47182e-27,-29.323,-7.35657,1.568
-0.5036,-0.503697,0.118711,0.114797,-0,1.4232e-30,0.00314314,0.00165792,0,-36,-0.531586,4.98121e-27,-29.3575,-6.68348,1.572
-0.5036,-0.503697,0.118724,0.114806,-0,9.48802e-31,0.00315792,0.00185384,0,-35,-0.531586,3.32081e-27,-29.3846,-5.86832,1.576
-0.5036,-0.503697,0.118737,0.114816,-0,6.32535e-31,0.00317272,0.00204204,0,-34,-0.531586,2.21387e-27,-29.407,-5.08806,1.58
-0.5036,-0.503697,0.118749,0.114826,-0,4.2169e-31,0.00318756,0.00225388,0,-33,-0.531586,1.47591e-27,-29.4221,-4.20155,1.584
-0.5036,-0.503697,0.118762,0.114837,-0,2.81127e-31,0.00320242,0.0024239,0,-32,-0.531586,9.83943e-28,-29.4351,-3.50337,1.588
-0.5036,-0.503697,0.118775,0.114848,-0,1.87418e-31,0.00321731,0.00253724,0,-32,-0.531586,6.55962e-28,-29.4484,-3.06033,1.592
-0.5036,-0.503697,0.118788,0.114859,-0,1.24945e-31,0.00323223,0.00252643,0,-32,-0.531586,4.37308e-28,-29.47,-3.17612,1.596
-0.5036,-0.503697,0.118801,0.114869,-0,8.32967e-32,0.00324718,0.00251922,0,-32,-0.531586,2.91539e-28,-29.4921,-3.27582,1.6
-0.5036,-0.503697,0.118814,0.114875,-0,5.55312e-32,0.00326216,0.0022553,0,-34,-0.531586,1.94359e-28,-29.5379,-4.53086,1.604
-0.5036,-0.503697,0.118827,0.114882,-0,3.70208e-32,0.00327716,0.00205056,0,-35,-0.531586,1.29573e-28,-29.5868,-5.51971,1.608
-0.5036,-0.503697,0.11884,0.114887,-0,2.46805e-32,0.0032922,0.00177011,0,-36,-0.531586,8.63818e-29,-29.649,-6.84937,1.612
-0.5036,-0.503697,0.118853,0.114891,-0,1.64537e-32,0.00330726,0.00152557,0,-37,-0.531586,5.75879e-29,-29.7169,-8.01761,1.616
-0.5036,-0.503697,0.118867,0.114894,-0,1.09691e-32,0.00332235,0.00130495,0,-38,-0.531586,3.83919e-29,-29.7904,-9.07826,1.62
-0.5036,-0.503697,0.11888,0.114898,-0,7.31275e-33,0.00333746,0.00112909,0,-39,-0.531586,2.55946e-29,-29.867,-9.93769,1.624
-0.5036,-0.503697,0.118893,0.1149,-0,4.87516e-33,0.00335261,0.000983052,0,-40,-0.531586,1.70631e-29,-29.9466,-10.663,1.628
-0.5036,-0.503697,0.118907,0.114903,-0,3.25011e-33,0.00336778,0.000885696,0,-41,-0.531586,1.13754e-29,-30.0267,-11.1694,1.632
-0.5036,-0.503697,0.11892,0.114907,-0,2.16674e-33,0.00338298,0.000878373,0,-41,-0.531586,7.58359e-30,-30.1021,-11.2707,1.636
-0.5036,-0.503697,0.118934,0.11491,-0,1.44449e-33,0.00339821,0.000873491,0,-41,-0.531586,5.05573e-30,-30.1779,-11.3612,1.64
-0.5036,-0.503697,0.118947,0.114914,-0,9.62995e-34,0.00341346,0.00095661,0,-41,-0.531586,3.37048e-30,-30.2464,-11.0558,1.644
-0.5036,-0.503697,0.118961,0.114921,-0,6.41997e-34,0.00342874,0.00115598,0,-40,-0.531586,2.24699e-30,-30.3024,-10.2275,1.648
-0.5036,-0.503697,0.118975,0.114927,-0,4.27998e-34,0.00344405,0.00128889,0,-40,-0.531586,1.49799e-30,-30.3588,-9.69825,1.652
-0.5036,-0.503697,0.118989,0.114934,-0,2.85332e-34,0.00345939,0.00143508,0,-39,-0.531586,9.98662e-31,-30.4105,-9.10942,1.656
-0.5036,-0.503697,0.119002,0.114941,-0,1.90221e-34,0.00347476,0.00159012,0,-38,-0.531586,6.65775e-31,-30.4575,-8.48088,1.66
-0.5036,-0.503697,0.119016,0.114948,-0,1.26814e-34,0.00349015,0.00160711,0,-38,-0.531586,4.4385e-31,-30.5128,-8.4737,1.664
-0.5036,-0.503697,0.11903,0.114955,-0,8.45428e-35,0.00350557,0.00167601,0,-38,-0.531586,2.959e-31,-30.5633,-8.23301,1.668
-0.5036,-0.503697,0.119044,0.114963,-0,5.63619e-35,0.00352102,0.00172195,0,-38,-0.531586,1.97267e-31,-30.6143,-8.0958,1.672
-0.5036,-0.503697,0.119059,0.114969,-0,3.75746e-35,0.00353649,0.0016662,0,-39,-0.531586,1.31511e-31,-30.6735,-8.4163,1.676
-0.5036,-0.503697,0.119073,0.114975,-0,2.50497e-35,0.003552,0.00162904,0,-39,-0.531586,8.7674e-32,-30.7332,-8.6533,1.68
-0.5036,-0.503697,0.119087,0.114981,-0,1.66998e-35,0.00356753,0.00157547,0,-39,-0.531586,5.84493e-32,-30.7959,-8.96424,1.684
-0.5036,-0.503697,0.119101,0.114987,-0,1.11332e-35,0.00358308,0.00159734,0,-39,-0.531586,3.89662e-32,-30.854,-8.93583,1.688
-0.5036,-0.503697,0.119116,0.114994,-0,7.42214e-36,0.00359867,0.00161192,0,-39,-0.531586,2.59775e-32,-30.9125,-8.94034,1.692
-0.5036,-0.503697,0.11913,0.115001,-0,4.94809e-36,0.00361428,0.00165043,0,-39,-0.531586,1.73183e-32,-30.9688,-8.83729,1.696
-0.5036,-0.503697,0.119145,0.115008,-0,3.29873e-36,0.00362991,0.00167611,0,-39,-0.531586,1.15455e-32,-31.0257,-8.79213,1.7
-0.5036,-0.503697,0.119159,0.115015,-0,2.19915e-36,0.00364558,0.00175081,0,-39,-0.531586,7.69703e-33,-31.0778,-8.52648,1.704
-0.5036,-0.503697,0.119174,0.115024,-0,1.4661e-36,0.00366127,0.00188698,0,-39,-0.531586,5.13136e-33,-31.1226,-7.98433,1.708
-0.5036,-0.503697,0.119188,0.115034,-0,9.77401e-37,0.00367699,0.00206413,0,-38,-0.531586,3.4209e-33,-31.1601,-7.25787,1.712
-0.5036,-0.503697,0.119203,0.115044,-0,6.51601e-37,0.00369274,0.00226861,0,-37,-0.531586,2.2806e-33,-31.1904,-6.40859,1.716
-0.5036,-0.503697,0.119218,0.115056,-0,4.344e-37,0.00370851,0.0024625,0,-36,-0.531586,1.5204e-33,-31.2159,-5.60702,1.72
-0.5036,-0.503697,0.119233,0.115068,-0,2.896e-37,0.00372431,0.00262056,0,-36,-0.531586,1.0136e-33,-31.2393,-4.96686,1.724
-0.5036,-0.503697,0.119248,0.115078,-0,1.93067e-37,0.00374013,0.00261077,0,-36,-0.531586,6.75734e-34,-31.2735,-5.08214,1.728
-0.5036,-0.503697,0.119263,0.115087,-0,1.28711e-37,0.00375599,0.00248908,0,-37,-0.531586,4.50489e-34,-31.3186,-5.7011,1.732
-0.5036,-0.503697,0.119278,0.115094,-0,8.58075e-38,0.00377187,0.00229278,0,-38,-0.531586,3.00326e-34,-31.3745,-6.65587,1.736
-0.5036,-0.503697,0.119293,0.115101,-0,5.7205e-38,0.00378777,0.00207555,0,-39,-0.531586,2.00217e-34,-31.4386,-7.705,1.74
-0.5036,-0.503697,0.119308,0.115107,-0,3.81367e-38,0.0038037,0.00184436,0,-40,-0.531586,1.33478e-34,-31.511,-8.81707,1.744
-0.5036,-0.503697,0.119323,0.115111,-0,2.54244e-38,0.00381966,0.00163264,0,-41,-0.531586,8.89855e-35,-31.5891,-9.84159,1.748
-0.5036,-0.503697,0.119339,0.115116,-0,1.69496e-38,0.00383565,0.00146271,0,-42,-0.531586,5.93237e-35,-31.6703,-10.6782,1.752
-0.5036,-0.503697,0.119354,0.11512,-0,1.12998e-38,0.00385166,0.00129184,0,-43,-0.531586,3.95491e-35,-31.7571,-11.5192,1.756
-0.5036,-0.503697,0.119369,0.115125,-0,7.53317e-39,0.0038677,0.0012643,0,-43,-0.531586,2.63661e-35,-31.8366,-11.7153,1.76
-0.5036,-0.503697,0.119385,0.11513,-0,5.02211e-39,0.00388377,0.00133231,0,-43,-0.531586,1.75774e-35,-31.9088,-11.4815,1.764
-0.5036,-0.503697,0.1194,0.115136,-0,3.34807e-39,0.00389986,0.00134886,0,-43,-0.531586,1.17183e-35,-31.9841,-11.4795,1.768
-0.5036,-0.503697,0.119416,0.115143,-0,2.23205e-39,0.00391597,0.00144627,0,-43,-0.531586,7.81217e-36,-32.0521,-11.1137,1.772
-0.5036,-0.503697,0.119432,0.11515,-0,1.48803e-39,0.00393212,0.00156879,0,-42,-0.531586,5.20812e-36,-32.1154,-10.635,1.776
-0.5036,-0.503697,0.119448,0.115158,-0,9.92022e-40,0.00394829,0.00170805,0,-42,-0.531586,3.47208e-36,-32.174,-10.0811,1.78
-0.5036,-0.503697,0.119463,0.115166,-0,6.61348e-40,0.00396448,0.00185847,0,-41,-0.531586,2.31472e-36,-32.2279,-9.47705,1.784
-0.5036,-0.503697,0.119479,0.115175,-0,4.40899e-40,0.00398071,0.00195876,0,-41,-0.531586,1.54315e-36,-32.2823,-9.09878,1.788
-0.5036,-0.503697,0.119495,0.115185,-0,2.93932e-40,0.00399695,0.00211198,0,-40,-0.531586,1.02876e-36,-32.3294,-8.48237,1.792
-0.5036,-0.503697,0.119511,0.115194,-0,1.95955e-40,0.00401323,0.00218534,0,-40,-0.531586,6.85842e-37,-32.3796,-8.22548,1.796
-0.5036,-0.503697,0.119527,0.115204,-0,1.30637e-40,0.00402953,0.00232062,0,-40,-0.531586,4.57228e-37,-32.4225,-7.69007,1.8
-0.5036,-0.503697,0.119544,0.115214,-0,8.70911e-41,0.00404585,0.00238202,0,-39,-0.531586,3.04819e-37,-32.4685,-7.48726,1.804
-0.5036,-0.503697,0.11956,0.115226,-0,5.80607e-41,0.00406221,0.00253811,0,-39,-0.531586,2.03213e-37,-32.5046,-6.85842,1.808
-0.5036,-0.503697,0.119576,0.115237,-0,3.87072e-41,0.00407858,0.00264218,0,-39,-0.531586,1.35475e-37,-32.5412,-6.46384,1.812
-0.5036,-0.503697,0.119592,0.115248,-0,2.58048e-41,0.00409499,0.00268276,0,-38,-0.531586,9.03167e-38,-32.5809,-6.35502,1.816
-0.5036,-0.503697,0.119609,0.11526,-0,1.72032e-41,0.00411142,0.0027674,0,-38,-0.531586,6.02111e-38,-32.6159,-6.04809,1.82
-0.5036,-0.503697,0.119625,0.115272,-0,1.14688e-41,0.00412787,0.00285261,0,-38,-0.531586,4.01408e-38,-32.6488,-5.73866,1.824
-0.5036,-0.503697,0.119642,0.115283,-0,7.64586e-42,0.00414435,0.00279426,0,-38,-0.531586,2.67605e-38,-32.6926,-6.07541,1.828
-0.5036,-0.503697,0.119658,0.115292,-0,5.09724e-42,0.00416086,0.00266899,0,-39,-0.531586,1.78403e-38,-32.7446,-6.71343,1.832
-0.5036,-0.503697,0.119675,0.1153,-0,3.39816e-42,0.00417739,0.00244152,0,-40,-0.531586,1.18936e-38,-32.8101,-7.81144,1.836
-0.5036,-0.503697,0.119692,0.115306,-0,2.26544e-42,0.00419395,0.00211712,0,-42,-0.531586,7.92904e-39,-32.8916,-9.34572,1.84
-0.5036,-0.503697,0.119709,0.115311,-0,1.51029e-42,0.00421053,0.00184328,0,-43,-0.531586,5.28603e-39,-32.9788,-10.6526,1.844
-0.5036,-0.503697,0.119726,0.115315,-0,1.00686e-42,0.00422714,0.00151676,0,-45,-0.531586,3.52402e-39,-33.0795,-12.1967,1.848
-0.5036,-0.503697,0.119742,0.115317,-0,6.71241e-43,0.00424377,0.00121271,0,-46,-0.531586,2.34934e-39,-33.1884,-13.6398,1.852
-0.5036,-0.503697,0.119759,0.115319,-0,4.47494e-43,0.00426043,0.000952429,0,-48,-0.531586,1.56623e-39,-33.303,-14.886,1.856
-0.5036,-0.503697,0.119777,0.11532,-0,2.98329e-43,0.00427712,0.000721325,0,-49,-0.531586,1.04415e-39,-33.4233,-16.0011,1.86
-0.5036,-0.503697,0.119794,0.115321,-0,1.98886e-43,0.00429383,0.000538465,0,-50,-0.531586,6.96102e-40,-33.5467,-16.8991,1.864
-0.5036,-0.503697,0.119811,0.115321,-0,1.32591e-43,0.00431056,0.000387768,0,-51,-0.531586,4.64068e-40,-33.6731,-17.6526,1.868
-0.5036,-0.503697,0.119828,0.115321,-0,8.83939e-44,0.00432732,0.000258512,0,-52,-0.531586,3.09379e-40,-33.8027,-18.3097,1.872
-0.5036,-0.503697,0.119845,0.115321,-0,5.89293e-44,0.00434411,0.000201132,0,-52,-0.531586,2.06252e-40,-33.9302,-18.6434,1.876
-0.5036,-0.503697,0.119863,0.115322,-0,3.92862e-44,0.00436092,0.000162879,0,-52,-0.531586,1.37502e-40,-34.0582,-18.8912,1.88
-0.5036,-0.503697,0.11988,0.115322,-0,2.61908e-44,0.00437776,0.000137377,0,-53,-0.531586,9.16678e-41,-34.1867,-19.0817,1.884
-0.5036,-0.503697,0.119898,0.115323,-0,1.74605e-44,0.00439462,0.000149166,0,-53,-0.531586,6.11118e-41,-34.3131,-19.1045,1.888
-0.5036,-0.503697,0.119916,0.115323,-0,1.16404e-44,0.0044115,0.000128235,0,-53,-0.531586,4.07412e-41,-34.4426,-19.2747,1.892
-0.5036,-0.503697,0.119933,0.115324,-0,7.76023e-45,0.00442841,0.000143072,0,-53,-0.531586,2.71608e-41,-34.57,-19.284,1.896
-0.5036,-0.503697,0.119951,0.115325,-0,5.17349e-45,0.00444535,0.000152963,0,-54,-0.531586,1.81072e-41,-34.6979,-19.3157,1.9
-0.5036,-0.503697,0.119969,0.115325,-0,3.44899e-45,0.00446231,0.000130766,0,-54,-0.531586,1.20715e-41,-34.8289,-19.4919,1.904
-0.5036,-0.503697,0.119987,0.115326,-0,2.29933e-45,0.00447929,0.000144759,0,-54,-0.531586,8.04765e-42,-34.9579,-19.5054,1.908
-0.5036,-0.503697,0.120005,0.115327,-0,1.53289e-45,0.0044963,0.000182879,0,-54,-0.531586,5.3651e-42,-35.0847,-19.4104,1.912
-0.5036,-0.503697,0.120023,0.115327,-0,1.02192e-45,0.00451334,0.00015071,0,-54,-0.531586,3.57673e-42,-35.2173,-19.6318,1.916
-0.5036,-0.503697,0.120041,0.115328,-0,6.81283e-46,0.0045304,0.000158055,0,-55,-0.531586,2.38449e-42,-35.3477,-19.6755,1.92
-0.5036,-0.503697,0.120059,0.115328,-0,4.54188e-46,0.00454748,0.000134161,0,-55,-0.531586,1.58966e-42,-35.4813,-19.8599,1.924
-0.5036,-0.503697,0.120077,0.115329,-0,3.02792e-46,0.00456459,0.000147023,0,-55,-0.531586,1.05977e-42,-35.6128,-19.8791,1.928
-0.5036,-0.503697,0.120095,0.115329,-0,2.01862e-46,0.00458172,0.000155597,0,-55,-0.531586,7.06515e-43,-35.7448,-19.9176,1.932
-0.5036,-0.503697,0.120114,0.11533,-0,1.34574e-46,0.00459888,0.000132522,0,-55,-0.531586,4.7101e-43,-35.88,-20.0986,1.936
-0.5036,-0.503697,0.120132,0.11533,-0,8.97162e-47,0.00461606,0.00014593,0,-56,-0.531586,3.14007e-43,-36.013,-20.1156,1.94
-0.5036,-0.503697,0.120151,0.115331,-0,5.98108e-47,0.00463327,0.000154869,0,-56,-0.531586,2.09338e-43,-36.1466,-20.1528,1.944
-0.5036,-0.503697,0.120169,0.115332,-0,3.98739e-47,0.0046505,0.000160828,0,-56,-0.531586,1.39559e-43,-36.2806,-20.2035,1.948
-0.5036,-0.503697,0.120188,0.115333,-0,2.65826e-47,0.00466776,0.000193591,0,-56,-0.531586,9.3039e-44,-36.4126,-20.1337,1.952
-0.5036,-0.503697,0.120207,0.115334,-0,1.77217e-47,0.00468504,0.000215434,0,-56,-0.531586,6.2026e-44,-36.5451,-20.1132,1.956
-0.5036,-0.503697,0.120225,0.115335,-0,1.18145e-47,0.00470234,0.000258786,0,-56,-0.531586,4.13507e-44,-36.6756,-19.996,1.96
-0.5036,-0.503697,0.120244,0.115337,-0,7.87632e-48,0.00471967,0.00034527,0,-56,-0.531586,2.75671e-44,-36.8014,-19.6848,1.964
-0.5036,-0.503697,0.120263,0.115339,-0,5.25088e-48,0.00473702,0.000374134,0,-56,-0.531586,1.83781e-44,-36.9303,-19.633,1.968
-0.5036,-0.503697,0.120282,0.11534,-0,3.50059e-48,0.0047544,0.000335796,0,-56,-0.531586,1.22521e-44,-37.0649,-19.8837,1.972
-0.5036,-0.503697,0.120301,0.115342,-0,2.33372e-48,0.0047718,0.000339027,0,-57,-0.531586,8.16804e-45,-37.1974,-19.9475,1.976
-0.5036,-0.503697,0.12032,0.115343,-0,1.55582e-48,0.00478922,0.000312391,0,-57,-0.531586,5.44536e-45,-37.333,-20.1457,1.98
-0.5036,-0.503697,0.120339,0.115343,-0,1.03721e-48,0.00480667,0.000265843,0,-57,-0.531586,3.63024e-45,-37.4718,-20.4337,1.984
-0.5036,-0.503697,0.120359,0.115344,-0,6.91474e-49,0.00482414,0.000206019,0,-58,-0.531586,2.42016e-45,-37.6137,-20.7816,1.988
-0.5036,-0.503697,0.120378,0.115344,-0,4.60983e-49,0.00484164,0.000166137,0,-58,-0.531586,1.61344e-45,-37.7561,-21.0398,1.992
-0.5036,-0.503697,0.120397,0.115344,-0,3.07322e-49,0.00485916,0.000139549,0,-59,-0.531586,1.07563e-45,-37.899,-21.2383,1.996
-0.5036,-0.503697,0.120417,0.115344,-0,2.04881e-49,0.0048767,9.30327e-05,0,-59,-0.531586,7.17084e-46,-38.045,-21.5265,2
-0.5036,-0.503697,0.120436,0.115344,-0,1.36587e-49,0.00489427,6.20218e-05,0,-59,-0.531586,4.78056e-46,-38.1916,-21.7451,2.004
-0.5036,-0.503697,0.120456,0.115344,-0,9.10583e-50,0.00491186,4.13479e-05,0,-60,-0.531586,3.18704e-46,-38.3387,-21.9173,2.008
-0.5036,-0.503697,0.120476,0.115344,-0,6.07055e-50,0.00492948,2.75652e-05,0,-60,-0.531586,2.12469e-46,-38.4863,-22.0586,2.012
-0.5036,-0.503697,0.120496,0.115345,-0,4.04704e-50,0.00494712,4.71677e-05,0,-60,-0.531586,1.41646e-46,-38.6319,-22.0498,2.016
-0.5036,-0.503697,0.120515,0.115345,-0,2.69802e-50,0.00496478,3.14452e-05,0,-60,-0.531586,9.44308e-47,-38.7805,-22.2,2.02
-0.5036,-0.503697,0.120535,0.115345,-0,1.79868e-50,0.00498247,4.97544e-05,0,-61,-0.531586,6.29539e-47,-38.9271,-22.1972,2.024
-0.5036,-0.503697,0.120555,0.115346,-0,1.19912e-50,0.00500018,9.07514e-05,0,-61,-0.531586,4.19693e-47,-39.0717,-22.0924,2.028
-0.5036,-0.503697,0.120575,0.115346,-0,7.99415e-51,0.00501791,6.0501e-05,0,-61,-0.531586,2.79795e-47,-39.222,-22.3083,2.032
-0.5036,-0.503697,0.120595,0.115346,-0,5.32943e-51,0.00503567,9.79158e-05,0,-61,-0.531586,1.8653e-47,-39.3676,-22.2199,2.036
-0.5036,-0.503697,0.120616,0.115347,-0,3.55295e-51,0.00505345,9.40681e-05,0,-61,-0.531586,1.24353e-47,-39.5163,-22.3172,2.04
-0.5036,-0.503697,0.120636,0.115348,-0,2.36864e-51,0.00507125,0.000149085,0,-61,-0.531586,8.29022e-48,-39.6604,-22.1498,2.044
-0.5036,-0.503697,0.120656,0.115348,-0,1.57909e-51,0.00508908,0.000128181,0,-62,-0.531586,5.52682e-48,-39.8103,-22.324,2.048
-0.5036,-0.503697,0.120677,0.115349,-0,1.05273e-51,0.00510693,0.000143036,0,-62,-0.531586,3.68454e-48,-39.958,-22.3375,2.052
-0.5036,-0.503697,0.120697,0.115349,-0,7.01818e-52,0.0051248,0.000152939,0,-62,-0.531586,2.45636e-48,-40.1063,-22.3734,2.056
-0.5036,-0.503697,0.120718,0.11535,-0,4.67879e-52,0.0051427,0.00013075,0,-62,-0.531586,1.63758e-48,-40.2577,-22.5538,2.06
-0.5036,-0.503697,0.120738,0.11535,-0,3.11919e-52,0.00516062,0.000115958,0,-63,-0.531586,1.09172e-48,-40.4097,-22.701,2.064
-0.5036,-0.503697,0.120759,0.11535,-0,2.07946e-52,0.00517856,0.000106096,0,-63,-0.531586,7.27811e-49,-40.5622,-22.8261,2.068
-0.5036,-0.503697,0.12078,0.115351,-0,1.38631e-52,0.00519653,9.95217e-05,0,-63,-0.531586,4.85207e-49,-40.7152,-22.9365,2.072
-0.5036,-0.503697,0.1208,0.115351,-0,9.24205e-53,0.00521452,9.51387e-05,0,-63,-0.531586,3.23472e-49,-40.8688,-23.0372,2.076
-0.5036,-0.503697,0.120821,0.115352,-0,6.16136e-53,0.00523253,0.000121008,0,-64,-0.531586,2.15648e-49,-41.0203,-23.0019,2.08
-0.5036,-0.503697,0.120842,0.115352,-0,4.10758e-53,0.00525057,0.000109463,0,-64,-0.531586,1.43765e-49,-41.175,-23.135,2.084
-0.5036,-0.503697,0.120863,0.115353,-0,2.73838e-53,0.00526862,0.000130557,0,-64,-0.531586,9.58435e-50,-41.3276,-23.1213,2.088
-0.5036,-0.503697,0.120884,0.115354,-0,1.82559e-53,0.00528671,0.00014462,0,-64,-0.531586,6.38956e-50,-41.4807,-23.1394,2.092
-0.5036,-0.503697,0.120906,0.115354,-0,1.21706e-53,0.00530481,0.000153995,0,-64,-0.531586,4.25971e-50,-41.6344,-23.1787,2.096
-0.5036,-0.503697,0.120927,0.115355,-0,8.11373e-54,0.00532294,0.000160245,0,-65,-0.531586,2.83981e-50,-41.7886,-23.2321,2.1
-0.5036,-0.503697,0.120948,0.115356,-0,5.40915e-54,0.00534108,0.000164412,0,-65,-0.531586,1.8932e-50,-41.9434,-23.295,2.104
-0.5036,-0.503697,0.12097,0.115356,-0,3.6061e-54,0.00535926,0.00016719,0,-65,-0.531586,1.26214e-50,-42.0987,-23.3643,2.108
-0.5036,-0.503697,0.120991,0.115357,-0,2.40407e-54,0.00537745,0.000169042,0,-65,-0.531586,8.41424e-51,-42.2546,-23.4378,2.112
-0.5036,-0.503697,0.121013,0.115358,-0,1.60271e-54,0.00539567,0.000199067,0,-65,-0.531586,5.60949e-51,-42.4084,-23.3847,2.116
-0.5036,-0.503697,0.121034,0.115358,-0,1.06847e-54,0.00541391,0.000161502,0,-66,-0.531586,3.73966e-51,-42.568,-23.6358,2.12
-0.5036,-0.503697,0.121056,0.115359,-0,7.12317e-55,0.00543217,0.00016525,0,-66,-0.531586,2.49311e-51,-42.7255,-23.7011,2.124
-0.5036,-0.503697,0.121078,0.115359,-0,4.74878e-55,0.00545046,0.000138958,0,-66,-0.531586,1.66207e-51,-42.8861,-23.9017,2.128
-0.5036,-0.503697,0.121099,0.11536,-0,3.16585e-55,0.00546876,0.00015022,0,-66,-0.531586,1.10805e-51,-43.0448,-23.9334,2.132
-0.5036,-0.503697,0.121121,0.115361,-0,2.11057e-55,0.00548709,0.000128938,0,-67,-0.531586,7.38699e-52,-43.2065,-24.1117,2.136
-0.5036,-0.503697,0.121143,0.115361,-0,1.40705e-55,0.00550545,0.000114749,0,-67,-0.531586,4.92466e-52,-43.3688,-24.2581,2.14
-0.5036,-0.503697,0.121165,0.115361,-0,9.3803e-56,0.00552382,0.000105291,0,-67,-0.531586,3.28311e-52,-43.5316,-24.3834,2.144
-0.5036,-0.503697,0.121188,0.115362,-0,6.25353e-56,0.00554222,9.89846e-05,0,-68,-0.531586,2.18874e-52,-43.695,-24.4945,2.148
-0.5036,-0.503697,0.12121,0.115363,-0,4.16902e-56,0.00556064,0.000152363,0,-68,-0.531586,1.45916e-52,-43.8538,-24.3372,2.152
-0.5036,-0.503697,0.121232,0.115363,-0,2.77935e-56,0.00557908,0.000101575,0,-68,-0.531586,9.72772e-53,-44.0209,-24.6488,2.156
-0.5036,-0.503697,0.121254,0.115364,-0,1.8529e-56,0.00559754,0.000154089,0,-68,-0.531586,6.48515e-53,-44.1808,-24.4955,2.16
-0.5036,-0.503697,0.121277,0.115364,-0,1.23527e-56,0.00561603,0.000102726,0,-69,-0.531586,4.32343e-53,-44.349,-24.8099,2.164
-0.5036,-0.503697,0.121299,0.115364,-0,8.23511e-57,0.00563453,9.72751e-05,0,-69,-0.531586,2.88229e-53,-44.5152,-24.9177,2.168
-0.5036,-0.503697,0.121322,0.115364,-0,5.49007e-57,0.00565306,9.3641e-05,0,-69,-0.531586,1.92152e-53,-44.6819,-25.0174,2.172
-0.5036,-0.503697,0.121345,0.115365,-0,3.66005e-57,0.00567162,0.000120009,0,-69,-0.531586,1.28102e-53,-44.8466,-24.9822,2.176
-0.5036,-0.503697,0.121367,0.115365,-0,2.44003e-57,0.00569019,0.000108797,0,-70,-0.531586,8.54011e-54,-45.0144,-25.1163,2.18
-0.5036,-0.503697,0.12139,0.115366,-0,1.62669e-57,0.00570879,0.000130113,0,-70,-0.531586,5.69341e-54,-45.1802,-25.104,2.184
-0.5036,-0.503697,0.121413,0.115367,-0,1.08446e-57,0.0057274,0.000144324,0,-70,-0.531586,3.7956e-54,-45.3466,-25.1239,2.188
-0.5036,-0.503697,0.121436,0.115367,-0,7.22972e-58,0.00574604,0.000153798,0,-70,-0.531586,2.5304e-54,-45.5135,-25.1651,2.192
-0.5036,-0.503697,0.121459,0.115368,-0,4.81982e-58,0.0057647,0.000188905,0,-70,-0.531586,1.68694e-54,-45.6784,-25.0911,2.196
-0.5036,-0.503697,0.121482,0.11537,-0,3.21321e-58,0.00578339,0.000269891,0,-70,-0.531586,1.12462e-54,-45.8386,-24.8107,2.2
-0.5036,-0.503697,0.121505,0.115371,-0,2.14214e-58,0.00580209,0.000237509,0,-71,-0.531586,7.49749e-55,-46.0072,-25.0406,2.204
-0.5036,-0.503697,0.121528,0.115372,-0,1.42809e-58,0.00582082,0.000273503,0,-71,-0.531586,4.99833e-55,-46.1712,-24.9629,2.208
-0.5036,-0.503697,0.121552,0.115373,-0,9.52062e-59,0.00583957,0.000268708,0,-71,-0.531586,3.33222e-55,-46.3383,-25.0689,2.212
-0.5036,-0.503697,0.121575,0.115374,-0,6.34708e-59,0.00585833,0.000265512,0,-71,-0.531586,2.22148e-55,-46.506,-25.1677,2.216
-0.5036,-0.503697,0.121599,0.115376,-0,4.23139e-59,0.00587713,0.000320962,0,-71,-0.531586,1.48099e-55,-46.6691,-25.0027,2.22
-0.5036,-0.503697,0.121622,0.115377,-0,2.82093e-59,0.00589594,0.000271557,0,-72,-0.531586,9.87324e-56,-46.8405,-25.3097,2.224
-0.5036,-0.503697,0.121646,0.115378,-0,1.88062e-59,0.00591477,0.000267411,0,-72,-0.531586,6.58216e-56,-47.0099,-25.4131,2.228
-0.5036,-0.503697,0.121669,0.115378,-0,1.25374e-59,0.00593363,0.000235856,0,-72,-0.531586,4.38811e-56,-47.1825,-25.64,2.232
-0.5036,-0.503697,0.121693,0.115379,-0,8.3583e-60,0.0059525,0.000214819,0,-73,-0.531586,2.9254e-56,-47.3556,-25.8196,2.236
-0.5036,-0.503697,0.121717,0.11538,-0,5.5722e-60,0.0059714,0.000172004,0,-73,-0.531586,1.95027e-56,-47.5318,-26.0973,2.24
-0.5036,-0.503697,0.121741,0.11538,-0,3.7148e-60,0.00599032,0.00014346,0,-74,-0.531586,1.30018e-56,-47.7087,-26.3109,2.244
-0.5036,-0.503697,0.121765,0.11538,-0,2.47653e-60,0.00600926,9.564e-05,0,-74,-0.531586,8.66786e-57,-47.8887,-26.6113,2.248
-0.5036,-0.503697,0.121789,0.115381,-0,1.65102e-60,0.00602823,0.000150133,0,-74,-0.531586,5.77858e-57,-48.0615,-26.4514,2.252
-0.5036,-0.503697,0.121813,0.115381,-0,1.10068e-60,0.00604721,0.000128879,0,-74,-0.531586,3.85238e-57,-48.24,-26.6325,2.256
-0.5036,-0.503697,0.121837,0.115382,-0,7.33787e-61,0.00606621,0.000143501,0,-75,-0.531586,2.56826e-57,-48.4165,-26.6522,2.26
-0.5036,-0.503697,0.121862,0.115383,-0,4.89192e-61,0.00608524,0.000153249,0,-75,-0.531586,1.71217e-57,-48.5936,-26.6939,2.264
-0.5036,-0.503697,0.121886,0.115383,-0,3.26128e-61,0.00610428,0.000159748,0,-75,-0.531586,1.14145e-57,-48.7713,-26.7504,2.268
-0.5036,-0.503697,0.121911,0.115384,-0,2.17419e-61,0.00612335,0.000192872,0,-75,-0.531586,7.60965e-58,-48.9469,-26.6872,2.272
-0.5036,-0.503697,0.121935,0.115386,-0,1.44946e-61,0.00614244,0.000272536,0,-75,-0.531586,5.0731e-58,-49.1179,-26.4146,2.276
-0.5036,-0.503697,0.12196,0.115387,-0,9.66304e-62,0.00616155,0.000268063,0,-75,-0.531586,3.38207e-58,-49.2947,-26.5207,2.28
-0.5036,-0.503697,0.121984,0.115389,-0,6.44203e-62,0.00618068,0.000322663,0,-75,-0.531586,2.25471e-58,-49.4669,-26.3611,2.284
-0.5036,-0.503697,0.122009,0.115391,-0,4.29469e-62,0.00619983,0.000416645,0,-75,-0.531586,1.50314e-58,-49.6345,-26.0243,2.288
-0.5036,-0.503697,0.122034,0.115393,-0,2.86312e-62,0.006219,0.000392927,0,-76,-0.531586,1.00209e-58,-49.8104,-26.2173,2.292
-0.5036,-0.503697,0.122059,0.115395,-0,1.90875e-62,0.0062382,0.000434697,0,-76,-0.531586,6.68062e-59,-49.9817,-26.1157,2.296
-0.5036,-0.503697,0.122084,0.115397,-0,1.2725e-62,0.00625741,0.000491335,0,-76,-0.531586,4.45375e-59,-50.151,-25.9473,2.3
-0.5036,-0.503697,0.122109,0.115399,-0,8.48333e-63,0.00627664,0.000471511,0,-76,-0.531586,2.96917e-59,-50.326,-26.1231,2.304
-0.5036,-0.503697,0.122134,0.1154,-0,5.65555e-63,0.0062959,0.000371923,0,-77,-0.531586,1.97944e-59,-50.5095,-26.6579,2.308
-0.5036,-0.503697,0.122159,0.1154,-0,3.77037e-63,0.00631517,0.00030553,0,-77,-0.531586,1.31963e-59,-50.6934,-27.0434,2.312
-0.5036,-0.503697,0.122185,0.115401,-0,2.51358e-63,0.00633447,0.000232478,0,-78,-0.531586,8.79753e-60,-50.8806,-27.459,2.316
-0.5036,-0.503697,0.12221,0.115401,-0,1.67572e-63,0.00635379,0.000183776,0,-78,-0.531586,5.86502e-60,-51.0683,-27.765,2.32
-0.5036,-0.503697,0.122235,0.115401,-0,1.11715e-63,0.00637312,0.000151308,0,-79,-0.531586,3.91001e-60,-51.2566,-27.9982,2.324
-0.5036,-0.503697,0.122261,0.115402,-0,7.44764e-64,0.00639248,0.000158454,0,-79,-0.531586,2.60668e-60,-51.4429,-28.0531,2.328
-0.5036,-0.503697,0.122287,0.115402,-0,4.9651e-64,0.00641186,0.000105636,0,-80,-0.531586,1.73778e-60,-51.635,-28.378,2.332
-0.5036,-0.503697,0.122312,0.115402,-0,3.31006e-64,0.00643126,9.92149e-05,0,-80,-0.531586,1.15852e-60,-51.8251,-28.4942,2.336
-0.5036,-0.503697,0.122338,0.115403,-0,2.20671e-64,0.00645068,9.49342e-05,0,-80,-0.531586,7.72348e-61,-52.0157,-28.6008,2.34
-0.5036,-0.503697,0.122364,0.115403,-0,1.47114e-64,0.00647011,9.20804e-05,0,-80,-0.531586,5.14899e-61,-52.2069,-28.7012,2.344
-0.5036,-0.503697,0.12239,0.115403,-0,9.8076e-65,0.00648957,6.13869e-05,0,-81,-0.531586,3.43266e-61,-52.4013,-28.9268,2.348
-0.5036,-0.503697,0.122416,0.115403,-0,6.5384e-65,0.00650905,6.97155e-05,0,-81,-0.531586,2.28844e-61,-52.5937,-28.977,2.352
-0.5036,-0.503697,0.122442,0.115403,-0,4.35893e-65,0.00652855,4.6477e-05,0,-81,-0.531586,1.52563e-61,-52.7893,-29.1693,2.356
-0.5036,-0.503697,0.122468,0.115404,-0,2.90595e-65,0.00654807,5.97756e-05,0,-82,-0.531586,1.01708e-61,-52.9828,-29.1973,2.36
-0.5036,-0.503697,0.122494,0.115404,-0,1.9373e-65,0.00656761,6.86413e-05,0,-82,-0.531586,6.78056e-62,-53.177,-29.2454,2.364
-0.5036,-0.503697,0.122521,0.115404,-0,1.29154e-65,0.00658717,7.45518e-05,0,-82,-0.531586,4.52037e-62,-53.3717,-29.3068,2.368
-0.5036,-0.503697,0.122547,0.115405,-0,8.61024e-66,0.00660675,0.000107283,0,-82,-0.531586,3.01358e-62,-53.5644,-29.2476,2.372
-0.5036,-0.503697,0.122573,0.115405,-0,5.74016e-66,0.00662635,7.1522e-05,0,-83,-0.531586,2.00905e-62,-53.7629,-29.4967,2.376
-0.5036,-0.503697,0.1226,0.115405,-0,3.82677e-66,0.00664597,7.64723e-05,0,-83,-0.531586,1.33937e-62,-53.9594,-29.5627,2.38
-0.5036,-0.503697,0.122627,0.115406,-0,2.55118e-66,0.00666561,0.000108563,0,-83,-0.531586,8.92913e-63,-54.1539,-29.5067,2.384
-0.5036,-0.503697,0.122653,0.115408,-0,1.70079e-66,0.00668527,0.000187539,0,-83,-0.531586,5.95276e-63,-54.3438,-29.2398,2.388
-0.5036,-0.503697,0.12268,0.115409,-0,1.13386e-66,0.00670495,0.000211399,0,-83,-0.531586,3.9685e-63,-54.5369,-29.221,2.392
-0.5036,-0.503697,0.122707,0.115409,-0,7.55905e-67,0.00672465,0.000169724,0,-84,-0.531586,2.64567e-63,-54.7357,-29.4972,2.396
-0.5036,-0.503697,0.122734,0.11541,-0,5.03937e-67,0.00674437,0.000199522,0,-84,-0.531586,1.76378e-63,-54.93,-29.4518,2.4
-0.5036,-0.503697,0.122761,0.115411,-0,3.35958e-67,0.0067641,0.000219387,0,-84,-0.531586,1.17585e-63,-55.1249,-29.4512,2.404
-0.5036,-0.503697,0.122788,0.115412,-0,2.23972e-67,0.00678386,0.00020384,0,-84,-0.531586,7.83902e-64,-55.3229,-29.6101,2.408
-0.5036,-0.503697,0.122815,0.115412,-0,1.49315e-67,0.00680364,0.000193475,0,-85,-0.531586,5.22601e-64,-55.5215,-29.7457,2.412
-0.5036,-0.503697,0.122842,0.115414,-0,9.95431e-68,0.00682344,0.000244147,0,-85,-0.531586,3.48401e-64,-55.7156,-29.6068,2.416
-0.5036,-0.503697,0.12287,0.115414,-0,6.63621e-68,0.00684325,0.000191556,0,-85,-0.531586,2.32267e-64,-55.918,-29.9326,2.42
-0.5036,-0.503697,0.122897,0.115415,-0,4.42414e-68,0.00686309,0.000214077,0,-86,-0.531586,1.54845e-64,-56.1158,-29.9206,2.424
-0.5036,-0.503697,0.122925,0.115416,-0,2.94943e-68,0.00688294,0.0002003,0,-86,-0.531586,1.0323e-64,-56.3168,-30.0719,2.428
-0.5036,-0.503697,0.122952,0.115417,-0,1.96628e-68,0.00690282,0.000219906,0,-86,-0.531586,6.88199e-65,-56.5158,-30.0731,2.432
-0.5036,-0.503697,0.12298,0.115418,-0,1.31086e-68,0.00692271,0.000204186,0,-86,-0.531586,4.58799e-65,-56.718,-30.2334,2.436
-0.5036,-0.503697,0.123008,0.115418,-0,8.73904e-69,0.00694263,0.000193706,0,-87,-0.531586,3.05866e-65,-56.9208,-30.3701,2.44
-0.5036,-0.503697,0.123035,0.115419,-0,5.82603e-69,0.00696256,0.00021551,0,-87,-0.531586,2.03911e-65,-57.1216,-30.3617,2.444
-0.5036,-0.503697,0.123063,0.11542,-0,3.88402e-69,0.00698251,0.000172464,0,-87,-0.531586,1.35941e-65,-57.3282,-30.6452,2.448
-0.5036,-0.503697,0.123091,0.115421,-0,2.58934e-69,0.00700248,0.000201349,0,-88,-0.531586,9.06271e-66,-57.5302,-30.6051,2.452
-0.5036,-0.503697,0.123119,0.115421,-0,1.72623e-69,0.00702247,0.000191814,0,-88,-0.531586,6.0418e-66,-57.7354,-30.738,2.456
-0.5036,-0.503697,0.123148,0.115422,-0,1.15082e-69,0.00704248,0.000156667,0,-88,-0.531586,4.02787e-66,-57.9438,-30.9862,2.46
-0.5036,-0.503697,0.123176,0.115422,-0,7.67213e-70,0.00706251,0.000162027,0,-89,-0.531586,2.68525e-66,-58.1502,-31.0522,2.464
-0.5036,-0.503697,0.123204,0.115423,-0,5.11475e-70,0.00708256,0.000194391,0,-89,-0.531586,1.79016e-66,-58.3546,-30.9968,2.468
-0.5036,-0.503697,0.123232,0.115423,-0,3.40984e-70,0.00710263,0.000129594,0,-89,-0.531586,1.19344e-66,-58.5673,-31.3786,2.472
-0.5036,-0.503697,0.123261,0.115424,-0,2.27322e-70,0.00712271,0.000143978,0,-90,-0.531586,7.95628e-67,-58.7755,-31.4043,2.476
-0.5036,-0.503697,0.123289,0.115424,-0,1.51548e-70,0.00714282,9.59851e-05,0,-90,-0.531586,5.30419e-67,-58.9895,-31.7107,2.48
-0.5036,-0.503697,0.123318,0.115425,-0,1.01032e-70,0.00716294,0.000150363,0,-90,-0.531586,3.53613e-67,-59.1963,-31.5566,2.484
-0.5036,-0.503697,0.123347,0.115425,-0,6.73548e-71,0.00718308,0.000100242,0,-91,-0.531586,2.35742e-67,-59.4115,-31.8728,2.488
-0.5036,-0.503697,0.123375,0.115425,-0,4.49032e-71,0.00720324,6.68279e-05,0,-91,-0.531586,1.57161e-67,-59.6273,-32.1139,2.492
-0.5036,-0.503697,0.123404,0.115426,-0,2.99355e-71,0.00722342,0.000102134,0,-91,-0.531586,1.04774e-67,-59.8385,-32.0458,2.496
-0.5036,-0.503697,0.123433,0.115425,-0,1.9957e-71,0.00724362,3.92983e-05,0,-92,-0.531586,6.98494e-68,-60.0581,-32.4195,2.5
-0.5036,-0.503697,0.123462,0.115425,-0,1.33047e-71,0.00726384,2.61989e-05,0,-92,-0.531586,4.65663e-68,-60.2758,-32.5694,2.504
-0.5036,-0.503697,0.123491,0.115426,-0,8.86977e-72,0.00728407,4.62568e-05,0,-93,-0.531586,3.10442e-68,-60.4914,-32.5702,2.508
-0.5036,-0.503697,0.123521,0.115426,-0,5.91318e-72,0.00730433,3.08379e-05,0,-93,-0.531586,2.06961e-68,-60.7102,-32.7307,2.512
-0.5036,-0.503697,0.12355,0.115426,-0,3.94212e-72,0.0073246,2.05586e-05,0,-93,-0.531586,1.37974e-68,-60.9296,-32.8682,2.516
-0.5036,-0.503697,0.123579,0.115426,-0,2.62808e-72,0.00734489,4.24967e-05,0,-94,-0.531586,9.19828e-69,-61.1471,-32.8608,2.52
-0.5036,-0.503697,0.123609,0.115426,-0,1.75205e-72,0.0073652,2.83311e-05,0,-94,-0.531586,6.13218e-69,-61.3677,-33.0159,2.524
-0.5036,-0.503697,0.123638,0.115426,-0,1.16804e-72,0.00738553,1.88874e-05,0,-94,-0.531586,4.08812e-69,-61.589,-33.1499,2.528
-0.5036,-0.503697,0.123668,0.115427,-0,7.7869e-73,0.00740588,4.13825e-05,0,-94,-0.531586,2.72542e-69,-61.8083,-33.1402,2.532
-0.5036,-0.503697,0.123697,0.115427,-0,5.19127e-73,0.00742624,5.63793e-05,0,-95,-0.531586,1.81694e-69,-62.0282,-33.1644,2.536
-0.5036,-0.503697,0.123727,0.115427,-0,3.46084e-73,0.00744663,6.63771e-05,0,-95,-0.531586,1.2113e-69,-62.2487,-33.2111,2.54
-0.5036,-0.503697,0.123757,0.115428,-0,2.30723e-73,0.00746703,7.30423e-05,0,-95,-0.531586,8.0753e-70,-62.4698,-33.2729,2.544
-0.5036,-0.503697,0.123787,0.115428,-0,1.53815e-73,0.00748745,7.74858e-05,0,-96,-0.531586,5.38354e-70,-62.6915,-33.3448,2.548
-0.5036,-0.503697,0.123817,0.115428,-0,1.02544e-73,0.00750789,8.04481e-05,0,-96,-0.531586,3.58902e-70,-62.9139,-33.4235,2.552
-0.5036,-0.503697,0.123847,0.115429,-0,6.83624e-74,0.00752834,0.000140005,0,-96,-0.531586,2.39268e-70,-63.1316,-33.2475,2.556
-0.5036,-0.503697,0.123877,0.115429,-0,4.55749e-74,0.00754882,9.33366e-05,0,-96,-0.531586,1.59512e-70,-63.3578,-33.5497,2.56
-0.5036,-0.503697,0.123907,0.115429,-0,3.03833e-74,0.00756931,6.22244e-05,0,-97,-0.531586,1.06341e-70,-63.5846,-33.7819,2.564
-0.5036,-0.503697,0.123938,0.11543,-0,2.02555e-74,0.00758982,7.02738e-05,0,-97,-0.531586,7.08943e-71,-63.8093,-33.838,2.568
-0.5036,-0.503697,0.123968,0.11543,-0,1.35037e-74,0.00761035,4.68492e-05,0,-98,-0.531586,4.72629e-71,-64.0374,-34.0358,2.572
-0.5036,-0.503697,0.123998,0.11543,-0,9.00245e-75,0.0076309,3.12328e-05,0,-98,-0.531586,3.15086e-71,-64.266,-34.1985,2.576
-0.5036,-0.503697,0.124029,0.11543,-0,6.00163e-75,0.00765146,4.96128e-05,0,-98,-0.531586,2.10057e-71,-64.4926,-34.2083,2.58
-0.5036,-0.503697,0.12406,0.11543,-0,4.00109e-75,0.00767204,3.30752e-05,0,-99,-0.531586,1.40038e-71,-64.7225,-34.3754,2.584
-0.5036,-0.503697,0.12409,0.11543,-0,2.66739e-75,0.00769264,2.20501e-05,0,-99,-0.531586,9.33588e-72,-64.9529,-34.5177,2.588
-0.5036,-0.503697,0.124121,0.11543,-0,1.77826e-75,0.00771326,4.3491e-05,0,-99,-0.531586,6.22392e-72,-65.1814,-34.514,2.592
-0.5036,-0.503697,0.124152,0.11543,-0,1.18551e-75,0.0077339,2.8994e-05,0,-100,-0.531586,4.14928e-72,-65.4131,-34.6721,2.596
-0.5036,-0.503697,0.124183,0.115431,-0,7.90339e-76,0.00775455,4.81203e-05,0,-100,-0.531586,2.76619e-72,-65.6429,-34.6789,2.6
-0.5036,-0.503697,0.124214,0.115431,-0,5.26892e-76,0.00777522,6.08711e-05,0,-100,-0.531586,1.84412e-72,-65.8732,-34.7146,2.604
-0.5036,-0.503697,0.124245,0.115432,-0,3.51262e-76,0.00779591,9.81626e-05,0,-100,-0.531586,1.22942e-72,-66.1016,-34.6399,2.608
-0.5036,-0.503697,0.124276,0.115432,-0,2.34174e-76,0.00781662,9.42326e-05,0,-101,-0.531586,8.19611e-73,-66.3332,-34.7507,2.612
-0.5036,-0.503697,0.124308,0.115432,-0,1.56116e-76,0.00783734,9.16127e-05,0,-101,-0.531586,5.46407e-73,-66.5654,-34.8558,2.616
-0.5036,-0.503697,0.124339,0.115433,-0,1.04078e-76,0.00785808,8.98661e-05,0,-101,-0.531586,3.64271e-73,-66.7983,-34.957,2.62
-0.5036,-0.503697,0.124371,0.115433,-0,6.9385e-77,0.00787884,0.000117493,0,-101,-0.531586,2.42848e-73,-67.0291,-34.9261,2.624
-0.5036,-0.503697,0.124402,0.115433,-0,4.62567e-77,0.00789962,4.95374e-05,0,-102,-0.531586,1.61898e-73,-67.2684,-35.3254,2.628
-0.5036,-0.503697,0.124434,0.115433,-0,3.08378e-77,0.00792041,6.18159e-05,0,-102,-0.531586,1.07932e-73,-67.5031,-35.3637,2.632
-0.5036,-0.503697,0.124466,0.115433,-0,2.05585e-77,0.00794122,4.12106e-05,0,-103,-0.531586,7.19548e-74,-67.741,-35.5501,2.636
-0.5036,-0.503697,0.124497,0.115434,-0,1.37057e-77,0.00796205,5.62647e-05,0,-103,-0.531586,4.79699e-74,-67.977,-35.576,2.64
-0.5036,-0.503697,0.124529,0.115434,-0,9.13712e-78,0.0079829,6.63007e-05,0,-103,-0.531586,3.19799e-74,-68.2136,-35.6247,2.644
-0.5036,-0.503697,0.124561,0.115434,-0,6.09141e-78,0.00800376,7.29914e-05,0,-104,-0.531586,2.132e-74,-68.4508,-35.6885,2.648
-0.5036,-0.503697,0.124593,0.115435,-0,4.06094e-78,0.00802464,7.74518e-05,0,-104,-0.531586,1.42133e-74,-68.6886,-35.7624,2.652
-0.5036,-0.503697,0.124625,0.115435,-0,2.7073e-78,0.00804554,0.000109216,0,-104,-0.531586,9.47553e-75,-68.9245,-35.7135,2.656
-0.5036,-0.503697,0.124658,0.115436,-0,1.80486e-78,0.00806645,0.000130393,0,-104,-0.531586,6.31702e-75,-69.161,-35.7123,2.66
-0.5036,-0.503697,0.12469,0.115435,-0,1.20324e-78,0.00808739,2.93467e-05,0,-105,-0.531586,4.21135e-75,-69.4085,-36.2612,2.664
-0.5036,-0.503697,0.124722,0.115437,-0,8.02162e-79,0.00810834,0.000134728,0,-105,-0.531586,2.80757e-75,-69.6411,-35.8812,2.668
-0.5036,-0.503697,0.124755,0.115437,-0,5.34774e-79,0.0081293,8.98188e-05,0,-106,-0.531586,1.87171e-75,-69.8846,-36.1777,2.672
-0.5036,-0.503697,0.124787,0.115437,-0,3.56516e-79,0.00815028,5.98792e-05,0,-106,-0.531586,1.24781e-75,-70.1288,-36.4068,2.676
-0.5036,-0.503697,0.12482,0.115437,-0,2.37678e-79,0.00817128,6.87104e-05,0,-106,-0.531586,8.31871e-76,-70.371,-36.4616,2.68
-0.5036,-0.503697,0.124853,0.115437,-0,1.58452e-79,0.0081923,4.58069e-05,0,-107,-0.531586,5.54581e-76,-70.6165,-36.6592,2.684
-0.5036,-0.503697,0.124886,0.115438,-0,1.05634e-79,0.00821333,5.93289e-05,0,-107,-0.531586,3.69721e-76,-70.86,-36.693,2.688
-0.5036,-0.503697,0.124918,0.115438,-0,7.0423e-80,0.00823438,3.95526e-05,0,-107,-0.531586,2.4648e-76,-71.1067,-36.8767,2.692
-0.5036,-0.503697,0.124951,0.115437,-0,4.69486e-80,0.00825545,-2.42254e-06,0,-108,-0.531586,1.6432e-76,-71.3567,-37.1604,2.696
-0.5036,-0.503697,0.124984,0.115438,-0,3.12991e-80,0.00827654,5.59668e-05,0,-108,-0.531586,1.09547e-76,-71.5994,-36.9926,2.7
-0.5036,-0.503697,0.125018,0.115438,-0,2.08661e-80,0.00829764,3.73112e-05,0,-109,-0.531586,7.30312e-77,-71.8481,-37.1715,2.704
-0.5036,-0.503697,0.125051,0.115438,-0,1.39107e-80,0.00831875,2.48741e-05,0,-109,-0.531586,4.86875e-77,-72.0973,-37.3225,2.708
-0.5036,-0.503697,0.125084,0.115438,-0,9.27381e-81,0.00833989,4.53737e-05,0,-109,-0.531586,3.24583e-77,-72.3446,-37.3253,2.712
-0.5036,-0.503697,0.125118,0.115438,-0,6.18254e-81,0.00836104,3.02491e-05,0,-110,-0.531586,2.16389e-77,-72.5951,-37.4886,2.716
-0.5036,-0.503697,0.125151,0.115439,-0,4.12169e-81,0.00838221,7.77479e-05,0,-110,-0.531586,1.44259e-77,-72.8411,-37.3701,2.72
-0.5036,-0.503697,0.125185,0.115439,-0,2.74779e-81,0.00840339,2.3041e-05,0,-110,-0.531586,9.61728e-78,-73.0954,-37.7116,2.724
-0.5036,-0.503697,0.125218,0.115439,-0,1.83186e-81,0.00842459,1.53607e-05,0,-111,-0.531586,6.41152e-78,-73.3479,-37.8415,2.728
-0.5036,-0.503697,0.125252,0.115439,-0,1.22124e-81,0.00844581,1.02405e-05,0,-111,-0.531586,4.27435e-78,-73.6009,-37.96,2.732
-0.5036,-0.503697,0.125286,0.115439,-0,8.14161e-82,0.00846704,3.56179e-05,0,-111,-0.531586,2.84956e-78,-73.852,-37.9414,2.736
-0.5036,-0.503697,0.12532,0.11544,-0,5.42774e-82,0.00848829,8.13271e-05,0,-111,-0.531586,1.89971e-78,-74.1012,-37.8313,2.74
-0.5036,-0.503697,0.125354,0.115439,-0,3.61849e-82,0.00850955,2.54272e-05,0,-112,-0.531586,1.26647e-78,-74.3587,-38.1786,2.744
-0.5036,-0.503697,0.125388,0.11544,-0,2.41233e-82,0.00853084,0.000103324,0,-112,-0.531586,8.44315e-79,-74.6066,-37.9238,2.748
-0.5036,-0.503697,0.125422,0.11544,-0,1.60822e-82,0.00855214,4.00919e-05,0,-113,-0.531586,5.62877e-79,-74.8654,-38.3042,2.752
-0.5036,-0.503697,0.125456,0.115441,-0,1.07215e-82,0.00857345,0.000113101,0,-113,-0.531586,3.75251e-79,-75.1145,-38.0716,2.756
-0.5036,-0.503697,0.125491,0.115441,-0,7.14764e-83,0.00859478,7.54005e-05,0,-113,-0.531586,2.50168e-79,-75.372,-38.3372,2.76
-0.5036,-0.503697,0.125525,0.115441,-0,4.7651e-83,0.00861613,7.90579e-05,0,-114,-0.531586,1.66778e-79,-75.6276,-38.4168,2.764
-0.5036,-0.503697,0.12556,0.115442,-0,3.17673e-83,0.00863749,0.000139078,0,-114,-0.531586,1.11186e-79,-75.8786,-38.2429,2.768
-0.5036,-0.503697,0.125594,0.115442,-0,2.11782e-83,0.00865887,9.27187e-05,0,-114,-0.531586,7.41237e-80,-76.1381,-38.5477,2.772
-0.5036,-0.503697,0.125629,0.115443,-0,1.41188e-83,0.00868026,0.000119394,0,-114,-0.531586,4.94158e-80,-76.393,-38.5239,2.776
-0.5036,-0.503697,0.125664,0.115443,-0,9.41253e-84,0.00870167,0.000108387,0,-115,-0.531586,3.29439e-80,-76.6511,-38.6698,2.78
-0.5036,-0.503697,0.125698,0.115444,-0,6.27502e-84,0.0087231,0.000101049,0,-115,-0.531586,2.19626e-80,-76.9099,-38.7992,2.784
-0.5036,-0.503697,0.125733,0.115444,-0,4.18335e-84,0.00874454,9.61569e-05,0,-116,-0.531586,1.46417e-80,-77.1693,-38.9177,2.788
-0.5036,-0.503697,0.125768,0.115444,-0,2.7889e-84,0.008766,9.28955e-05,0,-116,-0.531586,9.76115e-81,-77.4294,-39.029,2.792
-0.5036,-0.503697,0.125803,0.115444,-0,1.85927e-84,0.00878748,6.19304e-05,0,-116,-0.531586,6.50743e-81,-77.6927,-39.265,2.796
-0.5036,-0.503697,0.125839,0.115445,-0,1.23951e-84,0.00880897,7.00778e-05,0,-117,-0.531586,4.33829e-81,-77.9541,-39.325,2.8
-0.5036,-0.503697,0.125874,0.115445,-0,8.26341e-85,0.00883047,4.67186e-05,0,-117,-0.531586,2.89219e-81,-78.2186,-39.5269,2.804
-0.5036,-0.503697,0.125909,0.115445,-0,5.50894e-85,0.00885199,5.99366e-05,0,-118,-0.531586,1.92813e-81,-78.4813,-39.5643,2.808
-0.5036,-0.503697,0.125945,0.115446,-0,3.67262e-85,0.00887353,6.87487e-05,0,-118,-0.531586,1.28542e-81,-78.7446,-39.6215,2.812
-0.5036,-0.503697,0.12598,0.115446,-0,2.44842e-85,0.00889509,4.58325e-05,0,-118,-0.531586,8.56946e-82,-79.0111,-39.8216,2.816
-0.5036,-0.503697,0.126016,0.115446,-0,1.63228e-85,0.00891665,5.93459e-05,0,-119,-0.531586,5.71297e-82,-79.2757,-39.8579,2.82
-0.5036,-0.503697,0.126052,0.115446,-0,1.08819e-85,0.00893824,6.83549e-05,0,-119,-0.531586,3.80865e-82,-79.5409,-39.9145,2.824
-0.5036,-0.503697,0.126087,0.115447,-0,7.25457e-86,0.00895984,7.43608e-05,0,-119,-0.531586,2.5391e-82,-79.8068,-39.9846,2.828
-0.5036,-0.503697,0.126123,0.115447,-0,4.83638e-86,0.00898145,7.83648e-05,0,-120,-0.531586,1.69273e-82,-80.0733,-40.0639,2.832
-0.5036,-0.503697,0.126159,0.115447,-0,3.22425e-86,0.00900308,8.10341e-05,0,-120,-0.531586,1.12849e-82,-80.3405,-40.1492,2.836
-0.5036,-0.503697,0.126195,0.115448,-0,2.1495e-86,0.00902473,8.28137e-05,0,-120,-0.531586,7.52325e-83,-80.6083,-40.2386,2.84
-0.5036,-0.503697,0.126231,0.115448,-0,1.433e-86,0.00904639,5.52091e-05,0,-121,-0.531586,5.0155e-83,-80.8794,-40.4603,2.844
-0.5036,-0.503697,0.126268,0.115448,-0,9.55334e-87,0.00906807,6.5597e-05,0,-121,-0.531586,3.34367e-83,-81.1485,-40.5111,2.848
-0.5036,-0.503697,0.126304,0.115449,-0,6.36889e-87,0.00908976,0.000101313,0,-121,-0.531586,2.22911e-83,-81.4157,-40.448,2.852
-0.5036,-0.503697,0.12634,0.115449,-0,4.24593e-87,0.00911147,9.6333e-05,0,-122,-0.531586,1.48607e-83,-81.6861,-40.5681,2.856
-0.5036,-0.503697,0.126377,0.115449,-0,2.83062e-87,0.00913319,9.3013e-05,0,-122,-0.531586,9.90717e-84,-81.9572,-40.6808,2.86
-0.5036,-0.503697,0.126414,0.11545,-0,1.88708e-87,0.00915493,9.07996e-05,0,-123,-0.531586,6.60478e-84,-82.229,-40.7886,2.864
-0.5036,-0.503697,0.12645,0.11545,-0,1.25805e-87,0.00917668,6.0533e-05,0,-123,-0.531586,4.40319e-84,-82.5039,-41.0227,2.868
-0.5036,-0.503697,0.126487,0.11545,-0,8.38702e-88,0.00919845,6.91463e-05,0,-123,-0.531586,2.93546e-84,-82.777,-41.0818,2.872
-0.5036,-0.503697,0.126524,0.11545,-0,5.59135e-88,0.00922023,7.48884e-05,0,-124,-0.531586,1.95697e-84,-83.0507,-41.154,2.876
-0.5036,-0.503697,0.126561,0.115451,-0,3.72756e-88,0.00924203,7.87166e-05,0,-124,-0.531586,1.30465e-84,-83.325,-41.2349,2.88
-0.5036,-0.503697,0.126598,0.115451,-0,2.48504e-88,0.00926384,5.24777e-05,0,-125,-0.531586,8.69765e-85,-83.6026,-41.4511,2.884
-0.5036,-0.503697,0.126635,0.115451,-0,1.6567e-88,0.00928567,6.37761e-05,0,-125,-0.531586,5.79843e-85,-83.8782,-41.4985,2.888
-0.5036,-0.503697,0.126672,0.115452,-0,1.10446e-88,0.00930751,0.000100099,0,-125,-0.531586,3.86562e-85,-84.1519,-41.4333,2.892
-0.5036,-0.503697,0.126709,0.115452,-0,7.36309e-89,0.00932937,9.55237e-05,0,-125,-0.531586,2.57708e-85,-84.4289,-41.5523,2.896
-0.5036,-0.503697,0.126747,0.115452,-0,4.90873e-89,0.00935124,9.24734e-05,0,-126,-0.531586,1.71805e-85,-84.7065,-41.6644,2.9
-0.5036,-0.503697,0.126784,0.115452,-0,3.27248e-89,0.00937313,6.16489e-05,0,-126,-0.531586,1.14537e-85,-84.9874,-41.9017,2.904
-0.5036,-0.503697,0.126822,0.115453,-0,2.18166e-89,0.00939503,6.98902e-05,0,-127,-0.531586,7.6358e-86,-85.2663,-41.9631,2.908
-0.5036,-0.503697,0.126859,0.115453,-0,1.45444e-89,0.00941695,4.65935e-05,0,-127,-0.531586,5.09053e-86,-85.5485,-42.1666,2.912
-0.5036,-0.503697,0.126897,0.115453,-0,9.69625e-90,0.00943888,3.10623e-05,0,-128,-0.531586,3.39369e-86,-85.8313,-42.3352,2.916
-0.5036,-0.503697,0.126935,0.115453,-0,6.46417e-90,0.00946082,4.94991e-05,0,-128,-0.531586,2.26246e-86,-86.1122,-42.351,2.92
-0.5036,-0.503697,0.126973,0.115453,-0,4.30944e-90,0.00948278,6.17904e-05,0,-128,-0.531586,1.50831e-86,-86.3938,-42.3945,2.924
-0.5036,-0.503697,0.127011,0.115454,-0,2.87296e-90,0.00950476,9.87754e-05,0,-129,-0.531586,1.00554e-86,-86.6734,-42.3269,2.928
-0.5036,-0.503697,0.127049,0.115454,-0,1.91531e-90,0.00952675,6.58503e-05,0,-129,-0.531586,6.70358e-87,-86.9589,-42.574,2.932
-0.5036,-0.503697,0.127087,0.115454,-0,1.27687e-90,0.00954875,7.26911e-05,0,-129,-0.531586,4.46905e-87,-87.2425,-42.6423,2.936
-0.5036,-0.503697,0.127125,0.115455,-0,8.51248e-91,0.00957077,7.72517e-05,0,-130,-0.531586,2.97937e-87,-87.5267,-42.7208,2.94
-0.5036,-0.503697,0.127163,0.115455,-0,5.67499e-91,0.0095928,5.15011e-05,0,-130,-0.531586,1.98625e-87,-87.8141,-42.9359,2.944
-0.5036,-0.503697,0.127202,0.115455,-0,3.78333e-91,0.00961485,6.3125e-05,0,-131,-0.531586,1.32416e-87,-88.0996,-42.9828,2.948
-0.5036,-0.503697,0.12724,0.115455,-0,2.52222e-91,0.00963691,4.20833e-05,0,-131,-0.531586,8.82776e-88,-88.3884,-43.1767,2.952
-0.5036,-0.503697,0.127279,0.115455,-0,1.68148e-91,0.00965899,2.80556e-05,0,-132,-0.531586,5.88517e-88,-88.6778,-43.3392,2.956
-0.5036,-0.503697,0.127318,0.115456,-0,1.12099e-91,0.00968108,4.74946e-05,0,-132,-0.531586,3.92345e-88,-88.9654,-43.3511,2.96
-0.5036,-0.503697,0.127356,0.115456,-0,7.47324e-92,0.00970318,3.16631e-05,0,-132,-0.531586,2.61563e-88,-89.2561,-43.5218,2.964
-0.5036,-0.503697,0.127395,0.115456,-0,4.98216e-92,0.0097253,4.98996e-05,0,-133,-0.531586,1.74376e-88,-89.545,-43.5393,2.968
-0.5036,-0.503697,0.127434,0.115456,-0,3.32144e-92,0.00974744,3.32664e-05,0,-133,-0.531586,1.1625e-88,-89.837,-43.7138,2.972
-0.5036,-0.503697,0.127473,0.115456,-0,2.21429e-92,0.00976958,5.09685e-05,0,-133,-0.531586,7.75002e-89,-90.1272,-43.7338,2.976
-0.5036,-0.503697,0.127512,0.115457,-0,1.47619e-92,0.00979174,6.277e-05,0,-134,-0.531586,5.16668e-89,-90.418,-43.7804,2.98
-0.5036,-0.503697,0.127552,0.115457,-0,9.8413e-93,0.00981392,4.18466e-05,0,-134,-0.531586,3.44445e-89,-90.7121,-43.9743,2.984
-0.5036,-0.503697,0.127591,0.115457,-0,6.56087e-93,0.00983611,2.78978e-05,0,-135,-0.531586,2.2963e-89,-91.0069,-44.1369,2.988
-0.5036,-0.503697,0.12763,0.115457,-0,4.37391e-93,0.00985831,4.73894e-05,0,-135,-0.531586,1.53087e-89,-91.2997,-44.1491,2.992
-0.5036,-0.503697,0.12767,0.115457,-0,2.91594e-93,0.00988053,6.03839e-05,0,-135,-0.531586,1.02058e-89,-91.5932,-44.1906,2.996
-0.5036,-0.503697,0.127709,0.115457,-0,1.94396e-93,0.00990276,4.02559e-05,0,-136,-0.531586,6.80386e-90,-91.8899,-44.3813,3
-0.5036,-0.503697,0.127749,0.115458,-0,1.29597e-93,0.009925,5.56282e-05,0,-136,-0.531586,4.53591e-90,-92.1848,-44.4122,3.004
-0.5036,-0.503697,0.127789,0.115458,-0,8.63982e-94,0.00994726,6.58764e-05,0,-136,-0.531586,3.02394e-90,-92.4803,-44.4662,3.008
-0.5036,-0.503697,0.127828,0.115458,-0,5.75988e-94,0.00996953,4.39176e-05,0,-137,-0.531586,2.01596e-90,-92.779,-44.6653,3.012
-0.5036,-0.503697,0.127868,0.115458,-0,3.83992e-94,0.00999182,5.80693e-05,0,-137,-0.531586,1.34397e-90,-93.0758,-44.7019,3.016
-0.5036,-0.503697,0.127908,0.115458,-0,2.55995e-94,0.0100141,3.87129e-05,0,-138,-0.531586,8.95982e-91,-93.3759,-44.8893,3.02
-0.5036,-0.503697,0.127949,0.115459,-0,1.70663e-94,0.0100364,5.45995e-05,0,-138,-0.531586,5.97321e-91,-93.6741,-44.9183,3.024
-0.5036,-0.503697,0.127989,0.115459,-0,1.13775e-94,0.0100588,6.51906e-05,0,-138,-0.531586,3.98214e-91,-93.9729,-44.9711,3.028
-0.5036,-0.503697,0.128029,0.11546,-0,7.58503e-95,0.0100811,0.000101042,0,-139,-0.531586,2.65476e-91,-94.2698,-44.9103,3.032
-0.5036,-0.503697,0.128069,0.11546,-0,5.05669e-95,0.0101035,0.000124943,0,-139,-0.531586,1.76984e-91,-94.5674,-44.9033,3.036
-0.5036,-0.503697,0.12811,0.115461,-0,3.37112e-95,0.0101258,0.000112086,0,-139,-0.531586,1.17989e-91,-94.8683,-45.0618,3.04
-0.5036,-0.503697,0.12815,0.115461,-0,2.24742e-95,0.0101482,0.000132306,0,-140,-0.531586,7.86596e-92,-95.1672,-45.0715,3.044
-0.5036,-0.503697,0.128191,0.115462,-0,1.49828e-95,0.0101706,0.000116995,0,-140,-0.531586,5.24397e-92,-95.4694,-45.2412,3.048
-0.5036,-0.503697,0.128232,0.115462,-0,9.98852e-96,0.010193,0.000135579,0,-141,-0.531586,3.49598e-92,-95.7697,-45.2584,3.052
-0.5036,-0.503697,0.128273,0.115463,-0,6.65901e-96,0.0102154,0.000147968,0,-141,-0.531586,2.33065e-92,-96.0706,-45.3036,3.056
-0.5036,-0.503697,0.128313,0.115464,-0,4.43934e-96,0.0102379,0.000185018,0,-141,-0.531586,1.55377e-92,-96.3696,-45.2378,3.06
-0.5036,-0.503697,0.128354,0.115465,-0,2.95956e-96,0.0102603,0.000180927,0,-142,-0.531586,1.03585e-92,-96.6719,-45.3572,3.064
-0.5036,-0.503697,0.128396,0.115466,-0,1.97304e-96,0.0102828,0.000206991,0,-142,-0.531586,6.90564e-93,-96.9723,-45.341,3.068
-0.5036,-0.503697,0.128437,0.115467,-0,1.31536e-96,0.0103052,0.000195576,0,-142,-0.531586,4.60376e-93,-97.2759,-45.4935,3.072
-0.5036,-0.503697,0.128478,0.115467,-0,8.76907e-97,0.0103277,0.000187966,0,-143,-0.531586,3.06917e-93,-97.5803,-45.629,3.076
-0.5036,-0.503697,0.128519,0.115468,-0,5.84605e-97,0.0103502,0.000182892,0,-143,-0.531586,2.04612e-93,-97.8852,-45.753,3.08
-0.5036,-0.503697,0.128561,0.115469,-0,3.89736e-97,0.0103727,0.00017951,0,-144,-0.531586,1.36408e-93,-98.1909,-45.8696,3.084
-0.5036,-0.503697,0.128602,0.115469,-0,2.59824e-97,0.0103953,0.000177255,0,-144,-0.531586,9.09385e-94,-98.4972,-45.9811,3.088
-0.5036,-0.503697,0.128644,0.11547,-0,1.73216e-97,0.0104178,0.000175752,0,-144,-0.531586,6.06257e-94,-98.8043,-46.0893,3.092
-0.5036,-0.503697,0.128686,0.115471,-0,1.15477e-97,0.0104404,0.00017475,0,-145,-0.531586,4.04171e-94,-99.1119,-46.1953,3.096
-0.5036,-0.503697,0.128727,0.115471,-0,7.6985e-98,0.0104629,0.000174082,0,-145,-0.531586,2.69447e-94,-99.4203,-46.2998,3.1
-0.5036,-0.503697,0.128769,0.115472,-0,5.13233e-98,0.0104855,0.000173636,0,-146,-0.531586,1.79632e-94,-99.7294,-46.4034,3.104
-0.5036,-0.503697,0.128811,0.115472,-0,3.42155e-98,0.0105081,0.000144548,0,-146,-0.531586,1.19754e-94,-100.042,-46.636,3.108
-0.5036,-0.503697,0.128853,0.115473,-0,2.28104e-98,0.0105307,0.000125157,0,-147,-0.531586,7.98363e-95,-100.355,-46.825,3.112
-0.5036,-0.503697,0.128896,0.115473,-0,1.52069e-98,0.0105533,8.34377e-05,0,-147,-0.531586,5.32242e-95,-100.671,-47.1145,3.116
-0.5036,-0.503697,0.128938,0.115473,-0,1.01379e-98,0.010576,5.56251e-05,0,-148,-0.531586,3.54828e-95,-100.988,-47.3415,3.12
-0.5036,-0.503697,0.12898,0.115473,-0,6.75862e-99,0.0105986,3.70834e-05,0,-148,-0.531586,2.36552e-95,-101.305,-47.5268,3.124
-0.5036,-0.503697,0.129023,0.115473,-0,-2.87909e-05,0.0106213,2.47223e-05,0,-149,-0.533486,-0.100768,-101.624,-47.6844,3.128
-0.5036,-0.503697,0.129065,0.115473,-0,9.59697e-06,0.0106439,4.52725e-05,0,-149,-0.531586,0.0335894,-101.94,-47.6939,3.132
-0.5036,-0.503697,0.129108,0.115473,-0,6.39798e-06,0.0106666,3.01816e-05,0,-150,-0.531586,0.0223929,-102.26,-47.8639,3.136
-0.5036,-0.503697,0.12915,0.115473,-0,4.26532e-06,0.0106893,2.01211e-05,0,-150,-0.531586,0.0149286,-102.58,-48.0113,3.14
-0.5036,-0.503697,0.129193,0.115473,-0,2.84355e-06,0.010712,4.2205e-05,0,-150,-0.531586,0.00995242,-102.899,-48.0141,3.144
-0.5036,-0.503697,0.129236,0.115474,-0,1.8957e-06,0.0107347,5.69276e-05,0,-151,-0.531586,0.00663495,-103.218,-48.0501,3.148
-0.5036,-0.503697,0.129279,0.115474,-0,1.2638e-06,0.0107575,3.79517e-05,0,-151,-0.531586,0.0044233,-103.54,-48.2378,3.152
-0.5036,-0.503697,0.129322,0.115474,-0,8.42533e-07,0.0107802,5.40921e-05,0,-152,-0.531586,0.00294886,-103.861,-48.2675,3.156
-0.5036,-0.503697,0.129365,0.115475,-0,5.61689e-07,0.010803,9.36432e-05,0,-152,-0.531586,0.00196591,-104.179,-48.1919,3.16
-0.5036,-0.503697,0.129409,0.115475,-0,3.74459e-07,0.0108257,9.12197e-05,0,-152,-0.531586,0.00131061,-104.501,-48.3053,3.164
-0.5036,-0.503697,0.129452,0.115476,-0,2.49639e-07,0.0108485,0.000118395,0,-153,-0.531586,0.000873738,-104.821,-48.2855,3.168
-0.5036,-0.503697,0.129495,0.115476,-0,1.66426e-07,0.0108713,7.893e-05,0,-153,-0.531586,0.000582492,-105.147,-48.5656,3.172
-0.5036,-0.503697,0.129539,0.115476,-0,1.10951e-07,0.0108941,8.14109e-05,0,-154,-0.531586,0.000388328,-105.471,-48.6571,3.176
-0.5036,-0.503697,0.129583,0.115477,-0,7.39672e-08,0.0109169,8.30649e-05,0,-154,-0.531586,0.000258885,-105.795,-48.7523,3.18
-0.5036,-0.503697,0.129626,0.115477,-0,4.93115e-08,0.0109397,5.53766e-05,0,-155,-0.531586,0.00017259,-106.123,-48.9797,3.184
-0.5036,-0.503697,0.12967,0.115477,-0,3.28743e-08,0.0109626,9.44996e-05,0,-155,-0.531586,0.00011506,-106.446,-48.9064,3.188
-0.5036,-0.503697,0.129714,0.115478,-0,2.19162e-08,0.0109854,9.17906e-05,0,-155,-0.531586,7.67067e-05,-106.773,-49.0214,3.192
-0.5036,-0.503697,0.129758,0.115478,-0,1.46108e-08,0.0110083,6.11938e-05,0,-156,-0.531586,5.11378e-05,-107.103,-49.262,3.196
-0.5036,-0.503697,0.129802,0.115478,-0,9.74054e-09,0.0110312,6.95868e-05,0,-156,-0.531586,3.40919e-05,-107.431,-49.3272,3.2
-0.5036,-0.503697,0.129846,0.115478,-0,6.49369e-09,0.0110541,7.51821e-05,0,-157,-0.531586,2.27279e-05,-107.76,-49.405,3.204
-0.5036,-0.503697,0.129891,0.115479,-0,4.32913e-09,0.011077,7.89123e-05,0,-157,-0.531586,1.51519e-05,-108.089,-49.4913,3.208
-0.5036,-0.503697,0.129935,0.115479,-0,2.88609e-09,0.0110999,8.13991e-05,0,-158,-0.531586,1.01013e-05,-108.419,-49.5832,3.212
-0.5036,-0.503697,0.129979,0.115479,-0,1.92406e-09,0.0111228,8.3057e-05,0,-158,-0.531586,6.7342e-06,-108.75,-49.6789,3.216
-0.5036,-0.503697,0.130024,0.11548,-0,1.2827e-09,0.0111458,8.41623e-05,0,-158,-0.531586,4.48947e-06,-109.081,-49.7772,3.22
-0.5036,-0.503697,0.130068,0.11548,-0,8.55136e-10,0.0111687,8.48991e-05,0,-159,-0.531586,2.99298e-06,-109.413,-49.8771,3.224
-0.5036,-0.503697,0.130113,0.11548,-0,5.70091e-10,0.0111917,8.53903e-05,0,-159,-0.531586,1.99532e-06,-109.746,-49.9782,3.228
-0.5036,-0.503697,0.130158,0.115481,-0,3.80061e-10,0.0112146,8.57178e-05,0,-160,-0.531586,1.33021e-06,-110.08,-50.0801,3.232
-0.5036,-0.503697,0.130203,0.115481,-0,2.53374e-10,0.0112376,8.59361e-05,0,-160,-0.531586,8.86808e-07,-110.414,-50.1826,3.236
-0.5036,-0.503697,0.130248,0.115482,-0,1.68916e-10,0.0112606,0.000114873,0,-160,-0.531586,5.91205e-07,-110.746,-50.1558,3.24
-0.5036,-0.503697,0.130293,0.115482,-0,1.12611e-10,0.0112836,0.000105373,0,-161,-0.531586,3.94137e-07,-111.082,-50.3021,3.244
-0.5036,-0.503697,0.130338,0.115483,-0,7.50737e-11,0.0113066,0.00012783,0,-161,-0.531586,2.62758e-07,-111.415,-50.3047,3.248
-0.5036,-0.503697,0.130383,0.115483,-0,5.00491e-11,0.0113297,0.000114011,0,-162,-0.531586,1.75172e-07,-111.752,-50.4705,3.252
-0.5036,-0.503697,0.130429,0.115484,-0,3.33661e-11,0.0113527,0.00016238,0,-162,-0.531586,1.16781e-07,-112.085,-50.3565,3.256
-0.5036,-0.503697,0.130474,0.115485,-0,2.22441e-11,0.0113758,0.000194626,0,-162,-0.531586,7.78542e-08,-112.418,-50.3152,3.26
-0.5036,-0.503697,0.13052,0.115486,-0,1.48294e-11,0.0113988,0.000187333,0,-163,-0.531586,5.19028e-08,-112.754,-50.4518,3.264
-0.5036,-0.503697,0.130565,0.115487,-0,9.88625e-12,0.0114219,0.000211261,0,-163,-0.531586,3.46019e-08,-113.089,-50.4479,3.268
-0.5036,-0.503697,0.130611,0.115488,-0,6.59083e-12,0.011445,0.000227214,0,-163,-0.531586,2.30679e-08,-113.424,-50.48,3.272
-0.5036,-0.503697,0.130657,0.115489,-0,4.39389e-12,0.0114681,0.000209058,0,-164,-0.531586,1.53786e-08,-113.763,-50.6657,3.276
-0.5036,-0.503697,0.130703,0.11549,-0,2.92926e-12,0.0114912,0.000225744,0,-164,-0.531586,1.02524e-08,-114.099,-50.6946,3.28
-0.5036,-0.503697,0.130749,0.11549,-0,1.95284e-12,0.0115143,0.000208078,0,-165,-0.531586,6.83494e-09,-114.439,-50.8782,3.284
-0.5036,-0.503697,0.130795,0.115491,-0,1.30189e-12,0.0115375,0.000196301,0,-165,-0.531586,4.55663e-09,-114.78,-51.0353,3.288
-0.5036,-0.503697,0.130841,0.115492,-0,8.67929e-13,0.0115606,0.00021724,0,-166,-0.531586,3.03775e-09,-115.118,-51.0452,3.292
-0.5036,-0.503697,0.130888,0.115493,-0,5.78619e-13,0.0115838,0.000202408,0,-166,-0.531586,2.02517e-09,-115.46,-51.2161,3.296
-0.5036,-0.503697,0.130934,0.115494,-0,3.85746e-13,0.0116069,0.000221312,0,-167,-0.531586,1.35011e-09,-115.801,-51.2353,3.3
-0.5036,-0.503697,0.13098,0.115495,-0,2.57164e-13,0.0116301,0.000205123,0,-167,-0.531586,9.00074e-10,-116.144,-51.4125,3.304
-0.5036,-0.503697,0.131027,0.115496,-0,1.71443e-13,0.0116533,0.000223121,0,-167,-0.531586,6.00049e-10,-116.485,-51.4358,3.308
-0.5036,-0.503697,0.131074,0.115497,-0,1.14295e-13,0.0116765,0.00023512,0,-168,-0.531586,4.00033e-10,-116.828,-51.4862,3.312
-0.5036,-0.503697,0.13112,0.115498,-0,7.61967e-14,0.0116997,0.00024312,0,-168,-0.531586,2.66689e-10,-117.17,-51.5547,3.316
-0.5036,-0.503697,0.131167,0.115499,-0,5.07978e-14,0.0117229,0.000248453,0,-169,-0.531586,1.77792e-10,-117.514,-51.6352,3.32
-0.5036,-0.503697,0.131214,0.1155,-0,3.38652e-14,0.0117462,0.000252008,0,-169,-0.531586,1.18528e-10,-117.858,-51.7237,3.324
-0.5036,-0.503697,0.131261,0.115501,-0,2.25768e-14,0.0117694,0.000283169,0,-169,-0.531586,7.90189e-11,-118.201,-51.6881,3.328
-0.5036,-0.503697,0.131308,0.115503,-0,1.50512e-14,0.0117927,0.000332734,0,-170,-0.531586,5.26792e-11,-118.541,-51.5697,3.332
-0.5036,-0.503697,0.131356,0.115505,-0,1.00341e-14,0.0118159,0.000394568,0,-170,-0.531586,3.51195e-11,-118.88,-51.3961,3.336
-0.5036,-0.503697,0.131403,0.115507,-0,6.68943e-15,0.0118392,0.000464582,0,-170,-0.531586,2.3413e-11,-119.216,-51.1858,3.34
-0.5036,-0.503697,0.13145,0.11551,-0,4.45962e-15,0.0118625,0.000540049,0,-170,-0.531586,1.56087e-11,-119.551,-50.951,3.344
-0.5036,-0.503697,0.131498,0.115513,-0,2.97308e-15,0.0118858,0.00059036,0,-170,-0.531586,1.04058e-11,-119.887,-50.8295,3.348
