peachynonah/Fire_monitor_KIRO_CDSL/csv_datas/trial10/cdsl_data_debug.csv
joint1_pos_desired, joint1_pos, joint2_pos_desired, joint2_pos, joint1_vel_desired, joint1_vel_filtered, joint2_vel_desired, joint2_vel_filtered, target_torque_joint1, target_torque_joint2, propo_term_torque_joint1, deriv_term_torque_joint1, propo_term_torque_joint2, deriv_term_torque_joint2, current_time
0,-0.000239425,0.39282,-0.000302996,0,0,0.08,0,0,0,-0,-0,-589.684,-40,0.004
0,-0.000239425,0.39314,-0.000302996,0,0,0.0799998,0,0,0,-0,-0,-590.164,-39.9999,0.008
0,-0.000239425,0.39346,-0.000302996,0,0,0.0799996,0,0,0,-0,-0,-590.644,-39.9998,0.012
0,-0.000239425,0.39378,-0.000302996,0,0,0.0799993,0,0,0,-0,-0,-591.124,-39.9997,0.016
0,-0.000239425,0.3941,-0.000302996,0,0,0.079999,0,0,0,-0,-0,-591.604,-39.9995,0.02
0,-0.000239425,0.39442,-0.000302996,0,0,0.0799985,0,0,0,-0,-0,-592.084,-39.9992,0.024
0,-0.000239425,0.39474,-0.000302996,0,0,0.079998,0,0,0,-0,-0,-592.564,-39.999,0.028
0,-0.000239425,0.39506,-0.000302996,0,0,0.0799973,0,0,0,-0,-0,-593.044,-39.9987,0.032
0,-0.00023908,0.39538,-0.000302996,0,2.87909e-05,0.0799966,0,0,0,-0,0,-593.524,-39.9983,0.036
0,-0.000239425,0.3957,-0.000302996,0,-9.59697e-06,0.0799958,0,0,0,-0,-0,-594.004,-39.9979,0.04
0,-0.00023908,0.39602,-0.000302996,0,2.23929e-05,0.0799949,0,0,0,-0,0,-594.484,-39.9975,0.044
0,-0.000239425,0.39634,-0.000302996,0,-1.38623e-05,0.079994,0,0,0,-0,-0,-594.964,-39.997,0.048
0,-0.000239425,0.39666,-0.000302996,0,-9.24153e-06,0.0799929,0,0,0,-0,-0,-595.444,-39.9965,0.052
0,-0.00023908,0.39698,-0.000303341,0,2.26299e-05,0.0799918,-2.87909e-05,0,0,-0,0,-595.925,-40.0103,0.056
0,-0.00023908,0.3973,-0.000302996,0,1.50866e-05,0.0799906,9.59697e-06,0,0,-0,0,-596.404,-39.9905,0.06
0,-0.00023908,0.39762,-0.000302996,0,1.00577e-05,0.0799893,6.39798e-06,0,0,-0,0,-596.884,-39.9915,0.064
0,-0.00023908,0.39794,-0.000302996,0,6.70516e-06,0.079988,4.26532e-06,0,0,-0,0,-597.364,-39.9918,0.068
0,-0.00023908,0.39826,-0.000302996,0,4.4701e-06,0.0799865,2.84355e-06,0,0,-0,0,-597.844,-39.9918,0.072
0,-0.00023908,0.39858,-0.000302996,0,2.98007e-06,0.079985,1.8957e-06,0,0,-0,0,-598.324,-39.9915,0.076
0,-0.00023908,0.3989,-0.000302996,0,1.98671e-06,0.0799833,1.2638e-06,0,0,-0,0,-598.804,-39.991,0.08
0,-0.00023908,0.399219,-0.000302996,0,1.32448e-06,0.0799816,8.42533e-07,0,0,-0,0,-599.284,-39.9904,0.084
0,-0.00023908,0.399539,-0.000302996,0,8.82984e-07,0.0799799,5.61689e-07,0,0,-0,0,-599.764,-39.9896,0.088
0,-0.00023908,0.399859,-0.000302996,0,5.88656e-07,0.079978,3.74459e-07,0,0,-0,0,-600.243,-39.9888,0.092
0,-0.00023908,0.400179,-0.000302996,0,3.92437e-07,0.079976,2.49639e-07,0,0,-0,0,-600.723,-39.9879,0.096
0,-0.00023908,0.400499,-0.000302996,0,2.61625e-07,0.079974,1.66426e-07,0,0,-0,0,-601.203,-39.9869,0.1
0,-0.00023908,0.400819,-0.000302996,0,1.74417e-07,0.0799719,1.10951e-07,0,0,-0,0,-601.683,-39.9859,0.104
0,-0.00023908,0.401139,-0.000302996,0,1.16278e-07,0.0799697,7.39672e-08,0,0,-0,0,-602.163,-39.9848,0.108
0,-0.00023908,0.401459,-0.000302996,0,7.75185e-08,0.0799674,4.93115e-08,0,0,-0,0,-602.643,-39.9837,0.112
0,-0.00023908,0.401779,-0.000302996,0,5.1679e-08,0.0799651,3.28743e-08,0,0,-0,0,-603.122,-39.9825,0.116
0,-0.00023908,0.402099,-0.000302996,0,3.44526e-08,0.0799626,2.19162e-08,0,0,-0,0,-603.602,-39.9813,0.12
0,-0.00023908,0.402418,-0.000302996,0,2.29684e-08,0.0799601,1.46108e-08,0,0,-0,0,-604.082,-39.9801,0.124
0,-0.00023908,0.402738,-0.000302996,0,1.53123e-08,0.0799575,9.74054e-09,0,0,-0,0,-604.562,-39.9788,0.128
0,-0.00023908,0.403058,-0.000302996,0,1.02082e-08,0.0799548,6.49369e-09,0,0,-0,0,-605.042,-39.9774,0.132
0,-0.00023908,0.403378,-0.000302996,0,6.80546e-09,0.0799521,4.32913e-09,0,0,-0,0,-605.521,-39.976,0.136
0,-0.00023908,0.403698,-0.000302996,0,4.53697e-09,0.0799492,2.88609e-09,0,0,-0,0,-606.001,-39.9746,0.14
0,-0.00023908,0.404017,-0.000302996,0,3.02465e-09,0.0799463,1.92406e-09,0,0,-0,0,-606.481,-39.9731,0.144
0,-0.00023908,0.404337,-0.000302996,0,2.01643e-09,0.0799433,1.2827e-09,0,0,-0,0,-606.96,-39.9716,0.148
0,-0.00023908,0.404657,-0.000302996,0,1.34429e-09,0.0799402,8.55136e-10,0,0,-0,0,-607.44,-39.9701,0.152
0,-0.00023908,0.404977,-0.000302996,0,8.96192e-10,0.079937,5.70091e-10,0,0,-0,0,-607.92,-39.9685,0.156
0,-0.00023908,0.405296,-0.000302996,0,5.97462e-10,0.0799338,3.80061e-10,0,0,-0,0,-608.399,-39.9669,0.16
0,-0.00023908,0.405616,-0.000302996,0,3.98308e-10,0.0799305,2.53374e-10,0,0,-0,0,-608.879,-39.9652,0.164
0,-0.00023908,0.405936,-0.000302996,0,2.65538e-10,0.079927,1.68916e-10,0,0,-0,0,-609.358,-39.9635,0.168
0,-0.00023908,0.406256,-0.000302996,0,1.77026e-10,0.0799236,1.12611e-10,0,0,-0,0,-609.838,-39.9618,0.172
0,-0.00023908,0.406575,-0.000302996,0,1.18017e-10,0.07992,7.50737e-11,0,0,-0,0,-610.317,-39.96,0.176
0,-0.00023908,0.406895,-0.000302996,0,7.86781e-11,0.0799163,5.00491e-11,0,0,-0,0,-610.797,-39.9582,0.18
0,-0.00023908,0.407215,-0.000302996,0,5.2452e-11,0.0799126,3.33661e-11,0,0,-0,0,-611.276,-39.9563,0.184
0,-0.00023908,0.407534,-0.000302996,0,3.4968e-11,0.0799088,2.22441e-11,0,0,-0,0,-611.756,-39.9544,0.188
0,-0.00023908,0.407854,-0.000302996,0,2.3312e-11,0.0799049,1.48294e-11,0,0,-0,0,-612.235,-39.9524,0.192
0,-0.00023908,0.408174,-0.000302996,0,1.55413e-11,0.0799009,9.88625e-12,0,0,-0,0,-612.715,-39.9505,0.196
0,-0.00023908,0.408493,-0.000302996,0,1.03609e-11,0.0798969,6.59083e-12,0,0,-0,0,-613.194,-39.9484,0.2
0,-0.00023908,0.408813,-0.000302996,0,6.90727e-12,0.0798927,4.39389e-12,0,0,-0,0,-613.674,-39.9464,0.204
0,-0.00023908,0.409132,-0.000302996,0,4.60484e-12,0.0798885,2.92926e-12,0,0,-0,0,-614.153,-39.9443,0.208
0,-0.00023908,0.409452,-0.000302996,0,3.0699e-12,0.0798842,1.95284e-12,0,0,-0,0,-614.632,-39.9421,0.212
0,-0.00023908,0.409771,-0.000302996,0,2.0466e-12,0.0798799,1.30189e-12,0,0,-0,0,-615.111,-39.9399,0.216
0,-0.00023908,0.410091,-0.000302996,0,1.3644e-12,0.0798754,8.67929e-13,0,0,-0,0,-615.591,-39.9377,0.22
0,-0.00023908,0.41041,-0.000302996,0,9.09599e-13,0.0798709,5.78619e-13,0,0,-0,0,-616.07,-39.9354,0.224
0,-0.00023908,0.41073,-0.000302996,0,6.06399e-13,0.0798663,3.85746e-13,0,0,-0,0,-616.549,-39.9331,0.228
0,-0.00023908,0.411049,-0.000302996,0,4.04266e-13,0.0798616,2.57164e-13,0,0,-0,0,-617.028,-39.9308,0.232
0,-0.00023908,0.411369,-0.000302996,0,2.69511e-13,0.0798568,1.71443e-13,0,0,-0,0,-617.508,-39.9284,0.236
0,-0.00023908,0.411688,-0.000302996,0,1.79674e-13,0.079852,1.14295e-13,0,0,-0,0,-617.987,-39.926,0.24
0,-0.00023908,0.412007,-0.000302996,0,1.19783e-13,0.079847,7.61967e-14,0,0,-0,0,-618.466,-39.9235,0.244
0,-0.00023908,0.412327,-0.000302996,0,7.9855e-14,0.079842,5.07978e-14,0,0,-0,0,-618.945,-39.921,0.248
0,-0.00023908,0.412646,-0.000302996,0,5.32367e-14,0.0798369,3.38652e-14,0,0,-0,0,-619.424,-39.9185,0.252
0,-0.00023908,0.412966,-0.000302996,0,3.54911e-14,0.0798318,2.25768e-14,0,0,-0,0,-619.903,-39.9159,0.256
0,-0.00023908,0.413285,-0.000302996,0,2.36607e-14,0.0798265,1.50512e-14,0,0,-0,0,-620.382,-39.9133,0.26
0,-0.00023908,0.413604,-0.000302996,0,1.57738e-14,0.0798212,1.00341e-14,0,0,-0,0,-620.861,-39.9106,0.264
0,-0.00023908,0.413923,-0.000302996,0,1.05159e-14,0.0798158,6.68943e-15,0,0,-0,0,-621.34,-39.9079,0.268
0,-0.00023908,0.414243,-0.000302996,0,7.01059e-15,0.0798103,4.45962e-15,0,0,-0,0,-621.819,-39.9052,0.272
0,-0.00023908,0.414562,-0.000302996,0,4.67373e-15,0.0798048,2.97308e-15,0,0,-0,0,-622.297,-39.9024,0.276
0,-0.00023908,0.414881,-0.000302996,0,3.11582e-15,0.0797991,1.98205e-15,0,0,-0,0,-622.776,-39.8996,0.28
0,-0.00023908,0.4152,-0.000302996,0,2.07721e-15,0.0797934,1.32137e-15,0,0,-0,0,-623.255,-39.8967,0.284
0,-0.00023908,0.415519,-0.000302996,0,1.38481e-15,0.0797876,8.80912e-16,0,0,-0,0,-623.734,-39.8938,0.288
0,-0.00023908,0.415839,-0.000302996,0,9.23206e-16,0.0797817,5.87275e-16,0,0,-0,0,-624.212,-39.8909,0.292
0,-0.00023908,0.416158,-0.000302996,0,6.1547e-16,0.0797758,3.91517e-16,0,0,-0,0,-624.691,-39.8879,0.296
0,-0.00023908,0.416477,-0.000302996,0,4.10314e-16,0.0797698,2.61011e-16,0,0,-0,0,-625.17,-39.8849,0.3
0,-0.00023908,0.416796,-0.000302996,0,2.73542e-16,0.0797637,1.74007e-16,0,0,-0,0,-625.648,-39.8818,0.304
0,-0.00023908,0.417115,-0.000302996,0,1.82362e-16,0.0797575,1.16005e-16,0,0,-0,0,-626.127,-39.8787,0.308
0,-0.00023908,0.417434,-0.000302996,0,1.21574e-16,0.0797512,7.73366e-17,0,0,-0,0,-626.605,-39.8756,0.312
0,-0.00023908,0.417753,-0.000302996,0,8.10496e-17,0.0797449,5.15577e-17,0,0,-0,0,-627.084,-39.8724,0.316
0,-0.00023908,0.418072,-0.000302996,0,5.40331e-17,0.0797385,3.43718e-17,0,0,-0,0,-627.562,-39.8692,0.32
0,-0.00023908,0.418391,-0.000302996,0,3.6022e-17,0.079732,2.29145e-17,0,0,-0,0,-628.041,-39.866,0.324
0,-0.00023908,0.41871,-0.000302996,0,2.40147e-17,0.0797254,1.52764e-17,0,0,-0,0,-628.519,-39.8627,0.328
0,-0.00023908,0.419029,-0.000302996,0,1.60098e-17,0.0797188,1.01842e-17,0,0,-0,0,-628.997,-39.8594,0.332
0,-0.00023908,0.419348,-0.000302996,0,1.06732e-17,0.079712,6.7895e-18,0,0,-0,0,-629.476,-39.856,0.336
0,-0.00023908,0.419666,-0.000302996,0,7.11547e-18,0.0797052,4.52633e-18,0,0,-0,0,-629.954,-39.8526,0.34
0,-0.00023908,0.419985,-0.000302996,0,4.74364e-18,0.0796983,3.01755e-18,0,0,-0,0,-630.432,-39.8492,0.344
0,-0.00023908,0.420304,-0.000302996,0,3.16243e-18,0.0796914,2.0117e-18,0,0,-0,0,-630.91,-39.8457,0.348
0,-0.00023908,0.420623,-0.000302996,0,2.10829e-18,0.0796843,1.34113e-18,0,0,-0,0,-631.389,-39.8422,0.352
0,-0.00023908,0.420941,-0.000302996,0,1.40552e-18,0.0796772,8.9409e-19,0,0,-0,0,-631.867,-39.8386,0.356
0,-0.00023908,0.42126,-0.000302996,0,9.37016e-19,0.07967,5.9606e-19,0,0,-0,0,-632.345,-39.835,0.36
0,-0.00023908,0.421579,-0.000302996,0,6.24677e-19,0.0796628,3.97373e-19,0,0,-0,0,-632.823,-39.8314,0.364
0,-0.00023908,0.421897,-0.000302996,0,4.16452e-19,0.0796554,2.64916e-19,0,0,-0,0,-633.301,-39.8277,0.368
0,-0.00023908,0.422216,-0.000302996,0,2.77634e-19,0.079648,1.7661e-19,0,0,-0,0,-633.779,-39.824,0.372
0,-0.00023908,0.422535,-0.000302996,0,1.8509e-19,0.0796405,1.1774e-19,0,0,-0,0,-634.256,-39.8203,0.376
0,-0.00023908,0.422853,-0.000302996,0,1.23393e-19,0.0796329,7.84935e-20,0,0,-0,0,-634.734,-39.8165,0.38
0,-0.00023908,0.423172,-0.000302996,0,8.2262e-20,0.0796253,5.2329e-20,0,0,-0,0,-635.212,-39.8127,0.384
0,-0.00023908,0.42349,-0.000302996,0,5.48414e-20,0.0796176,3.4886e-20,0,0,-0,0,-635.69,-39.8088,0.388
0,-0.00023908,0.423809,-0.000302996,0,3.65609e-20,0.0796098,2.32573e-20,0,0,-0,0,-636.167,-39.8049,0.392
0,-0.00023908,0.424127,-0.000302996,0,2.43739e-20,0.0796019,1.55049e-20,0,0,-0,0,-636.645,-39.8009,0.396
0,-0.00023908,0.424445,-0.000302996,0,1.62493e-20,0.0795939,1.03366e-20,0,0,-0,0,-637.123,-39.797,0.4
0,-0.00023908,0.424764,-0.000302996,0,1.08329e-20,0.0795859,6.89106e-21,0,0,-0,0,-637.6,-39.793,0.404
0,-0.00023908,0.425082,-0.000302996,0,7.22191e-21,0.0795778,4.59404e-21,0,0,-0,0,-638.078,-39.7889,0.408
0,-0.00023908,0.4254,-0.000302996,0,4.8146e-21,0.0795696,3.06269e-21,0,0,-0,0,-638.555,-39.7848,0.412
0,-0.00023908,0.425719,-0.000302996,0,3.20974e-21,0.0795614,2.0418e-21,0,0,-0,0,-639.033,-39.7807,0.416
0,-0.00023908,0.426037,-0.000302996,0,2.13982e-21,0.079553,1.3612e-21,0,0,-0,0,-639.51,-39.7765,0.42
0,-0.00023908,0.426355,-0.000302996,0,1.42655e-21,0.0795446,9.07465e-22,0,0,-0,0,-639.987,-39.7723,0.424
0,-0.00023908,0.426673,-0.000302996,0,9.51033e-22,0.0795361,6.04977e-22,0,0,-0,0,-640.464,-39.7681,0.428
0,-0.00023908,0.426991,-0.000302996,0,6.34022e-22,0.0795276,4.03318e-22,0,0,-0,0,-640.942,-39.7638,0.432
0,-0.00023908,0.427309,-0.000302996,0,4.22681e-22,0.0795189,2.68878e-22,0,0,-0,0,-641.419,-39.7595,0.436
0,-0.00023908,0.427628,-0.000302996,0,2.81788e-22,0.0795102,1.79252e-22,0,0,-0,0,-641.896,-39.7551,0.44
0,-0.00023908,0.427946,-0.000302996,0,1.87858e-22,0.0795014,1.19502e-22,0,0,-0,0,-642.373,-39.7507,0.444
0,-0.00023908,0.428264,-0.000302996,0,1.25239e-22,0.0794926,7.96677e-23,0,0,-0,0,-642.85,-39.7463,0.448
0,-0.00023908,0.428582,-0.00030265,0,8.34926e-23,0.0794837,2.87909e-05,0,0,-0,0,-643.326,-39.7274,0.452
0,-0.00023908,0.428899,-0.000302996,0,5.56617e-23,0.0794746,-9.59697e-06,0,0,-0,0,-643.804,-39.7421,0.456
0,-0.00023908,0.429217,-0.000302996,0,3.71078e-23,0.0794656,-6.39798e-06,0,0,-0,0,-644.28,-39.736,0.46
0,-0.00023908,0.429535,-0.000302996,0,2.47386e-23,0.0794564,-4.26532e-06,0,0,-0,0,-644.757,-39.7303,0.464
0,-0.00023908,0.429853,-0.000302996,0,1.64924e-23,0.0794472,-2.84355e-06,0,0,-0,0,-645.234,-39.725,0.468
0,-0.00023908,0.430171,-0.000302996,0,1.09949e-23,0.0794378,-1.8957e-06,0,0,-0,0,-645.711,-39.7199,0.472
0,-0.00023908,0.430488,-0.000302996,0,7.32994e-24,0.0794285,-1.2638e-06,0,0,-0,0,-646.187,-39.7149,0.476
0,-0.00023908,0.430806,-0.000302996,0,4.88663e-24,0.079419,-8.42533e-07,0,0,-0,0,-646.664,-39.7099,0.48
0,-0.00023908,0.431124,-0.000302996,0,3.25775e-24,0.0794095,-5.61689e-07,0,0,-0,0,-647.14,-39.705,0.484
0,-0.00023908,0.431441,-0.000302996,0,2.17183e-24,0.0793999,-3.74459e-07,0,0,-0,0,-647.617,-39.7001,0.488
0,-0.00023908,0.431759,-0.000302996,0,1.44789e-24,0.0793902,-2.49639e-07,0,0,-0,0,-648.093,-39.6952,0.492
0,-0.00023908,0.432077,-0.000302996,0,9.6526e-25,0.0793804,-1.66426e-07,0,0,-0,0,-648.569,-39.6903,0.496
0,-0.00023908,0.432394,-0.000302996,0,6.43507e-25,0.0793706,-1.10951e-07,0,0,-0,0,-649.046,-39.6853,0.5
0,-0.00023908,0.432712,-0.000302996,0,4.29004e-25,0.0793607,-7.39672e-08,0,0,-0,0,-649.522,-39.6804,0.504
0,-0.00023908,0.433029,-0.000302996,0,2.86003e-25,0.0793507,-4.93115e-08,0,0,-0,0,-649.998,-39.6754,0.508
0,-0.00023908,0.433346,-0.000302996,0,1.90669e-25,0.0793406,-3.28743e-08,0,0,-0,0,-650.474,-39.6703,0.512
0,-0.00023908,0.433664,-0.000302996,0,1.27112e-25,0.0793305,-2.19162e-08,0,0,-0,0,-650.95,-39.6653,0.516
0,-0.00023908,0.433981,-0.000302996,0,8.47416e-26,0.0793203,-1.46108e-08,0,0,-0,0,-651.426,-39.6602,0.52
0,-0.00023908,0.434298,-0.000302996,0,5.64944e-26,0.07931,-9.74054e-09,0,0,-0,0,-651.902,-39.655,0.524
0,-0.00023908,0.434615,-0.000302996,0,3.76629e-26,0.0792997,-6.49369e-09,0,0,-0,0,-652.378,-39.6498,0.528
0,-0.00023908,0.434933,-0.000302996,0,2.51086e-26,0.0792893,-4.32913e-09,0,0,-0,0,-652.853,-39.6446,0.532
0,-0.00023908,0.43525,-0.000302996,0,1.67391e-26,0.0792788,-2.88609e-09,0,0,-0,0,-653.329,-39.6394,0.536
0,-0.00023908,0.435567,-0.000302996,0,1.11594e-26,0.0792682,-1.92406e-09,0,0,-0,0,-653.805,-39.6341,0.54
0,-0.00023908,0.435884,-0.000302996,0,7.43959e-27,0.0792576,-1.2827e-09,0,0,-0,0,-654.28,-39.6288,0.544
0,-0.00023908,0.436201,-0.000302996,0,4.95973e-27,0.0792468,-8.55136e-10,0,0,-0,0,-654.756,-39.6234,0.548
0,-0.00023908,0.436518,-0.000302996,0,3.30649e-27,0.079236,-5.70091e-10,0,0,-0,0,-655.231,-39.618,0.552
0,-0.00023908,0.436835,-0.000302996,0,2.20432e-27,0.0792252,-3.80061e-10,0,0,-0,0,-655.707,-39.6126,0.556
0,-0.000238734,0.437152,-0.000302996,0,2.87909e-05,0.0792142,-2.53374e-10,0,0,-0,0,-656.182,-39.6071,0.56
0,-0.00023908,0.437469,-0.000302996,0,-9.59697e-06,0.0792032,-1.68916e-10,0,0,-0,-0,-656.657,-39.6016,0.564
0,-0.00023908,0.437785,-0.000302996,0,-6.39798e-06,0.0791922,-1.12611e-10,0,0,-0,-0,-657.132,-39.5961,0.568
0,-0.00023908,0.438102,-0.000302996,0,-4.26532e-06,0.079181,-7.50737e-11,0,0,-0,-0,-657.608,-39.5905,0.572
0,-0.00023908,0.438419,-0.000302996,0,-2.84355e-06,0.0791698,-5.00491e-11,0,0,-0,-0,-658.083,-39.5849,0.576
0,-0.00023908,0.438735,-0.000302996,0,-1.8957e-06,0.0791585,-3.33661e-11,0,0,-0,-0,-658.558,-39.5792,0.58
0,-0.00023908,0.439052,-0.000302996,0,-1.2638e-06,0.0791471,-2.22441e-11,0,0,-0,-0,-659.033,-39.5736,0.584
0,-0.00023908,0.439369,-0.000302305,0,-8.42533e-07,0.0791357,5.75818e-05,0,0,-0,-0,-659.506,-39.539,0.588
0,-0.00023908,0.439685,-0.000302996,0,-5.61689e-07,0.0791241,-1.9194e-05,0,0,-0,-0,-659.982,-39.5717,0.592
0,-0.000239771,0.440002,-0.000302996,0,-5.79563e-05,0.0791126,-1.2796e-05,0,0,-0,-0,-660.457,-39.5627,0.596
0,-0.00023908,0.440318,-0.000302996,0,1.89443e-05,0.0791009,-8.53065e-06,0,0,-0,0,-660.931,-39.5547,0.6
0,-0.00023908,0.440634,-0.000302996,0,1.26295e-05,0.0790892,-5.6871e-06,0,0,-0,0,-661.406,-39.5474,0.604
0,-0.00023908,0.440951,-0.000302996,0,8.41969e-06,0.0790773,-3.7914e-06,0,0,-0,0,-661.881,-39.5406,0.608
0,-0.00023908,0.441267,-0.000302996,0,5.61313e-06,0.0790655,-2.5276e-06,0,0,-0,0,-662.355,-39.534,0.612
0,-0.00023908,0.441583,-0.000302996,0,3.74209e-06,0.0790535,-1.68507e-06,0,0,-0,0,-662.829,-39.5276,0.616
0,-0.00023908,0.441899,-0.000302996,0,2.49472e-06,0.0790415,-1.12338e-06,0,0,-0,0,-663.304,-39.5213,0.62
0,-0.00023908,0.442216,-0.000302996,0,1.66315e-06,0.0790294,-7.48918e-07,0,0,-0,0,-663.778,-39.5151,0.624
0,-0.00023908,0.442532,-0.000302996,0,1.10877e-06,0.0790172,-4.99279e-07,0,0,-0,0,-664.252,-39.5089,0.628
0,-0.00023908,0.442848,-0.000302996,0,7.39177e-07,0.079005,-3.32853e-07,0,0,-0,0,-664.726,-39.5027,0.632
0,-0.00023908,0.443164,-0.000302996,0,4.92785e-07,0.0789927,-2.21902e-07,0,0,-0,0,-665.2,-39.4965,0.636
0,-0.00023908,0.44348,-0.000302996,0,3.28523e-07,0.0789803,-1.47935e-07,0,0,-0,0,-665.674,-39.4902,0.64
0,-0.00023908,0.443796,-0.000302996,0,2.19016e-07,0.0789679,-9.8623e-08,0,0,-0,0,-666.148,-39.484,0.644
0,-0.00023908,0.444111,-0.000302996,0,1.4601e-07,0.0789553,-6.57487e-08,0,0,-0,0,-666.622,-39.4777,0.648
0,-0.00023908,0.444427,-0.000302996,0,9.73402e-08,0.0789427,-4.38324e-08,0,0,-0,0,-667.095,-39.4714,0.652
0,-0.00023908,0.444743,-0.00030265,0,6.48935e-08,0.0789301,2.87617e-05,0,0,-0,0,-667.568,-39.4507,0.656
0,-0.00023908,0.445059,-0.000302996,0,4.32623e-08,0.0789173,-9.61646e-06,0,0,-0,0,-668.042,-39.4635,0.66
0,-0.00023908,0.445374,-0.000302996,0,2.88416e-08,0.0789045,-6.41097e-06,0,0,-0,0,-668.516,-39.4555,0.664
0,-0.00023908,0.44569,-0.000302996,0,1.92277e-08,0.0788916,-4.27398e-06,0,0,-0,0,-668.989,-39.448,0.668
0,-0.00023908,0.446005,-0.000302996,0,1.28185e-08,0.0788787,-2.84932e-06,0,0,-0,0,-669.463,-39.4408,0.672
0,-0.00023908,0.446321,-0.000302996,0,8.54565e-09,0.0788657,-1.89955e-06,0,0,-0,0,-669.936,-39.4338,0.676
0,-0.00023908,0.446636,-0.000302996,0,5.6971e-09,0.0788526,-1.26636e-06,0,0,-0,0,-670.409,-39.4269,0.68
0,-0.00023908,0.446952,-0.000302996,0,3.79806e-09,0.0788394,-8.44243e-07,0,0,-0,0,-670.882,-39.4201,0.684
0,-0.00023908,0.447267,-0.000302996,0,2.53204e-09,0.0788262,-5.62829e-07,0,0,-0,0,-671.355,-39.4134,0.688
0,-0.00023908,0.447582,-0.000302996,0,1.68803e-09,0.0788129,-3.75219e-07,0,0,-0,0,-671.828,-39.4066,0.692
0,-0.00023908,0.447898,-0.000302996,0,1.12535e-09,0.0787995,-2.50146e-07,0,0,-0,0,-672.301,-39.3999,0.696
0,-0.00023908,0.448213,-0.000302996,0,7.50235e-10,0.0787861,-1.66764e-07,0,0,-0,0,-672.774,-39.3931,0.7
0,-0.00023908,0.448528,-0.000302996,0,5.00157e-10,0.0787725,-1.11176e-07,0,0,-0,0,-673.246,-39.3863,0.704
0,-0.00023908,0.448843,-0.000302996,0,3.33438e-10,0.078759,-7.41174e-08,0,0,-0,0,-673.719,-39.3795,0.708
0,-0.00023908,0.449158,-0.000302996,0,2.22292e-10,0.0787453,-4.94116e-08,0,0,-0,0,-674.191,-39.3727,0.712
0,-0.00023908,0.449473,-0.00030265,0,1.48195e-10,0.0787316,2.8758e-05,0,0,-0,0,-674.663,-39.3514,0.716
0,-0.00023908,0.449788,-0.000302996,0,9.87964e-11,0.0787178,-9.61894e-06,0,0,-0,0,-675.136,-39.3637,0.72
0,-0.00023908,0.450103,-0.000302996,0,6.58643e-11,0.0787039,-6.41262e-06,0,0,-0,0,-675.608,-39.3552,0.724
0,-0.00023908,0.450417,-0.000302996,0,4.39095e-11,0.07869,-4.27508e-06,0,0,-0,0,-676.081,-39.3471,0.728
0,-0.00023908,0.450732,-0.000302996,0,2.9273e-11,0.078676,-2.85005e-06,0,0,-0,0,-676.553,-39.3394,0.732
0,-0.00023908,0.451047,-0.000302996,0,1.95153e-11,0.0786619,-1.90004e-06,0,0,-0,0,-677.025,-39.3319,0.736
0,-0.00023908,0.451361,-0.000302996,0,1.30102e-11,0.0786478,-1.26669e-06,0,0,-0,0,-677.497,-39.3245,0.74
0,-0.00023908,0.451676,-0.000302996,0,8.67348e-12,0.0786335,-8.44461e-07,0,0,-0,0,-677.968,-39.3172,0.744
0,-0.00023908,0.45199,-0.000302996,0,5.78232e-12,0.0786193,-5.62974e-07,0,0,-0,0,-678.44,-39.3099,0.748
0,-0.00023908,0.452305,-0.000302996,0,3.85488e-12,0.0786049,-3.75316e-07,0,0,-0,0,-678.912,-39.3026,0.752
0,-0.00023908,0.452619,-0.000302996,0,2.56992e-12,0.0785905,-2.50211e-07,0,0,-0,0,-679.383,-39.2954,0.756
0,-0.00023908,0.452934,-0.000302996,0,1.71328e-12,0.078576,-1.66807e-07,0,0,-0,0,-679.855,-39.2881,0.76
0,-0.00023908,0.453248,-0.000302996,0,1.14219e-12,0.0785614,-1.11205e-07,0,0,-0,0,-680.326,-39.2808,0.764
0,-0.00023908,0.453562,-0.000302996,0,7.61458e-13,0.0785468,-7.41365e-08,0,0,-0,0,-680.798,-39.2734,0.768
0,-0.00023908,0.453876,-0.000302996,0,5.07639e-13,0.0785321,-4.94243e-08,0,0,-0,0,-681.269,-39.2661,0.772
0,-0.00023908,0.45419,-0.000302996,0,3.38426e-13,0.0785173,-3.29495e-08,0,0,-0,0,-681.74,-39.2587,0.776
0,-0.00023908,0.454504,-0.000302996,0,2.25617e-13,0.0785025,-2.19664e-08,0,0,-0,0,-682.211,-39.2513,0.78
0,-0.00023908,0.454818,-0.000302996,0,1.50411e-13,0.0784876,-1.46442e-08,0,0,-0,0,-682.682,-39.2438,0.784
0,-0.00023908,0.455132,-0.000302996,0,1.00274e-13,0.0784726,-9.76283e-09,0,0,-0,0,-683.153,-39.2363,0.788
0,-0.00023908,0.455446,-0.000302996,0,6.68495e-14,0.0784576,-6.50855e-09,0,0,-0,0,-683.624,-39.2288,0.792
0,-0.00023908,0.45576,-0.000302996,0,4.45664e-14,0.0784425,-4.33903e-09,0,0,-0,0,-684.095,-39.2212,0.796
0,-0.00023908,0.456074,-0.000302996,0,2.97109e-14,0.0784273,-2.89269e-09,0,0,-0,0,-684.565,-39.2136,0.8
0,-0.00023908,0.456387,-0.000302996,0,1.98073e-14,0.078412,-1.92846e-09,0,0,-0,0,-685.036,-39.206,0.804
0,-0.00023908,0.456701,-0.000302996,0,1.32048e-14,0.0783967,-1.28564e-09,0,0,-0,0,-685.506,-39.1984,0.808
0,-0.00023908,0.457015,-0.000302996,0,8.80323e-15,0.0783813,-8.57093e-10,0,0,-0,0,-685.976,-39.1907,0.812
0,-0.00023908,0.457328,-0.000302996,0,5.86882e-15,0.0783659,-5.71395e-10,0,0,-0,0,-686.447,-39.1829,0.816
0,-0.00023908,0.457642,-0.000302996,0,3.91255e-15,0.0783503,-3.8093e-10,0,0,-0,0,-686.917,-39.1752,0.82
0,-0.00023908,0.457955,-0.000302996,0,2.60836e-15,0.0783348,-2.53954e-10,0,0,-0,0,-687.387,-39.1674,0.824
0,-0.00023908,0.458268,-0.000302305,0,1.73891e-15,0.0783191,5.75817e-05,0,0,-0,0,-687.856,-39.1308,0.828
0,-0.00023908,0.458581,-0.000302996,0,1.15927e-15,0.0783034,-1.91941e-05,0,0,-0,0,-688.327,-39.1613,0.832
0,-0.00023908,0.458895,-0.000302996,0,7.72849e-16,0.0782876,-1.2796e-05,0,0,-0,0,-688.796,-39.1502,0.836
0,-0.00023908,0.459208,-0.000302996,0,5.15233e-16,0.0782717,-8.53069e-06,0,0,-0,0,-689.266,-39.1401,0.84
0,-0.00023908,0.459521,-0.000302996,0,3.43488e-16,0.0782558,-5.68713e-06,0,0,-0,0,-689.736,-39.1307,0.844
0,-0.00023908,0.459834,-0.000302996,0,2.28992e-16,0.0782398,-3.79142e-06,0,0,-0,0,-690.205,-39.1218,0.848
0,-0.00023908,0.460147,-0.000302996,0,1.52661e-16,0.0782237,-2.52761e-06,0,0,-0,0,-690.675,-39.1131,0.852
0,-0.00023908,0.46046,-0.000302996,0,1.01774e-16,0.0782076,-1.68508e-06,0,0,-0,0,-691.144,-39.1046,0.856
0,-0.00023908,0.460772,-0.000302996,0,6.78495e-17,0.0781914,-1.12338e-06,0,0,-0,0,-691.613,-39.0963,0.86
0,-0.00023908,0.461085,-0.000302996,0,4.5233e-17,0.0781751,-7.48922e-07,0,0,-0,0,-692.082,-39.0879,0.864
0,-0.00023908,0.461398,-0.000302996,0,3.01554e-17,0.0781588,-4.99282e-07,0,0,-0,0,-692.551,-39.0797,0.868
0,-0.00023908,0.46171,-0.000302996,0,2.01036e-17,0.0781424,-3.32854e-07,0,0,-0,0,-693.02,-39.0714,0.872
0,-0.00023908,0.462023,-0.000302996,0,1.34024e-17,0.0781259,-2.21903e-07,0,0,-0,0,-693.489,-39.0631,0.876
0,-0.00023908,0.462335,-0.000302996,0,8.93492e-18,0.0781094,-1.47935e-07,0,0,-0,0,-693.958,-39.0548,0.88
0,-0.00023908,0.462648,-0.000302996,0,5.95661e-18,0.0780928,-9.86235e-08,0,0,-0,0,-694.426,-39.0464,0.884
0,-0.00023908,0.46296,-0.000302996,0,3.97108e-18,0.0780761,-6.5749e-08,0,0,-0,0,-694.895,-39.0381,0.888
0,-0.00023908,0.463272,-0.000302996,0,2.64738e-18,0.0780594,-4.38327e-08,0,0,-0,0,-695.363,-39.0297,0.892
0,-0.00023908,0.463585,-0.000302996,0,1.76492e-18,0.0780426,-2.92218e-08,0,0,-0,0,-695.831,-39.0213,0.896
0,-0.00023908,0.463897,-0.000302996,0,1.17661e-18,0.0780257,-1.94812e-08,0,0,-0,0,-696.3,-39.0129,0.9
0,-0.00023908,0.464209,-0.000302996,0,7.8441e-19,0.0780088,-1.29875e-08,0,0,-0,0,-696.768,-39.0044,0.904
0,-0.00023908,0.464521,-0.000302996,0,5.2294e-19,0.0779918,-8.65831e-09,0,0,-0,0,-697.236,-38.9959,0.908
0,-0.00023908,0.464833,-0.000302996,0,3.48627e-19,0.0779747,-5.7722e-09,0,0,-0,0,-697.704,-38.9874,0.912
0,-0.00023908,0.465145,-0.000302996,0,2.32418e-19,0.0779576,-3.84814e-09,0,0,-0,0,-698.171,-38.9788,0.916
0,-0.00023908,0.465456,-0.000302996,0,1.54945e-19,0.0779404,-2.56542e-09,0,0,-0,0,-698.639,-38.9702,0.92
0,-0.00023908,0.465768,-0.000302996,0,1.03297e-19,0.0779231,-1.71028e-09,0,0,-0,0,-699.107,-38.9616,0.924
0,-0.00023908,0.46608,-0.000302996,0,6.88645e-20,0.0779058,-1.14019e-09,0,0,-0,0,-699.574,-38.9529,0.928
0,-0.00023908,0.466391,-0.000302996,0,4.59097e-20,0.0778884,-7.60126e-10,0,0,-0,0,-700.042,-38.9442,0.932
0,-0.00023908,0.466703,-0.000302996,0,3.06065e-20,0.0778709,-5.0675e-10,0,0,-0,0,-700.509,-38.9355,0.936
0,-0.00023908,0.467014,-0.000302996,0,2.04043e-20,0.0778534,-3.37834e-10,0,0,-0,0,-700.976,-38.9267,0.94
0,-0.00023908,0.467326,-0.000302996,0,1.36029e-20,0.0778358,-2.25222e-10,0,0,-0,0,-701.443,-38.9179,0.944
0,-0.00023908,0.467637,-0.000302996,0,9.06858e-21,0.0778181,-1.50148e-10,0,0,-0,0,-701.91,-38.9091,0.948
0,-0.00023908,0.467948,-0.000302996,0,6.04572e-21,0.0778004,-1.00099e-10,0,0,-0,0,-702.377,-38.9002,0.952
0,-0.00023908,0.468259,-0.000302996,0,4.03048e-21,0.0777826,-6.67326e-11,0,0,-0,0,-702.844,-38.8913,0.956
0,-0.00023908,0.468571,-0.000302996,0,2.68699e-21,0.0777648,-4.44884e-11,0,0,-0,0,-703.31,-38.8824,0.96
0,-0.00023908,0.468882,-0.000302996,0,1.79132e-21,0.0777468,-2.96589e-11,0,0,-0,0,-703.777,-38.8734,0.964
0,-0.00023908,0.469193,-0.000302996,0,1.19422e-21,0.0777288,-1.97726e-11,0,0,-0,0,-704.243,-38.8644,0.968
0,-0.00023908,0.469503,-0.000302996,0,7.96144e-22,0.0777108,-1.31817e-11,0,0,-0,0,-704.71,-38.8554,0.972
0,-0.00023908,0.469814,-0.000302996,0,5.30763e-22,0.0776927,-8.78783e-12,0,0,-0,0,-705.176,-38.8463,0.976
0,-0.00023908,0.470125,-0.000302996,0,3.53842e-22,0.0776745,-5.85855e-12,0,0,-0,0,-705.642,-38.8372,0.98
0,-0.00023908,0.470436,-0.000302996,0,2.35895e-22,0.0776562,-3.9057e-12,0,0,-0,0,-706.108,-38.8281,0.984
0,-0.00023908,0.470746,-0.000302996,0,1.57263e-22,0.0776379,-2.6038e-12,0,0,-0,0,-706.574,-38.819,0.988
0,-0.00023908,0.471057,-0.000302996,0,1.04842e-22,0.0776195,-1.73587e-12,0,0,-0,0,-707.04,-38.8098,0.992
0,-0.00023908,0.471367,-0.000302996,0,6.98947e-23,0.0776011,-1.15724e-12,0,0,-0,0,-707.505,-38.8005,0.996
0,-0.00023908,0.471678,-0.000302996,0,4.65965e-23,0.0775826,-7.71497e-13,0,0,-0,0,-707.971,-38.7913,1
0,-0.00023908,0.471988,-0.000302996,0,3.10643e-23,0.077564,-5.14331e-13,0,0,-0,0,-708.436,-38.782,1.004
0,-0.00023908,0.472298,-0.000302996,0,2.07095e-23,0.0775454,-3.42887e-13,0,0,-0,0,-708.902,-38.7727,1.008
0,-0.00023908,0.472608,-0.000302996,0,1.38064e-23,0.0775267,-2.28592e-13,0,0,-0,0,-709.367,-38.7633,1.012
0,-0.00023908,0.472918,-0.000302996,0,9.20424e-24,0.0775079,-1.52394e-13,0,0,-0,0,-709.832,-38.754,1.016
0,-0.00023908,0.473228,-0.000302996,0,6.13616e-24,0.0774891,-1.01596e-13,0,0,-0,0,-710.297,-38.7445,1.02
0,-0.00023908,0.473538,-0.000302996,0,4.09077e-24,0.0774702,-6.77308e-14,0,0,-0,0,-710.762,-38.7351,1.024
0,-0.00023908,0.473848,-0.000302996,0,2.72718e-24,0.0774512,-4.51539e-14,0,0,-0,0,-711.226,-38.7256,1.028
0,-0.00023908,0.474158,-0.000302996,0,1.81812e-24,0.0774322,-3.01026e-14,0,0,-0,0,-711.691,-38.7161,1.032
0,-0.00023908,0.474467,-0.000302996,0,1.21208e-24,0.0774131,-2.00684e-14,0,0,-0,0,-712.156,-38.7066,1.036
0,-0.00023908,0.474777,-0.000302996,0,8.08054e-25,0.077394,-1.33789e-14,0,0,-0,0,-712.62,-38.697,1.04
0,-0.00023908,0.475087,-0.000302996,0,5.38703e-25,0.0773747,-8.91929e-15,0,0,-0,0,-713.084,-38.6874,1.044
0,-0.00023908,0.475396,-0.000302996,0,3.59135e-25,0.0773555,-5.94619e-15,0,0,-0,0,-713.549,-38.6777,1.048
0,-0.00023908,0.475705,-0.000302996,0,2.39423e-25,0.0773361,-3.96413e-15,0,0,-0,0,-714.013,-38.6681,1.052
0,-0.00023908,0.476015,-0.000302996,0,1.59616e-25,0.0773167,-2.64275e-15,0,0,-0,0,-714.477,-38.6584,1.056
0,-0.00023908,0.476324,-0.000302996,0,1.0641e-25,0.0772972,-1.76183e-15,0,0,-0,0,-714.94,-38.6486,1.06
0,-0.00023908,0.476633,-0.000302996,0,7.09403e-26,0.0772777,-1.17456e-15,0,0,-0,0,-715.404,-38.6388,1.064
0,-0.00023908,0.476942,-0.000302996,0,4.72935e-26,0.0772581,-7.83038e-16,0,0,-0,0,-715.868,-38.629,1.068
0,-0.00023908,0.477251,-0.000302996,0,3.1529e-26,0.0772384,-5.22025e-16,0,0,-0,0,-716.331,-38.6192,1.072
0,-0.00023908,0.47756,-0.000302996,0,2.10193e-26,0.0772187,-3.48017e-16,0,0,-0,0,-716.795,-38.6094,1.076
0,-0.00023908,0.477869,-0.000302996,0,1.40129e-26,0.0771989,-2.32011e-16,0,0,-0,0,-717.258,-38.5995,1.08
0,-0.00023908,0.478178,-0.000302996,0,9.34193e-27,0.0771791,-1.54674e-16,0,0,-0,0,-717.721,-38.5895,1.084
0,-0.00023908,0.478486,-0.000303341,0,6.22795e-27,0.0771592,-2.87909e-05,0,0,-0,0,-718.185,-38.594,1.088
0,-0.00023908,0.478795,-0.000302996,0,4.15197e-27,0.0771392,9.59697e-06,0,0,-0,0,-718.647,-38.5648,1.092
0,-0.00023908,0.479103,-0.000302996,0,2.76798e-27,0.0771191,6.39798e-06,0,0,-0,0,-719.11,-38.5564,1.096
0,-0.00023908,0.479412,-0.000302996,0,1.84532e-27,0.077099,4.26532e-06,0,0,-0,0,-719.572,-38.5474,1.1
0,-0.00023908,0.47972,-0.000302996,0,1.23021e-27,0.0770789,2.84355e-06,0,0,-0,0,-720.035,-38.538,1.104
0,-0.00023908,0.480029,-0.000302996,0,8.20142e-28,0.0770586,1.8957e-06,0,0,-0,0,-720.497,-38.5284,1.108
0,-0.00023908,0.480337,-0.000303341,0,5.46761e-28,0.0770383,-2.75271e-05,0,0,-0,0,-720.96,-38.5329,1.112
0,-0.00023908,0.480645,-0.000302996,0,3.64507e-28,0.077018,1.04395e-05,0,0,-0,0,-721.422,-38.5038,1.116
0,-0.00023908,0.480953,-0.000302996,0,2.43005e-28,0.0769976,6.95967e-06,0,0,-0,0,-721.884,-38.4953,1.12
0,-0.00023908,0.481261,-0.000302996,0,1.62003e-28,0.0769771,4.63978e-06,0,0,-0,0,-722.346,-38.4862,1.124
0,-0.00023908,0.481569,-0.000302996,0,1.08002e-28,0.0769566,3.09319e-06,0,0,-0,0,-722.808,-38.4767,1.128
0,-0.00023908,0.481876,-0.000303341,0,7.20015e-29,0.076936,-2.67288e-05,0,0,-0,0,-723.27,-38.4813,1.132
0,-0.00023908,0.482184,-0.000302996,0,4.8001e-29,0.0769153,1.09717e-05,0,0,-0,0,-723.731,-38.4522,1.136
0,-0.00023908,0.482492,-0.000303341,0,3.20007e-29,0.0768946,-2.14764e-05,0,0,-0,0,-724.193,-38.458,1.14
0,-0.00023908,0.482799,-0.000302996,0,2.13338e-29,0.0768738,1.44733e-05,0,0,-0,0,-724.654,-38.4296,1.144
0,-0.00023908,0.483107,-0.000302996,0,1.42225e-29,0.0768529,9.64886e-06,0,0,-0,0,-725.115,-38.4216,1.148
0,-0.00023908,0.483414,-0.000302996,0,9.48167e-30,0.076832,6.43258e-06,0,0,-0,0,-725.576,-38.4128,1.152
0,-0.00023908,0.483721,-0.000302996,0,6.32112e-30,0.076811,4.28838e-06,0,0,-0,0,-726.037,-38.4034,1.156
0,-0.00023908,0.484029,-0.000302996,0,4.21408e-30,0.07679,2.85892e-06,0,0,-0,0,-726.497,-38.3936,1.16
0,-0.00023908,0.484336,-0.000302996,0,2.80939e-30,0.0767689,1.90595e-06,0,0,-0,0,-726.958,-38.3835,1.164
0,-0.00023908,0.484643,-0.000302996,0,1.87292e-30,0.0767477,1.27063e-06,0,0,-0,0,-727.419,-38.3732,1.168
0,-0.00023908,0.48495,-0.000302996,0,1.24862e-30,0.0767265,8.47088e-07,0,0,-0,0,-727.879,-38.3628,1.172
0,-0.00023908,0.485257,-0.000302996,0,8.3241e-31,0.0767052,5.64726e-07,0,0,-0,0,-728.339,-38.3523,1.176
0,-0.00023908,0.485563,-0.000302996,0,5.5494e-31,0.0766839,3.76484e-07,0,0,-0,0,-728.8,-38.3418,1.18
0,-0.00023908,0.48587,-0.000302996,0,3.6996e-31,0.0766625,2.50989e-07,0,0,-0,0,-729.26,-38.3311,1.184
0,-0.00023908,0.486177,-0.000302996,0,2.4664e-31,0.076641,1.67326e-07,0,0,-0,0,-729.72,-38.3204,1.188
0,-0.00023908,0.486483,-0.000302996,0,1.64427e-31,0.0766195,1.11551e-07,0,0,-0,0,-730.179,-38.3097,1.192
0,-0.00023908,0.48679,-0.000302996,0,1.09618e-31,0.0765979,7.43671e-08,0,0,-0,0,-730.639,-38.2989,1.196
0,-0.00023908,0.487096,-0.000302996,0,7.30786e-32,0.0765762,4.95781e-08,0,0,-0,0,-731.098,-38.2881,1.2
0,-0.00023908,0.487402,-0.000302996,0,4.8719e-32,0.0765545,3.30521e-08,0,0,-0,0,-731.558,-38.2772,1.204
0,-0.00023908,0.487708,-0.000302996,0,3.24794e-32,0.0765327,2.20347e-08,0,0,-0,0,-732.017,-38.2664,1.208
0,-0.00023908,0.488015,-0.000302996,0,2.16529e-32,0.0765109,1.46898e-08,0,0,-0,0,-732.476,-38.2555,1.212
0,-0.00023908,0.488321,-0.000302996,0,1.44353e-32,0.076489,9.7932e-09,0,0,-0,0,-732.935,-38.2445,1.216
0,-0.00023908,0.488626,-0.000302996,0,9.62351e-33,0.0764671,6.5288e-09,0,0,-0,0,-733.394,-38.2335,1.22
0,-0.00023908,0.488932,-0.000302996,0,6.41568e-33,0.0764451,4.35254e-09,0,0,-0,0,-733.853,-38.2225,1.224
0,-0.00023908,0.489238,-0.000302996,0,4.27712e-33,0.076423,2.90169e-09,0,0,-0,0,-734.311,-38.2115,1.228
0,-0.00023908,0.489544,-0.000302996,0,2.85141e-33,0.0764008,1.93446e-09,0,0,-0,0,-734.77,-38.2004,1.232
0,-0.00023908,0.489849,-0.000302996,0,1.90094e-33,0.0763786,1.28964e-09,0,0,-0,0,-735.228,-38.1893,1.236
0,-0.00023908,0.490155,-0.000302996,0,1.26729e-33,0.0763564,8.5976e-10,0,0,-0,0,-735.687,-38.1782,1.24
0,-0.00023908,0.49046,-0.000302996,0,8.44863e-34,0.0763341,5.73173e-10,0,0,-0,0,-736.145,-38.167,1.244
0,-0.00023908,0.490765,-0.000302996,0,5.63242e-34,0.0763117,3.82116e-10,0,0,-0,0,-736.603,-38.1558,1.248
0,-0.00023908,0.491071,-0.000302996,0,3.75494e-34,0.0762893,2.54744e-10,0,0,-0,0,-737.06,-38.1446,1.252
0,-0.00023908,0.491376,-0.000302996,0,2.5033e-34,0.0762668,1.69829e-10,0,0,-0,0,-737.518,-38.1334,1.256
0,-0.00023908,0.491681,-0.000302996,0,1.66886e-34,0.0762442,1.13219e-10,0,0,-0,0,-737.976,-38.1221,1.26
0,-0.00023908,0.491986,-0.000302996,0,1.11258e-34,0.0762216,7.54796e-11,0,0,-0,0,-738.433,-38.1108,1.264
0,-0.00023908,0.49229,-0.000302996,0,7.41718e-35,0.0761989,5.03197e-11,0,0,-0,0,-738.89,-38.0995,1.268
0,-0.00023908,0.492595,-0.000302996,0,4.94478e-35,0.0761762,3.35465e-11,0,0,-0,0,-739.347,-38.0881,1.272
0,-0.00023908,0.4929,-0.000302996,0,3.29652e-35,0.0761534,2.23643e-11,0,0,-0,0,-739.804,-38.0767,1.276
0,-0.00023908,0.493204,-0.000302996,0,2.19768e-35,0.0761305,1.49096e-11,0,0,-0,0,-740.261,-38.0653,1.28
0,-0.00023908,0.493509,-0.000302996,0,1.46512e-35,0.0761076,9.9397e-12,0,0,-0,0,-740.718,-38.0538,1.284
0,-0.00023908,0.493813,-0.000302996,0,9.76747e-36,0.0760846,6.62647e-12,0,0,-0,0,-741.174,-38.0423,1.288
0,-0.00023908,0.494118,-0.000302996,0,6.51165e-36,0.0760616,4.41765e-12,0,0,-0,0,-741.631,-38.0308,1.292
0,-0.00023908,0.494422,-0.000302996,0,4.3411e-36,0.0760385,2.9451e-12,0,0,-0,0,-742.087,-38.0193,1.296
0,-0.00023908,0.494726,-0.000302996,0,2.89407e-36,0.0760153,1.9634e-12,0,0,-0,0,-742.543,-38.0077,1.3
0,-0.00023908,0.49503,-0.000302996,0,1.92938e-36,0.0759921,1.30893e-12,0,0,-0,0,-742.999,-37.9961,1.304
0,-0.00023908,0.495334,-0.000302996,0,1.28625e-36,0.0759689,8.72621e-13,0,0,-0,0,-743.455,-37.9844,1.308
0,-0.00023908,0.495638,-0.000302996,0,8.57501e-37,0.0759455,5.81748e-13,0,0,-0,0,-743.911,-37.9728,1.312
0,-0.00023908,0.495941,-0.000302996,0,5.71667e-37,0.0759221,3.87832e-13,0,0,-0,0,-744.367,-37.9611,1.316
0,-0.00023908,0.496245,-0.000302996,0,3.81112e-37,0.0758987,2.58554e-13,0,0,-0,0,-744.822,-37.9494,1.32
0,-0.00023908,0.496549,-0.000302996,0,2.54074e-37,0.0758752,1.7237e-13,0,0,-0,0,-745.277,-37.9376,1.324
0,-0.00023908,0.496852,-0.000302996,0,1.69383e-37,0.0758516,1.14913e-13,0,0,-0,0,-745.733,-37.9258,1.328
0,-0.00023908,0.497155,-0.000302996,0,1.12922e-37,0.075828,7.66087e-14,0,0,-0,0,-746.188,-37.914,1.332
0,-0.00023908,0.497459,-0.000302996,0,7.52813e-38,0.0758043,5.10725e-14,0,0,-0,0,-746.642,-37.9022,1.336
0,-0.00023908,0.497762,-0.000302996,0,5.01875e-38,0.0757806,3.40483e-14,0,0,-0,0,-747.097,-37.8903,1.34
0,-0.00023908,0.498065,-0.000302996,0,3.34584e-38,0.0757568,2.26989e-14,0,0,-0,0,-747.552,-37.8784,1.344
0,-0.00023908,0.498368,-0.000302996,0,2.23056e-38,0.0757329,1.51326e-14,0,0,-0,0,-748.006,-37.8665,1.348
0,-0.00023908,0.498671,-0.000302996,0,1.48704e-38,0.075709,1.00884e-14,0,0,-0,0,-748.461,-37.8545,1.352
0,-0.00023908,0.498974,-0.000302996,0,9.91359e-39,0.075685,6.7256e-15,0,0,-0,0,-748.915,-37.8425,1.356
0,-0.00023908,0.499276,-0.000302996,0,6.60906e-39,0.075661,4.48373e-15,0,0,-0,0,-749.369,-37.8305,1.36
0,-0.00023908,0.499579,-0.000302996,0,4.40604e-39,0.0756369,2.98915e-15,0,0,-0,0,-749.823,-37.8185,1.364
0,-0.00023908,0.499881,-0.000302996,0,2.93736e-39,0.0756128,1.99277e-15,0,0,-0,0,-750.277,-37.8064,1.368
0,-0.00023908,0.500184,-0.000302996,0,1.95824e-39,0.0755886,1.32851e-15,0,0,-0,0,-750.73,-37.7943,1.372
0,-0.00023908,0.500486,-0.000302996,0,1.30549e-39,0.0755643,8.85675e-16,0,0,-0,0,-751.184,-37.7822,1.376
0,-0.00023908,0.500788,-0.000302996,0,8.70329e-40,0.07554,5.9045e-16,0,0,-0,0,-751.637,-37.77,1.38
0,-0.00023908,0.50109,-0.000302996,0,5.80219e-40,0.0755156,3.93633e-16,0,0,-0,0,-752.09,-37.7578,1.384
0,-0.00023908,0.501392,-0.000302996,0,3.86813e-40,0.0754912,2.62422e-16,0,0,-0,0,-752.543,-37.7456,1.388
0,-0.00023908,0.501694,-0.000302996,0,2.57875e-40,0.0754667,1.74948e-16,0,0,-0,0,-752.996,-37.7333,1.392
0,-0.00023908,0.501996,-0.000302996,0,1.71917e-40,0.0754421,1.16632e-16,0,0,-0,0,-753.449,-37.7211,1.396
0,-0.00023908,0.502298,-0.000302996,0,1.14611e-40,0.0754175,7.77547e-17,0,0,-0,0,-753.901,-37.7088,1.4
0,-0.00023908,0.502599,-0.000302996,0,7.64075e-41,0.0753929,5.18365e-17,0,0,-0,0,-754.354,-37.6964,1.404
0,-0.00023908,0.502901,-0.000302996,0,5.09383e-41,0.0753681,3.45577e-17,0,0,-0,0,-754.806,-37.6841,1.408
0,-0.00023908,0.503202,-0.000302996,0,3.39589e-41,0.0753434,2.30384e-17,0,0,-0,0,-755.258,-37.6717,1.412
0,-0.00023908,0.503504,-0.000302996,0,2.26392e-41,0.0753185,1.5359e-17,0,0,-0,0,-755.71,-37.6593,1.416
0,-0.00023908,0.503805,-0.000302996,0,1.50928e-41,0.0752936,1.02393e-17,0,0,-0,0,-756.162,-37.6468,1.42
0,-0.00023908,0.504106,-0.000302996,0,1.00619e-41,0.0752687,6.82621e-18,0,0,-0,0,-756.614,-37.6343,1.424
0,-0.00023908,0.504407,-0.000302996,0,6.70792e-42,0.0752437,4.5508e-18,0,0,-0,0,-757.065,-37.6218,1.428
0,-0.00023908,0.504708,-0.000303341,0,4.47195e-42,0.0752186,-2.87909e-05,0,0,-0,0,-757.517,-37.6237,1.432
0,-0.00023908,0.505009,-0.000302996,0,2.9813e-42,0.0751935,9.59697e-06,0,0,-0,0,-757.968,-37.592,1.436
0,-0.00023908,0.50531,-0.000302305,0,1.98753e-42,0.0751683,6.39798e-05,0,0,-0,0,-758.418,-37.5522,1.44
0,-0.00023908,0.50561,-0.000302996,0,1.32502e-42,0.0751431,-1.49286e-05,0,0,-0,0,-758.87,-37.579,1.444
0,-0.00023908,0.505911,-0.000302996,0,8.83348e-43,0.0751178,-9.95242e-06,0,0,-0,0,-759.321,-37.5639,1.448
0,-0.00023908,0.506211,-0.000302996,0,5.88899e-43,0.0750925,-6.63495e-06,0,0,-0,0,-759.771,-37.5495,1.452
0,-0.00023908,0.506511,-0.000302996,0,3.92599e-43,0.0750671,-4.4233e-06,0,0,-0,0,-760.222,-37.5357,1.456
0,-0.00023908,0.506812,-0.000302996,0,2.61733e-43,0.0750416,-2.94886e-06,0,0,-0,0,-760.672,-37.5223,1.46
0,-0.00023908,0.507112,-0.000302996,0,1.74489e-43,0.0750161,-1.96591e-06,0,0,-0,0,-761.122,-37.509,1.464
0,-0.00023908,0.507412,-0.000302996,0,1.16326e-43,0.0749905,-1.31061e-06,0,0,-0,0,-761.572,-37.4959,1.468
0,-0.00023908,0.507712,-0.000302996,0,7.75505e-44,0.0749649,-8.73738e-07,0,0,-0,0,-762.022,-37.4829,1.472
0,-0.00023908,0.508012,-0.000302996,0,5.17003e-44,0.0749392,-5.82492e-07,0,0,-0,0,-762.472,-37.4699,1.476
0,-0.00023908,0.508311,-0.000302996,0,3.44669e-44,0.0749135,-3.88328e-07,0,0,-0,0,-762.921,-37.4569,1.48
0,-0.00023908,0.508611,-0.000302996,0,2.29779e-44,0.0748877,-2.58885e-07,0,0,-0,0,-763.371,-37.444,1.484
0,-0.00023908,0.50891,-0.000302996,0,1.53186e-44,0.0748618,-1.7259e-07,0,0,-0,0,-763.82,-37.431,1.488
0,-0.00023908,0.50921,-0.000302996,0,1.02124e-44,0.0748359,-1.1506e-07,0,0,-0,0,-764.269,-37.418,1.492
0,-0.00023908,0.509509,-0.000302996,0,6.80827e-45,0.07481,-7.67067e-08,0,0,-0,0,-764.718,-37.405,1.496
0,-0.00023908,0.509808,-0.000302996,0,4.53885e-45,0.0747839,-5.11378e-08,0,0,-0,0,-765.167,-37.392,1.5
0,-0.00023908,0.510107,-0.000302996,0,3.0259e-45,0.0747579,-3.40919e-08,0,0,-0,0,-765.615,-37.379,1.504
0,-0.00023908,0.510406,-0.000302996,0,2.01727e-45,0.0747317,-2.27279e-08,0,0,-0,0,-766.064,-37.3659,1.508
0,-0.00023908,0.510705,-0.000302996,0,1.34484e-45,0.0747056,-1.51519e-08,0,0,-0,0,-766.512,-37.3528,1.512
0,-0.00023908,0.511004,-0.000302996,0,8.96562e-46,0.0746793,-1.01013e-08,0,0,-0,0,-766.96,-37.3397,1.516
0,-0.00023908,0.511303,-0.000302996,0,5.97708e-46,0.074653,-6.7342e-09,0,0,-0,0,-767.408,-37.3265,1.52
0,-0.00023908,0.511601,-0.000302996,0,3.98472e-46,0.0746267,-4.48947e-09,0,0,-0,0,-767.856,-37.3133,1.524
0,-0.00023908,0.5119,-0.000302996,0,2.65648e-46,0.0746003,-2.99298e-09,0,0,-0,0,-768.304,-37.3001,1.528
0,-0.00023908,0.512198,-0.000302996,0,1.77099e-46,0.0745738,-1.99532e-09,0,0,-0,0,-768.751,-37.2869,1.532
0,-0.00023908,0.512496,-0.000302996,0,1.18066e-46,0.0745473,-1.33021e-09,0,0,-0,0,-769.199,-37.2737,1.536
0,-0.00023908,0.512794,-0.000302996,0,7.87105e-47,0.0745207,-8.86808e-10,0,0,-0,0,-769.646,-37.2604,1.54
0,-0.00023908,0.513092,-0.000302996,0,5.24737e-47,0.0744941,-5.91205e-10,0,0,-0,0,-770.093,-37.2471,1.544
0,-0.00023908,0.51339,-0.000302996,0,3.49825e-47,0.0744674,-3.94137e-10,0,0,-0,0,-770.54,-37.2337,1.548
0,-0.00023908,0.513688,-0.000302996,0,2.33216e-47,0.0744407,-2.62758e-10,0,0,-0,0,-770.987,-37.2204,1.552
0,-0.00023908,0.513986,-0.000302996,0,1.55478e-47,0.0744139,-1.75172e-10,0,0,-0,0,-771.433,-37.207,1.556
0,-0.00023908,0.514283,-0.000302996,0,1.03652e-47,0.0743871,-1.16781e-10,0,0,-0,0,-771.88,-37.1935,1.56
0,-0.00023908,0.514581,-0.000302996,0,6.91012e-48,0.0743602,-7.78542e-11,0,0,-0,0,-772.326,-37.1801,1.564
0,-0.00023908,0.514878,-0.000302996,0,4.60674e-48,0.0743333,-5.19028e-11,0,0,-0,0,-772.772,-37.1666,1.568
0,-0.00023908,0.515176,-0.000302996,0,3.07116e-48,0.0743062,-3.46019e-11,0,0,-0,0,-773.218,-37.1531,1.572
0,-0.00023908,0.515473,-0.000302996,0,2.04744e-48,0.0742792,-2.30679e-11,0,0,-0,0,-773.664,-37.1396,1.576
0,-0.00023908,0.51577,-0.000302996,0,1.36496e-48,0.0742521,-1.53786e-11,0,0,-0,0,-774.109,-37.126,1.58
0,-0.00023908,0.516067,-0.000302996,0,9.09974e-49,0.0742249,-1.02524e-11,0,0,-0,0,-774.555,-37.1125,1.584
0,-0.00023908,0.516364,-0.000302996,0,6.06649e-49,0.0741977,-6.83494e-12,0,0,-0,0,-775,-37.0988,1.588
0,-0.00023908,0.51666,-0.000302996,0,4.04433e-49,0.0741704,-4.55663e-12,0,0,-0,0,-775.445,-37.0852,1.592
0,-0.00023908,0.516957,-0.000302996,0,2.69622e-49,0.0741431,-3.03775e-12,0,0,-0,0,-775.89,-37.0716,1.596
0,-0.00023908,0.517253,-0.000302996,0,1.79748e-49,0.0741157,-2.02517e-12,0,0,-0,0,-776.335,-37.0579,1.6
0,-0.00023908,0.51755,-0.000302996,0,1.19832e-49,0.0740883,-1.35011e-12,0,0,-0,0,-776.779,-37.0441,1.604
0,-0.00023908,0.517846,-0.000302996,0,7.9888e-50,0.0740608,-9.00074e-13,0,0,-0,0,-777.224,-37.0304,1.608
0,-0.00023908,0.518142,-0.000302996,0,5.32587e-50,0.0740333,-6.00049e-13,0,0,-0,0,-777.668,-37.0166,1.612
0,-0.00023908,0.518438,-0.000302996,0,3.55058e-50,0.0740057,-4.00033e-13,0,0,-0,0,-778.112,-37.0028,1.616
0,-0.00023908,0.518734,-0.000302996,0,2.36705e-50,0.073978,-2.66689e-13,0,0,-0,0,-778.556,-36.989,1.62
0,-0.00023908,0.51903,-0.000302996,0,1.57803e-50,0.0739503,-1.77792e-13,0,0,-0,0,-779,-36.9752,1.624
0,-0.00023908,0.519326,-0.000302996,0,1.05202e-50,0.0739226,-1.18528e-13,0,0,-0,0,-779.444,-36.9613,1.628
0,-0.00023908,0.519622,-0.000302996,0,7.01349e-51,0.0738948,-7.90189e-14,0,0,-0,0,-779.887,-36.9474,1.632
0,-0.00023908,0.519917,-0.000302996,0,4.67566e-51,0.0738669,-5.26792e-14,0,0,-0,0,-780.33,-36.9335,1.636
0,-0.00023908,0.520213,-0.000302996,0,3.11711e-51,0.073839,-3.51195e-14,0,0,-0,0,-780.773,-36.9195,1.64
0,-0.00023908,0.520508,-0.000302996,0,2.07807e-51,0.073811,-2.3413e-14,0,0,-0,0,-781.216,-36.9055,1.644
0,-0.00023908,0.520803,-0.000302996,0,1.38538e-51,0.073783,-1.56087e-14,0,0,-0,0,-781.659,-36.8915,1.648
0,-0.00023908,0.521098,-0.000302996,0,9.23587e-52,0.0737549,-1.04058e-14,0,0,-0,0,-782.102,-36.8775,1.652
0,-0.00023908,0.521393,-0.000302996,0,6.15724e-52,0.0737268,-6.93718e-15,0,0,-0,0,-782.544,-36.8634,1.656
0,-0.00023908,0.521688,-0.000302996,0,4.10483e-52,0.0736986,-4.62479e-15,0,0,-0,0,-782.986,-36.8493,1.66
0,-0.00023908,0.521983,-0.000302996,0,2.73655e-52,0.0736704,-3.08319e-15,0,0,-0,0,-783.429,-36.8352,1.664
0,-0.00023908,0.522277,-0.000302996,0,1.82437e-52,0.0736421,-2.05546e-15,0,0,-0,0,-783.87,-36.8211,1.668
0,-0.00023908,0.522572,-0.000302996,0,1.21625e-52,0.0736138,-1.37031e-15,0,0,-0,0,-784.312,-36.8069,1.672
0,-0.00023908,0.522866,-0.000302996,0,8.10831e-53,0.0735854,-9.13539e-16,0,0,-0,0,-784.754,-36.7927,1.676
0,-0.00023908,0.523161,-0.000302996,0,5.40554e-53,0.073557,-6.09026e-16,0,0,-0,0,-785.195,-36.7785,1.68
0,-0.00023908,0.523455,-0.000302996,0,3.60369e-53,0.0735285,-4.06017e-16,0,0,-0,0,-785.637,-36.7642,1.684
0,-0.00023908,0.523749,-0.000302996,0,2.40246e-53,0.0734999,-2.70678e-16,0,0,-0,0,-786.078,-36.75,1.688
0,-0.00023908,0.524043,-0.000302996,0,1.60164e-53,0.0734714,-1.80452e-16,0,0,-0,0,-786.519,-36.7357,1.692
0,-0.00023908,0.524337,-0.000302996,0,1.06776e-53,0.0734427,-1.20301e-16,0,0,-0,0,-786.959,-36.7214,1.696
0,-0.00023908,0.52463,-0.000302996,0,7.1184e-54,0.073414,-8.02009e-17,0,0,-0,0,-787.4,-36.707,1.7
0,-0.00023908,0.524924,-0.000302996,0,4.7456e-54,0.0733853,-5.34673e-17,0,0,-0,0,-787.84,-36.6926,1.704
0,-0.00023908,0.525217,-0.000302996,0,3.16373e-54,0.0733565,-3.56448e-17,0,0,-0,0,-788.28,-36.6782,1.708
0,-0.00023908,0.525511,-0.000302996,0,2.10916e-54,0.0733276,-2.37632e-17,0,0,-0,0,-788.721,-36.6638,1.712
0,-0.00023908,0.525804,-0.000302996,0,1.4061e-54,0.0732987,-1.58422e-17,0,0,-0,0,-789.16,-36.6494,1.716
0,-0.00023908,0.526097,-0.000302996,0,9.37403e-55,0.0732698,-1.05614e-17,0,0,-0,0,-789.6,-36.6349,1.72
0,-0.00023908,0.52639,-0.000302996,0,6.24935e-55,0.0732407,-7.04096e-18,0,0,-0,0,-790.04,-36.6204,1.724
0,-0.00023908,0.526683,-0.00030265,0,4.16623e-55,0.0732117,2.87909e-05,0,0,-0,0,-790.478,-36.5914,1.728
0,-0.00023908,0.526976,-0.000302996,0,2.77749e-55,0.0731826,-9.59697e-06,0,0,-0,0,-790.918,-36.5961,1.732
0,-0.00023908,0.527268,-0.000302996,0,1.85166e-55,0.0731534,-6.39798e-06,0,0,-0,0,-791.357,-36.5799,1.736
0,-0.00023908,0.527561,-0.000302996,0,1.23444e-55,0.0731242,-4.26532e-06,0,0,-0,0,-791.796,-36.5642,1.74
0,-0.00023908,0.527853,-0.000302996,0,8.2296e-56,0.0730949,-2.84355e-06,0,0,-0,0,-792.235,-36.5489,1.744
0,-0.00023908,0.528146,-0.000302996,0,5.4864e-56,0.0730656,-1.8957e-06,0,0,-0,0,-792.673,-36.5338,1.748
0,-0.00023908,0.528438,-0.000302996,0,3.6576e-56,0.0730363,-1.2638e-06,0,0,-0,0,-793.111,-36.5188,1.752
0,-0.00023908,0.52873,-0.000302996,0,2.4384e-56,0.0730069,-8.42533e-07,0,0,-0,0,-793.55,-36.5038,1.756
0,-0.00023908,0.529022,-0.000302996,0,1.6256e-56,0.0729774,-5.61689e-07,0,0,-0,0,-793.988,-36.489,1.76
0,-0.00023908,0.529314,-0.000302996,0,1.08373e-56,0.0729479,-3.74459e-07,0,0,-0,0,-794.425,-36.4741,1.764
0,-0.00023908,0.529606,-0.000302996,0,7.22489e-57,0.0729183,-2.49639e-07,0,0,-0,0,-794.863,-36.4593,1.768
0,-0.00023908,0.529897,-0.000302996,0,4.81659e-57,0.0728887,-1.66426e-07,0,0,-0,0,-795.3,-36.4444,1.772
0,-0.00023908,0.530189,-0.000302996,0,3.21106e-57,0.072859,-1.10951e-07,0,0,-0,0,-795.738,-36.4296,1.776
0,-0.00023908,0.53048,-0.000302996,0,2.14071e-57,0.0728293,-7.39672e-08,0,0,-0,0,-796.175,-36.4147,1.78
0,-0.00023908,0.530771,-0.000302996,0,1.42714e-57,0.0727995,-4.93115e-08,0,0,-0,0,-796.612,-36.3998,1.784
0,-0.00023908,0.531063,-0.000302996,0,9.51426e-58,0.0727697,-3.28743e-08,0,0,-0,0,-797.048,-36.3849,1.788
0,-0.00023908,0.531354,-0.000302996,0,6.34284e-58,0.0727398,-2.19162e-08,0,0,-0,0,-797.485,-36.3699,1.792
0,-0.000239425,0.531644,-0.000302996,0,-2.87909e-05,0.0727099,-1.46108e-08,0,0,-0,-0,-797.921,-36.355,1.796
0,-0.00023908,0.531935,-0.000302996,0,9.59697e-06,0.07268,-9.74054e-09,0,0,-0,0,-798.357,-36.34,1.8
0,-0.00023908,0.532226,-0.000302996,0,6.39798e-06,0.0726499,-6.49369e-09,0,0,-0,0,-798.793,-36.325,1.804
0,-0.00023908,0.532516,-0.000302996,0,4.26532e-06,0.0726199,-4.32913e-09,0,0,-0,0,-799.229,-36.3099,1.808
0,-0.00023908,0.532807,-0.000302996,0,2.84355e-06,0.0725897,-2.88609e-09,0,0,-0,0,-799.665,-36.2949,1.812
0,-0.00023908,0.533097,-0.000302996,0,1.8957e-06,0.0725596,-1.92406e-09,0,0,-0,0,-800.1,-36.2798,1.816
0,-0.00023908,0.533387,-0.000302996,0,1.2638e-06,0.0725294,-1.2827e-09,0,0,-0,0,-800.535,-36.2647,1.82
0,-0.00023908,0.533677,-0.000302996,0,8.42533e-07,0.0724991,-8.55136e-10,0,0,-0,0,-800.971,-36.2495,1.824
0,-0.00023908,0.533967,-0.000302996,0,5.61689e-07,0.0724688,-5.70091e-10,0,0,-0,0,-801.405,-36.2344,1.828
0,-0.00023908,0.534257,-0.000302996,0,3.74459e-07,0.0724384,-3.80061e-10,0,0,-0,0,-801.84,-36.2192,1.832
0,-0.00023908,0.534547,-0.000302996,0,2.49639e-07,0.072408,-2.53374e-10,0,0,-0,0,-802.275,-36.204,1.836
0,-0.00023908,0.534836,-0.000302996,0,1.66426e-07,0.0723775,-1.68916e-10,0,0,-0,0,-802.709,-36.1888,1.84
0,-0.00023908,0.535126,-0.000302996,0,1.10951e-07,0.072347,-1.12611e-10,0,0,-0,0,-803.143,-36.1735,1.844
0,-0.00023908,0.535415,-0.000302996,0,7.39672e-08,0.0723164,-7.50737e-11,0,0,-0,0,-803.577,-36.1582,1.848
0,-0.00023908,0.535704,-0.00030265,0,4.93115e-08,0.0722858,2.87909e-05,0,0,-0,0,-804.01,-36.1285,1.852
0,-0.00023908,0.535993,-0.000302996,0,3.28743e-08,0.0722552,-9.59701e-06,0,0,-0,0,-804.445,-36.1324,1.856
0,-0.00023908,0.536282,-0.000302996,0,2.19162e-08,0.0722245,-6.39801e-06,0,0,-0,0,-804.878,-36.1154,1.86
0,-0.00023908,0.536571,-0.000302996,0,1.46108e-08,0.0721937,-4.26534e-06,0,0,-0,0,-805.311,-36.099,1.864
0,-0.00023908,0.53686,-0.000302996,0,9.74054e-09,0.0721629,-2.84356e-06,0,0,-0,0,-805.744,-36.0829,1.868
0,-0.00023908,0.537149,-0.000302996,0,6.49369e-09,0.072132,-1.89571e-06,0,0,-0,0,-806.177,-36.067,1.872
0,-0.00023908,0.537437,-0.000302996,0,4.32913e-09,0.0721011,-1.2638e-06,0,0,-0,0,-806.61,-36.0512,1.876
0,-0.00023908,0.537725,-0.000302996,0,2.88609e-09,0.0720702,-8.42536e-07,0,0,-0,0,-807.042,-36.0355,1.88
0,-0.00023908,0.538014,-0.000302996,0,1.92406e-09,0.0720392,-5.6169e-07,0,0,-0,0,-807.475,-36.0199,1.884
0,-0.00023908,0.538302,-0.000302996,0,1.2827e-09,0.0720081,-3.7446e-07,0,0,-0,0,-807.907,-36.0042,1.888
0,-0.00023908,0.53859,-0.000302996,0,8.55136e-10,0.071977,-2.4964e-07,0,0,-0,0,-808.339,-35.9886,1.892
0,-0.00023908,0.538877,-0.000302996,0,5.70091e-10,0.0719459,-1.66427e-07,0,0,-0,0,-808.771,-35.973,1.896
0,-0.00023908,0.539165,-0.000302996,0,3.80061e-10,0.0719147,-1.10951e-07,0,0,-0,0,-809.202,-35.9574,1.9
0,-0.00023908,0.539453,-0.000302996,0,2.53374e-10,0.0718834,-7.39675e-08,0,0,-0,0,-809.634,-35.9417,1.904
0,-0.00023908,0.53974,-0.000302996,0,1.68916e-10,0.0718521,-4.93116e-08,0,0,-0,0,-810.065,-35.9261,1.908
0,-0.00023908,0.540028,-0.000302996,0,1.12611e-10,0.0718208,-3.28744e-08,0,0,-0,0,-810.496,-35.9104,1.912
0,-0.00023908,0.540315,-0.000302996,0,7.50737e-11,0.0717894,-2.19163e-08,0,0,-0,0,-810.927,-35.8947,1.916
0,-0.00023908,0.540602,-0.000302996,0,5.00491e-11,0.071758,-1.46109e-08,0,0,-0,0,-811.357,-35.879,1.92
0,-0.00023908,0.540889,-0.000302996,0,3.33661e-11,0.0717265,-9.74057e-09,0,0,-0,0,-811.788,-35.8632,1.924
0,-0.00023908,0.541176,-0.000302996,0,2.22441e-11,0.0716949,-6.49371e-09,0,0,-0,0,-812.218,-35.8475,1.928
0,-0.00023908,0.541462,-0.000302996,0,1.48294e-11,0.0716634,-4.32914e-09,0,0,-0,0,-812.648,-35.8317,1.932
0,-0.00023908,0.541749,-0.000302996,0,9.88625e-12,0.0716317,-2.8861e-09,0,0,-0,0,-813.078,-35.8159,1.936
0,-0.00023908,0.542035,-0.000302996,0,6.59083e-12,0.0716001,-1.92406e-09,0,0,-0,0,-813.508,-35.8,1.94
0,-0.00023908,0.542322,-0.000302996,0,4.39389e-12,0.0715683,-1.28271e-09,0,0,-0,0,-813.937,-35.7842,1.944
0,-0.00023908,0.542608,-0.000302996,0,2.92926e-12,0.0715366,-8.55139e-10,0,0,-0,0,-814.367,-35.7683,1.948
0,-0.00023908,0.542894,-0.000302996,0,1.95284e-12,0.0715048,-5.70093e-10,0,0,-0,0,-814.796,-35.7524,1.952
0,-0.00023908,0.54318,-0.000302996,0,1.30189e-12,0.0714729,-3.80062e-10,0,0,-0,0,-815.225,-35.7364,1.956
0,-0.00023908,0.543466,-0.000302996,0,8.67929e-13,0.071441,-2.53375e-10,0,0,-0,0,-815.653,-35.7205,1.96
0,-0.00023908,0.543752,-0.000302996,0,5.78619e-13,0.071409,-1.68916e-10,0,0,-0,0,-816.082,-35.7045,1.964
0,-0.00023908,0.544037,-0.000302996,0,3.85746e-13,0.071377,-1.12611e-10,0,0,-0,0,-816.51,-35.6885,1.968
0,-0.00023908,0.544323,-0.000302996,0,2.57164e-13,0.071345,-7.5074e-11,0,0,-0,0,-816.938,-35.6725,1.972
0,-0.00023908,0.544608,-0.000302996,0,1.71443e-13,0.0713129,-5.00493e-11,0,0,-0,0,-817.366,-35.6564,1.976
0,-0.00023908,0.544893,-0.000302996,0,1.14295e-13,0.0712807,-3.33662e-11,0,0,-0,0,-817.794,-35.6404,1.98
0,-0.00023908,0.545178,-0.000302996,0,7.61967e-14,0.0712485,-2.22441e-11,0,0,-0,0,-818.222,-35.6243,1.984
0,-0.00023908,0.545463,-0.000302996,0,5.07978e-14,0.0712163,-1.48294e-11,0,0,-0,0,-818.649,-35.6081,1.988
0,-0.00023908,0.545748,-0.000302996,0,3.38652e-14,0.071184,-9.88628e-12,0,0,-0,0,-819.076,-35.592,1.992
0,-0.00023908,0.546033,-0.000302996,0,2.25768e-14,0.0711517,-6.59086e-12,0,0,-0,0,-819.503,-35.5758,1.996
0,-0.00023908,0.546317,-0.000302996,0,1.50512e-14,0.0711193,-4.3939e-12,0,0,-0,0,-819.93,-35.5596,2
0,-0.00023908,0.546602,-0.000302996,0,1.00341e-14,0.0710869,-2.92927e-12,0,0,-0,0,-820.357,-35.5434,2.004
0,-0.00023908,0.546886,-0.000302996,0,6.68943e-15,0.0710544,-1.95285e-12,0,0,-0,0,-820.783,-35.5272,2.008
0,-0.00023908,0.54717,-0.000302996,0,4.45962e-15,0.0710219,-1.3019e-12,0,0,-0,0,-821.209,-35.5109,2.012
0,-0.00023908,0.547454,-0.000302996,0,2.97308e-15,0.0709893,-8.67932e-13,0,0,-0,0,-821.635,-35.4947,2.016
0,-0.00023908,0.547738,-0.000302996,0,1.98205e-15,0.0709567,-5.78621e-13,0,0,-0,0,-822.061,-35.4784,2.02
0,-0.00023908,0.548022,-0.000302996,0,1.32137e-15,0.070924,-3.85747e-13,0,0,-0,0,-822.487,-35.462,2.024
0,-0.00023908,0.548305,-0.000302996,0,8.80912e-16,0.0708913,-2.57165e-13,0,0,-0,0,-822.912,-35.4457,2.028
0,-0.00023908,0.548589,-0.000302996,0,5.87275e-16,0.0708586,-1.71443e-13,0,0,-0,0,-823.338,-35.4293,2.032
0,-0.00023908,0.548872,-0.000302996,0,3.91517e-16,0.0708258,-1.14296e-13,0,0,-0,0,-823.763,-35.4129,2.036
0,-0.00023908,0.549155,-0.000302996,0,2.61011e-16,0.070793,-7.6197e-14,0,0,-0,0,-824.188,-35.3965,2.04
0,-0.00023908,0.549438,-0.000302996,0,1.74007e-16,0.0707601,-5.0798e-14,0,0,-0,0,-824.612,-35.38,2.044
0,-0.00023908,0.549721,-0.000302996,0,1.16005e-16,0.0707271,-3.38653e-14,0,0,-0,0,-825.037,-35.3636,2.048
0,-0.00023908,0.550004,-0.000302996,0,7.73366e-17,0.0706942,-2.25769e-14,0,0,-0,0,-825.461,-35.3471,2.052
0,-0.00023908,0.550287,-0.000302996,0,5.15577e-17,0.0706611,-1.50513e-14,0,0,-0,0,-825.885,-35.3306,2.056
0,-0.00023908,0.55057,-0.000302996,0,3.43718e-17,0.0706281,-1.00342e-14,0,0,-0,0,-826.309,-35.314,2.06
0,-0.00023908,0.550852,-0.000302996,0,2.29145e-17,0.070595,-6.68945e-15,0,0,-0,0,-826.733,-35.2975,2.064
0,-0.00023908,0.551134,-0.000302996,0,1.52764e-17,0.0705618,-4.45963e-15,0,0,-0,0,-827.156,-35.2809,2.068
0,-0.00023908,0.551417,-0.000302996,0,1.01842e-17,0.0705286,-2.97309e-15,0,0,-0,0,-827.579,-35.2643,2.072
0,-0.00023908,0.551699,-0.000302996,0,6.7895e-18,0.0704954,-1.98206e-15,0,0,-0,0,-828.002,-35.2477,2.076
0,-0.00023908,0.551981,-0.000302996,0,4.52633e-18,0.0704621,-1.32137e-15,0,0,-0,0,-828.425,-35.231,2.08
0,-0.00023908,0.552262,-0.000302996,0,3.01755e-18,0.0704287,-8.80915e-16,0,0,-0,0,-828.848,-35.2144,2.084
0,-0.00023908,0.552544,-0.000302996,0,2.0117e-18,0.0703954,-5.87277e-16,0,0,-0,0,-829.27,-35.1977,2.088
0,-0.00023908,0.552825,-0.000302996,0,1.34113e-18,0.0703619,-3.91518e-16,0,0,-0,0,-829.693,-35.181,2.092
0,-0.00023908,0.553107,-0.000302996,0,8.9409e-19,0.0703285,-2.61012e-16,0,0,-0,0,-830.115,-35.1642,2.096
0,-0.00023908,0.553388,-0.000302996,0,5.9606e-19,0.0702949,-1.74008e-16,0,0,-0,0,-830.537,-35.1475,2.1
0,-0.00023908,0.553669,-0.000302996,0,3.97373e-19,0.0702614,-1.16005e-16,0,0,-0,0,-830.958,-35.1307,2.104
0,-0.00023908,0.55395,-0.000302996,0,2.64916e-19,0.0702278,-7.73369e-17,0,0,-0,0,-831.38,-35.1139,2.108
0,-0.00023908,0.554231,-0.000302996,0,1.7661e-19,0.0701941,-5.15579e-17,0,0,-0,0,-831.801,-35.0971,2.112
0,-0.00023908,0.554512,-0.000302996,0,1.1774e-19,0.0701604,-3.43719e-17,0,0,-0,0,-832.222,-35.0802,2.116
0,-0.00023908,0.554792,-0.000302996,0,7.84935e-20,0.0701267,-2.29146e-17,0,0,-0,0,-832.643,-35.0633,2.12
0,-0.00023908,0.555073,-0.000302996,0,5.2329e-20,0.0700929,-1.52764e-17,0,0,-0,0,-833.064,-35.0465,2.124
0,-0.00023908,0.555353,-0.000302996,0,3.4886e-20,0.0700591,-1.01843e-17,0,0,-0,0,-833.484,-35.0295,2.128
0,-0.00023908,0.555633,-0.000302996,0,2.32573e-20,0.0700252,-6.78952e-18,0,0,-0,0,-833.904,-35.0126,2.132
0,-0.00023908,0.555913,-0.000302996,0,1.55049e-20,0.0699913,-4.52635e-18,0,0,-0,0,-834.324,-34.9956,2.136
0,-0.00023908,0.556193,-0.000302996,0,1.03366e-20,0.0699573,-3.01756e-18,0,0,-0,0,-834.744,-34.9787,2.14
0,-0.00023908,0.556473,-0.000302996,0,6.89106e-21,0.0699233,-2.01171e-18,0,0,-0,0,-835.164,-34.9617,2.144
0,-0.00023908,0.556753,-0.000302996,0,4.59404e-21,0.0698893,-1.34114e-18,0,0,-0,0,-835.583,-34.9446,2.148
0,-0.00023908,0.557032,-0.000302996,0,3.06269e-21,0.0698552,-8.94093e-19,0,0,-0,0,-836.003,-34.9276,2.152
0,-0.00023908,0.557311,-0.000302996,0,2.0418e-21,0.0698211,-5.96062e-19,0,0,-0,0,-836.422,-34.9105,2.156
0,-0.00023908,0.557591,-0.000302996,0,1.3612e-21,0.0697869,-3.97375e-19,0,0,-0,0,-836.84,-34.8934,2.16
0,-0.00023908,0.55787,-0.000302996,0,9.07465e-22,0.0697527,-2.64916e-19,0,0,-0,0,-837.259,-34.8763,2.164
0,-0.00023908,0.558149,-0.000302996,0,6.04977e-22,0.0697184,-1.76611e-19,0,0,-0,0,-837.677,-34.8592,2.168
0,-0.00023908,0.558427,-0.000302996,0,4.03318e-22,0.0696841,-1.17741e-19,0,0,-0,0,-838.096,-34.842,2.172
0,-0.00023908,0.558706,-0.000302996,0,2.68878e-22,0.0696497,-7.84938e-20,0,0,-0,0,-838.514,-34.8249,2.176
0,-0.00023908,0.558985,-0.000302305,0,1.79252e-22,0.0696153,5.75818e-05,0,0,-0,0,-838.93,-34.7789,2.18
0,-0.00023908,0.559263,-0.000302996,0,1.19502e-22,0.0695809,-1.91939e-05,0,0,-0,0,-839.349,-34.8,2.184
0,-0.00023908,0.559541,-0.000302996,0,7.96677e-23,0.0695464,-1.2796e-05,0,0,-0,0,-839.766,-34.7796,2.188
0,-0.000239771,0.559819,-0.000302996,0,-5.75818e-05,0.0695119,-8.53064e-06,0,0,-0,-0,-840.184,-34.7602,2.192
0,-0.00023908,0.560097,-0.000302996,0,1.91939e-05,0.0694773,-5.6871e-06,0,0,-0,0,-840.601,-34.7415,2.196
0,-0.00023908,0.560375,-0.000302996,0,1.2796e-05,0.0694427,-3.7914e-06,0,0,-0,0,-841.017,-34.7233,2.2
0,-0.00023908,0.560653,-0.000302996,0,8.53064e-06,0.0694081,-2.5276e-06,0,0,-0,0,-841.434,-34.7053,2.204
0,-0.00023908,0.56093,-0.000302996,0,5.6871e-06,0.0693734,-1.68507e-06,0,0,-0,0,-841.85,-34.6875,2.208
0,-0.00023908,0.561208,-0.000302996,0,3.7914e-06,0.0693386,-1.12338e-06,0,0,-0,0,-842.266,-34.6699,2.212
0,-0.00023908,0.561485,-0.000302996,0,2.5276e-06,0.0693039,-7.48918e-07,0,0,-0,0,-842.682,-34.6523,2.216
0,-0.00023908,0.561762,-0.000302996,0,1.68507e-06,0.069269,-4.99279e-07,0,0,-0,0,-843.098,-34.6348,2.22
0,-0.00023908,0.562039,-0.000302996,0,1.12338e-06,0.0692342,-3.32852e-07,0,0,-0,0,-843.513,-34.6172,2.224
0,-0.00023908,0.562316,-0.000302996,0,7.48918e-07,0.0691993,-2.21902e-07,0,0,-0,0,-843.929,-34.5997,2.228
0,-0.00023908,0.562593,-0.000302996,0,4.99279e-07,0.0691643,-1.47934e-07,0,0,-0,0,-844.344,-34.5822,2.232
0,-0.00023908,0.562869,-0.000302996,0,3.32852e-07,0.0691293,-9.86229e-08,0,0,-0,0,-844.759,-34.5647,2.236
0,-0.00023908,0.563146,-0.000302996,0,2.21902e-07,0.0690943,-6.57486e-08,0,0,-0,0,-845.173,-34.5472,2.24
0,-0.00023908,0.563422,-0.000302996,0,1.47934e-07,0.0690592,-4.38324e-08,0,0,-0,0,-845.588,-34.5296,2.244
0,-0.00023908,0.563698,-0.000302996,0,9.86229e-08,0.0690241,-2.92216e-08,0,0,-0,0,-846.002,-34.5121,2.248
0,-0.00023908,0.563974,-0.000302996,0,6.57486e-08,0.0689889,-1.94811e-08,0,0,-0,0,-846.416,-34.4945,2.252
0,-0.00023908,0.56425,-0.000302996,0,4.38324e-08,0.0689537,-1.29874e-08,0,0,-0,0,-846.83,-34.4769,2.256
0,-0.00023908,0.564526,-0.00030265,0,2.92216e-08,0.0689185,2.87823e-05,0,0,-0,0,-847.243,-34.4448,2.26
0,-0.00023908,0.564802,-0.000302996,0,1.94811e-08,0.0688832,-9.60275e-06,0,0,-0,0,-847.657,-34.4464,2.264
0,-0.00023908,0.565077,-0.000302996,0,1.29874e-08,0.0688479,-6.40183e-06,0,0,-0,0,-848.07,-34.4271,2.268
0,-0.00023908,0.565352,-0.000302996,0,8.65826e-09,0.0688125,-4.26789e-06,0,0,-0,0,-848.483,-34.4084,2.272
0,-0.00023908,0.565628,-0.000302996,0,5.77217e-09,0.0687771,-2.84526e-06,0,0,-0,0,-848.896,-34.39,2.276
0,-0.00023908,0.565903,-0.000302996,0,3.84811e-09,0.0687416,-1.89684e-06,0,0,-0,0,-849.309,-34.3718,2.28
0,-0.00023908,0.566178,-0.000302996,0,2.56541e-09,0.0687061,-1.26456e-06,0,0,-0,0,-849.721,-34.3537,2.284
0,-0.00023908,0.566452,-0.000302996,0,1.71027e-09,0.0686706,-8.4304e-07,0,0,-0,0,-850.133,-34.3357,2.288
0,-0.00023908,0.566727,-0.000302996,0,1.14018e-09,0.068635,-5.62026e-07,0,0,-0,0,-850.545,-34.3178,2.292
0,-0.00023908,0.567001,-0.000302996,0,7.60121e-10,0.0685994,-3.74684e-07,0,0,-0,0,-850.957,-34.2999,2.296
0,-0.00023908,0.567276,-0.000302996,0,5.06748e-10,0.0685638,-2.49789e-07,0,0,-0,0,-851.368,-34.282,2.3
0,-0.00023908,0.56755,-0.000302996,0,3.37832e-10,0.0685281,-1.66526e-07,0,0,-0,0,-851.779,-34.2641,2.304
0,-0.00023908,0.567824,-0.000302996,0,2.25221e-10,0.0684923,-1.11018e-07,0,0,-0,0,-852.19,-34.2462,2.308
0,-0.00023908,0.568098,-0.000302996,0,1.50147e-10,0.0684565,-7.40117e-08,0,0,-0,0,-852.601,-34.2283,2.312
0,-0.000238734,0.568372,-0.000302996,0,2.8791e-05,0.0684207,-4.93411e-08,0,0,-0,0,-853.012,-34.2104,2.316
0,-0.00023908,0.568645,-0.000302996,0,-9.59691e-06,0.0683848,-3.28941e-08,0,0,-0,-0,-853.422,-34.1924,2.32
0,-0.00023908,0.568919,-0.000302996,0,-6.39794e-06,0.0683489,-2.19294e-08,0,0,-0,-0,-853.833,-34.1745,2.324
0,-0.00023908,0.569192,-0.000302996,0,-4.26529e-06,0.068313,-1.46196e-08,0,0,-0,-0,-854.243,-34.1565,2.328
0,-0.00023908,0.569465,-0.000302996,0,-2.84353e-06,0.068277,-9.7464e-09,0,0,-0,-0,-854.652,-34.1385,2.332
0,-0.00023908,0.569738,-0.000303341,0,-1.89569e-06,0.068241,-2.87974e-05,0,0,-0,-0,-855.062,-34.1349,2.336
0,-0.00023908,0.570011,-0.000302996,0,-1.26379e-06,0.0682049,9.59264e-06,0,0,-0,-0,-855.471,-34.0977,2.34
0,-0.00023908,0.570284,-0.000302996,0,-8.42527e-07,0.0681688,6.3951e-06,0,0,-0,-0,-855.88,-34.0812,2.344
0,-0.00023908,0.570556,-0.000302996,0,-5.61685e-07,0.0681327,4.2634e-06,0,0,-0,-0,-856.289,-34.0642,2.348
0,-0.00023908,0.570829,-0.000302996,0,-3.74456e-07,0.0680965,2.84226e-06,0,0,-0,-0,-856.698,-34.0468,2.352
0,-0.00023908,0.571101,-0.000302996,0,-2.49638e-07,0.0680603,1.89484e-06,0,0,-0,-0,-857.106,-34.0292,2.356
0,-0.000238734,0.571373,-0.000302996,0,2.86245e-05,0.068024,1.26323e-06,0,0,-0,0,-857.515,-34.0114,2.36
0,-0.00023908,0.571645,-0.000302996,0,-9.70792e-06,0.0679877,8.42152e-07,0,0,-0,-0,-857.923,-33.9934,2.364
0,-0.00023908,0.571917,-0.000302996,0,-6.47195e-06,0.0679513,5.61435e-07,0,0,-0,-0,-858.33,-33.9754,2.368
0,-0.00023908,0.572189,-0.000302996,0,-4.31463e-06,0.067915,3.7429e-07,0,0,-0,-0,-858.738,-33.9573,2.372
0,-0.00023908,0.572461,-0.000302996,0,-2.87642e-06,0.0678785,2.49527e-07,0,0,-0,-0,-859.145,-33.9391,2.376
0,-0.00023908,0.572732,-0.000302996,0,-1.91761e-06,0.0678421,1.66351e-07,0,0,-0,-0,-859.553,-33.9209,2.38
0,-0.00023908,0.573003,-0.000302996,0,-1.27841e-06,0.0678056,1.10901e-07,0,0,-0,-0,-859.96,-33.9027,2.384
0,-0.00023908,0.573275,-0.000302996,0,-8.52273e-07,0.067769,7.39338e-08,0,0,-0,-0,-860.366,-33.8845,2.388
0,-0.00023908,0.573546,-0.000302996,0,-5.68182e-07,0.0677324,4.92892e-08,0,0,-0,-0,-860.773,-33.8662,2.392
0,-0.00023908,0.573816,-0.000302996,0,-3.78788e-07,0.0676958,3.28595e-08,0,0,-0,-0,-861.179,-33.8479,2.396
0,-0.00023908,0.574087,-0.000302996,0,-2.52525e-07,0.0676591,2.19063e-08,0,0,-0,-0,-861.585,-33.8296,2.4
0,-0.00023908,0.574358,-0.000302996,0,-1.6835e-07,0.0676224,1.46042e-08,0,0,-0,-0,-861.991,-33.8112,2.404
0,-0.00023908,0.574628,-0.000302996,0,-1.12234e-07,0.0675857,9.73614e-09,0,0,-0,-0,-862.397,-33.7928,2.408
0,-0.00023908,0.574898,-0.000302996,0,-7.48223e-08,0.0675489,6.49076e-09,0,0,-0,-0,-862.802,-33.7745,2.412
0,-0.00023908,0.575168,-0.000302996,0,-4.98816e-08,0.0675121,4.32717e-09,0,0,-0,-0,-863.207,-33.756,2.416
0,-0.00023908,0.575438,-0.000302996,0,-3.32544e-08,0.0674752,2.88478e-09,0,0,-0,-0,-863.612,-33.7376,2.42
0,-0.00023908,0.575708,-0.000302996,0,-2.21696e-08,0.0674383,1.92319e-09,0,0,-0,-0,-864.017,-33.7192,2.424
0,-0.00023908,0.575978,-0.000302996,0,-1.47797e-08,0.0674014,1.28213e-09,0,0,-0,-0,-864.421,-33.7007,2.428
0,-0.00023908,0.576247,-0.000302996,0,-9.85315e-09,0.0673644,8.5475e-10,0,0,-0,-0,-864.826,-33.6822,2.432
0,-0.00023908,0.576517,-0.000302996,0,-6.56877e-09,0.0673274,5.69834e-10,0,0,-0,-0,-865.23,-33.6637,2.436
0,-0.00023908,0.576786,-0.000302996,0,-4.37918e-09,0.0672904,3.79889e-10,0,0,-0,-0,-865.634,-33.6452,2.44
0,-0.00023908,0.577055,-0.000302996,0,-2.91945e-09,0.0672533,2.53259e-10,0,0,-0,-0,-866.037,-33.6266,2.444
0,-0.00023908,0.577324,-0.000302996,0,-1.9463e-09,0.0672161,1.6884e-10,0,0,-0,-0,-866.441,-33.6081,2.448
0,-0.00023908,0.577593,-0.000302996,0,-1.29753e-09,0.067179,1.1256e-10,0,0,-0,-0,-866.844,-33.5895,2.452
0,-0.00023908,0.577862,-0.000302996,0,-8.65023e-10,0.0671418,7.50398e-11,0,0,-0,-0,-867.247,-33.5709,2.456
0,-0.00023908,0.57813,-0.000302305,0,-5.76682e-10,0.0671045,5.75819e-05,0,0,-0,-0,-867.649,-33.5235,2.46
0,-0.000238734,0.578398,-0.000302996,0,2.87905e-05,0.0670672,-1.91939e-05,0,0,-0,0,-868.052,-33.5432,2.464
0,-0.00023908,0.578667,-0.000302996,0,-9.59723e-06,0.0670299,-1.27959e-05,0,0,-0,-0,-868.454,-33.5214,2.468
0,-0.00023908,0.578935,-0.000302996,0,-6.39815e-06,0.0669926,-8.53063e-06,0,0,-0,-0,-868.856,-33.5005,2.472
0,-0.00023908,0.579203,-0.000302996,0,-4.26544e-06,0.0669552,-5.68709e-06,0,0,-0,-0,-869.258,-33.4804,2.476
0,-0.00023908,0.57947,-0.000302996,0,-2.84362e-06,0.0669177,-3.79139e-06,0,0,-0,-0,-869.66,-33.4608,2.48
0,-0.00023908,0.579738,-0.000302996,0,-1.89575e-06,0.0668803,-2.52759e-06,0,0,-0,-0,-870.061,-33.4414,2.484
0,-0.00023908,0.580005,-0.000302305,0,-1.26383e-06,0.0668427,5.58968e-05,0,0,-0,-0,-870.461,-33.3934,2.488
0,-0.00023908,0.580273,-0.000302996,0,-8.42555e-07,0.0668052,-2.03173e-05,0,0,-0,-0,-870.863,-33.4128,2.492
0,-0.00023908,0.58054,-0.000302996,0,-5.61704e-07,0.0667676,-1.35449e-05,0,0,-0,-0,-871.264,-33.3906,2.496
0,-0.00023908,0.580807,-0.000302996,0,-3.74469e-07,0.06673,-9.02992e-06,0,0,-0,-0,-871.665,-33.3695,2.5
0,-0.00023908,0.581074,-0.000302996,0,-2.49646e-07,0.0666923,-6.01995e-06,0,0,-0,-0,-872.065,-33.3492,2.504
0,-0.00023908,0.58134,-0.000302305,0,-1.66431e-07,0.0666546,5.35686e-05,0,0,-0,-0,-872.464,-33.3005,2.508
0,-0.000238734,0.581607,-0.000302996,0,2.868e-05,0.0666169,-2.18695e-05,0,0,-0,0,-872.865,-33.3194,2.512
0,-0.00023908,0.581873,-0.000302996,0,-9.67094e-06,0.0665791,-1.45797e-05,0,0,-0,-0,-873.264,-33.2968,2.516
0,-0.00023908,0.582139,-0.000302996,0,-6.4473e-06,0.0665413,-9.71977e-06,0,0,-0,-0,-873.664,-33.2755,2.52
0,-0.00023908,0.582406,-0.000302996,0,-4.2982e-06,0.0665035,-6.47985e-06,0,0,-0,-0,-874.063,-33.255,2.524
0,-0.00023908,0.582671,-0.000302996,0,-2.86546e-06,0.0664656,-4.3199e-06,0,0,-0,-0,-874.462,-33.2349,2.528
0,-0.00023908,0.582937,-0.000302996,0,-1.91031e-06,0.0664276,-2.87993e-06,0,0,-0,-0,-874.86,-33.2153,2.532
0,-0.00023908,0.583203,-0.000302996,0,-1.27354e-06,0.0663897,-1.91995e-06,0,0,-0,-0,-875.259,-33.1958,2.536
0,-0.00023908,0.583468,-0.000302996,0,-8.49027e-07,0.0663517,-1.27997e-06,0,0,-0,-0,-875.657,-33.1765,2.54
0,-0.00023908,0.583734,-0.000302996,0,-5.66018e-07,0.0663137,-8.53313e-07,0,0,-0,-0,-876.055,-33.1573,2.544
0,-0.00023908,0.583999,-0.000302996,0,-3.77345e-07,0.0662756,-5.68875e-07,0,0,-0,-0,-876.453,-33.1381,2.548
0,-0.00023908,0.584264,-0.000302996,0,-2.51563e-07,0.0662375,-3.7925e-07,0,0,-0,-0,-876.85,-33.1189,2.552
0,-0.00023908,0.584529,-0.000302996,0,-1.67709e-07,0.0661993,-2.52834e-07,0,0,-0,-0,-877.248,-33.0998,2.556
0,-0.00023908,0.584794,-0.000302996,0,-1.11806e-07,0.0661612,-1.68556e-07,0,0,-0,-0,-877.645,-33.0807,2.56
0,-0.00023908,0.585058,-0.000302996,0,-7.45373e-08,0.0661229,-1.1237e-07,0,0,-0,-0,-878.042,-33.0615,2.564
0,-0.00023908,0.585323,-0.000302996,0,-4.96915e-08,0.0660847,-7.49136e-08,0,0,-0,-0,-878.438,-33.0424,2.568
0,-0.00023908,0.585587,-0.000302996,0,-3.31277e-08,0.0660464,-4.99424e-08,0,0,-0,-0,-878.835,-33.0232,2.572
0,-0.00023908,0.585851,-0.000302996,0,-2.20851e-08,0.0660081,-3.32949e-08,0,0,-0,-0,-879.231,-33.0041,2.576
0,-0.00023908,0.586115,-0.000302996,0,-1.47234e-08,0.0659697,-2.21966e-08,0,0,-0,-0,-879.627,-32.9849,2.58
0,-0.00023908,0.586379,-0.000302996,0,-9.81561e-09,0.0659313,-1.47978e-08,0,0,-0,-0,-880.022,-32.9657,2.584
0,-0.00023908,0.586642,-0.000302996,0,-6.54374e-09,0.0658929,-9.86517e-09,0,0,-0,-0,-880.418,-32.9464,2.588
0,-0.00023908,0.586906,-0.000302996,0,-4.3625e-09,0.0658544,-6.57678e-09,0,0,-0,-0,-880.813,-32.9272,2.592
0,-0.00023908,0.587169,-0.000302996,0,-2.90833e-09,0.0658159,-4.38452e-09,0,0,-0,-0,-881.208,-32.908,2.596
0,-0.00023908,0.587432,-0.000302996,0,-1.93889e-09,0.0657774,-2.92301e-09,0,0,-0,-0,-881.603,-32.8887,2.6
0,-0.00023908,0.587695,-0.000302996,0,-1.29259e-09,0.0657388,-1.94868e-09,0,0,-0,-0,-881.997,-32.8694,2.604
0,-0.00023908,0.587958,-0.000302996,0,-8.61727e-10,0.0657002,-1.29912e-09,0,0,-0,-0,-882.392,-32.8501,2.608
0,-0.00023908,0.588221,-0.000302996,0,-5.74485e-10,0.0656615,-8.66078e-10,0,0,-0,-0,-882.786,-32.8308,2.612
0,-0.00023908,0.588484,-0.000302996,0,-3.8299e-10,0.0656228,-5.77385e-10,0,0,-0,-0,-883.18,-32.8114,2.616
0,-0.00023908,0.588746,-0.000302996,0,-2.55327e-10,0.0655841,-3.84924e-10,0,0,-0,-0,-883.573,-32.7921,2.62
0,-0.00023908,0.589008,-0.000302996,0,-1.70218e-10,0.0655454,-2.56616e-10,0,0,-0,-0,-883.967,-32.7727,2.624
0,-0.00023908,0.58927,-0.000302996,0,-1.13479e-10,0.0655066,-1.71077e-10,0,0,-0,-0,-884.36,-32.7533,2.628
0,-0.00023908,0.589532,-0.000302996,0,-7.56523e-11,0.0654678,-1.14051e-10,0,0,-0,-0,-884.753,-32.7339,2.632
0,-0.00023908,0.589794,-0.000302996,0,-5.04349e-11,0.0654289,-7.60343e-11,0,0,-0,-0,-885.146,-32.7144,2.636
0,-0.00023908,0.590056,-0.000302996,0,-3.36233e-11,0.06539,-5.06895e-11,0,0,-0,-0,-885.538,-32.695,2.64
0,-0.00023908,0.590317,-0.000302996,0,-2.24155e-11,0.0653511,-3.3793e-11,0,0,-0,-0,-885.93,-32.6755,2.644
0,-0.00023908,0.590578,-0.000302996,0,-1.49437e-11,0.0653121,-2.25287e-11,0,0,-0,-0,-886.322,-32.6561,2.648
0,-0.00023908,0.59084,-0.000303341,0,-9.96245e-12,0.0652731,-2.87909e-05,0,0,-0,-0,-886.714,-32.6509,2.652
0,-0.00023908,0.591101,-0.000302996,0,-6.64163e-12,0.0652341,9.59696e-06,0,0,-0,-0,-887.105,-32.6122,2.656
0,-0.00023908,0.591362,-0.000302996,0,-4.42775e-12,0.065195,6.39798e-06,0,0,-0,-0,-887.497,-32.5943,2.66
0,-0.00023908,0.591622,-0.000302996,0,-2.95184e-12,0.0651559,4.26532e-06,0,0,-0,-0,-887.888,-32.5758,2.664
0,-0.00023908,0.591883,-0.000302996,0,-1.96789e-12,0.0651168,2.84355e-06,0,0,-0,-0,-888.279,-32.557,2.668
0,-0.00023908,0.592143,-0.000302996,0,-1.31193e-12,0.0650776,1.8957e-06,0,0,-0,-0,-888.669,-32.5378,2.672
0,-0.00023908,0.592403,-0.000302996,0,-8.74618e-13,0.0650384,1.2638e-06,0,0,-0,-0,-889.06,-32.5186,2.676
0,-0.00023908,0.592663,-0.000302996,0,-5.83079e-13,0.0649991,8.42532e-07,0,0,-0,-0,-889.45,-32.4991,2.68
0,-0.00023908,0.592923,-0.000302996,0,-3.88719e-13,0.0649598,5.61688e-07,0,0,-0,-0,-889.84,-32.4796,2.684
0,-0.00023908,0.593183,-0.000302305,0,-2.59146e-13,0.0649205,5.79563e-05,0,0,-0,-0,-890.228,-32.4313,2.688
0,-0.00023908,0.593443,-0.000302996,0,-1.72764e-13,0.0648812,-1.89443e-05,0,0,-0,-0,-890.619,-32.4501,2.692
0,-0.00023908,0.593702,-0.000302996,0,-1.15176e-13,0.0648418,-1.26295e-05,0,0,-0,-0,-891.008,-32.4272,2.696
0,-0.00023908,0.593961,-0.000302996,0,-7.6784e-14,0.0648024,-8.41969e-06,0,0,-0,-0,-891.397,-32.4054,2.7
0,-0.00023908,0.594221,-0.000302996,0,-5.11894e-14,0.0647629,-5.61313e-06,0,0,-0,-0,-891.785,-32.3843,2.704
0,-0.00023908,0.59448,-0.000302996,0,-3.41262e-14,0.0647235,-3.74209e-06,0,0,-0,-0,-892.174,-32.3636,2.708
0,-0.00023908,0.594738,-0.000302996,0,-2.27508e-14,0.0646839,-2.49472e-06,0,0,-0,-0,-892.562,-32.3432,2.712
0,-0.00023908,0.594997,-0.000302996,0,-1.51672e-14,0.0646444,-1.66315e-06,0,0,-0,-0,-892.95,-32.323,2.716
0,-0.00023908,0.595256,-0.000302996,0,-1.01115e-14,0.0646048,-1.10877e-06,0,0,-0,-0,-893.338,-32.303,2.72
0,-0.00023908,0.595514,-0.000302996,0,-6.74099e-15,0.0645652,-7.39177e-07,0,0,-0,-0,-893.725,-32.283,2.724
0,-0.00023908,0.595772,-0.000302996,0,-4.49399e-15,0.0645255,-4.92785e-07,0,0,-0,-0,-894.113,-32.263,2.728
0,-0.00023908,0.59603,-0.000302996,0,-2.99599e-15,0.0644859,-3.28523e-07,0,0,-0,-0,-894.5,-32.2431,2.732
0,-0.00023908,0.596288,-0.000302996,0,-1.99733e-15,0.0644461,-2.19016e-07,0,0,-0,-0,-894.886,-32.2232,2.736
0,-0.00023908,0.596546,-0.000302996,0,-1.33155e-15,0.0644064,-1.4601e-07,0,0,-0,-0,-895.273,-32.2033,2.74
0,-0.00023908,0.596803,-0.000302996,0,-8.87702e-16,0.0643666,-9.73402e-08,0,0,-0,-0,-895.659,-32.1833,2.744
0,-0.00023908,0.597061,-0.000302996,0,-5.91801e-16,0.0643268,-6.48935e-08,0,0,-0,-0,-896.045,-32.1634,2.748
0,-0.00023908,0.597318,-0.000302996,0,-3.94534e-16,0.0642869,-4.32623e-08,0,0,-0,-0,-896.431,-32.1435,2.752
0,-0.00023908,0.597575,-0.000302996,0,-2.63023e-16,0.064247,-2.88416e-08,0,0,-0,-0,-896.817,-32.1235,2.756
0,-0.00023908,0.597832,-0.000302996,0,-1.75349e-16,0.0642071,-1.92277e-08,0,0,-0,-0,-897.202,-32.1036,2.76
0,-0.00023908,0.598089,-0.000302996,0,-1.16899e-16,0.0641672,-1.28185e-08,0,0,-0,-0,-897.587,-32.0836,2.764
0,-0.00023908,0.598345,-0.000302305,0,-7.79327e-17,0.0641272,5.75733e-05,0,0,-0,-0,-897.971,-32.0348,2.768
0,-0.00023908,0.598602,-0.000302996,0,-5.19551e-17,0.0640872,-1.91996e-05,0,0,-0,-0,-898.357,-32.0532,2.772
0,-0.00023908,0.598858,-0.000302996,0,-3.46367e-17,0.0640471,-1.27998e-05,0,0,-0,-0,-898.741,-32.03,2.776
0,-0.00023908,0.599114,-0.000302996,0,-2.30912e-17,0.064007,-8.53318e-06,0,0,-0,-0,-899.125,-32.0078,2.78
0,-0.00023908,0.59937,-0.000302996,0,-1.53941e-17,0.0639669,-5.68878e-06,0,0,-0,-0,-899.509,-31.9863,2.784
0,-0.00023908,0.599626,-0.000302996,0,-1.02627e-17,0.0639268,-3.79252e-06,0,0,-0,-0,-899.893,-31.9653,2.788
0,-0.00023908,0.599881,-0.000302996,0,-6.84183e-18,0.0638866,-2.52835e-06,0,0,-0,-0,-900.276,-31.9446,2.792
0,-0.00023908,0.600137,-0.000302996,0,-4.56122e-18,0.0638464,-1.68557e-06,0,0,-0,-0,-900.66,-31.924,2.796
0,-0.00023908,0.600392,-0.000302996,0,-3.04081e-18,0.0638061,-1.12371e-06,0,0,-0,-0,-901.043,-31.9036,2.8
0,-0.00023908,0.600647,-0.000302996,0,-2.02721e-18,0.0637659,-7.4914e-07,0,0,-0,-0,-901.425,-31.8833,2.804
0,-0.00023908,0.600902,-0.000302996,0,-1.35147e-18,0.0637255,-4.99427e-07,0,0,-0,-0,-901.808,-31.863,2.808
0,-0.00023908,0.601157,-0.000302996,0,-9.00981e-19,0.0636852,-3.32951e-07,0,0,-0,-0,-902.19,-31.8428,2.812
0,-0.00023908,0.601412,-0.000302996,0,-6.00654e-19,0.0636448,-2.21968e-07,0,0,-0,-0,-902.572,-31.8225,2.816
0,-0.00023908,0.601666,-0.000302996,0,-4.00436e-19,0.0636044,-1.47978e-07,0,0,-0,-0,-902.954,-31.8023,2.82
0,-0.00023908,0.601921,-0.000302996,0,-2.66957e-19,0.063564,-9.86522e-08,0,0,-0,-0,-903.335,-31.782,2.824
0,-0.00023908,0.602175,-0.000302996,0,-1.77972e-19,0.0635235,-6.57681e-08,0,0,-0,-0,-903.717,-31.7618,2.828
0,-0.00023908,0.602429,-0.000302996,0,-1.18648e-19,0.063483,-4.38454e-08,0,0,-0,-0,-904.098,-31.7415,2.832
0,-0.00023908,0.602683,-0.000302996,0,-7.90985e-20,0.0634425,-2.92303e-08,0,0,-0,-0,-904.478,-31.7213,2.836
0,-0.00023908,0.602936,-0.000302996,0,-5.27323e-20,0.0634019,-1.94869e-08,0,0,-0,-0,-904.859,-31.701,2.84
0,-0.00023908,0.60319,-0.000302996,0,-3.51549e-20,0.0633613,-1.29912e-08,0,0,-0,-0,-905.239,-31.6807,2.844
0,-0.00023908,0.603443,-0.000302996,0,-2.34366e-20,0.0633207,-8.66083e-09,0,0,-0,-0,-905.619,-31.6603,2.848
0,-0.00023908,0.603696,-0.000302996,0,-1.56244e-20,0.06328,-5.77388e-09,0,0,-0,-0,-905.999,-31.64,2.852
0,-0.00023908,0.603949,-0.000302996,0,-1.04163e-20,0.0632393,-3.84926e-09,0,0,-0,-0,-906.379,-31.6197,2.856
0,-0.00023908,0.604202,-0.000302996,0,-6.94417e-21,0.0631986,-2.56617e-09,0,0,-0,-0,-906.758,-31.5993,2.86
0,-0.00023908,0.604455,-0.000302996,0,-4.62945e-21,0.0631579,-1.71078e-09,0,0,-0,-0,-907.137,-31.5789,2.864
0,-0.00023908,0.604708,-0.000302996,0,-3.0863e-21,0.0631171,-1.14052e-09,0,0,-0,-0,-907.516,-31.5585,2.868
0,-0.00023908,0.60496,-0.000302996,0,-2.05753e-21,0.0630763,-7.60347e-10,0,0,-0,-0,-907.894,-31.5381,2.872
0,-0.00023908,0.605212,-0.000302996,0,-1.37169e-21,0.0630354,-5.06898e-10,0,0,-0,-0,-908.273,-31.5177,2.876
0,-0.00023908,0.605464,-0.000302996,0,-9.14459e-22,0.0629945,-3.37932e-10,0,0,-0,-0,-908.651,-31.4973,2.88
0,-0.00023908,0.605716,-0.000302996,0,-6.09639e-22,0.0629536,-2.25288e-10,0,0,-0,-0,-909.029,-31.4768,2.884
0,-0.00023908,0.605968,-0.000302996,0,-4.06426e-22,0.0629127,-1.50192e-10,0,0,-0,-0,-909.406,-31.4563,2.888
0,-0.00023908,0.606219,-0.000302996,0,-2.70951e-22,0.0628717,-1.00128e-10,0,0,-0,-0,-909.784,-31.4359,2.892
0,-0.00023908,0.606471,-0.000302996,0,-1.80634e-22,0.0628307,-6.6752e-11,0,0,-0,-0,-910.161,-31.4154,2.896
0,-0.00023908,0.606722,-0.000302996,0,-1.20423e-22,0.0627897,-4.45013e-11,0,0,-0,-0,-910.538,-31.3948,2.9
0,-0.00023908,0.606973,-0.000302996,0,-8.02817e-23,0.0627486,-2.96676e-11,0,0,-0,-0,-910.914,-31.3743,2.904
0,-0.00023908,0.607224,-0.000302996,0,-5.35212e-23,0.0627075,-1.97784e-11,0,0,-0,-0,-911.291,-31.3538,2.908
0,-0.00023908,0.607475,-0.000302996,0,-3.56808e-23,0.0626664,-1.31856e-11,0,0,-0,-0,-911.667,-31.3332,2.912
0,-0.00023908,0.607725,-0.000302996,0,-2.37872e-23,0.0626252,-8.79039e-12,0,0,-0,-0,-912.043,-31.3126,2.916
0,-0.00023908,0.607976,-0.000302996,0,-1.58581e-23,0.0625841,-5.86026e-12,0,0,-0,-0,-912.418,-31.292,2.92
0,-0.00023908,0.608226,-0.000302996,0,-1.05721e-23,0.0625428,-3.90684e-12,0,0,-0,-0,-912.794,-31.2714,2.924
0,-0.00023908,0.608476,-0.000302996,0,-7.04805e-24,0.0625016,-2.60456e-12,0,0,-0,-0,-913.169,-31.2508,2.928
0,-0.00023908,0.608726,-0.000302996,0,-4.6987e-24,0.0624603,-1.73637e-12,0,0,-0,-0,-913.544,-31.2302,2.932
0,-0.00023908,0.608976,-0.000302996,0,-3.13247e-24,0.062419,-1.15758e-12,0,0,-0,-0,-913.918,-31.2095,2.936
0,-0.00023908,0.609225,-0.000302996,0,-2.08831e-24,0.0623777,-7.71721e-13,0,0,-0,-0,-914.293,-31.1888,2.94
0,-0.00023908,0.609475,-0.000302996,0,-1.39221e-24,0.0623363,-5.14481e-13,0,0,-0,-0,-914.667,-31.1682,2.944
0,-0.00023908,0.609724,-0.000302996,0,-9.28139e-25,0.0622949,-3.42987e-13,0,0,-0,-0,-915.041,-31.1475,2.948
0,-0.00023908,0.609973,-0.000302996,0,-6.18759e-25,0.0622535,-2.28658e-13,0,0,-0,-0,-915.414,-31.1267,2.952
0,-0.00023908,0.610222,-0.000302996,0,-4.12506e-25,0.062212,-1.52439e-13,0,0,-0,-0,-915.788,-31.106,2.956
0,-0.00023908,0.610471,-0.000302996,0,-2.75004e-25,0.0621706,-1.01626e-13,0,0,-0,-0,-916.161,-31.0853,2.96
0,-0.00023908,0.610719,-0.000302996,0,-1.83336e-25,0.062129,-6.77505e-14,0,0,-0,-0,-916.534,-31.0645,2.964
0,-0.00023908,0.610968,-0.000302996,0,-1.22224e-25,0.0620875,-4.5167e-14,0,0,-0,-0,-916.906,-31.0437,2.968
0,-0.00023908,0.611216,-0.000302996,0,-8.14827e-26,0.0620459,-3.01114e-14,0,0,-0,-0,-917.279,-31.023,2.972
0,-0.00023908,0.611464,-0.000302996,0,-5.43218e-26,0.0620043,-2.00742e-14,0,0,-0,-0,-917.651,-31.0022,2.976
0,-0.00023908,0.611712,-0.000302996,0,-3.62145e-26,0.0619627,-1.33828e-14,0,0,-0,-0,-918.023,-30.9813,2.98
0,-0.00023908,0.61196,-0.000302996,0,-2.4143e-26,0.061921,-8.92188e-15,0,0,-0,-0,-918.394,-30.9605,2.984
0,-0.00023908,0.612208,-0.000302996,0,-1.60953e-26,0.0618793,-5.94792e-15,0,0,-0,-0,-918.766,-30.9397,2.988
0,-0.00023908,0.612455,-0.000302996,0,-1.07302e-26,0.0618376,-3.96528e-15,0,0,-0,-0,-919.137,-30.9188,2.992
0,-0.00023908,0.612702,-0.000302996,0,-7.15349e-27,0.0617959,-2.64352e-15,0,0,-0,-0,-919.508,-30.8979,2.996
0,-0.00023908,0.612949,-0.000302996,0,-4.76899e-27,0.0617541,-1.76235e-15,0,0,-0,-0,-919.879,-30.877,3
0,-0.00023908,0.613196,-0.000302996,0,-3.17933e-27,0.0617123,-1.1749e-15,0,0,-0,-0,-920.249,-30.8561,3.004
0,-0.00023908,0.613443,-0.000302996,0,-2.11955e-27,0.0616704,-7.83265e-16,0,0,-0,-0,-920.619,-30.8352,3.008
0,-0.00023908,0.61369,-0.000302996,0,-1.41303e-27,0.0616286,-5.22177e-16,0,0,-0,-0,-920.989,-30.8143,3.012
0,-0.00023908,0.613936,-0.000302996,0,-9.42023e-28,0.0615867,-3.48118e-16,0,0,-0,-0,-921.359,-30.7933,3.016
0,-0.00023908,0.614182,-0.000302996,0,-6.28015e-28,0.0615448,-2.32079e-16,0,0,-0,-0,-921.728,-30.7724,3.02
0,-0.00023908,0.614428,-0.000302996,0,-4.18677e-28,0.0615028,-1.54719e-16,0,0,-0,-0,-922.097,-30.7514,3.024
0,-0.00023908,0.614674,-0.000302996,0,-2.79118e-28,0.0614608,-1.03146e-16,0,0,-0,-0,-922.466,-30.7304,3.028
0,-0.00023908,0.61492,-0.000302996,0,-1.86079e-28,0.0614188,-6.8764e-17,0,0,-0,-0,-922.835,-30.7094,3.032
0,-0.00023908,0.615166,-0.000302996,0,-1.24052e-28,0.0613768,-4.58427e-17,0,0,-0,-0,-923.203,-30.6884,3.036
0,-0.00023908,0.615411,-0.000302996,0,-8.27016e-29,0.0613347,-3.05618e-17,0,0,-0,-0,-923.571,-30.6674,3.04
0,-0.00023908,0.615656,-0.000302996,0,-5.51344e-29,0.0612926,-2.03745e-17,0,0,-0,-0,-923.939,-30.6463,3.044
0,-0.00023908,0.615901,-0.000302996,0,-3.67563e-29,0.0612505,-1.3583e-17,0,0,-0,-0,-924.307,-30.6253,3.048
0,-0.00023908,0.616146,-0.000302996,0,-2.45042e-29,0.0612084,-9.05535e-18,0,0,-0,-0,-924.674,-30.6042,3.052
0,-0.00023908,0.616391,-0.000302996,0,-1.63361e-29,0.0611662,-6.0369e-18,0,0,-0,-0,-925.041,-30.5831,3.056
0,-0.00023908,0.616636,-0.000302996,0,-1.08907e-29,0.061124,-4.0246e-18,0,0,-0,-0,-925.408,-30.562,3.06
0,-0.00023908,0.61688,-0.000302996,0,-7.2605e-30,0.0610818,-2.68307e-18,0,0,-0,-0,-925.775,-30.5409,3.064
0,-0.00023908,0.617124,-0.000302996,0,-4.84033e-30,0.0610395,-1.78871e-18,0,0,-0,-0,-926.141,-30.5198,3.068
0,-0.00023908,0.617368,-0.000302996,0,-3.22689e-30,0.0609972,-1.19247e-18,0,0,-0,-0,-926.507,-30.4986,3.072
0,-0.00023908,0.617612,-0.000302996,0,-2.15126e-30,0.0609549,-7.94982e-19,0,0,-0,-0,-926.873,-30.4775,3.076
0,-0.00023908,0.617856,-0.000302996,0,-1.43417e-30,0.0609126,-5.29988e-19,0,0,-0,-0,-927.239,-30.4563,3.08
0,-0.00023908,0.6181,-0.000302996,0,-9.56115e-31,0.0608702,-3.53326e-19,0,0,-0,-0,-927.604,-30.4351,3.084
0,-0.00023908,0.618343,-0.000302996,0,-6.3741e-31,0.0608278,-2.3555e-19,0,0,-0,-0,-927.969,-30.4139,3.088
0,-0.00023908,0.618586,-0.000302996,0,-4.2494e-31,0.0607854,-1.57034e-19,0,0,-0,-0,-928.334,-30.3927,3.092
0,-0.00023908,0.618829,-0.000302996,0,-2.83293e-31,0.0607429,-1.04689e-19,0,0,-0,-0,-928.699,-30.3715,3.096
0,-0.00023908,0.619072,-0.000302996,0,-1.88862e-31,0.0607004,-6.97927e-20,0,0,-0,-0,-929.063,-30.3502,3.1
0,-0.00023908,0.619315,-0.000302996,0,-1.25908e-31,0.0606579,-4.65285e-20,0,0,-0,-0,-929.427,-30.329,3.104
0,-0.00023908,0.619558,-0.000302996,0,-8.39388e-32,0.0606154,-3.1019e-20,0,0,-0,-0,-929.791,-30.3077,3.108
0,-0.00023908,0.6198,-0.000302996,0,-5.59592e-32,0.0605728,-2.06793e-20,0,0,-0,-0,-930.154,-30.2864,3.112
0,-0.00023908,0.620042,-0.000302996,0,-3.73061e-32,0.0605302,-1.37862e-20,0,0,-0,-0,-930.518,-30.2651,3.116
0,-0.00023908,0.620284,-0.000302996,0,-2.48707e-32,0.0604876,-9.19081e-21,0,0,-0,-0,-930.881,-30.2438,3.12
0,-0.00023908,0.620526,-0.000302996,0,-1.65805e-32,0.060445,-6.12721e-21,0,0,-0,-0,-931.243,-30.2225,3.124
0,-0.00023908,0.620768,-0.000302996,0,-1.10537e-32,0.0604023,-4.0848e-21,0,0,-0,-0,-931.606,-30.2012,3.128
0,-0.00023908,0.621009,-0.000302996,0,-7.36911e-33,0.0603596,-2.7232e-21,0,0,-0,-0,-931.968,-30.1798,3.132
0,-0.00023908,0.621251,-0.000302996,0,-4.91274e-33,0.0603169,-1.81547e-21,0,0,-0,-0,-932.33,-30.1585,3.136
0,-0.00023908,0.621492,-0.000302996,0,-3.27516e-33,0.0602742,-1.21031e-21,0,0,-0,-0,-932.692,-30.1371,3.14
0,-0.00023908,0.621733,-0.000302996,0,-2.18344e-33,0.0602314,-8.06875e-22,0,0,-0,-0,-933.054,-30.1157,3.144
0,-0.00023908,0.621974,-0.000302996,0,-1.45563e-33,0.0601886,-5.37917e-22,0,0,-0,-0,-933.415,-30.0943,3.148
0,-0.00023908,0.622214,-0.000302996,0,-9.70418e-34,0.0601458,-3.58611e-22,0,0,-0,-0,-933.776,-30.0729,3.152
0,-0.00023908,0.622455,-0.000302996,0,-6.46945e-34,0.0601029,-2.39074e-22,0,0,-0,-0,-934.137,-30.0515,3.156
0,-0.00023908,0.622695,-0.000302996,0,-4.31297e-34,0.06006,-1.59383e-22,0,0,-0,-0,-934.497,-30.03,3.16
0,-0.00023908,0.622935,-0.000302996,0,-2.87531e-34,0.0600171,-1.06255e-22,0,0,-0,-0,-934.857,-30.0086,3.164
0,-0.00023908,0.623175,-0.000302996,0,-1.91687e-34,0.0599742,-7.08367e-23,0,0,-0,-0,-935.217,-29.9871,3.168
0,-0.00023908,0.623415,-0.000302996,0,-1.27792e-34,0.0599312,-4.72245e-23,0,0,-0,-0,-935.577,-29.9656,3.172
0,-0.00023908,0.623655,-0.000302996,0,-8.51944e-35,0.0598882,-3.1483e-23,0,0,-0,-0,-935.936,-29.9441,3.176
0,-0.00023908,0.623894,-0.000302996,0,-5.67963e-35,0.0598452,-2.09887e-23,0,0,-0,-0,-936.296,-29.9226,3.18
0,-0.00023908,0.624133,-0.000302996,0,-3.78642e-35,0.0598022,-1.39924e-23,0,0,-0,-0,-936.655,-29.9011,3.184
0,-0.00023908,0.624373,-0.000302996,0,-2.52428e-35,0.0597591,-9.3283e-24,0,0,-0,-0,-937.013,-29.8796,3.188
0,-0.00023908,0.624612,-0.000302996,0,-1.68285e-35,0.059716,-6.21886e-24,0,0,-0,-0,-937.372,-29.858,3.192
0,-0.00023908,0.62485,-0.000302996,0,-1.1219e-35,0.0596729,-4.14591e-24,0,0,-0,-0,-937.73,-29.8365,3.196
0,-0.00023908,0.625089,-0.000302996,0,-7.47935e-36,0.0596298,-2.76394e-24,0,0,-0,-0,-938.088,-29.8149,3.2
0,-0.00023908,0.625327,-0.000302996,0,-4.98623e-36,0.0595866,-1.84263e-24,0,0,-0,-0,-938.445,-29.7933,3.204
0,-0.00023908,0.625566,-0.000302996,0,-3.32415e-36,0.0595434,-1.22842e-24,0,0,-0,-0,-938.803,-29.7717,3.208
0,-0.00023908,0.625804,-0.000302996,0,-2.2161e-36,0.0595002,-8.18945e-25,0,0,-0,-0,-939.16,-29.7501,3.212
0,-0.00023908,0.626042,-0.000302996,0,-1.4774e-36,0.059457,-5.45963e-25,0,0,-0,-0,-939.517,-29.7285,3.216
0,-0.00023908,0.626279,-0.000302996,0,-9.84934e-37,0.0594137,-3.63976e-25,0,0,-0,-0,-939.873,-29.7069,3.22
0,-0.00023908,0.626517,-0.000302996,0,-6.56623e-37,0.0593704,-2.4265e-25,0,0,-0,-0,-940.23,-29.6852,3.224
0,-0.00023908,0.626754,-0.000302996,0,-4.37749e-37,0.0593271,-1.61767e-25,0,0,-0,-0,-940.586,-29.6636,3.228
0,-0.00023908,0.626992,-0.000302996,0,-2.91832e-37,0.0592838,-1.07845e-25,0,0,-0,-0,-940.942,-29.6419,3.232
0,-0.00023908,0.627229,-0.000302996,0,-1.94555e-37,0.0592404,-7.18964e-26,0,0,-0,-0,-941.297,-29.6202,3.236
0,-0.00023908,0.627465,-0.000302996,0,-1.29703e-37,0.059197,-4.79309e-26,0,0,-0,-0,-941.653,-29.5985,3.24
0,-0.00023908,0.627702,-0.000302996,0,-8.64689e-38,0.0591536,-3.1954e-26,0,0,-0,-0,-942.008,-29.5768,3.244
0,-0.00023908,0.627939,-0.000302996,0,-5.76459e-38,0.0591102,-2.13026e-26,0,0,-0,-0,-942.362,-29.5551,3.248
0,-0.00023908,0.628175,-0.000302996,0,-3.84306e-38,0.0590667,-1.42018e-26,0,0,-0,-0,-942.717,-29.5333,3.252
0,-0.00023908,0.628411,-0.000302996,0,-2.56204e-38,0.0590232,-9.46784e-27,0,0,-0,-0,-943.071,-29.5116,3.256
0,-0.00023908,0.628647,-0.000302996,0,-1.70803e-38,0.0589797,-6.31189e-27,0,0,-0,-0,-943.425,-29.4898,3.26
0,-0.00023908,0.628883,-0.000302996,0,-1.13868e-38,0.0589361,-4.20793e-27,0,0,-0,-0,-943.779,-29.4681,3.264
0,-0.00023908,0.629119,-0.000302996,0,-7.59123e-39,0.0588926,-2.80529e-27,0,0,-0,-0,-944.133,-29.4463,3.268
0,-0.00023908,0.629354,-0.000302996,0,-5.06082e-39,0.058849,-1.87019e-27,0,0,-0,-0,-944.486,-29.4245,3.272
0,-0.00023908,0.629589,-0.000302996,0,-3.37388e-39,0.0588054,-1.24679e-27,0,0,-0,-0,-944.839,-29.4027,3.276
0,-0.00023908,0.629825,-0.000302996,0,-2.24925e-39,0.0587617,-8.31196e-28,0,0,-0,-0,-945.191,-29.3809,3.28
0,-0.00023908,0.63006,-0.000302996,0,-1.4995e-39,0.0587181,-5.54131e-28,0,0,-0,-0,-945.544,-29.359,3.284
0,-0.00023908,0.630294,-0.000302996,0,-9.99668e-40,0.0586744,-3.6942e-28,0,0,-0,-0,-945.896,-29.3372,3.288
0,-0.00023908,0.630529,-0.000302996,0,-6.66445e-40,0.0586307,-2.4628e-28,0,0,-0,-0,-946.248,-29.3153,3.292
0,-0.00023908,0.630763,-0.000302996,0,-4.44297e-40,0.058587,-1.64187e-28,0,0,-0,-0,-946.6,-29.2935,3.296
0,-0.00023908,0.630998,-0.000302996,0,-2.96198e-40,0.0585432,-1.09458e-28,0,0,-0,-0,-946.951,-29.2716,3.3
0,-0.00023908,0.631232,-0.000302996,0,-1.97465e-40,0.0584994,-7.29719e-29,0,0,-0,-0,-947.302,-29.2497,3.304
0,-0.00023908,0.631466,-0.000302996,0,-1.31644e-40,0.0584556,-4.86479e-29,0,0,-0,-0,-947.653,-29.2278,3.308
0,-0.00023908,0.631699,-0.000302996,0,-8.77624e-41,0.0584118,-3.2432e-29,0,0,-0,-0,-948.004,-29.2059,3.312
0,-0.00023908,0.631933,-0.000302996,0,-5.85082e-41,0.0583679,-2.16213e-29,0,0,-0,-0,-948.354,-29.184,3.316
0,-0.00023908,0.632166,-0.000302996,0,-3.90055e-41,0.0583241,-1.44142e-29,0,0,-0,-0,-948.704,-29.162,3.32
0,-0.00023908,0.6324,-0.000302996,0,-2.60037e-41,0.0582802,-9.60947e-30,0,0,-0,-0,-949.054,-29.1401,3.324
0,-0.00023908,0.632633,-0.000302996,0,-1.73358e-41,0.0582362,-6.40631e-30,0,0,-0,-0,-949.403,-29.1181,3.328
0,-0.00023908,0.632865,-0.000302996,0,-1.15572e-41,0.0581923,-4.27088e-30,0,0,-0,-0,-949.753,-29.0961,3.332
0,-0.00023908,0.633098,-0.000302996,0,-7.70479e-42,0.0581483,-2.84725e-30,0,0,-0,-0,-950.102,-29.0742,3.336
0,-0.00023908,0.633331,-0.000302996,0,-5.13653e-42,0.0581043,-1.89817e-30,0,0,-0,-0,-950.45,-29.0522,3.34
0,-0.00023908,0.633563,-0.000302996,0,-3.42435e-42,0.0580603,-1.26544e-30,0,0,-0,-0,-950.799,-29.0302,3.344
0,-0.00023908,0.633795,-0.000302996,0,-2.2829e-42,0.0580163,-8.4363e-31,0,0,-0,-0,-951.147,-29.0081,3.348
0,-0.00023908,0.634027,-0.000302996,0,-1.52193e-42,0.0579722,-5.6242e-31,0,0,-0,-0,-951.495,-28.9861,3.352
0,-0.00023908,0.634259,-0.000302996,0,-1.01462e-42,0.0579281,-3.74947e-31,0,0,-0,-0,-951.843,-28.9641,3.356
0,-0.00023908,0.634491,-0.000302996,0,-6.76415e-43,0.057884,-2.49964e-31,0,0,-0,-0,-952.19,-28.942,3.36
0,-0.00023908,0.634722,-0.000302996,0,-4.50943e-43,0.0578399,-1.66643e-31,0,0,-0,-0,-952.537,-28.92,3.364
0,-0.00023908,0.634953,-0.000302996,0,-3.00629e-43,0.0577957,-1.11095e-31,0,0,-0,-0,-952.884,-28.8979,3.368
0,-0.00023908,0.635184,-0.000302996,0,-2.00419e-43,0.0577516,-7.40635e-32,0,0,-0,-0,-953.231,-28.8758,3.372
0,-0.00023908,0.635415,-0.000302996,0,-1.33613e-43,0.0577074,-4.93757e-32,0,0,-0,-0,-953.577,-28.8537,3.376
0,-0.00023908,0.635646,-0.000302996,0,-8.90752e-44,0.0576632,-3.29171e-32,0,0,-0,-0,-953.923,-28.8316,3.38
0,-0.00023908,0.635877,-0.000302996,0,-5.93835e-44,0.0576189,-2.19447e-32,0,0,-0,-0,-954.269,-28.8095,3.384
0,-0.00023908,0.636107,-0.000302996,0,-3.9589e-44,0.0575746,-1.46298e-32,0,0,-0,-0,-954.615,-28.7873,3.388
0,-0.00023908,0.636337,-0.000302996,0,-2.63927e-44,0.0575304,-9.75322e-33,0,0,-0,-0,-954.96,-28.7652,3.392
0,-0.00023908,0.636567,-0.000302996,0,-1.75951e-44,0.0574861,-6.50215e-33,0,0,-0,-0,-955.305,-28.743,3.396
0,-0.00023908,0.636797,-0.000302996,0,-1.17301e-44,0.0574417,-4.33477e-33,0,0,-0,-0,-955.65,-28.7209,3.4
0,-0.00023908,0.637027,-0.000302996,0,-7.82005e-45,0.0573974,-2.88984e-33,0,0,-0,-0,-955.995,-28.6987,3.404
0,-0.00023908,0.637256,-0.000302996,0,-5.21336e-45,0.057353,-1.92656e-33,0,0,-0,-0,-956.339,-28.6765,3.408
0,-0.00023908,0.637486,-0.000302996,0,-3.47558e-45,0.0573086,-1.28437e-33,0,0,-0,-0,-956.683,-28.6543,3.412
0,-0.00023908,0.637715,-0.000302996,0,-2.31705e-45,0.0572642,-8.5625e-34,0,0,-0,-0,-957.027,-28.6321,3.416
0,-0.00023908,0.637944,-0.000302996,0,-1.5447e-45,0.0572197,-5.70833e-34,0,0,-0,-0,-957.37,-28.6099,3.42
0,-0.00023908,0.638172,-0.000302996,0,-1.0298e-45,0.0571753,-3.80556e-34,0,0,-0,-0,-957.713,-28.5876,3.424
0,-0.00023908,0.638401,-0.000302996,0,-6.86534e-46,0.0571308,-2.53704e-34,0,0,-0,-0,-958.056,-28.5654,3.428
0,-0.00023908,0.638629,-0.000302996,0,-4.57689e-46,0.0570863,-1.69136e-34,0,0,-0,-0,-958.399,-28.5431,3.432
0,-0.00023908,0.638858,-0.000302996,0,-3.05126e-46,0.0570417,-1.12757e-34,0,0,-0,-0,-958.741,-28.5209,3.436
0,-0.00023908,0.639086,-0.000302996,0,-2.03417e-46,0.0569972,-7.51715e-35,0,0,-0,-0,-959.083,-28.4986,3.44
0,-0.00023908,0.639314,-0.000302996,0,-1.35612e-46,0.0569526,-5.01143e-35,0,0,-0,-0,-959.425,-28.4763,3.444
0,-0.00023908,0.639541,-0.000302996,0,-9.04077e-47,0.056908,-3.34095e-35,0,0,-0,-0,-959.767,-28.454,3.448
0,-0.00023908,0.639769,-0.000302996,0,-6.02718e-47,0.0568634,-2.2273e-35,0,0,-0,-0,-960.108,-28.4317,3.452
0,-0.00023908,0.639996,-0.000302996,0,-4.01812e-47,0.0568188,-1.48487e-35,0,0,-0,-0,-960.449,-28.4094,3.456
0,-0.00023908,0.640224,-0.000302996,0,-2.67875e-47,0.0567741,-9.89912e-36,0,0,-0,-0,-960.79,-28.3871,3.46
0,-0.00023908,0.640451,-0.000302996,0,-1.78583e-47,0.0567294,-6.59941e-36,0,0,-0,-0,-961.13,-28.3647,3.464
0,-0.00023908,0.640677,-0.000302996,0,-1.19055e-47,0.0566847,-4.39961e-36,0,0,-0,-0,-961.471,-28.3424,3.468
0,-0.00023908,0.640904,-0.000302996,0,-7.93703e-48,0.05664,-2.93307e-36,0,0,-0,-0,-961.811,-28.32,3.472
0,-0.00023908,0.64113,-0.000302996,0,-5.29135e-48,0.0565953,-1.95538e-36,0,0,-0,-0,-962.15,-28.2976,3.476
0,-0.00023908,0.641357,-0.000302996,0,-3.52757e-48,0.0565505,-1.30359e-36,0,0,-0,-0,-962.49,-28.2753,3.48
0,-0.00023908,0.641583,-0.000302996,0,-2.35171e-48,0.0565057,-8.69059e-37,0,0,-0,-0,-962.829,-28.2529,3.484
0,-0.00023908,0.641809,-0.000302996,0,-1.56781e-48,0.0564609,-5.79372e-37,0,0,-0,-0,-963.168,-28.2305,3.488
0,-0.00023908,0.642035,-0.000302996,0,-1.04521e-48,0.0564161,-3.86248e-37,0,0,-0,-0,-963.506,-28.2081,3.492
0,-0.00023908,0.64226,-0.000302996,0,-6.96804e-49,0.0563713,-2.57499e-37,0,0,-0,-0,-963.845,-28.1856,3.496
0,-0.00023908,0.642486,-0.000302996,0,-4.64536e-49,0.0563264,-1.71666e-37,0,0,-0,-0,-964.183,-28.1632,3.5
0,-0.00023908,0.642711,-0.000302996,0,-3.09691e-49,0.0562815,-1.14444e-37,0,0,-0,-0,-964.521,-28.1408,3.504
0,-0.00023908,0.642936,-0.000302996,0,-2.0646e-49,0.0562366,-7.6296e-38,0,0,-0,-0,-964.858,-28.1183,3.508
0,-0.00023908,0.643161,-0.000302996,0,-1.3764e-49,0.0561917,-5.0864e-38,0,0,-0,-0,-965.195,-28.0958,3.512
0,-0.00023908,0.643385,-0.00030265,0,-9.17601e-50,0.0561467,2.87909e-05,0,0,-0,-0,-965.532,-28.059,3.516
0,-0.00023908,0.64361,-0.000302996,0,-6.11734e-50,0.0561018,-9.59697e-06,0,0,-0,-0,-965.869,-28.0557,3.52
0,-0.00023908,0.643834,-0.000302996,0,-4.07823e-50,0.0560568,-6.39798e-06,0,0,-0,-0,-966.206,-28.0316,3.524
0,-0.00023908,0.644058,-0.000302996,0,-2.71882e-50,0.0560118,-4.26532e-06,0,0,-0,-0,-966.542,-28.008,3.528
0,-0.00023908,0.644282,-0.000302996,0,-1.81255e-50,0.0559667,-2.84355e-06,0,0,-0,-0,-966.878,-27.9848,3.532
0,-0.00023908,0.644506,-0.000302996,0,-1.20836e-50,0.0559217,-1.8957e-06,0,0,-0,-0,-967.214,-27.9618,3.536
0,-0.00023908,0.64473,-0.000302996,0,-8.05576e-51,0.0558766,-1.2638e-06,0,0,-0,-0,-967.549,-27.9389,3.54
0,-0.00023908,0.644953,-0.000302996,0,-5.37051e-51,0.0558315,-8.42533e-07,0,0,-0,-0,-967.884,-27.9162,3.544
0,-0.00023908,0.645176,-0.000302996,0,-3.58034e-51,0.0557864,-5.61689e-07,0,0,-0,-0,-968.219,-27.8935,3.548
0,-0.00023908,0.645399,-0.000302996,0,-2.38689e-51,0.0557413,-3.74459e-07,0,0,-0,-0,-968.553,-27.8708,3.552
0,-0.00023908,0.645622,-0.000302996,0,-1.59126e-51,0.0556962,-2.49639e-07,0,0,-0,-0,-968.888,-27.8482,3.556
0,-0.00023908,0.645845,-0.000302996,0,-1.06084e-51,0.055651,-1.66426e-07,0,0,-0,-0,-969.222,-27.8256,3.56
0,-0.00023908,0.646067,-0.000302996,0,-7.07227e-52,0.0556058,-1.10951e-07,0,0,-0,-0,-969.556,-27.803,3.564
0,-0.00023908,0.64629,-0.000302996,0,-4.71485e-52,0.0555606,-7.39672e-08,0,0,-0,-0,-969.889,-27.7803,3.568
0,-0.00023908,0.646512,-0.000302996,0,-3.14323e-52,0.0555154,-4.93115e-08,0,0,-0,-0,-970.222,-27.7577,3.572
0,-0.00023908,0.646734,-0.000302996,0,-2.09549e-52,0.0554701,-3.28743e-08,0,0,-0,-0,-970.555,-27.7351,3.576
0,-0.00023908,0.646956,-0.000302996,0,-1.39699e-52,0.0554249,-2.19162e-08,0,0,-0,-0,-970.888,-27.7124,3.58
0,-0.00023908,0.647177,-0.000302996,0,-9.31328e-53,0.0553796,-1.46108e-08,0,0,-0,-0,-971.22,-27.6898,3.584
0,-0.00023908,0.647399,-0.000302996,0,-6.20885e-53,0.0553343,-9.74054e-09,0,0,-0,-0,-971.553,-27.6671,3.588
0,-0.00023908,0.64762,-0.00030265,0,-4.13924e-53,0.055289,2.87844e-05,0,0,-0,-0,-971.884,-27.6301,3.592
0,-0.00023908,0.647841,-0.000302996,0,-2.75949e-53,0.0552436,-9.6013e-06,0,0,-0,-0,-972.216,-27.6266,3.596
0,-0.00023908,0.648062,-0.000302996,0,-1.83966e-53,0.0551983,-6.40087e-06,0,0,-0,-0,-972.547,-27.6023,3.6
0,-0.00023908,0.648283,-0.000302996,0,-1.22644e-53,0.0551529,-4.26725e-06,0,0,-0,-0,-972.878,-27.5786,3.604
0,-0.00023908,0.648503,-0.000302996,0,-8.17627e-54,0.0551075,-2.84483e-06,0,0,-0,-0,-973.209,-27.5552,3.608
0,-0.00023908,0.648723,-0.000302996,0,-5.45085e-54,0.0550621,-1.89655e-06,0,0,-0,-0,-973.54,-27.532,3.612
0,-0.00023908,0.648944,-0.000302996,0,-3.6339e-54,0.0550167,-1.26437e-06,0,0,-0,-0,-973.87,-27.509,3.616
0,-0.00023908,0.649164,-0.000302996,0,-2.4226e-54,0.0549712,-8.42913e-07,0,0,-0,-0,-974.2,-27.486,3.62
0,-0.00023908,0.649383,-0.000302996,0,-1.61507e-54,0.0549257,-5.61942e-07,0,0,-0,-0,-974.53,-27.4631,3.624
0,-0.00023908,0.649603,-0.000302996,0,-1.07671e-54,0.0548802,-3.74628e-07,0,0,-0,-0,-974.859,-27.4403,3.628
0,-0.00023908,0.649822,-0.000302996,0,-7.17807e-55,0.0548347,-2.49752e-07,0,0,-0,-0,-975.188,-27.4175,3.632
0,-0.00023908,0.650042,-0.000302996,0,-4.78538e-55,0.0547892,-1.66501e-07,0,0,-0,-0,-975.517,-27.3947,3.636
0,-0.00023908,0.650261,-0.000302996,0,-3.19025e-55,0.0547437,-1.11001e-07,0,0,-0,-0,-975.846,-27.3719,3.64
0,-0.00023908,0.65048,-0.000302996,0,-2.12684e-55,0.0546981,-7.40006e-08,0,0,-0,-0,-976.174,-27.3491,3.644
0,-0.00023908,0.650698,-0.000302996,0,-1.41789e-55,0.0546525,-4.93337e-08,0,0,-0,-0,-976.502,-27.3263,3.648
0,-0.00023908,0.650917,-0.000302996,0,-9.4526e-56,0.0546069,-3.28891e-08,0,0,-0,-0,-976.83,-27.3035,3.652
0,-0.00023908,0.651135,-0.000302996,0,-6.30173e-56,0.0545613,-2.19261e-08,0,0,-0,-0,-977.157,-27.2807,3.656
0,-0.00023908,0.651353,-0.000302996,0,-4.20116e-56,0.0545157,-1.46174e-08,0,0,-0,-0,-977.484,-27.2578,3.66
0,-0.00023908,0.651571,-0.000302996,0,-2.80077e-56,0.05447,-9.74493e-09,0,0,-0,-0,-977.811,-27.235,3.664
0,-0.00023908,0.651789,-0.000302996,0,-1.86718e-56,0.0544244,-6.49662e-09,0,0,-0,-0,-978.138,-27.2122,3.668
0,-0.00023908,0.652007,-0.000302996,0,-1.24479e-56,0.0543787,-4.33108e-09,0,0,-0,-0,-978.465,-27.1893,3.672
0,-0.00023908,0.652224,-0.000302996,0,-8.29858e-57,0.054333,-2.88739e-09,0,0,-0,-0,-978.791,-27.1665,3.676
0,-0.00023908,0.652441,-0.000302996,0,-5.53239e-57,0.0542873,-1.92492e-09,0,0,-0,-0,-979.117,-27.1436,3.68
0,-0.00023908,0.652658,-0.000302996,0,-3.68826e-57,0.0542415,-1.28328e-09,0,0,-0,-0,-979.442,-27.1208,3.684
0,-0.00023908,0.652875,-0.000302996,0,-2.45884e-57,0.0541958,-8.55522e-10,0,0,-0,-0,-979.767,-27.0979,3.688
0,-0.00023908,0.653092,-0.000302996,0,-1.63923e-57,0.05415,-5.70348e-10,0,0,-0,-0,-980.092,-27.075,3.692
0,-0.00023908,0.653308,-0.000302996,0,-1.09282e-57,0.0541042,-3.80232e-10,0,0,-0,-0,-980.417,-27.0521,3.696
0,-0.00023908,0.653525,-0.000302996,0,-7.28545e-58,0.0540584,-2.53488e-10,0,0,-0,-0,-980.742,-27.0292,3.7
0,-0.00023908,0.653741,-0.000302996,0,-4.85696e-58,0.0540126,-1.68992e-10,0,0,-0,-0,-981.066,-27.0063,3.704
0,-0.00023908,0.653957,-0.000302996,0,-3.23798e-58,0.0539667,-1.12661e-10,0,0,-0,-0,-981.39,-26.9834,3.708
0,-0.00023908,0.654173,-0.000302996,0,-2.15865e-58,0.0539209,-7.51076e-11,0,0,-0,-0,-981.714,-26.9604,3.712
0,-0.00023908,0.654388,-0.000302996,0,-1.4391e-58,0.053875,-5.00717e-11,0,0,-0,-0,-982.037,-26.9375,3.716
0,-0.00023908,0.654604,-0.000302996,0,-9.594e-59,0.0538291,-3.33811e-11,0,0,-0,-0,-982.36,-26.9145,3.72
0,-0.00023908,0.654819,-0.000302996,0,-6.396e-59,0.0537832,-2.22541e-11,0,0,-0,-0,-982.683,-26.8916,3.724
0,-0.00023908,0.655034,-0.000302996,0,-4.264e-59,0.0537372,-1.48361e-11,0,0,-0,-0,-983.005,-26.8686,3.728
0,-0.00023908,0.655249,-0.000302996,0,-2.84267e-59,0.0536913,-9.89071e-12,0,0,-0,-0,-983.328,-26.8456,3.732
0,-0.00023908,0.655463,-0.000302996,0,-1.89511e-59,0.0536453,-6.59381e-12,0,0,-0,-0,-983.65,-26.8227,3.736
0,-0.00023908,0.655678,-0.000302996,0,-1.26341e-59,0.0535994,-4.39587e-12,0,0,-0,-0,-983.971,-26.7997,3.74
0,-0.00023908,0.655892,-0.000302996,0,-8.42272e-60,0.0535534,-2.93058e-12,0,0,-0,-0,-984.293,-26.7767,3.744
0,-0.00023908,0.656106,-0.000302996,0,-5.61515e-60,0.0535074,-1.95372e-12,0,0,-0,-0,-984.614,-26.7537,3.748
0,-0.00023908,0.65632,-0.000302996,0,-3.74343e-60,0.0534613,-1.30248e-12,0,0,-0,-0,-984.935,-26.7307,3.752
0,-0.00023908,0.656534,-0.000302996,0,-2.49562e-60,0.0534153,-8.6832e-13,0,0,-0,-0,-985.256,-26.7076,3.756
0,-0.00023908,0.656748,-0.000302996,0,-1.66375e-60,0.0533692,-5.7888e-13,0,0,-0,-0,-985.576,-26.6846,3.76
0,-0.00023908,0.656961,-0.000302996,0,-1.10916e-60,0.0533232,-3.8592e-13,0,0,-0,-0,-985.896,-26.6616,3.764
0,-0.00023908,0.657174,-0.000302996,0,-7.39443e-61,0.0532771,-2.5728e-13,0,0,-0,-0,-986.216,-26.6385,3.768
0,-0.00023908,0.657387,-0.000302996,0,-4.92962e-61,0.053231,-1.7152e-13,0,0,-0,-0,-986.535,-26.6155,3.772
0,-0.00023908,0.6576,-0.000302996,0,-3.28641e-61,0.0531848,-1.14347e-13,0,0,-0,-0,-986.855,-26.5924,3.776
0,-0.00023908,0.657813,-0.000302996,0,-2.19094e-61,0.0531387,-7.62311e-14,0,0,-0,-0,-987.174,-26.5693,3.78
0,-0.00023908,0.658025,-0.000302996,0,-1.46063e-61,0.0530925,-5.08207e-14,0,0,-0,-0,-987.492,-26.5463,3.784
