peachynonah/Fire_monitor_KIRO_CDSL/csv_datas/trial10/cdsl_data_t10_4.csv
joint1_pos_desired, joint1_pos, joint2_pos_desired, joint2_pos, joint1_vel_desired, joint1_vel_filtered, joint2_vel_desired, joint2_vel_filtered, target_torque_joint1, target_torque_joint2, propo_term_torque_joint1, deriv_term_torque_joint1, propo_term_torque_joint2, deriv_term_torque_joint2, current_time
-0.5036,-0.503697,0.201,0.199149,-0,0,2.51126e-07,0,0,-6,-0.531586,0,-6.47845,-0.00037669,0.004
-0.5036,-0.503697,0.201,0.199068,-0,0,1.0037e-06,-0.00673708,0,-16,-0.531586,0,-6.76142,-10.1071,0.008
-0.5036,-0.503696,0.201,0.199009,-0,2.87909e-05,2.25652e-06,-0.00941463,0,-21,-0.529686,0.100768,-6.96821,-14.1253,0.012
-0.5036,-0.503696,0.201,0.198957,-0,1.91939e-05,4.00838e-06,-0.0106239,0,-23,-0.529686,0.0671788,-7.15085,-15.9418,0.016
-0.5036,-0.503697,0.201,0.19891,-0,-1.5995e-05,6.25808e-06,-0.0110269,0,-23,-0.531586,-0.0559824,-7.31658,-16.5498,0.02
-0.5036,-0.503697,0.201,0.198869,-0,-1.06633e-05,9.00441e-06,-0.0107486,0,-23,-0.531586,-0.0373216,-7.45938,-16.1364,0.024
-0.5036,-0.503697,0.201,0.198833,-0,-7.10887e-06,1.22462e-05,-0.0101312,0,-22,-0.531586,-0.024881,-7.58408,-15.2152,0.028
-0.5036,-0.503696,0.201,0.198804,-0,2.40517e-05,1.59822e-05,-0.00923016,0,-21,-0.529686,0.0841809,-7.68827,-13.8692,0.032
-0.5036,-0.503697,0.201,0.198779,-0,-7.03383e-05,2.02112e-05,-0.00819759,0,-20,-0.535387,-0.246184,-7.77437,-12.3267,0.036
-0.5036,-0.503697,0.201,0.198761,-0,-4.68922e-05,2.49321e-05,-0.00696219,0,-18,-0.535387,-0.164123,-7.83757,-10.4807,0.04
-0.5036,-0.503696,0.201,0.198749,-0,5.51113e-05,3.01436e-05,-0.00564914,0,-16,-0.529686,0.19289,-7.88028,-8.51893,0.044
-0.5036,-0.503697,0.201001,0.198743,-0,7.94994e-06,3.58445e-05,-0.00422675,0,-14,-0.531586,0.0278248,-7.90008,-6.39389,0.048
-0.5036,-0.503697,0.201001,0.198744,-0,-2.3491e-05,4.20337e-05,-0.00278904,0,-12,-0.533486,-0.0822184,-7.89942,-4.24661,0.052
-0.5036,-0.503697,0.201001,0.198746,-0,-1.56606e-05,4.871e-05,-0.00168662,0,-10,-0.533486,-0.0548123,-7.8928,-2.60299,0.056
-0.5036,-0.503696,0.201001,0.198748,-0,4.71414e-05,5.58721e-05,-0.000980456,0,-9,-0.529686,0.164995,-7.88748,-1.55449,0.06
-0.5036,-0.503697,0.201001,0.198751,-0,-5.49452e-05,6.35189e-05,-0.000394519,0,-8,-0.535387,-0.192308,-7.87744,-0.687057,0.064
-0.5036,-0.503697,0.201002,0.198754,-0,2.09517e-05,7.16492e-05,5.36875e-05,0,-7,-0.531586,0.0733311,-7.86508,-0.0269425,0.068
-0.5036,-0.503697,0.201002,0.198759,-0,1.39678e-05,8.02617e-05,0.000381283,0,-7,-0.531586,0.0488874,-7.85163,0.451532,0.072
-0.5036,-0.503696,0.201002,0.198762,-0,3.81028e-05,8.93554e-05,0.000570889,0,-7,-0.529686,0.13336,-7.83952,0.7223,0.076
-0.5036,-0.503697,0.201003,0.198765,-0,-3.38905e-06,9.89289e-05,0.00061092,0,-7,-0.531586,-0.0118617,-7.83116,0.767986,0.08
-0.5036,-0.503697,0.201003,0.198767,-0,-3.10503e-05,0.000108981,0.000551235,0,-7,-0.533486,-0.108676,-7.82657,0.66338,0.084
-0.5036,-0.503696,0.201004,0.198768,-0,3.68817e-05,0.000119511,0.000425072,0,-7,-0.529686,0.129086,-7.82575,0.458341,0.088
-0.5036,-0.503697,0.201004,0.198767,-0,-6.1785e-05,0.000130517,0.00025459,0,-7,-0.535387,-0.216248,-7.82871,0.186109,0.092
-0.5036,-0.503697,0.201005,0.198767,-0,-1.23991e-05,0.000141998,0.000140936,0,-7,-0.533486,-0.0433968,-7.83183,-0.00159397,0.096
-0.5036,-0.503696,0.201005,0.198767,-0,4.93158e-05,0.000153954,9.39572e-05,0,-7,-0.529686,0.172605,-7.8339,-0.0899948,0.1
-0.5036,-0.503696,0.201006,0.198767,-0,3.28772e-05,0.000166382,6.26381e-05,0,-7,-0.529686,0.11507,-7.83614,-0.155616,0.104
-0.5036,-0.503697,0.201006,0.198767,-0,-3.56637e-05,0.000179282,4.17588e-05,0,-8,-0.533486,-0.124823,-7.83856,-0.206284,0.108
-0.5036,-0.503697,0.201007,0.198767,-0,5.01511e-06,0.000192652,2.78392e-05,0,-8,-0.531586,0.0175529,-7.84116,-0.247219,0.112
-0.5036,-0.503697,0.201008,0.198767,-0,-2.54475e-05,0.000206491,4.73504e-05,0,-8,-0.533486,-0.0890663,-7.84275,-0.238711,0.116
-0.5036,-0.503697,0.201009,0.198767,-0,1.18259e-05,0.000220799,2.77599e-06,0,-8,-0.531586,0.0413907,-7.84695,-0.327034,0.12
-0.5036,-0.503697,0.20101,0.198767,-0,7.88394e-06,0.000235573,1.85066e-06,0,-8,-0.531586,0.0275938,-7.85014,-0.350583,0.124
-0.5036,-0.503697,0.201011,0.198767,-0,-2.3535e-05,0.000250813,1.23377e-06,0,-8,-0.533486,-0.0823724,-7.85354,-0.374369,0.128
-0.5036,-0.503697,0.201012,0.198767,-0,1.31009e-05,0.000266518,8.22516e-07,0,-8,-0.531586,0.0458533,-7.85716,-0.398543,0.132
-0.5036,-0.503697,0.201013,0.198767,-0,8.73397e-06,0.000282686,2.93393e-05,0,-8,-0.531586,0.0305689,-7.8598,-0.38002,0.136
-0.5036,-0.503697,0.201014,0.198767,-0,-2.29683e-05,0.000299316,-9.23141e-06,0,-8,-0.533486,-0.080389,-7.86508,-0.462821,0.14
-0.5036,-0.503697,0.201015,0.198767,-0,-1.53122e-05,0.000316407,-6.15427e-06,0,-8,-0.533486,-0.0535927,-7.86939,-0.483842,0.144
-0.5036,-0.503697,0.201017,0.198767,-0,1.85828e-05,0.000333958,-4.10285e-06,0,-8,-0.531586,0.0650398,-7.87394,-0.507092,0.148
-0.5036,-0.503697,0.201018,0.198767,-0,1.23885e-05,0.000351968,-2.73523e-06,0,-8,-0.531586,0.0433599,-7.87874,-0.532055,0.152
-0.5036,-0.503697,0.201019,0.198767,-0,8.25902e-06,0.000370435,-1.82349e-06,0,-8,-0.531586,0.0289066,-7.8838,-0.558388,0.156
-0.5036,-0.503697,0.201021,0.198767,-0,5.50601e-06,0.000389359,-1.21566e-06,0,-8,-0.531586,0.0192711,-7.88912,-0.585862,0.16
-0.5036,-0.503697,0.201023,0.198767,-0,3.67068e-06,0.000408738,-8.10439e-07,0,-8,-0.531586,0.0128474,-7.89471,-0.614322,0.164
-0.5036,-0.503697,0.201024,0.198767,-0,2.44712e-06,0.00042857,-5.40293e-07,0,-8,-0.531586,0.00856491,-7.90057,-0.643666,0.168
-0.5036,-0.503697,0.201026,0.198767,-0,1.63141e-06,0.000448856,-3.60195e-07,0,-8,-0.531586,0.00570994,-7.90671,-0.673824,0.172
-0.5036,-0.503697,0.201028,0.198767,-0,1.08761e-06,0.000469593,-2.4013e-07,0,-8,-0.531586,0.00380663,-7.91314,-0.70475,0.176
-0.5036,-0.503697,0.20103,0.198767,-0,-2.80659e-05,0.000490781,-1.60087e-07,0,-8,-0.533486,-0.0982305,-7.91986,-0.736412,0.18
-0.5036,-0.503697,0.201032,0.198767,-0,1.00804e-05,0.000512418,2.86842e-05,0,-8,-0.531586,0.0352812,-7.92567,-0.725601,0.184
-0.5036,-0.503697,0.201034,0.198767,-0,6.72024e-06,0.000534504,-9.66812e-06,0,-8,-0.531586,0.0235208,-7.93421,-0.816258,0.188
-0.5036,-0.503697,0.201036,0.198767,-0,-2.43108e-05,0.000557036,-6.44542e-06,0,-8,-0.533486,-0.0850877,-7.94185,-0.845222,0.192
-0.5036,-0.503697,0.201038,0.198767,-0,1.25837e-05,0.000580014,-4.29694e-06,0,-8,-0.531586,0.0440431,-7.94981,-0.876467,0.196
-0.5036,-0.503697,0.201041,0.198767,-0,8.38916e-06,0.000603437,-2.86463e-06,0,-8,-0.531586,0.0293621,-7.95809,-0.909453,0.2
-0.5036,-0.503697,0.201043,0.198767,-0,5.59278e-06,0.000627304,-1.90975e-06,0,-8,-0.531586,0.0195747,-7.96671,-0.94382,0.204
-0.5036,-0.503697,0.201046,0.198767,-0,3.72852e-06,0.000651612,-1.27317e-06,0,-8,-0.531586,0.0130498,-7.97566,-0.979328,0.208
-0.5036,-0.503697,0.201048,0.198767,-0,2.48568e-06,0.000676362,-8.48779e-07,0,-9,-0.531586,0.00869987,-7.98495,-1.01582,0.212
-0.5036,-0.503697,0.201051,0.198767,-0,-2.71338e-05,0.000701553,-5.65853e-07,0,-9,-0.533486,-0.0949683,-7.9946,-1.05318,0.216
-0.5036,-0.503697,0.201054,0.198767,-0,-1.80892e-05,0.000727182,-3.77235e-07,0,-9,-0.533486,-0.0633122,-8.0046,-1.09134,0.22
-0.5036,-0.503697,0.201057,0.198767,-0,1.67315e-05,0.000753249,-2.5149e-07,0,-9,-0.531586,0.0585601,-8.01496,-1.13025,0.224
-0.5036,-0.503697,0.20106,0.198767,-0,1.11543e-05,0.000779752,-1.6766e-07,0,-9,-0.531586,0.0390401,-8.02569,-1.16988,0.228
-0.5036,-0.503697,0.201063,0.198767,-0,7.4362e-06,0.000806691,-1.11773e-07,0,-9,-0.531586,0.0260267,-8.0368,-1.2102,0.232
-0.5036,-0.503697,0.201066,0.198767,-0,4.95747e-06,0.000834064,-7.45156e-08,0,-9,-0.531586,0.0173511,-8.04828,-1.25121,0.236
-0.5036,-0.503697,0.20107,0.198767,-0,-2.54859e-05,0.00086187,-4.96771e-08,0,-9,-0.533486,-0.0892008,-8.06015,-1.29288,0.24
-0.5036,-0.503697,0.201073,0.198767,-0,1.18003e-05,0.000890109,-3.3118e-08,0,-9,-0.531586,0.041301,-8.07241,-1.33521,0.244
-0.5036,-0.503697,0.201077,0.198767,-0,7.86686e-06,0.000918778,-2.20787e-08,0,-9,-0.531586,0.027534,-8.08508,-1.3782,0.248
-0.5036,-0.503697,0.201081,0.198767,-0,5.24458e-06,0.000947877,-1.47191e-08,0,-9,-0.531586,0.018356,-8.09814,-1.42184,0.252
-0.5036,-0.503697,0.201085,0.198767,-0,-2.52945e-05,0.000977405,-9.81275e-09,0,-9,-0.533486,-0.0885309,-8.11162,-1.46612,0.256
-0.5036,-0.503697,0.201088,0.198767,-0,1.19279e-05,0.00100736,-6.54183e-09,0,-9,-0.531586,0.0417476,-8.12551,-1.51105,0.26
-0.5036,-0.503697,0.201093,0.198767,-0,-2.0839e-05,0.00103774,-4.36122e-09,0,-9,-0.533486,-0.0729365,-8.13983,-1.55662,0.264
-0.5036,-0.503697,0.201097,0.198767,-0,1.48983e-05,0.00106855,-2.90748e-09,0,-9,-0.531586,0.0521439,-8.15457,-1.60282,0.268
-0.5036,-0.503697,0.201101,0.198767,-0,9.93218e-06,0.00109978,-1.93832e-09,0,-9,-0.531586,0.0347626,-8.16975,-1.64967,0.272
-0.5036,-0.503697,0.201106,0.198767,-0,-2.21695e-05,0.00113143,-1.29221e-09,0,-9,-0.533486,-0.0775932,-8.18537,-1.69715,0.276
-0.5036,-0.503697,0.20111,0.198767,-0,1.40113e-05,0.00116351,-8.61476e-10,0,-9,-0.531586,0.0490395,-8.20143,-1.74526,0.28
-0.5036,-0.503697,0.201115,0.198767,-0,9.34085e-06,0.001196,2.87904e-05,0,-9,-0.531586,0.032693,-8.21674,-1.75082,0.284
-0.5036,-0.503697,0.20112,0.198767,-0,-2.25637e-05,0.00122892,-9.59736e-06,0,-10,-0.533486,-0.0789729,-8.23492,-1.85777,0.288
-0.5036,-0.503697,0.201125,0.198767,-0,1.37485e-05,0.00126225,-6.39824e-06,0,-10,-0.531586,0.0481196,-8.25236,-1.90297,0.292
-0.5036,-0.503697,0.20113,0.198767,-0,9.16564e-06,0.001296,-4.26549e-06,0,-10,-0.531586,0.0320797,-8.27027,-1.9504,0.296
-0.5036,-0.503697,0.201135,0.198767,-0,6.11043e-06,0.00133017,-2.84366e-06,0,-10,-0.531586,0.0213865,-8.28865,-1.99951,0.3
-0.5036,-0.503697,0.20114,0.198767,-0,4.07362e-06,0.00136475,-1.89577e-06,0,-10,-0.531586,0.0142577,-8.30751,-2.04996,0.304
-0.5036,-0.503697,0.201146,0.198767,-0,-2.60752e-05,0.00139974,-1.26385e-06,0,-10,-0.533486,-0.0912631,-8.32686,-2.10151,0.308
-0.5036,-0.503697,0.201152,0.198767,-0,1.14075e-05,0.00143515,-8.42566e-07,0,-10,-0.531586,0.0399262,-8.34671,-2.15399,0.312
-0.5036,-0.503697,0.201157,0.198767,-0,7.60498e-06,0.00147097,-5.61711e-07,0,-10,-0.531586,0.0266174,-8.36705,-2.2073,0.316
-0.5036,-0.503697,0.201163,0.198767,-0,-2.37209e-05,0.0015072,-3.74474e-07,0,-10,-0.533486,-0.0830233,-8.3879,-2.26136,0.32
-0.5036,-0.503697,0.20117,0.198767,-0,-1.5814e-05,0.00154384,-2.49649e-07,0,-10,-0.533486,-0.0553489,-8.40925,-2.31613,0.324
-0.5036,-0.503697,0.201176,0.198767,-0,-1.05426e-05,0.00158088,-1.66433e-07,0,-10,-0.533486,-0.0368992,-8.43112,-2.37158,0.328
-0.5036,-0.503697,0.201182,0.198767,-0,-7.02843e-06,0.00161834,-1.10955e-07,0,-10,-0.533486,-0.0245995,-8.45352,-2.42767,0.332
-0.5036,-0.503697,0.201189,0.198767,-0,2.41053e-05,0.0016562,-7.39702e-08,0,-10,-0.531586,0.0843686,-8.47644,-2.48441,0.336
-0.5036,-0.503697,0.201195,0.198767,-0,1.60702e-05,0.00169446,-4.93134e-08,0,-11,-0.531586,0.0562457,-8.49989,-2.54177,0.34
-0.5036,-0.503697,0.201202,0.198767,-0,1.07135e-05,0.00173313,-3.28756e-08,0,-11,-0.531586,0.0374971,-8.52389,-2.59975,0.344
-0.5036,-0.503697,0.201209,0.198767,-0,7.14231e-06,0.0017722,-2.19171e-08,0,-11,-0.531586,0.0249981,-8.54842,-2.65833,0.348
-0.5036,-0.503697,0.201216,0.198767,-0,4.76154e-06,0.00181167,-1.46114e-08,0,-11,-0.531586,0.0166654,-8.57351,-2.71753,0.352
-0.5036,-0.503697,0.201224,0.198767,-0,-2.56166e-05,0.00185155,-9.74093e-09,0,-11,-0.533486,-0.089658,-8.59915,-2.77733,0.356
-0.5036,-0.503697,0.201231,0.198767,-0,1.17132e-05,0.00189182,-6.49395e-09,0,-11,-0.531586,0.0409963,-8.62536,-2.83773,0.36
-0.5036,-0.503697,0.201239,0.198767,-0,7.80881e-06,0.00193249,-4.3293e-09,0,-11,-0.531586,0.0273308,-8.65213,-2.89873,0.364
-0.5036,-0.503697,0.201247,0.198767,-0,-2.35851e-05,0.00197355,-2.8862e-09,0,-11,-0.533486,-0.0825477,-8.67947,-2.96033,0.368
-0.5036,-0.503697,0.201255,0.198767,-0,-1.57234e-05,0.00201501,-1.92413e-09,0,-11,-0.533486,-0.0550318,-8.70739,-3.02252,0.372
-0.5036,-0.503697,0.201263,0.198767,-0,1.83087e-05,0.00205687,-1.28276e-09,0,-11,-0.531586,0.0640804,-8.73589,-3.08531,0.376
-0.5036,-0.503697,0.201271,0.198767,-0,1.22058e-05,0.00209912,-8.55171e-10,0,-11,-0.531586,0.0427203,-8.76498,-3.14868,0.38
-0.5036,-0.503697,0.20128,0.198767,-0,8.13719e-06,0.00214176,-5.70114e-10,0,-12,-0.531586,0.0284802,-8.79467,-3.21264,0.384
-0.5036,-0.503697,0.201288,0.198767,-0,5.42479e-06,0.0021848,-3.80076e-10,0,-12,-0.531586,0.0189868,-8.82495,-3.27719,0.388
-0.5036,-0.503697,0.201297,0.198767,-0,-2.51744e-05,0.00222822,2.87907e-05,0,-12,-0.533486,-0.0881104,-8.85463,-3.29914,0.392
-0.5036,-0.503697,0.201306,0.198767,-0,1.2008e-05,0.00227203,1.91938e-05,0,-12,-0.531586,0.042028,-8.88613,-3.37926,0.396
-0.5036,-0.503697,0.201315,0.198767,-0,-2.07856e-05,0.00231623,-1.59951e-05,0,-12,-0.533486,-0.0727496,-8.91946,-3.49834,0.4
-0.5036,-0.503697,0.201325,0.198767,-0,1.49339e-05,0.00236082,1.81275e-05,0,-12,-0.531586,0.0522685,-8.95099,-3.51404,0.404
-0.5036,-0.503697,0.201334,0.198767,-0,9.95591e-06,0.00240579,1.2085e-05,0,-12,-0.531586,0.0348457,-8.98436,-3.59056,0.408
-0.5036,-0.503697,0.201344,0.198767,-0,6.63727e-06,0.00245115,8.05669e-06,0,-12,-0.531586,0.0232305,-9.01836,-3.66464,0.412
-0.5036,-0.503697,0.201354,0.198767,-0,4.42485e-06,0.00249689,-2.34198e-05,0,-12,-0.531586,0.015487,-9.0542,-3.78047,0.416
-0.5036,-0.503697,0.201364,0.198767,-0,2.9499e-06,0.00254302,-1.56132e-05,0,-12,-0.531586,0.0103246,-9.08948,-3.83795,0.42
-0.5036,-0.503697,0.201374,0.198767,-0,1.9666e-06,0.00258952,1.83821e-05,0,-12,-0.531586,0.0068831,-9.1242,-3.85671,0.424
-0.5036,-0.503697,0.201385,0.198767,-0,-2.74799e-05,0.00263641,1.22547e-05,0,-13,-0.533486,-0.0961795,-9.16078,-3.93623,0.428
-0.5036,-0.503697,0.201395,0.198767,-0,1.0471e-05,0.00268367,8.16983e-06,0,-13,-0.531586,0.0366486,-9.19802,-4.01326,0.432
-0.5036,-0.503697,0.201406,0.198767,-0,6.98068e-06,0.00273132,5.44656e-06,0,-13,-0.531586,0.0244324,-9.23592,-4.0888,0.436
-0.5036,-0.503697,0.201417,0.198767,-0,4.65379e-06,0.00277934,3.63104e-06,0,-13,-0.531586,0.0162883,-9.2745,-4.16356,0.44
-0.5036,-0.503697,0.201428,0.198767,-0,3.10252e-06,0.00282773,2.42069e-06,0,-13,-0.531586,0.0108588,-9.31375,-4.23797,0.444
-0.5036,-0.503697,0.20144,0.198767,-0,2.06835e-06,0.0028765,1.61379e-06,0,-13,-0.531586,0.00723922,-9.35368,-4.31233,0.448
-0.5036,-0.503697,0.201451,0.198767,-0,-2.7412e-05,0.00292564,1.07586e-06,0,-13,-0.533486,-0.0959421,-9.39429,-4.38685,0.452
-0.5036,-0.503697,0.201463,0.198767,-0,-1.82747e-05,0.00297516,7.17242e-07,0,-13,-0.533486,-0.0639614,-9.4356,-4.46167,0.456
-0.5036,-0.503697,0.201475,0.198767,-0,1.66078e-05,0.00302505,4.78161e-07,0,-14,-0.531586,0.0581273,-9.4776,-4.53685,0.46
-0.5036,-0.503697,0.201487,0.198767,-0,1.10719e-05,0.00307531,3.18774e-07,0,-14,-0.531586,0.0387515,-9.5203,-4.61248,0.464
-0.5036,-0.503697,0.2015,0.198767,-0,-2.14097e-05,0.00312593,2.12516e-07,0,-14,-0.533486,-0.0749339,-9.56371,-4.68858,0.468
-0.5036,-0.503697,0.201512,0.198767,-0,-1.42731e-05,0.00317693,1.41677e-07,0,-14,-0.533486,-0.0499559,-9.60783,-4.76518,0.472
-0.5036,-0.503697,0.201525,0.198767,-0,1.92755e-05,0.00322829,9.44516e-08,0,-14,-0.531586,0.0674643,-9.65266,-4.84229,0.476
-0.5036,-0.503697,0.201538,0.198767,-0,1.28503e-05,0.00328002,6.29677e-08,0,-14,-0.531586,0.0449762,-9.69822,-4.91993,0.48
-0.5036,-0.503697,0.201551,0.198767,-0,8.56689e-06,0.00333211,4.19785e-08,0,-14,-0.531586,0.0299841,-9.7445,-4.9981,0.484
-0.5036,-0.503697,0.201565,0.198767,-0,5.71126e-06,0.00338457,2.79857e-08,0,-14,-0.531586,0.0199894,-9.79152,-5.07681,0.488
-0.5036,-0.503697,0.201578,0.198767,-0,3.80751e-06,0.00343739,1.86571e-08,0,-14,-0.531586,0.0133263,-9.83927,-5.15605,0.492
-0.5036,-0.503697,0.201592,0.198767,-0,2.53834e-06,0.00349057,1.24381e-08,0,-15,-0.531586,0.00888419,-9.88777,-5.23583,0.496
-0.5036,-0.503697,0.201606,0.198767,-0,1.69223e-06,0.00354411,8.29205e-09,0,-15,-0.531586,0.00592279,-9.93701,-5.31615,0.5
-0.5036,-0.503697,0.201621,0.198767,-0,1.12815e-06,0.00359801,5.52803e-09,0,-15,-0.531586,0.00394853,-9.98701,-5.39701,0.504
-0.5036,-0.503697,0.201635,0.198767,-0,-2.80388e-05,0.00365227,3.68535e-09,0,-15,-0.533486,-0.0981359,-10.0378,-5.4784,0.508
-0.5036,-0.503697,0.20165,0.198767,-0,-1.86925e-05,0.00370689,2.4569e-09,0,-15,-0.533486,-0.0654239,-10.0893,-5.56032,0.512
-0.5036,-0.503697,0.201665,0.198767,-0,1.63292e-05,0.00376186,1.63794e-09,0,-15,-0.531586,0.0571523,-10.1416,-5.64278,0.516
-0.5036,-0.503697,0.20168,0.198767,-0,1.08862e-05,0.00381719,1.09196e-09,0,-15,-0.531586,0.0381015,-10.1946,-5.72578,0.52
-0.5036,-0.503697,0.201695,0.198767,-0,7.25743e-06,0.00387287,7.27971e-10,0,-16,-0.531586,0.025401,-10.2484,-5.8093,0.524
-0.5036,-0.503697,0.201711,0.198767,-0,4.83829e-06,0.0039289,4.85314e-10,0,-16,-0.531586,0.016934,-10.303,-5.89335,0.528
-0.5036,-0.503697,0.201727,0.198768,-0,3.22553e-06,0.00398529,2.87912e-05,0,-16,-0.531586,0.0112893,-10.3572,-5.93474,0.532
-0.5036,-0.503697,0.201743,0.198767,-0,-2.66406e-05,0.00404202,-9.59676e-06,0,-16,-0.533486,-0.093242,-10.4146,-6.07743,0.536
-0.5036,-0.503697,0.201759,0.198768,-0,-1.77604e-05,0.00409911,2.23931e-05,0,-16,-0.533486,-0.0621613,-10.4704,-6.11508,0.54
-0.5036,-0.503697,0.201776,0.198768,-0,-1.18403e-05,0.00415655,1.49287e-05,0,-16,-0.533486,-0.0414409,-10.5282,-6.21243,0.544
-0.5036,-0.503697,0.201792,0.198767,-0,2.08974e-05,0.00421433,-1.88384e-05,0,-16,-0.531586,0.073141,-10.588,-6.34975,0.548
-0.5036,-0.503697,0.201809,0.198768,-0,1.39316e-05,0.00427246,1.6232e-05,0,-17,-0.531586,0.0487606,-10.6462,-6.38434,0.552
-0.5036,-0.503697,0.201827,0.198768,-0,9.28774e-06,0.00433093,1.08213e-05,0,-17,-0.531586,0.0325071,-10.7064,-6.48017,0.556
-0.5036,-0.503697,0.201844,0.198767,-0,6.19183e-06,0.00438975,-2.15767e-05,0,-17,-0.531586,0.0216714,-10.7687,-6.61699,0.56
-0.5036,-0.503697,0.201862,0.198768,-0,4.12789e-06,0.00444891,1.44064e-05,0,-17,-0.531586,0.0144476,-10.8293,-6.65176,0.564
-0.5036,-0.503697,0.20188,0.198768,-0,-2.6039e-05,0.00450842,9.6043e-06,0,-17,-0.533486,-0.0911365,-10.892,-6.74822,0.568
-0.5036,-0.503697,0.201898,0.198768,-0,-1.73593e-05,0.00456826,6.40286e-06,0,-17,-0.533486,-0.0607577,-10.9556,-6.84279,0.572
-0.5036,-0.503697,0.201916,0.198768,-0,-1.15729e-05,0.00462845,4.26858e-06,0,-17,-0.533486,-0.0405051,-11.02,-6.93627,0.576
-0.5036,-0.503697,0.201935,0.198768,-0,2.10757e-05,0.00468897,2.84572e-06,0,-18,-0.531586,0.0737648,-11.0852,-7.02919,0.58
-0.5036,-0.503697,0.201954,0.198768,-0,-1.47405e-05,0.00474983,1.89715e-06,0,-18,-0.533486,-0.0515917,-11.1513,-7.12191,0.584
-0.5036,-0.503697,0.201973,0.198768,-0,-9.82699e-06,0.00481103,1.26476e-06,0,-18,-0.533486,-0.0343945,-11.2182,-7.21465,0.588
-0.5036,-0.503697,0.201992,0.198768,-0,2.22396e-05,0.00487257,8.43176e-07,0,-18,-0.531586,0.0778386,-11.286,-7.30759,0.592
-0.5036,-0.503697,0.202012,0.198768,-0,1.48264e-05,0.00493444,5.62117e-07,0,-18,-0.531586,0.0518924,-11.3546,-7.40081,0.596
-0.5036,-0.503697,0.202032,0.198768,-0,9.88427e-06,0.00499664,3.74745e-07,0,-18,-0.531586,0.0345949,-11.4241,-7.4944,0.6
-0.5036,-0.503697,0.202052,0.198768,-0,-2.22014e-05,0.00505918,2.4983e-07,0,-19,-0.533486,-0.0777049,-11.4945,-7.58839,0.604
-0.5036,-0.503697,0.202072,0.198768,-0,-1.48009e-05,0.00512204,1.66553e-07,0,-19,-0.533486,-0.0518033,-11.5658,-7.68281,0.608
-0.5036,-0.503697,0.202093,0.198768,-0,-9.86729e-06,0.00518524,1.11035e-07,0,-19,-0.533486,-0.0345355,-11.6379,-7.77769,0.612
-0.5036,-0.503697,0.202114,0.198768,-0,-6.5782e-06,0.00524877,7.40236e-08,0,-19,-0.533486,-0.0230237,-11.711,-7.87304,0.616
-0.5036,-0.503697,0.202135,0.198768,-0,2.44055e-05,0.00531262,4.93491e-08,0,-19,-0.531586,0.0854191,-11.7849,-7.96886,0.62
-0.5036,-0.503697,0.202156,0.198768,-0,1.62703e-05,0.0053768,3.28994e-08,0,-19,-0.531586,0.0569461,-11.8597,-8.06516,0.624
-0.5036,-0.503697,0.202178,0.198768,-0,-1.79441e-05,0.00544131,2.88129e-05,0,-20,-0.533486,-0.0628042,-11.9342,-8.11875,0.628
-0.5036,-0.503697,0.2022,0.198768,-0,1.68282e-05,0.00550615,1.92086e-05,0,-20,-0.531586,0.0588988,-12.0109,-8.23041,0.632
-0.5036,-0.503697,0.202222,0.198768,-0,-1.75721e-05,0.0055713,1.28057e-05,0,-20,-0.533486,-0.0615024,-12.0884,-8.33775,0.636
-0.5036,-0.503697,0.202244,0.198768,-0,1.70762e-05,0.00563679,8.53714e-06,0,-20,-0.531586,0.0597666,-12.1669,-8.44237,0.64
-0.5036,-0.503697,0.202267,0.198768,-0,-1.74068e-05,0.00570259,5.69143e-06,0,-20,-0.533486,-0.0609238,-12.2463,-8.54535,0.644
-0.5036,-0.503697,0.20229,0.198768,-0,1.71864e-05,0.00576871,3.25852e-05,0,-20,-0.531586,0.0601524,-12.3253,-8.60419,0.648
-0.5036,-0.503697,0.202313,0.198768,-0,1.14576e-05,0.00583516,2.17235e-05,0,-21,-0.531586,0.0401016,-12.4066,-8.72015,0.652
-0.5036,-0.503697,0.202336,0.198769,-0,-4.99435e-05,0.00590192,7.20642e-05,0,-21,-0.535387,-0.174802,-12.4863,-8.74478,0.656
-0.5036,-0.503697,0.20236,0.198769,-0,-4.50471e-06,0.005969,1.92519e-05,0,-21,-0.533486,-0.0157665,-12.5706,-8.92462,0.66
-0.5036,-0.503697,0.202384,0.198769,-0,-3.00314e-06,0.0060364,4.16255e-05,0,-21,-0.533486,-0.010511,-12.6534,-8.99216,0.664
-0.5036,-0.503697,0.202409,0.198769,-0,2.67888e-05,0.00610411,5.65413e-05,0,-21,-0.531586,0.0937609,-12.7372,-9.07135,0.668
-0.5036,-0.503697,0.202433,0.198769,-0,-1.09317e-05,0.00617214,3.76942e-05,0,-22,-0.533486,-0.038261,-12.8231,-9.20166,0.672
-0.5036,-0.503697,0.202458,0.19877,-0,2.15031e-05,0.00624048,5.39204e-05,0,-22,-0.531586,0.0752609,-12.9088,-9.27984,0.676
-0.5036,-0.503697,0.202483,0.19877,-0,-1.44555e-05,0.00630913,3.59469e-05,0,-22,-0.533486,-0.0505943,-12.9967,-9.40978,0.68
-0.5036,-0.503697,0.202508,0.19877,-0,1.91539e-05,0.0063781,5.27555e-05,0,-22,-0.531586,0.0670387,-13.0843,-9.48801,0.684
-0.5036,-0.503697,0.202534,0.19877,-0,-1.60216e-05,0.00644737,6.39613e-05,0,-22,-0.533486,-0.0560758,-13.1728,-9.57512,0.688
-0.5036,-0.503697,0.20256,0.198771,-0,1.81098e-05,0.00651696,7.14318e-05,0,-22,-0.531586,0.0633844,-13.2624,-9.66829,0.692
-0.5036,-0.503697,0.202586,0.198771,-0,-1.67177e-05,0.00658685,7.64121e-05,0,-23,-0.533486,-0.058512,-13.3529,-9.76566,0.696
-0.5036,-0.503697,0.202613,0.198771,-0,-1.11451e-05,0.00665705,7.97323e-05,0,-23,-0.533486,-0.039008,-13.4444,-9.86598,0.7
-0.5036,-0.503697,0.202639,0.198772,-0,-7.43009e-06,0.00672756,8.19458e-05,0,-23,-0.533486,-0.0260053,-13.5369,-9.96842,0.704
-0.5036,-0.503697,0.202666,0.198772,-0,2.38375e-05,0.00679837,0.000112212,0,-23,-0.531586,0.0834314,-13.6291,-10.0292,0.708
-0.5036,-0.503697,0.202694,0.198773,-0,1.58917e-05,0.00686949,0.000103599,0,-23,-0.531586,0.0556209,-13.7236,-10.1488,0.712
-0.5036,-0.503697,0.202721,0.198773,-0,1.05945e-05,0.00694091,9.7857e-05,0,-24,-0.531586,0.0370806,-13.8191,-10.2646,0.716
-0.5036,-0.503697,0.202749,0.198773,-0,7.06297e-06,0.00701263,9.4029e-05,0,-24,-0.531586,0.0247204,-13.9155,-10.3779,0.72
-0.5036,-0.503697,0.202778,0.198774,-0,-2.40823e-05,0.00708465,0.000120268,0,-24,-0.533486,-0.084288,-14.0118,-10.4466,0.724
-0.5036,-0.503697,0.202806,0.198775,-0,1.27361e-05,0.00715697,0.000108969,0,-24,-0.531586,0.0445763,-14.1103,-10.572,0.728
-0.5036,-0.503697,0.202835,0.198775,-0,-2.03002e-05,0.0072296,0.000130228,0,-24,-0.533486,-0.0710507,-14.2086,-10.6491,0.732
-0.5036,-0.503697,0.202864,0.198776,-0,1.52575e-05,0.00730252,0.000144401,0,-25,-0.531586,0.0534011,-14.3079,-10.7372,0.736
-0.5036,-0.503697,0.202893,0.198776,-0,1.01716e-05,0.00737573,0.000125058,0,-25,-0.531586,0.0356007,-14.4094,-10.876,0.74
-0.5036,-0.503697,0.202923,0.198777,-0,-2.20098e-05,0.00744925,0.000112163,0,-25,-0.533486,-0.0770344,-14.512,-11.0056,0.744
-0.5036,-0.503697,0.202953,0.198777,-0,-1.46732e-05,0.00752306,0.000132357,0,-25,-0.533486,-0.0513563,-14.6144,-11.086,0.748
-0.5036,-0.503697,0.202983,0.198778,-0,-9.78215e-06,0.00759716,0.00014582,0,-25,-0.533486,-0.0342375,-14.7178,-11.177,0.752
-0.5036,-0.503697,0.203014,0.198778,-0,2.22695e-05,0.00767155,0.000126004,0,-26,-0.531586,0.0779432,-14.8235,-11.3183,0.756
-0.5036,-0.503697,0.203044,0.198779,-0,1.48463e-05,0.00774624,0.000141585,0,-26,-0.531586,0.0519621,-14.929,-11.407,0.76
-0.5036,-0.503697,0.203076,0.19878,-0,9.89755e-06,0.00782122,0.000151972,0,-26,-0.531586,0.0346414,-15.0355,-11.5039,0.764
-0.5036,-0.503697,0.203107,0.198781,-0,6.59837e-06,0.00789649,0.000187687,0,-26,-0.531586,0.0230943,-15.1419,-11.5632,0.768
-0.5036,-0.503697,0.203139,0.198782,-0,4.39891e-06,0.00797204,0.000211498,0,-26,-0.531586,0.0153962,-15.2494,-11.6408,0.772
-0.5036,-0.503697,0.203171,0.198782,-0,2.93261e-06,0.00804789,0.00019858,0,-27,-0.531586,0.0102641,-15.3591,-11.774,0.776
-0.5036,-0.503697,0.203203,0.198783,-0,1.95507e-06,0.00812402,0.000189969,0,-27,-0.531586,0.00684275,-15.4699,-11.9011,0.78
-0.5036,-0.503697,0.203236,0.198784,-0,-2.74875e-05,0.00820044,0.000184228,0,-27,-0.533486,-0.0962064,-15.5817,-12.0243,0.784
-0.5036,-0.503697,0.203269,0.198785,-0,-1.8325e-05,0.00827714,0.000209191,0,-27,-0.533486,-0.0641376,-15.6934,-12.1019,0.788
-0.5036,-0.503697,0.203302,0.198786,-0,-1.22167e-05,0.00835412,0.000225834,0,-27,-0.533486,-0.0427584,-15.8062,-12.1924,0.792
-0.5036,-0.503697,0.203336,0.198787,-0,-8.14446e-06,0.00843139,0.000236928,0,-28,-0.533486,-0.0285056,-15.9201,-12.2917,0.796
-0.5036,-0.503697,0.203369,0.198788,-0,-5.42964e-06,0.00850894,0.000273116,0,-28,-0.533486,-0.0190037,-16.0338,-12.3537,0.8
-0.5036,-0.503697,0.203404,0.198789,-0,2.51712e-05,0.00858677,0.00026845,0,-28,-0.531586,0.0880991,-16.1499,-12.4775,0.804
-0.5036,-0.503697,0.203438,0.19879,-0,1.67808e-05,0.00866488,0.000236549,0,-28,-0.531586,0.0587327,-16.2682,-12.6425,0.808
-0.5036,-0.503697,0.203473,0.198791,-0,1.11872e-05,0.00874327,0.000244072,0,-29,-0.531586,0.0391551,-16.3865,-12.7488,0.812
-0.5036,-0.503697,0.203508,0.198792,-0,7.45812e-06,0.00882194,0.000249087,0,-29,-0.531586,0.0261034,-16.5058,-12.8593,0.816
-0.5036,-0.503697,0.203544,0.198793,-0,4.97208e-06,0.00890088,0.000252431,0,-29,-0.531586,0.0174023,-16.6262,-12.9727,0.82
-0.5036,-0.503697,0.203579,0.198795,-0,-2.54762e-05,0.0089801,0.000341033,0,-29,-0.533486,-0.0891667,-16.7441,-12.9586,0.824
-0.5036,-0.503697,0.203615,0.198796,-0,-1.69841e-05,0.00905959,0.000313728,0,-29,-0.533486,-0.0594445,-16.8668,-13.1188,0.828
-0.5036,-0.503697,0.203652,0.198799,-0,1.74682e-05,0.00913936,0.000410688,0,-30,-0.531586,0.0611386,-16.9857,-13.093,0.832
-0.5036,-0.503697,0.203688,0.1988,-0,-1.71455e-05,0.0092194,0.000388956,0,-30,-0.533486,-0.0600092,-17.1094,-13.2457,0.836
-0.5036,-0.503697,0.203726,0.198802,-0,1.73606e-05,0.00929971,0.00043205,0,-30,-0.531586,0.0607621,-17.2318,-13.3015,0.84
-0.5036,-0.503697,0.203763,0.198805,-0,-1.72172e-05,0.00938029,0.00051836,0,-30,-0.533486,-0.0602602,-17.3528,-13.2929,0.844
-0.5036,-0.503697,0.203801,0.198808,-0,-1.14781e-05,0.00946114,0.000604692,0,-30,-0.533486,-0.0401734,-17.4739,-13.2847,0.848
-0.5036,-0.503697,0.203839,0.19881,-0,2.11388e-05,0.00954226,0.000604664,0,-31,-0.531586,0.0739859,-17.5984,-13.4064,0.852
-0.5036,-0.503697,0.203877,0.198814,-0,-1.46984e-05,0.00962365,0.00071981,0,-31,-0.533486,-0.0514443,-17.7193,-13.3558,0.856
-0.5036,-0.503697,0.203916,0.198818,-0,-9.79891e-06,0.0097053,0.000796573,0,-31,-0.533486,-0.0342962,-17.8413,-13.3631,0.86
-0.5036,-0.503697,0.203955,0.198823,-0,2.22583e-05,0.00978722,0.000962913,0,-31,-0.531586,0.0779041,-17.9596,-13.2365,0.864
-0.5036,-0.503697,0.203994,0.198828,-0,-1.3952e-05,0.00986941,0.00104501,0,-31,-0.533486,-0.0488322,-18.0803,-13.2366,0.868
-0.5036,-0.503697,0.204033,0.198833,-0,-9.30136e-06,0.00995186,0.00112854,0,-31,-0.533486,-0.0325548,-18.2009,-13.235,0.872
-0.5036,-0.503697,0.204073,0.198838,-0,2.259e-05,0.0100346,0.00115543,0,-31,-0.531586,0.0790651,-18.3238,-13.3187,0.876
-0.5036,-0.503697,0.204114,0.198844,-0,1.506e-05,0.0101175,0.00123094,0,-31,-0.531586,0.05271,-18.4456,-13.3299,0.88
-0.5036,-0.503697,0.204154,0.198849,-0,-1.87509e-05,0.0102008,0.00131007,0,-31,-0.533486,-0.0656282,-18.5672,-13.336,0.884
-0.5036,-0.503697,0.204195,0.198856,-0,1.62903e-05,0.0102843,0.00139162,0,-32,-0.531586,0.0570161,-18.6889,-13.339,0.888
-0.5036,-0.503697,0.204237,0.198862,-0,-1.79307e-05,0.010368,0.00144598,0,-32,-0.533486,-0.0627575,-18.8117,-13.383,0.892
-0.5036,-0.503697,0.204278,0.198869,-0,1.68371e-05,0.010452,0.00153981,0,-32,-0.531586,0.0589299,-18.9332,-13.3683,0.896
-0.5036,-0.503697,0.20432,0.198876,-0,-1.75662e-05,0.0105363,0.00163115,0,-32,-0.533486,-0.0614816,-19.0547,-13.3577,0.9
-0.5036,-0.503697,0.204363,0.198885,-0,-1.17108e-05,0.0106208,0.0018072,0,-32,-0.533486,-0.0409878,-19.1726,-13.2204,0.904
-0.5036,-0.503697,0.204405,0.198893,-0,2.09837e-05,0.0107056,0.00192458,0,-32,-0.531586,0.0734431,-19.2917,-13.1715,0.908
-0.5036,-0.503697,0.204448,0.198904,-0,-1.48018e-05,0.0107906,0.00217557,0,-32,-0.533486,-0.0518062,-19.4046,-12.9226,0.912
-0.5036,-0.503697,0.204492,0.198915,-0,1.89231e-05,0.0108759,0.0023429,0,-32,-0.531586,0.0662308,-19.5188,-12.7995,0.916
-0.5036,-0.503697,0.204535,0.198927,-0,-1.61755e-05,0.0109614,0.00254082,0,-32,-0.533486,-0.0566144,-19.6306,-12.6309,0.92
-0.5036,-0.503696,0.204579,0.198939,-0,4.67982e-05,0.0110472,0.00273036,0,-32,-0.529686,0.163794,-19.7411,-12.4753,0.924
-0.5036,-0.503697,0.204624,0.198951,-0,2.40785e-06,0.0111332,0.00285671,0,-32,-0.531586,0.00842746,-19.8528,-12.4148,0.928
-0.5036,-0.503696,0.204668,0.198965,-0,3.03962e-05,0.0112195,0.00299853,0,-32,-0.529686,0.106387,-19.9633,-12.3315,0.932
-0.5036,-0.503697,0.204713,0.198977,-0,-3.73177e-05,0.0113061,0.00303549,0,-32,-0.533486,-0.130612,-20.0775,-12.4059,0.936
-0.5036,-0.503697,0.204759,0.198989,-0,-2.48785e-05,0.0113928,0.00303134,0,-32,-0.533486,-0.0870747,-20.1941,-12.5422,0.94
-0.5036,-0.503697,0.204805,0.199001,-0,1.22053e-05,0.0114799,0.00305737,0,-32,-0.531586,0.0427184,-20.3106,-12.6337,0.944
-0.5036,-0.503697,0.204851,0.199013,-0,-2.06541e-05,0.0115671,0.00301714,0,-33,-0.533486,-0.0722893,-20.4309,-12.825,0.948
-0.5036,-0.503697,0.204897,0.199026,-0,-1.37694e-05,0.0116546,0.00310548,0,-33,-0.533486,-0.0481929,-20.5475,-12.8237,0.952
-0.5036,-0.503697,0.204944,0.199039,-0,-9.17959e-06,0.0117424,0.00316438,0,-33,-0.533486,-0.0321286,-20.6653,-12.867,0.956
-0.5036,-0.503697,0.204991,0.199053,-0,-6.11973e-06,0.0118304,0.00320364,0,-33,-0.533486,-0.0214191,-20.7843,-12.9401,0.96
-0.5036,-0.503697,0.205039,0.199066,-0,2.47111e-05,0.0119186,0.00322981,0,-33,-0.531586,0.0864889,-20.9046,-13.0332,0.964
-0.5036,-0.503697,0.205086,0.199078,-0,1.64741e-05,0.0120071,0.00318968,0,-34,-0.531586,0.0576592,-21.0286,-13.2261,0.968
-0.5036,-0.503696,0.205135,0.199091,-0,3.97736e-05,0.0120958,0.00319172,0,-34,-0.529686,0.139208,-21.1526,-13.3562,0.972
-0.5036,-0.503697,0.205183,0.199104,-0,-2.27517e-06,0.0121848,0.00319308,0,-34,-0.531586,-0.00796308,-21.2778,-13.4876,0.976
-0.5036,-0.503697,0.205232,0.199117,-0,-3.03077e-05,0.012274,0.00325156,0,-34,-0.533486,-0.106077,-21.4018,-13.5336,0.98
-0.5036,-0.503697,0.205281,0.199131,-0,-2.02051e-05,0.0123634,0.00334814,0,-35,-0.533486,-0.070718,-21.5247,-13.5229,0.984
-0.5036,-0.503697,0.205331,0.199147,-0,1.53208e-05,0.0124531,0.00355647,0,-34,-0.531586,0.0536229,-21.6428,-13.3449,0.988
-0.5036,-0.503697,0.205381,0.199163,-0,1.02139e-05,0.012543,0.00366657,0,-35,-0.531586,0.0357486,-21.7634,-13.3146,0.992
-0.5036,-0.503697,0.205431,0.199178,-0,6.80926e-06,0.0126331,0.00368239,0,-35,-0.531586,0.0238324,-21.8876,-13.426,0.996
-0.5036,-0.503696,0.205482,0.199192,-0,3.33304e-05,0.0127235,0.00360657,0,-35,-0.529686,0.116657,-22.0167,-13.6753,1
-0.5036,-0.503696,0.205533,0.199203,-0,2.22203e-05,0.012814,0.00335448,0,-36,-0.529686,0.077771,-22.1556,-14.1893,1.004
-0.5036,-0.503697,0.205585,0.199214,-0,-4.27683e-05,0.0129049,0.00318642,0,-36,-0.533486,-0.149689,-22.2957,-14.5777,1.008
-0.5036,-0.503697,0.205636,0.199226,-0,2.78708e-07,0.0129959,0.00307438,0,-37,-0.531586,0.00097548,-22.4371,-14.8823,1.012
-0.5036,-0.503697,0.205688,0.199237,-0,-2.86051e-05,0.0130872,0.00299969,0,-37,-0.533486,-0.100118,-22.5798,-15.1313,1.016
-0.5036,-0.503697,0.205741,0.19925,-0,-4.7861e-05,0.0131787,0.00303626,0,-37,-0.535387,-0.167514,-22.7201,-15.2137,1.02
-0.5036,-0.503697,0.205794,0.199262,-0,-3.11641e-06,0.0132704,0.00303186,0,-38,-0.533486,-0.0109074,-22.8629,-15.3579,1.024
-0.5036,-0.503697,0.205847,0.199274,-0,2.67133e-05,0.0133624,0.00305771,0,-38,-0.531586,0.0934966,-23.0058,-15.457,1.028
-0.5036,-0.503697,0.205901,0.199287,-0,1.78089e-05,0.0134546,0.00307495,0,-38,-0.531586,0.0623311,-23.15,-15.5695,1.032
-0.5036,-0.503696,0.205955,0.1993,-0,4.06635e-05,0.013547,0.00314402,0,-38,-0.529686,0.142322,-23.2931,-15.6045,1.036
-0.5036,-0.503697,0.206009,0.199312,-0,-1.68192e-06,0.0136396,0.00316128,0,-39,-0.531586,-0.00588671,-23.4387,-15.7175,1.04
-0.5036,-0.503697,0.206064,0.199326,-0,-5.87031e-05,0.0137325,0.00323036,0,-39,-0.535387,-0.205461,-23.5831,-15.7532,1.044
-0.5036,-0.503696,0.206119,0.199341,-0,4.72374e-05,0.0138256,0.00342038,0,-39,-0.529686,0.165331,-23.7228,-15.6078,1.048
-0.5036,-0.503697,0.206175,0.199357,-0,2.70065e-06,0.0139188,0.00360463,0,-39,-0.531586,0.00945226,-23.8614,-15.4713,1.052
-0.5036,-0.503697,0.20623,0.199374,-0,1.80043e-06,0.0140124,0.00378505,0,-39,-0.531586,0.00630151,-23.9989,-15.341,1.056
-0.5036,-0.503697,0.206287,0.19939,-0,-5.63816e-05,0.0141061,0.00387654,0,-39,-0.535387,-0.197335,-24.1389,-15.3443,1.06
-0.5036,-0.503697,0.206343,0.199405,-0,-8.79678e-06,0.0142,0.00385116,0,-39,-0.533486,-0.0307887,-24.2838,-15.5233,1.064
-0.5036,-0.503697,0.2064,0.19942,-0,2.29264e-05,0.0142942,0.00383424,0,-40,-0.531586,0.0802424,-24.4301,-15.6899,1.068
-0.5036,-0.503697,0.206458,0.199435,-0,-4.22976e-05,0.0143886,0.00382296,0,-40,-0.535387,-0.148042,-24.5776,-15.8484,1.072
-0.5036,-0.503697,0.206515,0.199451,-0,-2.81984e-05,0.0144832,0.00381544,0,-40,-0.535387,-0.0986944,-24.7265,-16.0016,1.076
-0.5036,-0.503697,0.206573,0.199466,-0,3.87829e-05,0.014578,0.00383922,0,-40,-0.531586,0.13574,-24.8755,-16.1081,1.08
-0.5036,-0.503697,0.206632,0.199482,-0,2.58553e-05,0.014673,0.00388386,0,-41,-0.531586,0.0904935,-25.0247,-16.1837,1.084
-0.5036,-0.503697,0.206691,0.199499,-0,1.72369e-05,0.0147682,0.00397121,0,-41,-0.531586,0.060329,-25.1727,-16.1955,1.088
-0.5036,-0.503696,0.20675,0.199516,-0,4.02822e-05,0.0148637,0.00408702,0,-41,-0.529686,0.140988,-25.3197,-16.165,1.092
-0.5036,-0.503697,0.20681,0.199533,-0,-5.9518e-05,0.0149593,0.00416422,0,-41,-0.535387,-0.208313,-25.468,-16.1926,1.096
-0.5036,-0.503697,0.20687,0.19955,-0,1.79032e-05,0.0150552,0.0041869,0,-41,-0.531586,0.0626611,-25.6188,-16.3024,1.1
-0.5036,-0.503697,0.20693,0.199568,-0,1.19355e-05,0.0151512,0.00425961,0,-42,-0.531586,0.0417741,-25.7686,-16.3374,1.104
-0.5036,-0.503697,0.206991,0.199585,-0,-2.0834e-05,0.0152475,0.00430808,0,-42,-0.533486,-0.0729188,-25.9197,-16.4091,1.108
-0.5036,-0.503697,0.207052,0.199603,-0,1.49016e-05,0.015344,0.00434039,0,-42,-0.531586,0.0521557,-26.0722,-16.5054,1.112
-0.5036,-0.503697,0.207114,0.19962,-0,-4.76474e-05,0.0154406,0.00433314,0,-42,-0.535387,-0.166766,-26.2272,-16.6613,1.116
-0.5036,-0.503697,0.207176,0.199638,-0,2.58169e-05,0.0155375,0.00438589,0,-43,-0.531586,0.0903591,-26.3812,-16.7275,1.12
-0.5036,-0.503697,0.207238,0.199656,-0,1.72113e-05,0.0156346,0.00442105,0,-43,-0.531586,0.0602394,-26.5365,-16.8203,1.124
-0.5036,-0.503696,0.207301,0.199673,-0,4.02651e-05,0.0157319,0.00435812,0,-43,-0.529686,0.140928,-26.6968,-17.0607,1.128
-0.5036,-0.503697,0.207364,0.19969,-0,-1.94753e-06,0.0158294,0.00428738,0,-44,-0.531586,-0.00681634,-26.8597,-17.313,1.132
-0.5036,-0.503697,0.207427,0.199705,-0,-1.29835e-06,0.0159271,0.00412505,0,-44,-0.531586,-0.00454423,-27.0288,-17.703,1.136
-0.5036,-0.503697,0.207491,0.199718,-0,-8.65567e-07,0.016025,0.00384409,0,-45,-0.531586,-0.00302948,-27.2065,-18.2713,1.14
-0.5036,-0.503697,0.207556,0.19973,-0,-5.81589e-05,0.016123,0.00354162,0,-46,-0.535387,-0.203556,-27.3904,-18.8721,1.144
-0.5036,-0.503697,0.20762,0.199739,-0,1.88093e-05,0.0162213,0.00310964,0,-47,-0.531586,0.0658324,-27.5854,-19.6675,1.148
-0.5036,-0.503696,0.207685,0.199745,-0,4.13304e-05,0.0163198,0.00259133,0,-48,-0.529686,0.144656,-27.7914,-20.5927,1.152
-0.5036,-0.503697,0.207751,0.199748,-0,-1.23731e-06,0.0164185,0.00195788,0,-49,-0.531586,-0.00433057,-28.0109,-21.6909,1.156
-0.5036,-0.503697,0.207817,0.199748,-0,-8.24871e-07,0.0165174,0.00136284,0,-50,-0.531586,-0.00288705,-28.2391,-22.7318,1.16
-0.5036,-0.503697,0.207883,0.199748,-0,-5.81318e-05,0.0166164,0.000850976,0,-52,-0.535387,-0.203461,-28.4734,-23.6482,1.164
-0.5036,-0.503697,0.20795,0.199748,-0,-3.87545e-05,0.0167157,0.000567317,0,-52,-0.535387,-0.135641,-28.7067,-24.2225,1.168
-0.5036,-0.503696,0.208017,0.199748,-0,6.05364e-05,0.0168151,0.000378212,0,-53,-0.529686,0.211878,-28.9415,-24.6553,1.172
-0.5036,-0.503696,0.208084,0.199748,-0,4.03576e-05,0.0169147,0.000252141,0,-54,-0.529686,0.141252,-29.1776,-24.9939,1.176
-0.5036,-0.503697,0.208152,0.199748,-0,-1.88584e-06,0.0170146,0.000168094,0,-54,-0.531586,-0.00660045,-29.4151,-25.2697,1.18
-0.5036,-0.503696,0.20822,0.199748,-0,2.75337e-05,0.0171146,0.000112063,0,-55,-0.529686,0.0963679,-29.654,-25.5038,1.184
-0.5036,-0.503697,0.208289,0.199748,-0,-6.8017e-05,0.0172148,7.47084e-05,0,-55,-0.535387,-0.238059,-29.8943,-25.7101,1.188
-0.5036,-0.503697,0.208358,0.199748,-0,1.22372e-05,0.0173152,4.98056e-05,0,-56,-0.531586,0.0428302,-30.136,-25.8981,1.192
-0.5036,-0.503696,0.208427,0.199748,-0,3.69491e-05,0.0174158,9.07856e-05,0,-56,-0.529686,0.129322,-30.3767,-25.9875,1.196
-0.5036,-0.503697,0.208497,0.199748,-0,-4.15822e-06,0.0175165,2.94189e-06,0,-56,-0.531586,-0.0145538,-30.6236,-26.2704,1.2
-0.5036,-0.503696,0.208568,0.199747,-0,2.60188e-05,0.0176175,-2.68297e-05,0,-57,-0.529686,0.0910657,-30.8708,-26.4664,1.204
-0.5036,-0.503697,0.208638,0.199748,-0,-1.14451e-05,0.0177186,6.84863e-05,0,-57,-0.531586,-0.0400578,-31.1145,-26.4752,1.208
-0.5036,-0.503697,0.208709,0.199748,-0,-7.63005e-06,0.0178199,1.68666e-05,0,-58,-0.531586,-0.0267052,-31.3645,-26.7045,1.212
-0.5036,-0.503697,0.208781,0.199748,-0,-5.0867e-06,0.0179214,1.12444e-05,0,-58,-0.531586,-0.0178034,-31.6147,-26.8652,1.216
-0.5036,-0.503696,0.208853,0.199748,-0,2.53998e-05,0.0180231,7.49628e-06,0,-58,-0.529686,0.0888993,-31.8663,-27.0233,1.22
-0.5036,-0.503697,0.208925,0.199748,-0,-1.18577e-05,0.0181249,4.99752e-06,0,-59,-0.531586,-0.0415021,-32.1193,-27.1799,1.224
-0.5036,-0.503697,0.208998,0.199748,-0,-7.90515e-06,0.0182269,3.33168e-06,0,-59,-0.531586,-0.027668,-32.3738,-27.3354,1.228
-0.5036,-0.503697,0.209071,0.199748,-0,-6.2852e-05,0.0183292,2.22112e-06,0,-60,-0.535387,-0.219982,-32.6297,-27.4904,1.232
-0.5036,-0.503697,0.209144,0.199748,-0,1.56805e-05,0.0184315,1.48075e-06,0,-60,-0.531586,0.0548819,-32.887,-27.6451,1.236
-0.5036,-0.503697,0.209218,0.199748,-0,1.04537e-05,0.0185341,9.87164e-07,0,-60,-0.531586,0.0365879,-33.1458,-27.7997,1.24
-0.5036,-0.503696,0.209293,0.199748,-0,3.57601e-05,0.0186368,6.5811e-07,0,-61,-0.529686,0.12516,-33.4059,-27.9543,1.244
-0.5036,-0.503696,0.209367,0.199748,-0,2.384e-05,0.0187397,4.3874e-07,0,-61,-0.529686,0.0834401,-33.6676,-28.109,1.248
-0.5036,-0.503696,0.209443,0.199748,-0,1.58934e-05,0.0188428,2.92493e-07,0,-62,-0.529686,0.0556268,-33.9307,-28.2638,1.252
-0.5036,-0.503697,0.209518,0.199748,-0,-1.81954e-05,0.0189461,1.94995e-07,0,-62,-0.531586,-0.0636837,-34.1952,-28.4188,1.256
-0.5036,-0.503697,0.209594,0.199748,-0,-1.21302e-05,0.0190495,1.29997e-07,0,-63,-0.531586,-0.0424558,-34.4612,-28.5741,1.26
-0.5036,-0.503697,0.209671,0.199748,-0,-8.08682e-06,0.0191531,8.66646e-08,0,-63,-0.531586,-0.0283039,-34.7286,-28.7295,1.264
-0.5036,-0.503697,0.209747,0.199748,-0,-5.39122e-06,0.0192569,5.77764e-08,0,-63,-0.531586,-0.0188693,-34.9974,-28.8852,1.268
-0.5036,-0.503697,0.209825,0.199748,-0,-6.1176e-05,0.0193608,3.85176e-08,0,-64,-0.535387,-0.214116,-35.2678,-29.0412,1.272
-0.5036,-0.503696,0.209902,0.199749,-0,4.55888e-05,0.0194649,5.76075e-05,0,-64,-0.529686,0.159561,-35.5371,-29.111,1.276
-0.5036,-0.503697,0.20998,0.199748,-0,1.60159e-06,0.0195692,-1.91768e-05,0,-65,-0.531586,0.00560558,-35.8128,-29.3825,1.28
-0.5036,-0.503697,0.210059,0.199748,-0,1.06773e-06,0.0196736,1.60064e-05,0,-65,-0.531586,0.00373705,-36.0863,-29.4864,1.284
-0.5036,-0.503697,0.210138,0.199748,-0,-5.687e-05,0.0197782,-4.69109e-05,0,-66,-0.535387,-0.199045,-36.3649,-29.7377,1.288
-0.5036,-0.503697,0.210217,0.199748,-0,1.96685e-05,0.019883,-2.48303e-06,0,-66,-0.531586,0.0688397,-36.6413,-29.8282,1.292
-0.5036,-0.503697,0.210297,0.199748,-0,1.31123e-05,0.0199879,-3.04463e-05,0,-66,-0.531586,0.0458932,-36.9216,-30.0276,1.296
-0.5036,-0.503696,0.210377,0.199748,-0,3.75325e-05,0.020093,3.72843e-05,0,-67,-0.529686,0.131364,-37.1997,-30.0836,1.3
-0.5036,-0.503697,0.210458,0.199748,-0,-3.25602e-05,0.0201983,2.48562e-05,0,-67,-0.533486,-0.113961,-37.4818,-30.2601,1.304
-0.5036,-0.503697,0.210539,0.199748,-0,7.08413e-06,0.0203037,1.65708e-05,0,-68,-0.531586,0.0247944,-37.7653,-30.4307,1.308
-0.5036,-0.503697,0.21062,0.199748,-0,4.72275e-06,0.0204093,1.10472e-05,0,-68,-0.531586,0.0165296,-38.0503,-30.5973,1.312
-0.5036,-0.503697,0.210702,0.199748,-0,3.1485e-06,0.020515,7.36481e-06,0,-69,-0.531586,0.0110198,-38.3367,-30.7614,1.316
-0.5036,-0.503697,0.210784,0.199748,-0,2.099e-06,0.0206209,4.90987e-06,0,-69,-0.531586,0.0073465,-38.6247,-30.924,1.32
-0.5036,-0.503696,0.210867,0.199748,-0,3.01903e-05,0.0207269,3.27325e-06,0,-69,-0.529686,0.105666,-38.9141,-31.0855,1.324
-0.5036,-0.503697,0.21095,0.199748,-0,-6.62459e-05,0.0208331,2.18216e-06,0,-70,-0.535387,-0.231861,-39.205,-31.2464,1.328
-0.5036,-0.503697,0.211033,0.199748,-0,1.34179e-05,0.0209395,1.45478e-06,0,-70,-0.531586,0.0469626,-39.4975,-31.4071,1.332
-0.5036,-0.503696,0.211117,0.199748,-0,3.77362e-05,0.021046,9.69851e-07,0,-71,-0.529686,0.132077,-39.7914,-31.5676,1.336
-0.5036,-0.503697,0.211202,0.199748,-0,-6.12153e-05,0.0211527,6.46567e-07,0,-71,-0.535387,-0.214254,-40.0867,-31.728,1.34
-0.5036,-0.503696,0.211287,0.199748,-0,4.55626e-05,0.0212595,4.31045e-07,0,-72,-0.529686,0.159469,-40.3836,-31.8886,1.344
-0.5036,-0.503697,0.211372,0.199749,-0,1.58412e-06,0.0213665,2.90783e-05,0,-72,-0.531586,0.00554441,-40.6808,-32.0061,1.348
-0.5036,-0.503697,0.211458,0.199749,-0,1.05608e-06,0.0214736,1.93855e-05,0,-73,-0.531586,0.00369627,-40.9807,-32.1813,1.352
-0.5036,-0.503697,0.211544,0.199749,-0,7.04052e-07,0.0215809,1.29237e-05,0,-73,-0.531586,0.00246418,-41.2821,-32.3519,1.356
-0.5036,-0.503696,0.21163,0.199749,-0,2.92603e-05,0.0216883,8.61579e-06,0,-74,-0.529686,0.102411,-41.5849,-32.5195,1.36
-0.5036,-0.503697,0.211717,0.199749,-0,-9.28406e-06,0.0217959,5.74386e-06,0,-74,-0.531586,-0.0324942,-41.8893,-32.6852,1.364
-0.5036,-0.503697,0.211805,0.199749,-0,-6.37712e-05,0.0219036,3.82924e-06,0,-75,-0.535387,-0.223199,-42.1952,-32.8496,1.368
-0.5036,-0.503697,0.211892,0.199749,-0,1.50677e-05,0.0220114,2.55283e-06,0,-75,-0.531586,0.0527369,-42.5026,-33.0133,1.372
-0.5036,-0.503697,0.211981,0.199749,-0,1.00451e-05,0.0221194,1.70188e-06,0,-75,-0.531586,0.035158,-42.8115,-33.1766,1.376
-0.5036,-0.503697,0.212069,0.199749,-0,6.69676e-06,0.0222276,1.13459e-06,0,-76,-0.531586,0.0234386,-43.122,-33.3397,1.38
-0.5036,-0.503697,0.212158,0.199749,-0,-2.43264e-05,0.0223359,2.95473e-05,0,-76,-0.533486,-0.0851425,-43.4327,-33.4595,1.384
-0.5036,-0.503696,0.212248,0.199749,-0,4.13642e-05,0.0224443,1.96982e-05,0,-77,-0.529686,0.144775,-43.7462,-33.637,1.388
-0.5036,-0.503697,0.212338,0.199749,-0,-1.21477e-06,0.0225529,1.31321e-05,0,-77,-0.531586,-0.00425169,-44.0612,-33.8097,1.392
-0.5036,-0.503697,0.212428,0.199749,-0,-2.96008e-05,0.0226616,8.75476e-06,0,-78,-0.533486,-0.103603,-44.3777,-33.9793,1.396
-0.5036,-0.503697,0.212519,0.199749,-0,-1.97338e-05,0.0227705,3.46274e-05,0,-78,-0.533486,-0.0690685,-44.6945,-34.1038,1.4
-0.5036,-0.503697,0.212611,0.199749,-0,-1.31559e-05,0.0228795,2.3085e-05,0,-79,-0.533486,-0.0460456,-45.014,-34.2847,1.404
-0.5036,-0.503696,0.212702,0.199749,-0,4.88113e-05,0.0229887,1.539e-05,0,-79,-0.529686,0.170839,-45.3351,-34.4599,1.408
-0.5036,-0.503696,0.212795,0.199749,-0,3.25408e-05,0.0230979,1.026e-05,0,-80,-0.529686,0.113893,-45.6577,-34.6315,1.412
-0.5036,-0.503697,0.212887,0.19975,-0,-7.09704e-06,0.0232074,6.44218e-05,0,-80,-0.531586,-0.0248396,-45.9794,-34.7144,1.416
-0.5036,-0.503697,0.21298,0.19975,-0,-4.73136e-06,0.0233169,1.4157e-05,0,-81,-0.531586,-0.0165597,-46.3063,-34.9541,1.42
-0.5036,-0.503697,0.213074,0.19975,-0,-3.15424e-06,0.0234266,9.43798e-06,0,-81,-0.531586,-0.0110398,-46.6335,-35.1258,1.424
-0.5036,-0.503697,0.213168,0.19975,-0,-2.10283e-06,0.0235364,6.29198e-06,0,-82,-0.531586,-0.00735989,-46.9622,-35.2952,1.428
-0.5036,-0.503696,0.213262,0.19975,-0,2.7389e-05,0.0236464,3.29856e-05,0,-82,-0.529686,0.0958616,-47.2913,-35.4201,1.432
-0.5036,-0.503697,0.213357,0.199751,-0,-1.05316e-05,0.0237565,5.07813e-05,0,-83,-0.531586,-0.0368605,-47.6219,-35.5585,1.436
-0.5036,-0.503696,0.213452,0.199751,-0,2.17699e-05,0.0238667,6.26451e-05,0,-83,-0.529686,0.0761946,-47.9541,-35.7061,1.44
-0.5036,-0.503696,0.213548,0.199751,-0,1.45133e-05,0.0239771,7.05543e-05,0,-84,-0.529686,0.0507964,-48.2878,-35.8597,1.444
-0.5036,-0.503696,0.213644,0.199751,-0,9.6755e-06,0.0240875,4.70362e-05,0,-84,-0.529686,0.0338643,-48.6242,-36.0608,1.448
-0.5036,-0.503697,0.21374,0.199752,-0,-2.23406e-05,0.0241981,6.01484e-05,0,-85,-0.531586,-0.0781921,-48.961,-36.207,1.452
-0.5036,-0.503696,0.213837,0.199752,-0,1.38972e-05,0.0243089,4.00989e-05,0,-85,-0.529686,0.0486402,-49.3006,-36.4032,1.456
-0.5036,-0.503697,0.213935,0.199752,-0,-1.95261e-05,0.0244198,5.55236e-05,0,-86,-0.531586,-0.0683414,-49.6405,-36.5463,1.46
-0.5036,-0.503697,0.214033,0.199752,-0,-7.05993e-05,0.0245308,3.70157e-05,0,-86,-0.535387,-0.247097,-49.9831,-36.7406,1.464
-0.5036,-0.503697,0.214131,0.199752,-0,-1.82753e-05,0.0246419,5.34681e-05,0,-87,-0.533486,-0.0639634,-50.3261,-36.8826,1.468
-0.5036,-0.503696,0.21423,0.199753,-0,4.53983e-05,0.0247531,6.44363e-05,0,-87,-0.529686,0.158894,-50.6707,-37.033,1.472
-0.5036,-0.503697,0.214329,0.199753,-0,-5.61072e-05,0.0248645,7.17485e-05,0,-88,-0.535387,-0.196375,-51.0168,-37.1891,1.476
-0.5036,-0.503697,0.214429,0.199754,-0,2.0177e-05,0.024976,0.000105414,0,-88,-0.531586,0.0706197,-51.3632,-37.3058,1.48
-0.5036,-0.503697,0.214529,0.199754,-0,1.34514e-05,0.0250876,0.000127858,0,-89,-0.531586,0.0470798,-51.7113,-37.4396,1.484
-0.5036,-0.503697,0.21463,0.199754,-0,-1.98233e-05,0.0251993,8.52386e-05,0,-89,-0.533486,-0.0693817,-52.0633,-37.6711,1.488
-0.5036,-0.503696,0.214731,0.199755,-0,4.43663e-05,0.0253112,0.000114408,0,-90,-0.529686,0.155282,-52.4144,-37.7952,1.492
-0.5036,-0.503697,0.214832,0.199755,-0,7.86597e-07,0.0254232,0.000105063,0,-90,-0.531586,0.00275309,-52.7684,-37.9771,1.496
-0.5036,-0.503697,0.214934,0.199756,-0,-2.82665e-05,0.0255353,0.000127624,0,-91,-0.533486,-0.0989328,-53.1227,-38.1115,1.5
-0.5036,-0.503697,0.215036,0.199757,-0,-1.88444e-05,0.0256475,0.000142664,0,-91,-0.533486,-0.0659552,-53.4785,-38.2572,1.504
-0.5036,-0.503697,0.215139,0.199757,-0,1.6228e-05,0.0257598,0.000152691,0,-92,-0.531586,0.0567981,-53.836,-38.4107,1.508
-0.5036,-0.503697,0.215242,0.199758,-0,1.08187e-05,0.0258723,0.000159376,0,-92,-0.531586,0.0378654,-54.195,-38.5693,1.512
-0.5036,-0.503697,0.215346,0.199758,-0,-2.15785e-05,0.0259848,0.000135042,0,-93,-0.533486,-0.0755246,-54.5567,-38.7747,1.516
-0.5036,-0.503697,0.21545,0.199759,-0,1.44053e-05,0.0260975,0.000118819,0,-93,-0.531586,0.0504185,-54.9201,-38.968,1.52
-0.5036,-0.503697,0.215555,0.199759,-0,9.60352e-06,0.0262103,0.000108003,0,-94,-0.531586,0.0336123,-55.2851,-39.1534,1.524
-0.5036,-0.503697,0.21566,0.199759,-0,-5.11795e-05,0.0263232,0.000100793,0,-94,-0.535387,-0.179128,-55.6516,-39.3336,1.528
-0.5036,-0.503697,0.215765,0.19976,-0,-5.32874e-06,0.0264362,9.59864e-05,0,-95,-0.533486,-0.0186506,-56.0197,-39.5103,1.532
-0.5036,-0.503697,0.215871,0.19976,-0,2.52384e-05,0.0265493,9.27818e-05,0,-96,-0.531586,0.0883345,-56.3894,-39.6848,1.536
-0.5036,-0.503696,0.215978,0.19976,-0,4.56165e-05,0.0266626,6.18546e-05,0,-96,-0.529686,0.159658,-56.7619,-39.9011,1.54
-0.5036,-0.503697,0.216085,0.199761,-0,-2.71708e-05,0.0267759,9.88182e-05,0,-97,-0.533486,-0.0950979,-57.1335,-40.0157,1.544
-0.5036,-0.503697,0.216192,0.199761,-0,-1.81139e-05,0.0268894,9.46697e-05,0,-97,-0.533486,-0.0633986,-57.508,-40.1921,1.548
-0.5036,-0.503697,0.2163,0.199762,-0,-1.20759e-05,0.0270029,0.000120695,0,-98,-0.533486,-0.0422657,-57.8828,-40.3234,1.552
-0.5036,-0.503696,0.216408,0.199763,-0,4.95312e-05,0.0271166,0.000138045,0,-98,-0.529686,0.173359,-58.2592,-40.4679,1.556
-0.5036,-0.503696,0.216517,0.199763,-0,3.30208e-05,0.0272304,0.000149612,0,-99,-0.529686,0.115573,-58.6372,-40.6212,1.56
-0.5036,-0.503697,0.216626,0.199764,-0,-6.43589e-05,0.0273443,0.000128532,0,-99,-0.535387,-0.225256,-59.018,-40.8236,1.564
-0.5036,-0.503697,0.216736,0.199764,-0,-1.4115e-05,0.0274583,0.00014327,0,-100,-0.533486,-0.0494025,-59.3992,-40.9725,1.568
-0.5036,-0.503696,0.216846,0.199765,-0,4.81718e-05,0.0275724,0.000153095,0,-100,-0.529686,0.168601,-59.782,-41.1289,1.572
-0.5036,-0.503697,0.216956,0.199765,-0,-2.54673e-05,0.0276866,0.000130854,0,-101,-0.533486,-0.0891355,-60.1676,-41.3336,1.576
-0.5036,-0.503697,0.217067,0.199766,-0,-1.69782e-05,0.0278009,0.000116027,0,-102,-0.533486,-0.0594237,-60.5548,-41.5272,1.58
-0.5036,-0.503697,0.217179,0.199766,-0,-4.01097e-05,0.0279153,0.000134933,0,-102,-0.535387,-0.140384,-60.9424,-41.6705,1.584
-0.5036,-0.503697,0.21729,0.199767,-0,3.0842e-05,0.0280298,0.000118746,0,-103,-0.531586,0.107947,-61.3328,-41.8665,1.588
-0.5036,-0.503697,0.217403,0.199767,-0,-3.70205e-05,0.0281444,0.000136746,0,-103,-0.535387,-0.129572,-61.7236,-42.0114,1.592
-0.5036,-0.503697,0.217516,0.199768,-0,-2.46803e-05,0.0282591,0.000148746,0,-104,-0.535387,-0.0863811,-62.116,-42.1655,1.596
-0.5036,-0.503697,0.217629,0.199768,-0,-1.64536e-05,0.0283739,0.000127955,0,-104,-0.535387,-0.0575874,-62.5113,-42.3689,1.6
-0.5036,-0.503697,0.217743,0.199769,-0,1.78219e-05,0.0284888,0.000114094,0,-105,-0.533486,0.0623766,-62.9081,-42.562,1.604
-0.5036,-0.503697,0.217857,0.19977,-0,1.18813e-05,0.0286037,0.000133645,0,-106,-0.533486,0.0415844,-63.3053,-42.7052,1.608
-0.5036,-0.503697,0.217971,0.19977,-0,3.67118e-05,0.0287188,0.000117887,0,-106,-0.531586,0.128491,-63.7054,-42.9014,1.612
-0.5036,-0.503697,0.218087,0.199771,-0,-4.31641e-06,0.028834,0.000136173,0,-107,-0.533486,-0.0151075,-64.1058,-43.0468,1.616
-0.5036,-0.503697,0.218202,0.199772,-0,2.59133e-05,0.0289493,0.000177155,0,-107,-0.531586,0.0906966,-64.5067,-43.1582,1.62
-0.5036,-0.503697,0.218318,0.199773,-0,1.72755e-05,0.0290647,0.000204476,0,-108,-0.531586,0.0604644,-64.9091,-43.2903,1.624
-0.5036,-0.503697,0.218435,0.199774,-0,1.1517e-05,0.0291801,0.000280272,0,-108,-0.531586,0.0403096,-65.3108,-43.3498,1.628
-0.5036,-0.503697,0.218552,0.199776,-0,7.67802e-06,0.0292957,0.000302012,0,-109,-0.531586,0.0268731,-65.7153,-43.4905,1.632
-0.5036,-0.503697,0.218669,0.199777,-0,5.11868e-06,0.0294113,0.000316505,0,-109,-0.531586,0.0179154,-66.1214,-43.6422,1.636
-0.5036,-0.503697,0.218787,0.199778,-0,3.41245e-06,0.0295271,0.000268585,0,-110,-0.531586,0.0119436,-66.5316,-43.8877,1.64
-0.5036,-0.503697,0.218905,0.199778,-0,-2.6516e-05,0.0296429,0.000207848,0,-111,-0.533486,-0.0928058,-66.9445,-44.1525,1.644
-0.5036,-0.503697,0.219024,0.199778,-0,1.11136e-05,0.0297588,0.000167356,0,-111,-0.531586,0.0388977,-67.3592,-44.3872,1.648
-0.5036,-0.503697,0.219143,0.199778,-0,-2.13818e-05,0.0298748,0.000111571,0,-112,-0.533486,-0.0748365,-67.7766,-44.6448,1.652
-0.5036,-0.503697,0.219263,0.199779,-0,-4.30455e-05,0.0299909,0.000103171,0,-113,-0.535387,-0.150659,-68.1944,-44.8316,1.656
-0.5036,-0.503697,0.219383,0.199779,-0,2.88849e-05,0.030107,6.87809e-05,0,-113,-0.531586,0.101097,-68.6151,-45.0574,1.66
-0.5036,-0.503696,0.219504,0.199779,-0,4.80475e-05,0.0302233,7.46449e-05,0,-114,-0.529686,0.168166,-69.0362,-45.223,1.664
-0.5036,-0.503697,0.219625,0.19978,-0,-5.43411e-05,0.0303396,7.85542e-05,0,-114,-0.535387,-0.190194,-69.459,-45.3916,1.668
-0.5036,-0.503697,0.219747,0.19978,-0,-3.62274e-05,0.0304561,0.000109951,0,-115,-0.535387,-0.126796,-69.8821,-45.5192,1.672
-0.5036,-0.503697,0.219869,0.19978,-0,4.63932e-06,0.0305726,7.33009e-05,0,-116,-0.533486,0.0162376,-70.3093,-45.7489,1.676
-0.5036,-0.503697,0.219991,0.199781,-0,3.18838e-05,0.0306892,0.000106449,0,-116,-0.531586,0.111593,-70.7357,-45.8741,1.68
-0.5036,-0.503696,0.220114,0.199782,-0,5.00468e-05,0.0308058,0.000128548,0,-117,-0.529686,0.175164,-71.1638,-46.0159,1.684
-0.5036,-0.503696,0.220238,0.199782,-0,3.33645e-05,0.0309226,0.00014328,0,-117,-0.529686,0.116776,-71.5934,-46.169,1.688
-0.5036,-0.503697,0.220361,0.199783,-0,-6.5479e-06,0.0310394,0.000153102,0,-118,-0.531586,-0.0229177,-72.0248,-46.3295,1.692
-0.5036,-0.503697,0.220486,0.199784,-0,-3.31562e-05,0.0311563,0.00015965,0,-118,-0.533486,-0.116047,-72.4577,-46.495,1.696
-0.5036,-0.503697,0.220611,0.199784,-0,6.68679e-06,0.0312733,0.000164015,0,-119,-0.531586,0.0234038,-72.8923,-46.6639,1.7
-0.5036,-0.503697,0.220736,0.199785,-0,4.45786e-06,0.0313904,0.000138134,0,-120,-0.531586,0.0156025,-73.3297,-46.8784,1.704
-0.5036,-0.503697,0.220862,0.199785,-0,2.97191e-06,0.0315075,0.00012088,0,-120,-0.531586,0.0104017,-73.7688,-47.08,1.708
-0.5036,-0.503697,0.220988,0.199785,-0,-2.68097e-05,0.0316247,0.000109378,0,-121,-0.533486,-0.0938338,-74.2095,-47.273,1.712
-0.5036,-0.503696,0.221115,0.199786,-0,3.97087e-05,0.031742,0.0001305,0,-122,-0.529686,0.138981,-74.6507,-47.4173,1.716
-0.5036,-0.503697,0.221242,0.199786,-0,-2.31843e-06,0.0318594,0.000115791,0,-122,-0.531586,-0.00811449,-75.0947,-47.6154,1.72
-0.5036,-0.503697,0.22137,0.199787,-0,-1.54562e-06,0.0319768,0.000134776,0,-123,-0.531586,-0.00540966,-75.5391,-47.7631,1.724
-0.5036,-0.503697,0.221498,0.199788,-0,-1.03041e-06,0.0320943,0.000176223,0,-123,-0.531586,-0.00360644,-75.984,-47.8772,1.728
-0.5036,-0.503697,0.221626,0.199789,-0,-6.86941e-07,0.0322119,0.000175064,0,-124,-0.531586,-0.00240429,-76.4317,-48.0553,1.732
-0.5036,-0.503697,0.221756,0.19979,-0,-4.57961e-07,0.0323296,0.000174291,0,-125,-0.531586,-0.00160286,-76.8811,-48.2329,1.736
-0.5036,-0.503697,0.221885,0.199791,-0,-2.90962e-05,0.0324473,0.000202567,0,-125,-0.533486,-0.101837,-77.3309,-48.3671,1.74
-0.5036,-0.503697,0.222015,0.199792,-0,9.39344e-06,0.0325651,0.000221417,0,-126,-0.531586,0.032877,-77.7824,-48.5155,1.744
-0.5036,-0.503697,0.222146,0.199793,-0,-2.25286e-05,0.0326829,0.000262775,0,-126,-0.533486,-0.0788502,-78.2343,-48.6303,1.748
-0.5036,-0.503697,0.222277,0.199794,-0,1.37718e-05,0.0328009,0.000261556,0,-127,-0.531586,0.0482014,-78.689,-48.809,1.752
-0.5036,-0.503697,0.222408,0.199796,-0,9.18122e-06,0.0329189,0.000318325,0,-128,-0.531586,0.0321343,-79.143,-48.9008,1.756
-0.5036,-0.503697,0.22254,0.199798,-0,6.12082e-06,0.0330369,0.000356172,0,-128,-0.531586,0.0214229,-79.5986,-49.0211,1.76
-0.5036,-0.503697,0.222672,0.199799,-0,4.08054e-06,0.0331551,0.000381402,0,-129,-0.531586,0.0142819,-80.0559,-49.1605,1.764
-0.5036,-0.503697,0.222805,0.199801,-0,-2.60706e-05,0.0332732,0.000398223,0,-129,-0.533486,-0.091247,-80.5149,-49.3125,1.768
-0.5036,-0.503697,0.222939,0.199803,-0,1.14105e-05,0.0333915,0.000438227,0,-130,-0.531586,0.0399369,-80.9743,-49.4299,1.772
-0.5036,-0.503697,0.223072,0.199805,-0,7.60703e-06,0.0335098,0.000464897,0,-131,-0.531586,0.0266246,-81.4353,-49.5674,1.776
-0.5036,-0.503697,0.223207,0.199808,-0,5.07136e-06,0.0336282,0.000511468,0,-131,-0.531586,0.0177497,-81.8969,-49.6751,1.78
-0.5036,-0.503697,0.223341,0.19981,-0,3.3809e-06,0.0337466,0.000571306,0,-132,-0.531586,0.0118332,-82.3588,-49.763,1.784
-0.5036,-0.503697,0.223477,0.199813,-0,-2.6537e-05,0.0338651,0.000611198,0,-132,-0.533486,-0.0928795,-82.8224,-49.8809,1.788
-0.5036,-0.503697,0.223612,0.199816,-0,1.10996e-05,0.0339837,0.000666584,0,-133,-0.531586,0.0388486,-83.2865,-49.9757,1.792
-0.5036,-0.503697,0.223748,0.19982,-0,7.39973e-06,0.0341023,0.000732298,0,-133,-0.531586,0.0258991,-83.751,-50.055,1.796
-0.5036,-0.503697,0.223885,0.199823,-0,4.93316e-06,0.034221,0.000747317,0,-134,-0.531586,0.017266,-84.2184,-50.2105,1.8
-0.5036,-0.503697,0.224022,0.199826,-0,3.28877e-06,0.0343397,0.00075733,0,-135,-0.531586,0.0115107,-84.6874,-50.3736,1.804
-0.5036,-0.503697,0.22416,0.199829,-0,2.19251e-06,0.0344585,0.000764005,0,-135,-0.531586,0.0076738,-85.1581,-50.5418,1.808
-0.5036,-0.503697,0.224298,0.199832,-0,1.46168e-06,0.0345774,0.000739664,0,-136,-0.531586,0.00511586,-85.6317,-50.7566,1.812
-0.5036,-0.503697,0.224436,0.199834,-0,9.7445e-07,0.0346963,0.000694646,0,-137,-0.531586,0.00341058,-86.1081,-51.0024,1.816
-0.5036,-0.503697,0.224575,0.199836,-0,6.49634e-07,0.0348152,0.000635843,0,-137,-0.531586,0.00227372,-86.5875,-51.2691,1.82
-0.5036,-0.503697,0.224715,0.199838,-0,-2.83578e-05,0.0349342,0.00056785,0,-138,-0.533486,-0.0992524,-87.0697,-51.5496,1.824
-0.5036,-0.503697,0.224855,0.19984,-0,9.8857e-06,0.0350533,0.000551312,0,-139,-0.531586,0.0346,-87.5523,-51.753,1.828
-0.5036,-0.503697,0.224995,0.199842,-0,6.59047e-06,0.0351724,0.000569078,0,-139,-0.531586,0.0230666,-88.0354,-51.905,1.832
-0.5036,-0.503697,0.225136,0.199844,-0,-2.43973e-05,0.0352916,0.000552131,0,-140,-0.533486,-0.0853905,-88.5214,-52.1092,1.836
-0.5036,-0.503697,0.225278,0.199846,-0,-1.62649e-05,0.0354108,0.000512042,0,-141,-0.533486,-0.056927,-89.0103,-52.3481,1.84
-0.5036,-0.503697,0.22542,0.199848,-0,1.79477e-05,0.0355301,0.000456525,0,-142,-0.531586,0.0628169,-89.502,-52.6103,1.844
-0.5036,-0.503697,0.225562,0.199849,-0,-1.68258e-05,0.0356494,0.000419514,0,-142,-0.533486,-0.0588903,-89.9955,-52.8448,1.848
-0.5036,-0.503697,0.225705,0.19985,-0,1.75737e-05,0.0357688,0.000394839,0,-143,-0.531586,0.061508,-90.4906,-53.0609,1.852
-0.5036,-0.503697,0.225848,0.199852,-0,1.17158e-05,0.0358882,0.00037839,0,-144,-0.531586,0.0410054,-90.9873,-53.2647,1.856
-0.5036,-0.503697,0.225992,0.199853,-0,7.81054e-06,0.0360076,0.000338633,0,-144,-0.531586,0.0273369,-91.487,-53.5035,1.86
-0.5036,-0.503697,0.226136,0.199854,-0,-2.35839e-05,0.0361271,0.000312128,0,-145,-0.533486,-0.0825436,-91.9883,-53.7225,1.864
-0.5036,-0.503697,0.226281,0.199855,-0,1.30683e-05,0.0362467,0.000294458,0,-146,-0.531586,0.0457391,-92.4913,-53.9283,1.868
-0.5036,-0.503697,0.226426,0.199856,-0,8.71222e-06,0.0363663,0.000253887,0,-147,-0.531586,0.0304928,-92.9971,-54.1686,1.872
-0.5036,-0.503697,0.226572,0.199856,-0,5.80815e-06,0.0364859,0.00022684,0,-147,-0.531586,0.0203285,-93.5047,-54.3886,1.876
-0.5036,-0.503697,0.226718,0.199857,-0,3.8721e-06,0.0366056,0.000237599,0,-148,-0.531586,0.0135523,-94.0127,-54.552,1.88
-0.5036,-0.503697,0.226865,0.199858,-0,2.5814e-06,0.0367253,0.000215981,0,-149,-0.531586,0.00903489,-94.5236,-54.764,1.884
-0.5036,-0.503697,0.227012,0.199859,-0,-2.707e-05,0.0368451,0.00020157,0,-150,-0.533486,-0.094745,-95.0362,-54.9653,1.888
-0.5036,-0.503697,0.227159,0.199859,-0,1.07443e-05,0.0369649,0.000191962,0,-150,-0.531586,0.0376049,-95.5504,-55.1594,1.892
-0.5036,-0.503697,0.227308,0.19986,-0,-2.16281e-05,0.0370848,0.000185556,0,-151,-0.533486,-0.0756983,-96.0663,-55.3488,1.896
-0.5036,-0.503697,0.227456,0.19986,-0,-1.44187e-05,0.0372046,0.000152495,0,-152,-0.533486,-0.0504655,-96.5852,-55.5782,1.9
-0.5036,-0.503697,0.227605,0.199861,-0,1.91784e-05,0.0373246,0.000130454,0,-152,-0.531586,0.0671246,-97.1057,-55.7912,1.904
-0.5036,-0.503697,0.227755,0.199861,-0,1.27856e-05,0.0374445,0.00011576,0,-153,-0.531586,0.0447497,-97.6278,-55.9932,1.908
-0.5036,-0.503697,0.227905,0.199861,-0,8.52375e-06,0.0375645,0.000105965,0,-154,-0.531586,0.0298331,-98.1517,-56.1878,1.912
-0.5036,-0.503697,0.228055,0.199861,-0,5.6825e-06,0.0376846,7.0643e-05,0,-155,-0.531586,0.0198888,-98.6784,-56.4209,1.916
-0.5036,-0.503697,0.228206,0.199862,-0,-2.50026e-05,0.0378046,0.000104677,0,-155,-0.533486,-0.0875091,-99.2044,-56.5499,1.92
-0.5036,-0.503697,0.228358,0.199862,-0,1.21225e-05,0.0379247,9.85757e-05,0,-156,-0.531586,0.0424289,-99.7333,-56.7392,1.924
-0.5036,-0.503697,0.22851,0.199863,-0,8.08169e-06,0.0380449,0.000123299,0,-157,-0.531586,0.0282859,-100.263,-56.8824,1.928
-0.5036,-0.503697,0.228662,0.199864,-0,5.38779e-06,0.0381651,0.000139781,0,-157,-0.531586,0.0188573,-100.794,-57.0379,1.932
-0.5036,-0.503697,0.228815,0.199865,-0,3.59186e-06,0.0382853,0.000150769,0,-158,-0.531586,0.0125715,-101.326,-57.2017,1.936
-0.5036,-0.503697,0.228968,0.199866,-0,-2.63964e-05,0.0384055,0.000186886,0,-159,-0.533486,-0.0923872,-101.86,-57.3279,1.94
-0.5036,-0.503697,0.229122,0.199867,-0,1.11934e-05,0.0385258,0.000210963,0,-159,-0.531586,0.0391768,-102.395,-57.4722,1.944
-0.5036,-0.503697,0.229277,0.199868,-0,-2.13287e-05,0.0386461,0.000227015,0,-160,-0.533486,-0.0746504,-102.931,-57.6286,1.948
-0.5036,-0.503697,0.229431,0.199869,-0,-1.42191e-05,0.0387664,0.000237716,0,-161,-0.533486,-0.0497669,-103.469,-57.793,1.952
-0.5036,-0.503697,0.229587,0.19987,-0,1.93115e-05,0.0388868,0.00024485,0,-161,-0.531586,0.0675903,-104.009,-57.9629,1.956
-0.5036,-0.503697,0.229742,0.19987,-0,1.28743e-05,0.0390071,0.000220815,0,-162,-0.531586,0.0450602,-104.552,-58.1795,1.96
-0.5036,-0.503697,0.229899,0.199871,-0,8.58289e-06,0.0391276,0.000233583,0,-163,-0.531586,0.0300401,-105.096,-58.341,1.964
-0.5036,-0.503697,0.230055,0.199872,-0,5.72193e-06,0.039248,0.000213304,0,-164,-0.531586,0.0200267,-105.642,-58.552,1.968
-0.5036,-0.503697,0.230213,0.199873,-0,3.81462e-06,0.0393685,0.000228575,0,-164,-0.531586,0.0133512,-106.188,-58.7098,1.972
-0.5036,-0.503697,0.23037,0.199874,-0,2.54308e-06,0.039489,0.000209965,0,-165,-0.531586,0.00890078,-106.738,-58.9185,1.976
-0.5036,-0.503697,0.230529,0.199875,-0,1.69539e-06,0.0396095,0.00022635,0,-166,-0.531586,0.00593385,-107.288,-59.0747,1.98
-0.5036,-0.503697,0.230687,0.199876,-0,-2.76607e-05,0.03973,0.000208482,0,-167,-0.533486,-0.0968123,-107.841,-59.2823,1.984
-0.5036,-0.503697,0.230846,0.199876,-0,1.03505e-05,0.0398506,0.00019657,0,-167,-0.531586,0.0362267,-108.396,-59.481,1.988
-0.5036,-0.503697,0.231006,0.199877,-0,6.90032e-06,0.0399712,0.000217419,0,-168,-0.531586,0.0241511,-108.951,-59.6306,1.992
-0.5036,-0.503697,0.231166,0.199879,-0,4.60021e-06,0.0400918,0.00026011,0,-169,-0.531586,0.0161007,-109.506,-59.7475,1.996
-0.5036,-0.503697,0.231327,0.19988,-0,3.06681e-06,0.0402124,0.000317361,0,-169,-0.531586,0.0107338,-110.062,-59.8425,2
-0.5036,-0.503697,0.231488,0.199882,-0,2.04454e-06,0.040333,0.000355529,0,-170,-0.531586,0.00715589,-110.62,-59.9663,2.004
-0.5036,-0.503697,0.23165,0.199884,-0,1.36303e-06,0.0404537,0.000380974,0,-171,-0.531586,0.00477059,-111.18,-60.1091,2.008
-0.5036,-0.503697,0.231812,0.199886,-0,-2.78822e-05,0.0405744,0.000426728,0,-171,-0.533486,-0.0975878,-111.74,-60.2215,2.012
-0.5036,-0.503697,0.231974,0.199888,-0,1.02028e-05,0.0406951,0.000486022,0,-172,-0.531586,0.0357097,-112.3,-60.3136,2.016
-0.5036,-0.503697,0.232137,0.199891,-0,6.80184e-06,0.0408158,0.000525551,0,-173,-0.531586,0.0238065,-112.862,-60.4354,2.02
-0.5036,-0.503697,0.232301,0.199893,-0,-2.42564e-05,0.0409365,0.000551904,0,-174,-0.533486,-0.0848973,-113.426,-60.577,2.024
-0.5036,-0.503697,0.232465,0.199896,-0,1.262e-05,0.0410573,0.000627054,0,-174,-0.531586,0.0441701,-113.989,-60.6454,2.028
-0.5036,-0.503697,0.232629,0.199899,-0,8.41334e-06,0.0411781,0.000619573,0,-175,-0.531586,0.0294467,-114.556,-60.8377,2.032
-0.5036,-0.503697,0.232794,0.199902,-0,-2.3182e-05,0.0412988,0.000672167,0,-176,-0.533486,-0.0811371,-115.123,-60.94,2.036
-0.5036,-0.503697,0.232959,0.199905,-0,1.33362e-05,0.0414196,0.000678439,0,-176,-0.531586,0.0466768,-115.692,-61.1118,2.04
-0.5036,-0.503697,0.233125,0.199908,-0,8.89083e-06,0.0415405,0.000740202,0,-177,-0.531586,0.0311179,-116.261,-61.2004,2.044
-0.5036,-0.503697,0.233292,0.199912,-0,5.92722e-06,0.0416613,0.000781377,0,-178,-0.531586,0.0207453,-116.831,-61.3198,2.048
-0.5036,-0.503697,0.233459,0.199916,-0,3.95148e-06,0.0417821,0.000866409,0,-178,-0.531586,0.0138302,-117.401,-61.3735,2.052
-0.5036,-0.503697,0.233626,0.19992,-0,2.63432e-06,0.0419029,0.000980679,0,-179,-0.531586,0.00922012,-117.969,-61.3834,2.056
-0.5036,-0.503697,0.233794,0.199925,-0,1.75621e-06,0.0420238,0.000999277,0,-180,-0.531586,0.00614674,-118.542,-61.5368,2.06
-0.5036,-0.503697,0.233962,0.199929,-0,1.17081e-06,0.0421447,0.00104047,0,-180,-0.531586,0.00409783,-119.116,-61.6563,2.064
-0.5036,-0.503697,0.234131,0.199934,-0,7.80539e-07,0.0422655,0.00109672,0,-181,-0.531586,0.00273189,-119.69,-61.7532,2.068
-0.5036,-0.503697,0.2343,0.199939,-0,5.20359e-07,0.0423864,0.00116301,0,-182,-0.531586,0.00182126,-120.264,-61.8351,2.072
-0.5036,-0.503697,0.23447,0.199944,-0,3.46906e-07,0.0425073,0.00114962,0,-182,-0.531586,0.00121417,-120.843,-62.0365,2.076
-0.5036,-0.503697,0.23464,0.199948,-0,2.31271e-07,0.0426282,0.00111191,0,-183,-0.531586,0.000809448,-121.424,-62.2744,2.08
-0.5036,-0.503697,0.234811,0.199951,-0,1.54181e-07,0.0427491,0.00100039,0,-184,-0.531586,0.000539632,-122.011,-62.6231,2.084
-0.5036,-0.503697,0.234982,0.199953,-0,-2.86881e-05,0.04287,0.000868462,0,-185,-0.533486,-0.100408,-122.602,-63.0023,2.088
-0.5036,-0.503697,0.235154,0.199955,-0,9.6655e-06,0.0429909,0.00075172,0,-186,-0.531586,0.0338292,-123.196,-63.3588,2.092
-0.5036,-0.503697,0.235326,0.199956,-0,6.44367e-06,0.0431118,0.00058752,0,-187,-0.531586,0.0225528,-123.795,-63.7864,2.096
-0.5036,-0.503697,0.235499,0.199957,-0,-2.44951e-05,0.0432327,0.000449262,0,-188,-0.533486,-0.085733,-124.397,-64.1752,2.1
-0.5036,-0.503697,0.235672,0.199957,-0,1.24608e-05,0.0433536,0.000328299,0,-189,-0.531586,0.0436129,-125.002,-64.538,2.104
-0.5036,-0.503697,0.235846,0.199957,-0,-2.04837e-05,0.0434746,0.000218866,0,-190,-0.533486,-0.071693,-125.609,-64.8835,2.108
-0.5036,-0.503697,0.23602,0.199958,-0,1.51351e-05,0.0435955,0.000174701,0,-191,-0.531586,0.0529729,-126.218,-65.1312,2.112
-0.5036,-0.503697,0.236195,0.199958,-0,1.00901e-05,0.0437164,0.000116468,0,-192,-0.531586,0.0353153,-126.829,-65.3999,2.116
-0.5036,-0.503697,0.23637,0.199958,-0,6.72672e-06,0.0438373,0.000106436,0,-193,-0.531586,0.0235435,-127.441,-65.5963,2.12
-0.5036,-0.503697,0.236545,0.199958,-0,4.48448e-06,0.0439582,9.97483e-05,0,-193,-0.531586,0.0156957,-128.054,-65.7877,2.124
-0.5036,-0.503697,0.236721,0.199959,-0,2.98965e-06,0.0440792,9.52898e-05,0,-194,-0.531586,0.0104638,-128.669,-65.9758,2.128
-0.5036,-0.503697,0.236898,0.19996,-0,1.9931e-06,0.0442001,0.000121108,0,-195,-0.531586,0.00697586,-129.284,-66.1184,2.132
-0.5036,-0.503697,0.237075,0.19996,-0,1.32873e-06,0.044321,0.00010953,0,-196,-0.531586,0.00465057,-129.903,-66.3172,2.136
-0.5036,-0.503697,0.237253,0.199961,-0,-2.79051e-05,0.0444419,0.000130602,0,-196,-0.533486,-0.0976679,-130.522,-66.4669,2.14
-0.5036,-0.503697,0.237431,0.199961,-0,1.01875e-05,0.0445628,0.00014465,0,-197,-0.531586,0.0356563,-131.142,-66.6272,2.144
-0.5036,-0.503697,0.237609,0.199962,-0,6.79168e-06,0.0446837,0.000125224,0,-198,-0.531586,0.0237709,-131.766,-66.8377,2.148
-0.5036,-0.503697,0.237788,0.199962,-0,4.52779e-06,0.0448046,0.000141065,0,-199,-0.531586,0.0158473,-132.39,-66.9953,2.152
-0.5036,-0.503697,0.237967,0.199963,-0,3.01853e-06,0.0449255,0.000122834,0,-200,-0.531586,0.0105648,-133.017,-67.2039,2.156
-0.5036,-0.503697,0.238147,0.199963,-0,2.01235e-06,0.0450463,0.000139471,0,-201,-0.531586,0.00704323,-133.644,-67.3603,2.16
-0.5036,-0.503697,0.238328,0.199964,-0,-2.74494e-05,0.0451672,0.000150563,0,-201,-0.533486,-0.0960728,-134.273,-67.525,2.164
-0.5036,-0.503697,0.238509,0.199965,-0,-1.82996e-05,0.0452881,0.000157957,0,-202,-0.533486,-0.0640485,-134.904,-67.6952,2.168
-0.5036,-0.503697,0.23869,0.199965,-0,1.65912e-05,0.0454089,0.000134096,0,-203,-0.531586,0.0580692,-135.538,-67.9122,2.172
-0.5036,-0.503697,0.238872,0.199966,-0,1.10608e-05,0.0455298,0.000146979,0,-204,-0.531586,0.0387128,-136.172,-68.0742,2.176
-0.5036,-0.503697,0.239054,0.199966,-0,-2.14171e-05,0.0456506,0.000155568,0,-205,-0.533486,-0.0749597,-136.808,-68.2425,2.18
-0.5036,-0.503697,0.239237,0.199967,-0,1.45129e-05,0.0457714,0.000161294,0,-205,-0.531586,0.0507951,-137.445,-68.4152,2.184
-0.5036,-0.503697,0.239421,0.199968,-0,9.67526e-06,0.0458922,0.000193902,0,-206,-0.531586,0.0338634,-138.083,-68.5475,2.188
-0.5036,-0.503697,0.239604,0.199969,-0,-2.23408e-05,0.046013,0.000215641,0,-207,-0.533486,-0.0781926,-138.723,-68.696,2.192
-0.5036,-0.503697,0.239789,0.199971,-0,-1.48938e-05,0.0461338,0.000258924,0,-208,-0.533486,-0.0521284,-139.363,-68.8123,2.196
-0.5036,-0.503697,0.239973,0.199972,-0,1.88617e-05,0.0462545,0.000258989,0,-208,-0.531586,0.066016,-140.006,-68.9933,2.2
-0.5036,-0.503697,0.240159,0.199973,-0,1.25745e-05,0.0463753,0.000287823,0,-209,-0.531586,0.0440106,-140.65,-69.1312,2.204
-0.5036,-0.503697,0.240344,0.199975,-0,-2.04079e-05,0.046496,0.000335837,0,-210,-0.533486,-0.0714278,-141.294,-69.2403,2.208
-0.5036,-0.503697,0.240531,0.199976,-0,1.51856e-05,0.0466168,0.000367846,0,-211,-0.531586,0.0531497,-141.94,-69.3734,2.212
-0.5036,-0.503697,0.240717,0.199979,-0,1.01238e-05,0.0467375,0.000417976,0,-212,-0.531586,0.0354331,-142.586,-69.4792,2.216
-0.5036,-0.503697,0.240905,0.199981,-0,6.74917e-06,0.0468581,0.000451396,0,-212,-0.531586,0.0236221,-143.234,-69.6101,2.22
-0.5036,-0.503697,0.241092,0.199982,-0,4.49945e-06,0.0469788,0.000444885,0,-213,-0.531586,0.0157481,-143.885,-69.8009,2.224
-0.5036,-0.503697,0.24128,0.199984,-0,2.99963e-06,0.0470994,0.000440545,0,-214,-0.531586,0.0104987,-144.537,-69.9884,2.228
-0.5036,-0.503697,0.241469,0.199985,-0,-2.67912e-05,0.0472201,0.00040886,0,-215,-0.533486,-0.0937691,-145.193,-70.2168,2.232
-0.5036,-0.503697,0.241658,0.199987,-0,1.09301e-05,0.0473407,0.000387737,0,-216,-0.531586,0.0382555,-145.85,-70.4294,2.236
-0.5036,-0.503697,0.241848,0.199988,-0,7.28676e-06,0.0474613,0.000316073,0,-217,-0.531586,0.0255037,-146.511,-70.7178,2.24
-0.5036,-0.503697,0.242038,0.199989,-0,4.85784e-06,0.0475818,0.000297088,0,-218,-0.531586,0.0170024,-147.173,-70.9271,2.244
-0.5036,-0.503697,0.242228,0.199989,-0,3.23856e-06,0.0477024,0.000255641,0,-219,-0.531586,0.011335,-147.837,-71.1701,2.248
-0.5036,-0.503697,0.242419,0.19999,-0,-2.66319e-05,0.0478229,0.000228009,0,-219,-0.533486,-0.0932116,-148.503,-71.3923,2.252
-0.5036,-0.503697,0.242611,0.19999,-0,1.10363e-05,0.0479434,0.000180797,0,-220,-0.531586,0.0386272,-149.172,-71.6439,2.256
-0.5036,-0.503697,0.242803,0.199991,-0,7.35756e-06,0.0480639,0.000178113,0,-221,-0.531586,0.0257514,-149.842,-71.8286,2.26
-0.5036,-0.503697,0.242996,0.199991,-0,4.90504e-06,0.0481843,0.000147533,0,-222,-0.531586,0.0171676,-150.515,-72.0552,2.264
-0.5036,-0.503697,0.243188,0.199992,-0,3.27003e-06,0.0483047,0.000155937,0,-223,-0.531586,0.0114451,-151.188,-72.2232,2.268
-0.5036,-0.503696,0.243382,0.199993,-0,3.09709e-05,0.0484251,0.00016154,0,-224,-0.529686,0.108398,-151.862,-72.3954,2.272
-0.5036,-0.503697,0.243576,0.199993,-0,-8.14363e-06,0.0485455,0.000165275,0,-225,-0.531586,-0.0285027,-152.539,-72.5703,2.276
-0.5036,-0.503697,0.24377,0.199994,-0,-5.42909e-06,0.0486658,0.000196556,0,-225,-0.531586,-0.0190018,-153.216,-72.7039,2.28
-0.5036,-0.503697,0.243965,0.199996,-0,-3.61939e-06,0.0487861,0.000246201,0,-226,-0.531586,-0.0126679,-153.893,-72.8099,2.284
-0.5036,-0.503697,0.244161,0.199997,-0,-2.41293e-06,0.0489064,0.000279298,0,-227,-0.531586,-0.00844525,-154.572,-72.9407,2.288
-0.5036,-0.503697,0.244356,0.199999,-0,-1.60862e-06,0.0490267,0.000330153,0,-228,-0.531586,-0.00563016,-155.251,-73.0448,2.292
-0.5036,-0.503697,0.244553,0.200001,-0,-1.07241e-06,0.0491469,0.000364057,0,-229,-0.531586,-0.00375344,-155.933,-73.1743,2.296
-0.5036,-0.503697,0.24475,0.200003,-0,-7.14941e-07,0.0492671,0.00041545,0,-229,-0.531586,-0.0025023,-156.614,-73.2775,2.3
-0.5036,-0.503697,0.244947,0.200005,-0,-2.92676e-05,0.0493873,0.000478503,0,-230,-0.533486,-0.102436,-157.296,-73.3631,2.304
-0.5036,-0.503697,0.245145,0.200008,-0,9.27922e-06,0.0495074,0.000520539,0,-231,-0.531586,0.0324773,-157.98,-73.4803,2.308
-0.5036,-0.503697,0.245343,0.20001,-0,6.18615e-06,0.0496275,0.000577353,0,-232,-0.531586,0.0216515,-158.664,-73.5752,2.312
-0.5036,-0.503697,0.245542,0.200013,-0,4.1241e-06,0.0497476,0.00064402,0,-233,-0.531586,0.0144343,-159.349,-73.6553,2.316
-0.5036,-0.503697,0.245741,0.200017,-0,2.7494e-06,0.0498676,0.000717256,0,-233,-0.531586,0.0096229,-160.034,-73.7255,2.32
-0.5036,-0.503697,0.245941,0.200021,-0,-2.6958e-05,0.0499876,0.000823662,0,-234,-0.533486,-0.094353,-160.719,-73.7459,2.324
-0.5036,-0.503697,0.246141,0.200026,-0,1.08189e-05,0.0501075,0.00092339,0,-235,-0.531586,0.0378663,-161.404,-73.7762,2.328
-0.5036,-0.503697,0.246342,0.200031,-0,7.21262e-06,0.0502275,0.00107625,0,-235,-0.531586,0.0252442,-162.087,-73.7268,2.332
-0.5036,-0.503697,0.246543,0.200037,-0,-2.39825e-05,0.0503473,0.00120694,0,-236,-0.533486,-0.0839388,-162.77,-73.7106,2.336
-0.5036,-0.503697,0.246744,0.200043,-0,1.28026e-05,0.0504672,0.00129408,0,-237,-0.531586,0.044809,-163.455,-73.7597,2.34
-0.5036,-0.503697,0.246946,0.200049,-0,-2.02559e-05,0.050587,0.00135216,0,-237,-0.533486,-0.0708955,-164.142,-73.8523,2.344
-0.5036,-0.503697,0.247149,0.200056,-0,1.5287e-05,0.0507068,0.00150605,0,-238,-0.531586,0.0535045,-164.826,-73.8011,2.348
-0.5036,-0.503697,0.247352,0.200062,-0,1.01913e-05,0.0508265,0.00155106,0,-239,-0.531586,0.0356697,-165.514,-73.9132,2.352
-0.5036,-0.503697,0.247556,0.200069,-0,6.79423e-06,0.0509462,0.00158107,0,-240,-0.531586,0.0237798,-166.203,-74.0477,2.356
-0.5036,-0.503697,0.24776,0.200074,-0,4.52949e-06,0.0510659,0.00148591,0,-241,-0.531586,0.0158532,-166.899,-74.3699,2.36
-0.5036,-0.503697,0.247964,0.200079,-0,3.01966e-06,0.0511855,0.00139368,0,-242,-0.531586,0.0105688,-167.598,-74.6877,2.364
-0.5036,-0.503697,0.248169,0.200081,-0,2.0131e-06,0.051305,0.00113066,0,-243,-0.531586,0.00704587,-168.307,-75.2616,2.368
-0.5036,-0.503697,0.248375,0.200084,-0,1.34207e-06,0.0514246,0.000926516,0,-244,-0.531586,0.00469724,-169.019,-75.7471,2.372
-0.5036,-0.503697,0.248581,0.200084,-0,8.94713e-07,0.051544,0.000646468,0,-246,-0.531586,0.0031315,-169.738,-76.3464,2.376
-0.5036,-0.503697,0.248787,0.200084,-0,5.96475e-07,0.0516635,0.000430979,0,-247,-0.531586,0.00208766,-170.461,-76.8488,2.38
-0.5036,-0.503697,0.248994,0.200084,-0,3.9765e-07,0.0517829,0.000287319,0,-248,-0.531586,0.00139178,-171.185,-77.2433,2.384
-0.5036,-0.503697,0.249201,0.200084,-0,2.651e-07,0.0519022,0.000191546,0,-249,-0.531586,0.000927851,-171.911,-77.566,2.388
-0.5036,-0.503697,0.249409,0.200084,-0,1.76733e-07,0.0520215,0.000127697,0,-250,-0.531586,0.000618567,-172.638,-77.8408,2.392
-0.5036,-0.503697,0.249617,0.200084,-0,1.17822e-07,0.0521408,8.51316e-05,0,-251,-0.531586,0.000412378,-173.367,-78.0835,2.396
-0.5036,-0.503697,0.249826,0.200084,-0,7.85482e-08,0.05226,5.67544e-05,0,-252,-0.531586,0.000274919,-174.098,-78.3049,2.4
-0.5036,-0.503697,0.250035,0.200084,-0,5.23655e-08,0.0523792,3.78363e-05,0,-253,-0.531586,0.000183279,-174.83,-78.512,2.404
-0.5036,-0.503697,0.250245,0.200084,-0,3.49103e-08,0.0524983,5.40151e-05,0,-254,-0.531586,0.000122186,-175.563,-78.6664,2.408
-0.5036,-0.503697,0.250455,0.200084,-0,2.32735e-08,0.0526174,3.60101e-05,0,-255,-0.531586,8.14574e-05,-176.299,-78.872,2.412
-0.5036,-0.503697,0.250666,0.200084,-0,1.55157e-08,0.0527364,2.40067e-05,0,-256,-0.531586,5.43049e-05,-177.037,-79.0686,2.416
-0.5036,-0.503697,0.250877,0.200085,-0,1.03438e-08,0.0528554,4.47954e-05,0,-256,-0.531586,3.62033e-05,-177.775,-79.2158,2.42
-0.5036,-0.503697,0.251089,0.200085,-0,6.89586e-09,0.0529743,5.86545e-05,0,-257,-0.531586,2.41355e-05,-178.514,-79.3734,2.424
-0.5036,-0.503697,0.251301,0.200085,-0,4.59724e-09,0.0530931,3.9103e-05,0,-258,-0.531586,1.60903e-05,-179.257,-79.5811,2.428
-0.5036,-0.503697,0.251514,0.200085,-0,3.06483e-09,0.053212,2.60687e-05,0,-259,-0.531586,1.07269e-05,-180.001,-79.7788,2.432
-0.5036,-0.503697,0.251727,0.200085,-0,-2.87889e-05,0.0533307,4.617e-05,0,-260,-0.533486,-0.100761,-180.745,-79.9268,2.436
-0.5036,-0.503697,0.25194,0.200085,-0,9.59834e-06,0.0534494,3.078e-05,0,-261,-0.531586,0.0335942,-181.493,-80.128,2.44
-0.5036,-0.503697,0.252154,0.200085,-0,6.39889e-06,0.0535681,2.052e-05,0,-262,-0.531586,0.0223961,-182.242,-80.3214,2.444
-0.5036,-0.503697,0.252369,0.200086,-0,4.26593e-06,0.0536867,4.24709e-05,0,-263,-0.531586,0.0149307,-182.992,-80.4663,2.448
-0.5036,-0.503697,0.252584,0.200086,-0,2.84395e-06,0.0538052,5.71049e-05,0,-264,-0.531586,0.00995383,-183.743,-80.6222,2.452
-0.5036,-0.503697,0.252799,0.200086,-0,1.89597e-06,0.0539237,6.68608e-05,0,-265,-0.531586,0.00663589,-184.496,-80.7853,2.456
-0.5036,-0.503697,0.253015,0.200087,-0,1.26398e-06,0.0540422,7.33648e-05,0,-266,-0.531586,0.00442392,-185.25,-80.9532,2.46
-0.5036,-0.503697,0.253232,0.200087,-0,8.42652e-07,0.0541605,7.77008e-05,0,-267,-0.531586,0.00294928,-186.006,-81.1243,2.464
-0.5036,-0.503697,0.253449,0.200087,-0,5.61768e-07,0.0542789,8.05915e-05,0,-268,-0.531586,0.00196619,-186.764,-81.2974,2.468
-0.5036,-0.503697,0.253666,0.200088,-0,3.74512e-07,0.0543971,0.000111309,0,-268,-0.531586,0.00131079,-187.523,-81.4287,2.472
-0.5036,-0.503697,0.253884,0.200089,-0,2.49675e-07,0.0545153,0.000160579,0,-269,-0.531586,0.000873862,-188.281,-81.5321,2.476
-0.5036,-0.503697,0.254102,0.200089,-0,1.6645e-07,0.0546335,0.000107053,0,-270,-0.531586,0.000582574,-189.045,-81.7897,2.48
-0.5036,-0.503697,0.254321,0.20009,-0,1.10967e-07,0.0547516,0.00012895,0,-271,-0.531586,0.000388383,-189.809,-81.9339,2.484
-0.5036,-0.503697,0.25454,0.200091,-0,7.39777e-08,0.0548696,0.00017234,0,-272,-0.531586,0.000258922,-190.572,-82.0459,2.488
-0.5036,-0.503697,0.25476,0.200093,-0,4.93185e-08,0.0549876,0.000258848,0,-273,-0.531586,0.000172615,-191.335,-82.0931,2.492
-0.5036,-0.503697,0.25498,0.200093,-0,3.2879e-08,0.0551055,0.000230147,0,-274,-0.531586,0.000115076,-192.104,-82.313,2.496
-0.5036,-0.503697,0.255201,0.200095,-0,2.19193e-08,0.0552233,0.000326177,0,-275,-0.531586,7.67176e-05,-192.869,-82.3457,2.5
-0.5036,-0.503697,0.255422,0.200098,-0,1.46129e-08,0.0553411,0.000447779,0,-275,-0.531586,5.11451e-05,-193.633,-82.34,2.504
-0.5036,-0.503697,0.255643,0.200101,-0,9.74192e-09,0.0554588,0.000528847,0,-276,-0.531586,3.40967e-05,-194.399,-82.3949,2.508
-0.5036,-0.503697,0.255865,0.200104,-0,-2.87844e-05,0.0555765,0.000611683,0,-277,-0.533486,-0.100746,-195.165,-82.4472,2.512
-0.5036,-0.503697,0.256088,0.200107,-0,-1.91896e-05,0.055694,0.000666907,0,-278,-0.533486,-0.0671637,-195.933,-82.5407,2.516
-0.5036,-0.503697,0.256311,0.20011,-0,1.59978e-05,0.0558116,0.000703723,0,-279,-0.531586,0.0559925,-196.703,-82.6618,2.52
-0.5036,-0.503697,0.256534,0.200114,-0,1.06652e-05,0.055929,0.000757058,0,-280,-0.531586,0.0373283,-197.473,-82.7579,2.524
-0.5036,-0.503697,0.256758,0.200117,-0,-2.16808e-05,0.0560464,0.000763824,0,-281,-0.533486,-0.0758827,-198.246,-82.9239,2.528
-0.5036,-0.503697,0.256983,0.200121,-0,1.43371e-05,0.0561637,0.000825916,0,-282,-0.531586,0.0501798,-199.018,-83.0067,2.532
-0.5036,-0.503697,0.257208,0.200125,-0,9.55805e-06,0.056281,0.000896102,0,-282,-0.531586,0.0334532,-199.791,-83.0773,2.536
-0.5036,-0.503697,0.257433,0.200129,-0,6.37203e-06,0.0563982,0.000942892,0,-283,-0.531586,0.0223021,-200.565,-83.1829,2.54
-0.5036,-0.503697,0.257659,0.200134,-0,4.24802e-06,0.0565153,0.00106046,0,-284,-0.531586,0.0148681,-201.337,-83.1822,2.544
-0.5036,-0.503697,0.257885,0.200139,-0,-2.59589e-05,0.0566323,0.00111005,0,-285,-0.533486,-0.0908562,-202.112,-83.2834,2.548
-0.5036,-0.503697,0.258112,0.200143,-0,1.1485e-05,0.0567493,0.00108552,0,-286,-0.531586,0.0401974,-202.891,-83.4957,2.552
-0.5036,-0.503697,0.258339,0.200147,-0,-2.11343e-05,0.0568662,0.00104038,0,-287,-0.533486,-0.0739699,-203.674,-83.7387,2.556
-0.5036,-0.503697,0.258567,0.20015,-0,1.47014e-05,0.056983,0.000923915,0,-288,-0.531586,0.0514549,-204.461,-84.0887,2.56
-0.5036,-0.503697,0.258795,0.200152,-0,9.80094e-06,0.0570998,0.000788689,0,-289,-0.531586,0.0343033,-205.252,-84.4667,2.564
-0.5036,-0.503697,0.259024,0.200152,-0,6.53396e-06,0.0572165,0.000525792,0,-291,-0.531586,0.0228689,-206.052,-85.0361,2.568
-0.5036,-0.503697,0.259253,0.200152,-0,4.35597e-06,0.0573331,0.000350528,0,-292,-0.531586,0.0152459,-206.854,-85.4739,2.572
-0.5036,-0.503697,0.259482,0.200152,-0,2.90398e-06,0.0574497,0.000233686,0,-293,-0.531586,0.0101639,-207.658,-85.824,2.576
-0.5036,-0.503697,0.259712,0.200152,-0,1.93599e-06,0.0575661,0.00015579,0,-294,-0.531586,0.00677596,-208.463,-86.1155,2.58
-0.5036,-0.503697,0.259943,0.200152,-0,1.29066e-06,0.0576825,0.00010386,0,-295,-0.531586,0.00451731,-209.269,-86.368,2.584
-0.5036,-0.503697,0.260174,0.200151,-0,8.60439e-07,0.0577989,4.04492e-05,0,-296,-0.531586,0.00301154,-210.079,-86.6376,2.588
-0.5036,-0.503697,0.260405,0.200152,-0,5.73626e-07,0.0579151,8.4548e-05,0,-297,-0.531586,0.00200769,-210.887,-86.7458,2.592
-0.5036,-0.503697,0.260637,0.200152,-0,3.82417e-07,0.0580313,5.63653e-05,0,-298,-0.531586,0.00133846,-211.698,-86.9624,2.596
-0.5036,-0.503697,0.26087,0.200152,-0,2.54945e-07,0.0581474,3.75769e-05,0,-299,-0.531586,0.000892307,-212.512,-87.1647,2.6
-0.5036,-0.503697,0.261102,0.200153,-0,1.69963e-07,0.0582634,8.26331e-05,0,-300,-0.531586,0.000594872,-213.324,-87.2711,2.604
-0.5036,-0.503697,0.261336,0.200152,-0,1.13309e-07,0.0583793,2.62978e-05,0,-301,-0.531586,0.000396581,-214.142,-87.5295,2.608
-0.5036,-0.503697,0.261569,0.200152,-0,7.55393e-08,0.0584952,1.75319e-05,0,-302,-0.531586,0.000264387,-214.96,-87.7165,2.612
-0.5036,-0.503697,0.261804,0.200152,-0,5.03595e-08,0.0586109,1.16879e-05,0,-303,-0.531586,0.000176258,-215.78,-87.8989,2.616
-0.5036,-0.503697,0.262038,0.200153,-0,3.3573e-08,0.0587266,3.65829e-05,0,-304,-0.531586,0.000117506,-216.6,-88.0351,2.62
-0.5036,-0.503697,0.262273,0.200153,-0,2.2382e-08,0.0588423,2.43886e-05,0,-305,-0.531586,7.8337e-05,-217.423,-88.2268,2.624
-0.5036,-0.503697,0.262509,0.200153,-0,1.49213e-08,0.0589578,4.505e-05,0,-306,-0.531586,5.22247e-05,-218.246,-88.3691,2.628
-0.5036,-0.503697,0.262745,0.200153,-0,9.94756e-09,0.0590733,3.00333e-05,0,-307,-0.531586,3.48164e-05,-219.072,-88.5648,2.632
-0.5036,-0.503697,0.262982,0.200153,-0,6.6317e-09,0.0591886,2.00222e-05,0,-308,-0.531586,2.3211e-05,-219.9,-88.7529,2.636
-0.5036,-0.503697,0.263219,0.200153,-0,-2.87865e-05,0.0593039,4.21391e-05,0,-309,-0.533486,-0.100753,-220.728,-88.8927,2.64
-0.5036,-0.503696,0.263456,0.200153,-0,3.83908e-05,0.0594191,-6.98214e-07,0,-310,-0.529686,0.134368,-221.561,-89.1297,2.644
-0.5036,-0.503697,0.263694,0.200154,-0,-3.19703e-06,0.0595342,0.000114698,0,-311,-0.531586,-0.0111896,-222.388,-89.1293,2.648
-0.5036,-0.503697,0.263932,0.200154,-0,-2.13135e-06,0.0596493,4.76746e-05,0,-312,-0.531586,-0.00745973,-223.224,-89.4024,2.652
-0.5036,-0.503696,0.264171,0.200154,-0,2.737e-05,0.0597642,6.0574e-05,0,-313,-0.529686,0.0957951,-224.059,-89.5555,2.656
-0.5036,-0.503697,0.26441,0.200155,-0,-6.81261e-05,0.0598791,6.91736e-05,0,-314,-0.535387,-0.238441,-224.895,-89.7149,2.66
-0.5036,-0.503696,0.26465,0.200155,-0,4.09554e-05,0.0599939,0.000103698,0,-315,-0.529686,0.143344,-225.732,-89.8353,2.664
-0.5036,-0.503697,0.26489,0.200156,-0,-1.48734e-06,0.0601086,9.79226e-05,0,-316,-0.531586,-0.00520568,-226.571,-90.016,2.668
-0.5036,-0.503697,0.265131,0.200156,-0,-9.91559e-07,0.0602232,9.40727e-05,0,-317,-0.531586,-0.00347046,-227.412,-90.1937,2.672
-0.5036,-0.503697,0.265372,0.200157,-0,-5.82429e-05,0.0603377,0.000120297,0,-318,-0.535387,-0.20385,-228.254,-90.3261,2.676
-0.5036,-0.503697,0.265614,0.200157,-0,1.87533e-05,0.0604521,0.000108989,0,-319,-0.531586,0.0656364,-229.098,-90.5147,2.68
-0.5036,-0.503697,0.265856,0.200158,-0,1.25022e-05,0.0605665,0.000130241,0,-320,-0.531586,0.0437576,-229.943,-90.6543,2.684
-0.5036,-0.503697,0.266098,0.200159,-0,8.33478e-06,0.0606807,0.000144409,0,-321,-0.531586,0.0291717,-230.789,-90.8045,2.688
-0.5036,-0.503697,0.266341,0.200159,-0,-5.20253e-05,0.0607949,0.000125064,0,-322,-0.535387,-0.182089,-231.638,-91.0047,2.692
-0.5036,-0.503697,0.266585,0.20016,-0,2.28983e-05,0.060909,0.000140958,0,-323,-0.531586,0.080144,-232.488,-91.152,2.696
-0.5036,-0.503697,0.266829,0.20016,-0,1.52655e-05,0.0610229,0.000151554,0,-324,-0.531586,0.0534294,-233.339,-91.3071,2.7
-0.5036,-0.503697,0.267073,0.200161,-0,1.0177e-05,0.0611368,0.000158618,0,-325,-0.531586,0.0356196,-234.192,-91.4673,2.704
-0.5036,-0.503697,0.267318,0.200162,-0,6.78468e-06,0.0612506,0.000163327,0,-326,-0.531586,0.0237464,-235.046,-91.6309,2.708
-0.5036,-0.503697,0.267563,0.200163,-0,4.52312e-06,0.0613643,0.000195257,0,-327,-0.531586,0.0158309,-235.901,-91.7536,2.712
-0.5036,-0.503697,0.267809,0.200163,-0,-2.57755e-05,0.0614779,0.000187753,0,-328,-0.533486,-0.0902143,-236.758,-91.9353,2.716
-0.5036,-0.503696,0.268055,0.200164,-0,4.03982e-05,0.0615915,0.000211542,0,-329,-0.529686,0.141394,-237.616,-92.0699,2.72
-0.5036,-0.503697,0.268301,0.200166,-0,-5.94407e-05,0.0617049,0.000256192,0,-330,-0.535387,-0.208042,-238.474,-92.173,2.724
-0.5036,-0.503697,0.268548,0.200166,-0,1.79547e-05,0.0618182,0.000199585,0,-331,-0.531586,0.0628416,-239.338,-92.4279,2.728
-0.5036,-0.503697,0.268796,0.200167,-0,1.19698e-05,0.0619314,0.000190639,0,-332,-0.531586,0.0418944,-240.201,-92.6112,2.732
-0.5036,-0.503697,0.269044,0.200168,-0,7.97989e-06,0.0620446,0.000184674,0,-333,-0.531586,0.0279296,-241.067,-92.7898,2.736
-0.5036,-0.503697,0.269292,0.200168,-0,-5.22619e-05,0.0621576,0.000180698,0,-334,-0.535387,-0.182917,-241.934,-92.9654,2.74
-0.5036,-0.503696,0.269541,0.200169,-0,5.15315e-05,0.0622705,0.000149256,0,-335,-0.529686,0.18036,-242.804,-93.1819,2.744
-0.5036,-0.503697,0.26979,0.20017,-0,5.5634e-06,0.0623834,0.000185877,0,-336,-0.531586,0.0194719,-243.673,-93.2963,2.748
-0.5036,-0.503697,0.27004,0.20017,-0,-5.38729e-05,0.0624961,0.000123918,0,-338,-0.535387,-0.188555,-244.547,-93.5583,2.752
-0.5036,-0.503696,0.27029,0.200171,-0,5.04575e-05,0.0626088,0.000168985,0,-339,-0.529686,0.176601,-245.419,-93.6597,2.756
-0.5036,-0.503697,0.270541,0.200171,-0,4.84741e-06,0.0627213,0.000170238,0,-340,-0.531586,0.0169659,-246.294,-93.8266,2.76
-0.5036,-0.503697,0.270792,0.200171,-0,-5.43502e-05,0.0628338,0.000113492,0,-341,-0.535387,-0.190226,-247.173,-94.0804,2.764
-0.5036,-0.503697,0.271044,0.200173,-0,-3.62335e-05,0.0629461,0.000190825,0,-342,-0.535387,-0.126817,-248.048,-94.1329,2.768
-0.5036,-0.503696,0.271296,0.200174,-0,6.22171e-05,0.0630584,0.000271171,0,-343,-0.529686,0.21776,-248.924,-94.1808,2.772
-0.5036,-0.503697,0.271548,0.200175,-0,-4.48947e-05,0.0631705,0.000267154,0,-344,-0.535387,-0.157131,-249.804,-94.355,2.776
-0.5036,-0.503697,0.271801,0.200176,-0,-2.99298e-05,0.0632825,0.000206893,0,-345,-0.535387,-0.104754,-250.688,-94.6135,2.78
-0.5036,-0.503697,0.272054,0.200177,-0,3.76286e-05,0.0633945,0.000195511,0,-346,-0.531586,0.1317,-251.572,-94.7984,2.784
-0.5036,-0.503696,0.272308,0.200177,-0,5.38767e-05,0.0635063,0.000187922,0,-347,-0.529686,0.188568,-252.458,-94.9776,2.788
-0.5036,-0.503697,0.272562,0.200178,-0,-5.0455e-05,0.063618,0.000154073,0,-348,-0.535387,-0.176592,-253.347,-95.1959,2.792
-0.5036,-0.503697,0.272817,0.200178,-0,-3.36367e-05,0.0637297,0.000131506,0,-349,-0.535387,-0.117728,-254.237,-95.3972,2.796
-0.5036,-0.503697,0.273072,0.200178,-0,3.51574e-05,0.0638412,0.000116462,0,-350,-0.531586,0.123051,-255.129,-95.5871,2.8
-0.5036,-0.503697,0.273328,0.200178,-0,2.34383e-05,0.0639526,7.7641e-05,0,-351,-0.531586,0.082034,-256.024,-95.8124,2.804
-0.5036,-0.503697,0.273584,0.200179,-0,-4.19563e-05,0.0640639,8.05516e-05,0,-352,-0.535387,-0.146847,-256.918,-95.975,2.808
-0.5036,-0.503697,0.27384,0.200179,-0,2.9611e-05,0.0641751,5.37011e-05,0,-353,-0.531586,0.103638,-257.816,-96.1821,2.812
-0.5036,-0.503697,0.274097,0.200179,-0,1.97406e-05,0.0642862,6.45916e-05,0,-355,-0.531586,0.0690922,-258.714,-96.3324,2.816
-0.5036,-0.503697,0.274355,0.200179,-0,1.31604e-05,0.0643972,7.1852e-05,0,-356,-0.531586,0.0460615,-259.614,-96.488,2.82
-0.5036,-0.503697,0.274612,0.20018,-0,8.77362e-06,0.0645081,7.66923e-05,0,-357,-0.531586,0.0307077,-260.515,-96.6471,2.824
-0.5036,-0.503697,0.274871,0.20018,-0,-5.17328e-05,0.0646189,7.99191e-05,0,-358,-0.535387,-0.181065,-261.418,-96.8084,2.828
-0.5036,-0.503697,0.275129,0.20018,-0,2.30933e-05,0.0647295,8.20703e-05,0,-359,-0.531586,0.0808267,-262.322,-96.9712,2.832
-0.5036,-0.503697,0.275389,0.200181,-0,-4.21863e-05,0.0648401,0.000112295,0,-360,-0.535387,-0.147652,-263.226,-97.0917,2.836
-0.5036,-0.503697,0.275648,0.200182,-0,-2.81242e-05,0.0649505,0.000132445,0,-361,-0.535387,-0.0984347,-264.132,-97.2271,2.84
-0.5036,-0.503697,0.275908,0.200182,-0,3.88324e-05,0.0650608,0.000145879,0,-362,-0.531586,0.135913,-265.04,-97.3725,2.844
-0.5036,-0.503697,0.276169,0.200183,-0,-3.16936e-05,0.0651711,0.000126043,0,-363,-0.535387,-0.110928,-265.951,-97.5675,2.848
-0.5036,-0.503697,0.276429,0.200183,-0,3.64528e-05,0.0652812,0.000141611,0,-364,-0.531586,0.127585,-266.861,-97.7094,2.852
-0.5036,-0.503697,0.276691,0.200184,-0,2.43019e-05,0.0653912,0.00018078,0,-365,-0.531586,0.0850565,-267.772,-97.8156,2.856
-0.5036,-0.503697,0.276953,0.200184,-0,1.62012e-05,0.0655011,0.00012052,0,-366,-0.531586,0.0567043,-268.689,-98.0708,2.86
-0.5036,-0.503697,0.277215,0.200185,-0,-4.6781e-05,0.0656108,0.000137929,0,-367,-0.535387,-0.163734,-269.604,-98.2094,2.864
-0.5036,-0.503697,0.277478,0.200186,-0,2.63945e-05,0.0657205,0.000149534,0,-368,-0.531586,0.0923808,-270.521,-98.3564,2.868
-0.5036,-0.503697,0.277741,0.200187,-0,-3.99855e-05,0.06583,0.000186062,0,-369,-0.535387,-0.139949,-271.438,-98.466,2.872
-0.5036,-0.503697,0.278004,0.200187,-0,3.09248e-05,0.0659395,0.000124041,0,-371,-0.531586,0.108237,-272.36,-98.7231,2.876
-0.5036,-0.503697,0.278268,0.200188,-0,-3.69653e-05,0.0660488,0.000140276,0,-372,-0.535387,-0.129379,-273.282,-98.8628,2.88
-0.5036,-0.503697,0.278533,0.200189,-0,3.29383e-05,0.066158,0.000208681,0,-373,-0.531586,0.115284,-274.203,-98.924,2.884
-0.5036,-0.503697,0.278797,0.200189,-0,2.19589e-05,0.0662671,0.000167912,0,-374,-0.531586,0.0768561,-275.128,-99.1487,2.888
-0.5036,-0.503697,0.279063,0.20019,-0,1.46393e-05,0.066376,0.000198314,0,-375,-0.531586,0.0512374,-276.053,-99.2666,2.892
-0.5036,-0.503697,0.279328,0.200191,-0,9.7595e-06,0.0664849,0.000218582,0,-376,-0.531586,0.0341583,-276.98,-99.3994,2.896
-0.5036,-0.503697,0.279595,0.200192,-0,6.50634e-06,0.0665936,0.000232094,0,-377,-0.531586,0.0227722,-277.908,-99.5423,2.9
-0.5036,-0.503697,0.279861,0.200193,-0,4.33756e-06,0.0667022,0.000241102,0,-378,-0.531586,0.0151814,-278.837,-99.6917,2.904
-0.5036,-0.503697,0.280128,0.200195,-0,-5.46901e-05,0.0668107,0.000275898,0,-379,-0.535387,-0.191416,-279.767,-99.8022,2.908
-0.5036,-0.503697,0.280396,0.200196,-0,2.11218e-05,0.0669191,0.000299096,0,-380,-0.531586,0.0739261,-280.698,-99.93,2.912
-0.5036,-0.503696,0.280664,0.200198,-0,4.28721e-05,0.0670273,0.000343352,0,-381,-0.529686,0.150052,-281.63,-100.026,2.916
-0.5036,-0.503696,0.280932,0.200199,-0,2.85814e-05,0.0671355,0.000286483,0,-382,-0.529686,0.100035,-282.566,-100.273,2.92
-0.5036,-0.503697,0.281201,0.2002,-0,-9.73666e-06,0.0672435,0.000334943,0,-383,-0.531586,-0.0340783,-283.501,-100.363,2.924
-0.5036,-0.503697,0.28147,0.200201,-0,-6.49111e-06,0.0673514,0.000280877,0,-385,-0.531586,-0.0227189,-284.441,-100.606,2.928
-0.5036,-0.503696,0.281739,0.200202,-0,2.44635e-05,0.0674592,0.000302415,0,-386,-0.529686,0.0856223,-285.38,-100.735,2.932
-0.5036,-0.503697,0.282009,0.200204,-0,-1.24819e-05,0.0675668,0.000345565,0,-387,-0.531586,-0.0436867,-286.319,-100.832,2.936
-0.5036,-0.503697,0.28228,0.200206,-0,-6.59031e-05,0.0676743,0.00034554,0,-388,-0.535387,-0.230661,-287.26,-100.993,2.94
-0.5036,-0.503697,0.282551,0.200206,-0,1.36464e-05,0.0677817,0.000287942,0,-389,-0.531586,0.0477625,-288.206,-101.241,2.944
-0.5036,-0.503697,0.282822,0.200208,-0,9.09762e-06,0.067889,0.000335916,0,-390,-0.531586,0.0318417,-289.15,-101.33,2.948
-0.5036,-0.503697,0.283094,0.200208,-0,-5.15168e-05,0.0679962,0.000223944,0,-391,-0.535387,-0.180309,-290.101,-101.658,2.952
-0.5036,-0.503697,0.283366,0.200208,-0,2.32373e-05,0.0681032,0.000178087,0,-392,-0.531586,0.0813307,-291.053,-101.888,2.956
-0.5036,-0.503697,0.283639,0.200209,-0,1.54916e-05,0.0682101,0.000147516,0,-394,-0.531586,0.0542205,-292.006,-102.094,2.96
-0.5036,-0.503697,0.283912,0.200209,-0,1.03277e-05,0.0683169,0.000127135,0,-395,-0.531586,0.036147,-292.96,-102.285,2.964
-0.5036,-0.503697,0.284185,0.200209,-0,6.88514e-06,0.0684235,5.59655e-05,0,-396,-0.531586,0.024098,-293.918,-102.551,2.968
-0.5036,-0.503697,0.284459,0.20021,-0,-5.29918e-05,0.06853,0.000152474,0,-397,-0.535387,-0.185471,-294.872,-102.566,2.972
-0.5036,-0.503697,0.284734,0.20021,-0,2.2254e-05,0.0686364,7.28584e-05,0,-398,-0.531586,0.077889,-295.834,-102.845,2.976
-0.5036,-0.503696,0.285008,0.20021,-0,4.36269e-05,0.0687427,7.73632e-05,0,-399,-0.529686,0.152694,-296.794,-102.998,2.98
-0.5036,-0.503697,0.285284,0.20021,-0,2.93697e-07,0.0688488,8.03664e-05,0,-400,-0.531586,0.00102794,-297.756,-103.153,2.984
-0.5036,-0.503697,0.285559,0.200211,-0,1.95798e-07,0.0689549,0.000111159,0,-401,-0.531586,0.000685292,-298.718,-103.266,2.988
-0.5036,-0.503697,0.285835,0.200211,-0,1.30532e-07,0.0690607,0.000102897,0,-403,-0.531586,0.000456861,-299.683,-103.437,2.992
-0.5036,-0.503697,0.286112,0.200212,-0,-2.87039e-05,0.0691665,0.00012618,0,-404,-0.533486,-0.100464,-300.648,-103.56,2.996
-0.5036,-0.503697,0.286388,0.200213,-0,9.65499e-06,0.0692721,0.000170493,0,-405,-0.531586,0.0337925,-301.614,-103.652,3
-0.5036,-0.503697,0.286666,0.200215,-0,6.43666e-06,0.0693776,0.000257616,0,-406,-0.531586,0.0225283,-302.578,-103.68,3.004
-0.5036,-0.503696,0.286944,0.200217,-0,3.3082e-05,0.069483,0.000315699,0,-407,-0.529686,0.115787,-303.544,-103.751,3.008
-0.5036,-0.503696,0.287222,0.20022,-0,2.20547e-05,0.0695882,0.000527166,0,-408,-0.529686,0.0771914,-304.504,-103.592,3.012
-0.5036,-0.503697,0.2875,0.200225,-0,-1.40878e-05,0.0696933,0.000725726,0,-408,-0.531586,-0.0493073,-305.464,-103.451,3.016
-0.5036,-0.503697,0.287779,0.20023,-0,-6.69737e-05,0.0697983,0.000944472,0,-409,-0.535387,-0.234408,-306.421,-103.281,3.02
-0.5036,-0.503697,0.288059,0.200236,-0,-4.46491e-05,0.0699031,0.0010903,0,-410,-0.535387,-0.156272,-307.379,-103.219,3.024
-0.5036,-0.503697,0.288338,0.200242,-0,2.78158e-05,0.0700078,0.00124511,0,-411,-0.531586,0.0973551,-308.337,-103.144,3.028
-0.5036,-0.503697,0.288619,0.200248,-0,1.85438e-05,0.0701124,0.00131952,0,-412,-0.531586,0.0649034,-309.297,-103.189,3.032
-0.5036,-0.503697,0.288899,0.200256,-0,-1.64284e-05,0.0702168,0.00151308,0,-413,-0.533486,-0.0574993,-310.253,-103.056,3.036
-0.5036,-0.503697,0.28918,0.200264,-0,1.78387e-05,0.0703211,0.0016997,0,-414,-0.531586,0.0624354,-311.208,-102.932,3.04
-0.5036,-0.503697,0.289462,0.20027,-0,1.18925e-05,0.0704252,0.00162258,0,-415,-0.531586,0.0416236,-312.172,-103.204,3.044
-0.5036,-0.503697,0.289744,0.200275,-0,-4.96535e-05,0.0705293,0.00154237,0,-416,-0.535387,-0.173787,-313.14,-103.48,3.048
-0.5036,-0.503697,0.290026,0.200278,-0,2.44795e-05,0.0706331,0.00125858,0,-418,-0.531586,0.0856782,-314.118,-104.062,3.052
-0.5036,-0.503697,0.290309,0.20028,-0,1.63197e-05,0.0707369,0.00104059,0,-419,-0.531586,0.0571188,-315.099,-104.544,3.056
-0.5036,-0.503697,0.290592,0.20028,-0,-4.67021e-05,0.0708405,0.000664934,0,-421,-0.535387,-0.163457,-316.092,-105.263,3.06
-0.5036,-0.503697,0.290876,0.20028,-0,-3.11347e-05,0.070944,0.00044329,0,-422,-0.535387,-0.108972,-317.084,-105.751,3.064
-0.5036,-0.503697,0.29116,0.20028,-0,3.68254e-05,0.0710473,0.000295526,0,-424,-0.531586,0.128889,-318.078,-106.128,3.068
-0.5036,-0.503697,0.291444,0.20028,-0,2.45502e-05,0.0711505,0.000197018,0,-425,-0.531586,0.0859259,-319.073,-106.43,3.072
-0.5036,-0.503697,0.291729,0.20028,-0,1.63668e-05,0.0712536,0.000160136,0,-426,-0.531586,0.0572839,-320.069,-106.64,3.076
-0.5036,-0.503697,0.292014,0.20028,-0,-4.66706e-05,0.0713565,0.000106757,0,-427,-0.535387,-0.163347,-321.067,-106.875,3.08
-0.5036,-0.503697,0.2923,0.20028,-0,2.64681e-05,0.0714593,7.11715e-05,0,-429,-0.531586,0.0926383,-322.067,-107.082,3.084
-0.5036,-0.503697,0.292586,0.20028,-0,1.76454e-05,0.0715619,4.74477e-05,0,-430,-0.531586,0.0617589,-323.068,-107.272,3.088
-0.5036,-0.503697,0.292872,0.20028,-0,1.17636e-05,0.0716644,3.16318e-05,0,-431,-0.531586,0.0411726,-324.071,-107.449,3.092
-0.5036,-0.503697,0.293159,0.20028,-0,7.8424e-06,0.0717668,2.10879e-05,0,-432,-0.531586,0.0274484,-325.075,-107.619,3.096
-0.5036,-0.503697,0.293446,0.200281,-0,5.22827e-06,0.071869,4.28495e-05,0,-433,-0.531586,0.0182989,-326.079,-107.739,3.1
-0.5036,-0.503697,0.293734,0.200281,-0,3.48551e-06,0.071971,2.85663e-05,0,-434,-0.531586,0.0121993,-327.086,-107.914,3.104
-0.5036,-0.503697,0.294022,0.200281,-0,2.32367e-06,0.072073,1.90442e-05,0,-436,-0.531586,0.00813286,-328.094,-108.081,3.108
-0.5036,-0.503696,0.294311,0.200281,-0,3.034e-05,0.0721748,4.14871e-05,0,-437,-0.529686,0.10619,-329.103,-108.2,3.112
-0.5036,-0.503697,0.294599,0.200281,-0,-8.56423e-06,0.0722764,2.7658e-05,0,-438,-0.531586,-0.0299748,-330.114,-108.373,3.116
-0.5036,-0.503697,0.294889,0.200281,-0,-5.70949e-06,0.0723779,1.84387e-05,0,-439,-0.531586,-0.0199832,-331.126,-108.539,3.12
-0.5036,-0.503697,0.295178,0.200282,-0,-3.80632e-06,0.0724792,4.10834e-05,0,-440,-0.531586,-0.0133221,-332.139,-108.657,3.124
-0.5036,-0.503697,0.295469,0.200282,-0,-6.01194e-05,0.0725805,2.73889e-05,0,-441,-0.535387,-0.210418,-333.155,-108.83,3.128
-0.5036,-0.503697,0.295759,0.200282,-0,1.75022e-05,0.0726815,7.58411e-05,0,-443,-0.531586,0.0612579,-334.169,-108.909,3.132
-0.5036,-0.503697,0.29605,0.200282,-0,1.16682e-05,0.0727824,2.17698e-05,0,-444,-0.531586,0.0408386,-335.188,-109.141,3.136
-0.5036,-0.503697,0.296341,0.200282,-0,-4.98031e-05,0.0728832,4.33041e-05,0,-445,-0.535387,-0.174311,-336.207,-109.26,3.14
-0.5036,-0.503697,0.296633,0.200282,-0,-4.41112e-06,0.0729838,2.88694e-05,0,-446,-0.533486,-0.0154389,-337.228,-109.432,3.144
-0.5036,-0.503697,0.296925,0.200283,-0,2.58502e-05,0.0730843,4.80372e-05,0,-447,-0.531586,0.0904756,-338.249,-109.554,3.148
-0.5036,-0.503697,0.297218,0.200283,-0,1.72335e-05,0.0731846,6.08157e-05,0,-448,-0.531586,0.0603171,-339.272,-109.686,3.152
-0.5036,-0.503697,0.297511,0.200283,-0,1.1489e-05,0.0732848,6.93347e-05,0,-450,-0.531586,0.0402114,-340.296,-109.823,3.156
-0.5036,-0.503697,0.297804,0.200284,-0,-4.99225e-05,0.0733848,7.50141e-05,0,-451,-0.535387,-0.174729,-341.321,-109.965,3.16
-0.5036,-0.503697,0.298098,0.200284,-0,2.43002e-05,0.0734847,7.88003e-05,0,-452,-0.531586,0.0850506,-342.348,-110.109,3.164
-0.5036,-0.503697,0.298392,0.200284,-0,1.62001e-05,0.0735844,8.13245e-05,0,-453,-0.531586,0.0567004,-343.377,-110.255,3.168
-0.5036,-0.503697,0.298686,0.200285,-0,1.08001e-05,0.073684,0.000111798,0,-454,-0.531586,0.0378002,-344.405,-110.358,3.172
-0.5036,-0.503697,0.298981,0.200286,-0,7.20005e-06,0.0737834,0.000160905,0,-455,-0.531586,0.0252002,-345.434,-110.434,3.176
-0.5036,-0.503697,0.299277,0.200287,-0,4.80003e-06,0.0738827,0.000222434,0,-456,-0.531586,0.0168001,-346.463,-110.49,3.18
-0.5036,-0.503697,0.299572,0.200288,-0,3.20002e-06,0.0739818,0.000205871,0,-458,-0.531586,0.0112001,-347.495,-110.664,3.184
-0.5036,-0.503697,0.299869,0.200289,-0,2.13335e-06,0.0740808,0.00022362,0,-459,-0.531586,0.00746672,-348.528,-110.786,3.188
-0.5036,-0.503697,0.300165,0.200291,-0,-5.61596e-05,0.0741796,0.000264244,0,-460,-0.535387,-0.196559,-349.561,-110.873,3.192
-0.5036,-0.503697,0.300462,0.200292,-0,2.01421e-05,0.0742783,0.000262535,0,-461,-0.531586,0.0704974,-350.597,-111.024,3.196
-0.5036,-0.503697,0.300759,0.200294,-0,1.34281e-05,0.0743768,0.000347769,0,-462,-0.531586,0.0469982,-351.63,-111.044,3.2
-0.5036,-0.503697,0.301057,0.200294,-0,8.95205e-06,0.0744752,0.000289428,0,-463,-0.531586,0.0313322,-352.669,-111.279,3.204
-0.5036,-0.503697,0.301355,0.200296,-0,5.96803e-06,0.0745734,0.000308116,0,-465,-0.531586,0.0208881,-353.708,-111.398,3.208
-0.5036,-0.503697,0.301654,0.200297,-0,-5.36032e-05,0.0746715,0.000291783,0,-466,-0.535387,-0.187611,-354.749,-111.57,3.212
-0.5036,-0.503697,0.301952,0.200297,-0,2.18464e-05,0.0747694,0.000252104,0,-467,-0.531586,0.0764624,-355.793,-111.776,3.216
-0.5036,-0.503697,0.302252,0.200298,-0,-4.30176e-05,0.0748671,0.000225651,0,-468,-0.535387,-0.150562,-356.838,-111.962,3.22
-0.5036,-0.503697,0.302551,0.200298,-0,2.89035e-05,0.0749647,0.000179225,0,-470,-0.531586,0.101162,-357.885,-112.178,3.224
-0.5036,-0.503697,0.302851,0.200299,-0,1.9269e-05,0.0750621,0.000148274,0,-471,-0.531586,0.0674414,-358.934,-112.371,3.228
-0.5036,-0.503696,0.303152,0.200299,-0,4.16369e-05,0.0751594,0.00012764,0,-472,-0.529686,0.145729,-359.985,-112.548,3.232
