peachynonah/Fire_monitor_KIRO_CDSL/csv_datas/trial10/cdsl_data_t10_2.csv
joint1_pos_desired, joint1_pos, joint2_pos_desired, joint2_pos, joint1_vel_desired, joint1_vel_filtered, joint2_vel_desired, joint2_vel_filtered, target_torque_joint1, target_torque_joint2, propo_term_torque_joint1, deriv_term_torque_joint1, propo_term_torque_joint2, deriv_term_torque_joint2, current_time
-0.5036,-0.503697,0.144,0.14092,-0,0,2.35947e-08,0,0,-23,-0.531586,0,-23.1004,-5.89867e-05,0.004
-0.5036,-0.503697,0.144,0.140775,-0,0,9.43444e-08,-0.0120922,0,-54,-0.531586,0,-24.1887,-30.2307,0.008
-0.5036,-0.503697,0.144,0.140675,-0,0,2.12198e-07,-0.0163532,0,-65,-0.531586,0,-24.935,-40.8836,0.012
-0.5036,-0.503697,0.144,0.140594,-0,0,3.77103e-07,-0.017668,0,-69,-0.531586,0,-25.5439,-44.171,0.016
-0.5036,-0.503697,0.144,0.140531,-0,0,5.89009e-07,-0.0170762,0,-68,-0.531586,0,-26.0207,-42.692,0.02
-0.5036,-0.503697,0.144,0.140486,-0,0,8.47864e-07,-0.0150694,0,-64,-0.531586,0,-26.3524,-37.6756,0.024
-0.5036,-0.503697,0.144,0.140462,-0,0,1.15362e-06,-0.0120904,0,-56,-0.531586,0,-26.5364,-30.2289,0.028
-0.5036,-0.503697,0.144,0.140458,-0,0,1.50622e-06,-0.00840577,0,-47,-0.531586,0,-26.5675,-21.0182,0.032
-0.5036,-0.503697,0.144,0.140464,-0,0,1.90561e-06,-0.0051144,0,-39,-0.531586,0,-26.5235,-12.7908,0.036
-0.5036,-0.503697,0.144,0.140476,-0,0,2.35175e-06,-0.00240192,0,-32,-0.531586,0,-26.4329,-6.01067,0.04
-0.5036,-0.503697,0.144,0.140494,-0,0,2.84458e-06,-0.000104149,0,-26,-0.531586,0,-26.2982,-0.267485,0.044
-0.5036,-0.503697,0.144,0.140516,-0,0,3.38405e-06,0.00180198,0,-21,-0.531586,0,-26.1299,4.49648,0.048
-0.5036,-0.503697,0.144,0.140541,-0,0,3.97011e-06,0.00330306,0,-17,-0.531586,0,-25.9409,8.24771,0.052
-0.5036,-0.503697,0.144,0.140568,-0,0,4.60272e-06,0.00439015,0,-14,-0.531586,0,-25.7441,10.9639,0.056
-0.5036,-0.503697,0.144,0.140591,-0,0,5.2818e-06,0.00491334,0,-13,-0.531586,0,-25.5654,12.2701,0.06
-0.5036,-0.503697,0.144,0.140615,-0,0,6.00733e-06,0.00526213,0,-12,-0.531586,0,-25.3868,13.1403,0.064
-0.5036,-0.503697,0.144,0.140638,-0,0,6.77924e-06,0.0053795,0,-11,-0.531586,0,-25.2186,13.4318,0.068
-0.5036,-0.503697,0.144,0.140658,-0,0,7.59748e-06,0.00531379,0,-11,-0.531586,0,-25.0633,13.2655,0.072
-0.5036,-0.503697,0.144,0.140678,-0,0,8.462e-06,0.00518361,0,-11,-0.531586,0,-24.9159,12.9379,0.076
-0.5036,-0.503697,0.144,0.140696,-0,0,9.37276e-06,0.00492408,0,-12,-0.531586,0,-24.784,12.2868,0.08
-0.5036,-0.503697,0.144,0.140712,-0,0,1.03297e-05,0.00466468,0,-13,-0.531586,0,-24.6599,11.6359,0.084
-0.5036,-0.503697,0.144,0.140728,-0,0,1.13328e-05,0.00443417,0,-13,-0.531586,0,-24.541,11.0571,0.088
-0.5036,-0.503697,0.144,0.140743,-0,0,1.23819e-05,0.00419412,0,-13,-0.531586,0,-24.43,10.4544,0.092
-0.5036,-0.503697,0.144,0.140756,-0,0,1.34771e-05,0.00389014,0,-14,-0.531586,0,-24.3319,9.69165,0.096
-0.5036,-0.503697,0.144,0.140768,-0,0,1.46182e-05,0.00357232,0,-15,-0.531586,0,-24.2442,8.89425,0.1
-0.5036,-0.503697,0.144001,0.140778,-0,0,1.58053e-05,0.00324527,0,-16,-0.531586,0,-24.1669,8.07367,0.104
-0.5036,-0.503697,0.144001,0.140787,-0,0,1.70382e-05,0.00291208,0,-16,-0.531586,0,-24.1,7.2376,0.108
-0.5036,-0.503697,0.144001,0.140795,-0,0,1.8317e-05,0.00260358,0,-17,-0.531586,0,-24.041,6.46315,0.112
-0.5036,-0.503697,0.144001,0.140802,-0,0,1.96416e-05,0.00231154,0,-18,-0.531586,0,-23.9897,5.72974,0.116
-0.5036,-0.503697,0.144001,0.140808,-0,0,2.10118e-05,0.00205926,0,-18,-0.531586,0,-23.9437,5.09562,0.12
-0.5036,-0.503697,0.144001,0.140813,-0,0,2.24277e-05,0.00177591,0,-19,-0.531586,0,-23.9081,4.38371,0.124
-0.5036,-0.503697,0.144001,0.140817,-0,0,2.38893e-05,0.00147185,0,-20,-0.531586,0,-23.8828,3.61991,0.128
-0.5036,-0.503697,0.144001,0.140819,-0,0,2.53964e-05,0.00118277,0,-20,-0.531586,0,-23.8654,2.89344,0.132
-0.5036,-0.503697,0.144001,0.14082,-0,0,2.69491e-05,0.000903678,0,-21,-0.531586,0,-23.8559,2.19182,0.136
-0.5036,-0.503697,0.144001,0.140821,-0,0,2.85472e-05,0.000660034,0,-22,-0.531586,0,-23.8515,1.57872,0.14
-0.5036,-0.503697,0.144001,0.140821,-0,0,3.01907e-05,0.000440022,0,-22,-0.531586,0,-23.8524,1.02458,0.144
-0.5036,-0.503697,0.144002,0.140821,-0,0,3.18796e-05,0.000293348,0,-23,-0.531586,0,-23.8533,0.653672,0.148
-0.5036,-0.503697,0.144002,0.140821,-0,0,3.36138e-05,0.000195566,0,-23,-0.531586,0,-23.8543,0.404879,0.152
-0.5036,-0.503697,0.144002,0.140821,-0,0,3.53932e-05,0.000130377,0,-23,-0.531586,0,-23.8553,0.237459,0.156
-0.5036,-0.503697,0.144002,0.140821,-0,0,3.72179e-05,8.6918e-05,0,-23,-0.531586,0,-23.8564,0.12425,0.16
-0.5036,-0.503697,0.144002,0.140821,-0,0,3.90877e-05,5.79453e-05,0,-23,-0.531586,0,-23.8576,0.047144,0.164
-0.5036,-0.503697,0.144002,0.140821,-0,0,4.10027e-05,3.86302e-05,0,-23,-0.531586,0,-23.8588,-0.0059311,0.168
-0.5036,-0.503697,0.144002,0.140821,-0,0,4.29627e-05,2.57535e-05,0,-23,-0.531586,0,-23.86,-0.043023,0.172
-0.5036,-0.503697,0.144003,0.140821,-0,0,4.49677e-05,1.7169e-05,0,-23,-0.531586,0,-23.8614,-0.0694967,0.176
-0.5036,-0.503697,0.144003,0.140821,-0,0,4.70177e-05,4.02369e-05,0,-23,-0.531586,0,-23.8601,-0.0169518,0.18
-0.5036,-0.503697,0.144003,0.140821,-0,0,4.91125e-05,2.68246e-05,0,-23,-0.531586,0,-23.8616,-0.0557198,0.184
-0.5036,-0.503697,0.144003,0.140821,-0,0,5.12523e-05,1.78831e-05,0,-23,-0.531586,0,-23.8631,-0.083423,0.188
-0.5036,-0.503697,0.144003,0.140821,-0,0,5.34368e-05,1.1922e-05,0,-23,-0.531586,0,-23.8647,-0.103787,0.192
-0.5036,-0.503697,0.144004,0.140821,-0,0,5.56661e-05,7.94803e-06,0,-23,-0.531586,0,-23.8663,-0.119295,0.196
-0.5036,-0.503697,0.144004,0.140821,-0,0,5.79401e-05,5.29869e-06,0,-23,-0.531586,0,-23.868,-0.131604,0.2
-0.5036,-0.503697,0.144004,0.140821,-0,0,6.02588e-05,3.53246e-06,0,-24,-0.531586,0,-23.8698,-0.141816,0.204
-0.5036,-0.503697,0.144004,0.140821,-0,0,6.26221e-05,-2.6436e-05,0,-24,-0.531586,0,-23.8742,-0.222645,0.208
-0.5036,-0.503697,0.144005,0.140821,-0,0,6.50299e-05,1.1167e-05,0,-24,-0.531586,0,-23.8735,-0.134657,0.212
-0.5036,-0.503697,0.144005,0.140821,-0,0,6.74822e-05,7.44464e-06,0,-24,-0.531586,0,-23.8755,-0.150094,0.216
-0.5036,-0.503697,0.144005,0.140821,-0,0,6.9979e-05,4.96309e-06,0,-24,-0.531586,0,-23.8776,-0.16254,0.22
-0.5036,-0.503697,0.144005,0.140821,-0,0,7.25202e-05,3.30873e-06,0,-24,-0.531586,0,-23.8797,-0.173029,0.224
-0.5036,-0.503697,0.144006,0.140822,-0,0,7.51057e-05,3.09967e-05,0,-23,-0.531586,0,-23.8793,-0.110272,0.228
-0.5036,-0.503697,0.144006,0.140822,-0,0,7.77355e-05,2.06645e-05,0,-24,-0.531586,0,-23.8816,-0.142678,0.232
-0.5036,-0.503697,0.144006,0.140822,-0,0,8.04096e-05,1.37763e-05,0,-24,-0.531586,0,-23.884,-0.166583,0.236
-0.5036,-0.503697,0.144007,0.140822,-0,0,8.31279e-05,9.18422e-06,0,-24,-0.531586,0,-23.8865,-0.184859,0.24
-0.5036,-0.503697,0.144007,0.140822,-0,0,8.58903e-05,6.12281e-06,0,-24,-0.531586,0,-23.889,-0.199419,0.244
-0.5036,-0.503697,0.144007,0.140822,-0,0,8.86969e-05,3.28728e-05,0,-24,-0.531586,0,-23.889,-0.13956,0.248
-0.5036,-0.503697,0.144008,0.140822,-0,0,9.15474e-05,2.19152e-05,0,-24,-0.531586,0,-23.8917,-0.174081,0.252
-0.5036,-0.503697,0.144008,0.140822,-0,0,9.4442e-05,1.46101e-05,0,-24,-0.531586,0,-23.8945,-0.19958,0.256
-0.5036,-0.503697,0.144008,0.140822,-0,0,9.73806e-05,9.74009e-06,0,-24,-0.531586,0,-23.8974,-0.219101,0.26
-0.5036,-0.503697,0.144009,0.140822,-0,0,0.000100363,6.49339e-06,0,-24,-0.531586,0,-23.9004,-0.234674,0.264
-0.5036,-0.503697,0.144009,0.140822,-0,0,0.000103389,4.32893e-06,0,-24,-0.531586,0,-23.9034,-0.247651,0.268
-0.5036,-0.503697,0.14401,0.140822,-0,0,0.000106459,2.88595e-06,0,-24,-0.531586,0,-23.9066,-0.258933,0.272
-0.5036,-0.503697,0.14401,0.140822,-0,0,0.000109573,1.92397e-06,0,-24,-0.531586,0,-23.9098,-0.269123,0.276
-0.5036,-0.503697,0.144011,0.140822,-0,0,0.000112731,1.28265e-06,0,-24,-0.531586,0,-23.9131,-0.27862,0.28
-0.5036,-0.503697,0.144011,0.140823,-0,0,0.000115932,2.9646e-05,0,-24,-0.531586,0,-23.914,-0.215715,0.284
-0.5036,-0.503697,0.144012,0.140822,-0,0,0.000119177,-9.02691e-06,0,-24,-0.531586,0,-23.9201,-0.320509,0.288
-0.5036,-0.503697,0.144012,0.140822,-0,0,0.000122465,-6.01794e-06,0,-24,-0.531586,0,-23.9237,-0.321207,0.292
-0.5036,-0.503697,0.144012,0.140822,-0,0,0.000125797,-4.01196e-06,0,-24,-0.531586,0,-23.9274,-0.324522,0.296
-0.5036,-0.503697,0.144013,0.140823,-0,0,0.000129172,2.61163e-05,0,-24,-0.531586,0,-23.9287,-0.257639,0.3
-0.5036,-0.503697,0.144014,0.140822,-0,0,0.000132591,-1.13801e-05,0,-24,-0.531586,0,-23.9352,-0.359927,0.304
-0.5036,-0.503697,0.144014,0.140823,-0,0,0.000136053,2.12042e-05,0,-24,-0.531586,0,-23.9366,-0.287121,0.308
-0.5036,-0.503697,0.144015,0.140823,-0,0,0.000139558,1.41361e-05,0,-24,-0.531586,0,-23.9408,-0.313555,0.312
-0.5036,-0.503697,0.144015,0.140823,-0,0,0.000143107,9.42409e-06,0,-24,-0.531586,0,-23.945,-0.334206,0.316
-0.5036,-0.503697,0.144016,0.140823,-0,0,0.000146698,6.28273e-06,0,-24,-0.531586,0,-23.9494,-0.351039,0.32
-0.5036,-0.503697,0.144016,0.140823,-0,0,0.000150333,4.18849e-06,0,-24,-0.531586,0,-23.9538,-0.365362,0.324
-0.5036,-0.503697,0.144017,0.140823,-0,0,0.000154011,2.79232e-06,0,-24,-0.531586,0,-23.9584,-0.378047,0.328
-0.5036,-0.503697,0.144018,0.140823,-0,0,0.000157732,1.86155e-06,0,-24,-0.531586,0,-23.9631,-0.389677,0.332
-0.5036,-0.503697,0.144018,0.140823,-0,0,0.000161496,1.24103e-06,0,-24,-0.531586,0,-23.9678,-0.400638,0.336
-0.5036,-0.503697,0.144019,0.140823,-0,0,0.000165303,8.27355e-07,0,-24,-0.531586,0,-23.9727,-0.41119,0.34
-0.5036,-0.503697,0.14402,0.140823,-0,0,0.000169153,5.5157e-07,0,-24,-0.531586,0,-23.9778,-0.421504,0.344
-0.5036,-0.503697,0.14402,0.140823,-0,0,0.000173046,3.67713e-07,0,-24,-0.531586,0,-23.9829,-0.431695,0.348
-0.5036,-0.503697,0.144021,0.140823,-0,0,0.000176981,2.45142e-07,0,-24,-0.531586,0,-23.9881,-0.44184,0.352
-0.5036,-0.503697,0.144022,0.140823,-0,0,0.00018096,1.63428e-07,0,-24,-0.531586,0,-23.9935,-0.45199,0.356
-0.5036,-0.503697,0.144022,0.140823,-0,0,0.000184981,1.08952e-07,0,-24,-0.531586,0,-23.999,-0.462179,0.36
-0.5036,-0.503697,0.144023,0.140823,-0,0,0.000189044,7.26348e-08,0,-24,-0.531586,0,-24.0046,-0.472429,0.364
-0.5036,-0.503697,0.144024,0.140823,-0,0,0.00019315,4.84232e-08,0,-24,-0.531586,0,-24.0103,-0.482755,0.368
-0.5036,-0.503697,0.144025,0.140823,-0,0,0.000197299,3.22821e-08,0,-24,-0.531586,0,-24.0162,-0.493167,0.372
-0.5036,-0.503697,0.144025,0.140823,-0,0,0.00020149,2.15214e-08,0,-24,-0.531586,0,-24.0222,-0.503672,0.376
-0.5036,-0.503697,0.144026,0.140823,-0,0,0.000205724,1.43476e-08,0,-24,-0.531586,0,-24.0283,-0.514274,0.38
-0.5036,-0.503697,0.144027,0.140823,-0,0,0.00021,9.56507e-09,0,-24,-0.531586,0,-24.0345,-0.524976,0.384
-0.5036,-0.503697,0.144028,0.140823,-0,0,0.000214319,6.37671e-09,0,-24,-0.531586,0,-24.0409,-0.535781,0.388
-0.5036,-0.503697,0.144029,0.140823,-0,0,0.000218679,4.25114e-09,0,-24,-0.531586,0,-24.0474,-0.546688,0.392
-0.5036,-0.503697,0.14403,0.140823,-0,0,0.000223082,2.8341e-09,0,-24,-0.531586,0,-24.054,-0.557699,0.396
-0.5036,-0.503697,0.144031,0.140823,-0,0,0.000227528,1.8894e-09,0,-24,-0.531586,0,-24.0608,-0.568814,0.4
-0.5036,-0.503697,0.144032,0.140823,-0,0,0.000232015,2.87922e-05,0,-24,-0.531586,0,-24.0651,-0.508057,0.404
-0.5036,-0.503697,0.144032,0.140823,-0,0,0.000236544,-9.59614e-06,0,-24,-0.531586,0,-24.0747,-0.615351,0.408
-0.5036,-0.503697,0.144033,0.140823,-0,0,0.000241116,2.23935e-05,0,-24,-0.531586,0,-24.0793,-0.546806,0.412
-0.5036,-0.503697,0.144034,0.140823,-0,0,0.000245729,1.4929e-05,0,-24,-0.531586,0,-24.0866,-0.577001,0.416
-0.5036,-0.503697,0.144035,0.140823,-0,0,0.000250385,-1.88383e-05,0,-24,-0.531586,0,-24.0966,-0.673058,0.42
-0.5036,-0.503697,0.144036,0.140822,-0,0,0.000255082,-4.13498e-05,0,-24,-0.531586,0,-24.1068,-0.74108,0.424
-0.5036,-0.503697,0.144037,0.140823,-0,0,0.000259821,1.22442e-06,0,-24,-0.531586,0,-24.1119,-0.646492,0.428
-0.5036,-0.503697,0.144038,0.140822,-0,0,0.000264602,-2.79746e-05,0,-24,-0.531586,0,-24.1224,-0.731443,0.432
-0.5036,-0.503697,0.14404,0.140823,-0,0,0.000269425,1.01412e-05,0,-24,-0.531586,0,-24.1278,-0.64821,0.436
-0.5036,-0.503697,0.144041,0.140823,-0,0,0.00027429,6.76077e-06,0,-24,-0.531586,0,-24.1359,-0.668822,0.44
-0.5036,-0.503697,0.144042,0.140823,-0,0,0.000279196,3.32981e-05,0,-24,-0.531586,0,-24.1416,-0.614744,0.444
-0.5036,-0.503697,0.144043,0.140823,-0,0,0.000284143,2.21987e-05,0,-24,-0.531586,0,-24.1501,-0.654862,0.448
-0.5036,-0.503697,0.144044,0.140823,-0,0,0.000289133,1.47992e-05,0,-24,-0.531586,0,-24.1587,-0.685834,0.452
-0.5036,-0.503697,0.144045,0.140823,-0,0,0.000294164,9.86611e-06,0,-24,-0.531586,0,-24.1674,-0.710744,0.456
-0.5036,-0.503697,0.144046,0.140823,-0,0,0.000299236,6.5774e-06,0,-24,-0.531586,0,-24.1763,-0.731646,0.46
-0.5036,-0.503697,0.144048,0.140823,-0,0,0.000304349,4.38494e-06,0,-24,-0.531586,0,-24.1854,-0.749911,0.464
-0.5036,-0.503697,0.144049,0.140823,-0,0,0.000309504,2.92329e-06,0,-24,-0.531586,0,-24.1946,-0.766453,0.468
-0.5036,-0.503697,0.14405,0.140823,-0,0,0.000314701,1.94886e-06,0,-24,-0.531586,0,-24.204,-0.78188,0.472
-0.5036,-0.503697,0.144051,0.140823,-0,0,0.000319938,1.29924e-06,0,-25,-0.531586,0,-24.2135,-0.796598,0.476
-0.5036,-0.503697,0.144053,0.140823,-0,0,0.000325217,8.6616e-07,0,-25,-0.531586,0,-24.2232,-0.810878,0.48
-0.5036,-0.503697,0.144054,0.140823,-0,0,0.000330537,5.7744e-07,0,-25,-0.531586,0,-24.233,-0.824899,0.484
-0.5036,-0.503697,0.144055,0.140823,-0,0,0.000335898,3.8496e-07,0,-25,-0.531586,0,-24.243,-0.838783,0.488
-0.5036,-0.503697,0.144057,0.140823,-0,0,0.0003413,2.5664e-07,0,-25,-0.531586,0,-24.2532,-0.852609,0.492
-0.5036,-0.503697,0.144058,0.140823,-0,0,0.000346744,1.71093e-07,0,-25,-0.531586,0,-24.2635,-0.866431,0.496
-0.5036,-0.503697,0.144059,0.140823,-0,0,0.000352228,1.14062e-07,0,-25,-0.531586,0,-24.274,-0.880284,0.5
-0.5036,-0.503697,0.144061,0.140823,-0,0,0.000357753,7.60415e-08,0,-25,-0.531586,0,-24.2846,-0.894192,0.504
-0.5036,-0.503697,0.144062,0.140823,-0,0,0.000363319,5.06943e-08,0,-25,-0.531586,0,-24.2954,-0.90817,0.508
-0.5036,-0.503697,0.144064,0.140823,-0,0,0.000368925,2.88247e-05,0,-25,-0.531586,0,-24.3038,-0.850251,0.512
-0.5036,-0.503697,0.144065,0.140823,-0,0,0.000374573,1.92165e-05,0,-25,-0.531586,0,-24.315,-0.888391,0.516
-0.5036,-0.503697,0.144067,0.140823,-0,0,0.000380261,1.2811e-05,0,-25,-0.531586,0,-24.3263,-0.918625,0.52
-0.5036,-0.503697,0.144068,0.140823,-0,0,0.00038599,8.54066e-06,0,-25,-0.531586,0,-24.3378,-0.943623,0.524
-0.5036,-0.503697,0.14407,0.140823,-0,0,0.000391759,5.69377e-06,0,-25,-0.531586,0,-24.3495,-0.965164,0.528
-0.5036,-0.503697,0.144071,0.140823,-0,0,0.000397569,3.79585e-06,0,-25,-0.531586,0,-24.3613,-0.984434,0.532
-0.5036,-0.503697,0.144073,0.140823,-0,0,0.00040342,2.53057e-06,0,-25,-0.531586,0,-24.3733,-1.00222,0.536
-0.5036,-0.503697,0.144075,0.140824,-0,0,0.000409311,3.0478e-05,0,-25,-0.531586,0,-24.3829,-0.947083,0.54
-0.5036,-0.503697,0.144076,0.140824,-0,0,0.000415242,2.03186e-05,0,-25,-0.531586,0,-24.3953,-0.98731,0.544
-0.5036,-0.503697,0.144078,0.140824,-0,0,0.000421214,1.35458e-05,0,-25,-0.531586,0,-24.4078,-1.01917,0.548
-0.5036,-0.503697,0.14408,0.140824,-0,0,0.000427227,9.03051e-06,0,-25,-0.531586,0,-24.4206,-1.04549,0.552
-0.5036,-0.503697,0.144081,0.140824,-0,0,0.000433279,6.02034e-06,0,-25,-0.531586,0,-24.4335,-1.06815,0.556
-0.5036,-0.503697,0.144083,0.140824,-0,0,0.000439372,4.01356e-06,0,-25,-0.531586,0,-24.4465,-1.0884,0.56
-0.5036,-0.503697,0.144085,0.140824,-0,0,0.000445505,3.14666e-05,0,-25,-0.531586,0,-24.4572,-1.03509,0.564
-0.5036,-0.503697,0.144087,0.140824,-0,0,0.000451678,2.09778e-05,0,-25,-0.531586,0,-24.4707,-1.07675,0.568
-0.5036,-0.503697,0.144088,0.140824,-0,0,0.000457891,1.39852e-05,0,-25,-0.531586,0,-24.4843,-1.10976,0.572
-0.5036,-0.503697,0.14409,0.140824,-0,0,0.000464144,9.32345e-06,0,-25,-0.531586,0,-24.4982,-1.13705,0.576
-0.5036,-0.503697,0.144092,0.140824,-0,0,0.000470437,6.21563e-06,0,-25,-0.531586,0,-24.5122,-1.16055,0.58
-0.5036,-0.503697,0.144094,0.140824,-0,0,0.00047677,3.29347e-05,0,-25,-0.531586,0,-24.5238,-1.10959,0.584
-0.5036,-0.503697,0.144096,0.140824,-0,0,0.000483143,2.19565e-05,0,-25,-0.531586,0,-24.5382,-1.15297,0.588
-0.5036,-0.503697,0.144098,0.140824,-0,0,0.000489556,1.46376e-05,0,-25,-0.531586,0,-24.5528,-1.1873,0.592
-0.5036,-0.503697,0.1441,0.140824,-0,0,0.000496008,9.75842e-06,0,-25,-0.531586,0,-24.5676,-1.21562,0.596
-0.5036,-0.503697,0.144102,0.140824,-0,0,0.000502501,6.50562e-06,0,-25,-0.531586,0,-24.5825,-1.23999,0.6
-0.5036,-0.503697,0.144104,0.140824,-0,0,0.000509033,4.33708e-06,0,-25,-0.531586,0,-24.5977,-1.26174,0.604
-0.5036,-0.503697,0.144106,0.140824,-0,0,0.000515604,2.89138e-06,0,-25,-0.531586,0,-24.6131,-1.28178,0.608
-0.5036,-0.503697,0.144108,0.140825,-0,0,0.000522215,3.07185e-05,0,-25,-0.531586,0,-24.6261,-1.22874,0.612
-0.5036,-0.503697,0.14411,0.140825,-0,0,0.000528866,2.0479e-05,0,-25,-0.531586,0,-24.6418,-1.27097,0.616
-0.5036,-0.503697,0.144112,0.140825,-0,0,0.000535556,1.36527e-05,0,-25,-0.531586,0,-24.6578,-1.30476,0.62
-0.5036,-0.503697,0.144114,0.140825,-0,0,0.000542286,3.78927e-05,0,-25,-0.531586,0,-24.6714,-1.26098,0.624
-0.5036,-0.503697,0.144117,0.140825,-0,0,0.000549055,2.52618e-05,0,-25,-0.531586,0,-24.6877,-1.30948,0.628
-0.5036,-0.503697,0.144119,0.140825,-0,0,0.000555864,1.68412e-05,0,-26,-0.531586,0,-24.7043,-1.34756,0.632
-0.5036,-0.503697,0.144121,0.140825,-0,0,0.000562712,1.12275e-05,0,-26,-0.531586,0,-24.7211,-1.37871,0.636
-0.5036,-0.503697,0.144123,0.140825,-0,0,0.000569599,3.62759e-05,0,-26,-0.531586,0,-24.7355,-1.33331,0.64
-0.5036,-0.503697,0.144126,0.140825,-0,0,0.000576525,2.41839e-05,0,-26,-0.531586,0,-24.7527,-1.38085,0.644
-0.5036,-0.503697,0.144128,0.140826,-0,0,0.00058349,4.49135e-05,0,-26,-0.531586,0,-24.7675,-1.34644,0.648
-0.5036,-0.503697,0.14413,0.140826,-0,0,0.000590495,2.99424e-05,0,-26,-0.531586,0,-24.7851,-1.40138,0.652
-0.5036,-0.503697,0.144133,0.140826,-0,0,0.000597538,4.87525e-05,0,-26,-0.531586,0,-24.8003,-1.37196,0.656
-0.5036,-0.503697,0.144135,0.140826,-0,0,0.000604621,6.12926e-05,0,-26,-0.531586,0,-24.8158,-1.35832,0.66
-0.5036,-0.503697,0.144138,0.140827,-0,0,0.000611742,6.96527e-05,0,-26,-0.531586,0,-24.8314,-1.35522,0.664
-0.5036,-0.503697,0.14414,0.140827,-0,0,0.000618903,7.5226e-05,0,-26,-0.531586,0,-24.8473,-1.35919,0.668
-0.5036,-0.503697,0.144142,0.140827,-0,0,0.000626102,5.01507e-05,0,-26,-0.531586,0,-24.866,-1.43988,0.672
-0.5036,-0.503697,0.144145,0.140827,-0,0,0.00063334,6.22247e-05,0,-26,-0.531586,0,-24.8823,-1.42779,0.676
-0.5036,-0.503697,0.144148,0.140828,-0,0,0.000640617,7.02741e-05,0,-26,-0.531586,0,-24.8988,-1.42586,0.68
-0.5036,-0.503697,0.14415,0.140828,-0,0,0.000647933,7.56403e-05,0,-26,-0.531586,0,-24.9155,-1.43073,0.684
-0.5036,-0.503697,0.144153,0.140828,-0,0,0.000655287,5.04269e-05,0,-26,-0.531586,0,-24.9351,-1.51215,0.688
-0.5036,-0.503697,0.144155,0.140828,-0,0,0.00066268,3.36179e-05,0,-26,-0.531586,0,-24.9548,-1.57266,0.692
-0.5036,-0.503697,0.144158,0.140828,-0,0,0.000670112,5.12029e-05,0,-26,-0.531586,0,-24.9722,-1.54727,0.696
-0.5036,-0.503697,0.144161,0.140828,-0,0,0.000677582,3.41352e-05,0,-26,-0.531586,0,-24.9925,-1.60862,0.7
-0.5036,-0.503697,0.144163,0.140828,-0,0,0.00068509,2.27568e-05,0,-26,-0.531586,0,-25.0129,-1.65583,0.704
-0.5036,-0.503697,0.144166,0.140828,-0,0,0.000692637,1.51712e-05,0,-26,-0.531586,0,-25.0336,-1.69367,0.708
-0.5036,-0.503697,0.144169,0.140828,-0,0,0.000700223,1.01141e-05,0,-26,-0.531586,0,-25.0545,-1.72527,0.712
-0.5036,-0.503697,0.144172,0.140828,-0,0,0.000707846,6.74276e-06,0,-26,-0.531586,0,-25.0756,-1.75276,0.716
-0.5036,-0.503697,0.144175,0.140829,-0,0,0.000715508,3.32861e-05,0,-26,-0.531586,0,-25.0943,-1.70556,0.72
-0.5036,-0.503697,0.144178,0.140829,-0,0,0.000723209,2.21907e-05,0,-26,-0.531586,0,-25.1159,-1.75254,0.724
-0.5036,-0.503697,0.14418,0.140829,-0,0,0.000730947,1.47938e-05,0,-26,-0.531586,0,-25.1377,-1.79038,0.728
-0.5036,-0.503697,0.144183,0.140829,-0,0,0.000738724,9.86255e-06,0,-26,-0.531586,0,-25.1598,-1.82215,0.732
-0.5036,-0.503697,0.144186,0.140829,-0,0,0.000746538,3.5366e-05,0,-26,-0.531586,0,-25.1795,-1.77793,0.736
-0.5036,-0.503697,0.144189,0.140829,-0,0,0.000754391,2.35773e-05,0,-27,-0.531586,0,-25.202,-1.82703,0.74
-0.5036,-0.503697,0.144192,0.140829,-0,0,0.000762282,1.57182e-05,0,-27,-0.531586,0,-25.2247,-1.86641,0.744
-0.5036,-0.503697,0.144195,0.140829,-0,0,0.00077021,3.92697e-05,0,-27,-0.531586,0,-25.2451,-1.82735,0.748
-0.5036,-0.503697,0.144199,0.140829,-0,0,0.000778177,2.61798e-05,0,-27,-0.531586,0,-25.2683,-1.87999,0.752
-0.5036,-0.503697,0.144202,0.14083,-0,0,0.000786181,4.62441e-05,0,-27,-0.531586,0,-25.2892,-1.84984,0.756
-0.5036,-0.503697,0.144205,0.14083,-0,0,0.000794223,3.08294e-05,0,-27,-0.531586,0,-25.3129,-1.90848,0.76
-0.5036,-0.503697,0.144208,0.14083,-0,0,0.000802303,7.81348e-05,0,-27,-0.531586,0,-25.3317,-1.81042,0.764
-0.5036,-0.503697,0.144211,0.140831,-0,0,0.000810421,8.08808e-05,0,-27,-0.531586,0,-25.3533,-1.82385,0.768
-0.5036,-0.503697,0.144215,0.140831,-0,0,0.000818576,0.000111502,0,-27,-0.531586,0,-25.3725,-1.76769,0.772
-0.5036,-0.503697,0.144218,0.140831,-0,0,0.000826769,4.5544e-05,0,-27,-0.531586,0,-25.3998,-1.95306,0.776
-0.5036,-0.503697,0.144221,0.140832,-0,0,0.000835,0.000116735,0,-27,-0.531586,0,-25.417,-1.79566,0.78
-0.5036,-0.503697,0.144224,0.140832,-0,0,0.000843268,7.78236e-05,0,-27,-0.531586,0,-25.4421,-1.91361,0.784
-0.5036,-0.503697,0.144228,0.140833,-0,0,0.000851574,8.06733e-05,0,-27,-0.531586,0,-25.465,-1.92725,0.788
-0.5036,-0.503697,0.144231,0.140833,-0,0,0.000859916,8.25732e-05,0,-27,-0.531586,0,-25.4881,-1.94336,0.792
-0.5036,-0.503697,0.144235,0.140833,-0,0,0.000868297,8.38397e-05,0,-27,-0.531586,0,-25.5114,-1.96114,0.796
-0.5036,-0.503697,0.144238,0.140834,-0,0,0.000876714,8.46841e-05,0,-27,-0.531586,0,-25.535,-1.98008,0.8
-0.5036,-0.503697,0.144242,0.140834,-0,0,0.000885169,8.5247e-05,0,-27,-0.531586,0,-25.5588,-1.99981,0.804
-0.5036,-0.503697,0.144245,0.140834,-0,0,0.000893662,2.80404e-05,0,-27,-0.531586,0,-25.5881,-2.16405,0.808
-0.5036,-0.503697,0.144249,0.140835,-0,0,0.000902191,0.000105066,0,-27,-0.531586,0,-25.6072,-1.99281,0.812
-0.5036,-0.503697,0.144253,0.140835,-0,0,0.000910757,9.88352e-05,0,-27,-0.531586,0,-25.6318,-2.02981,0.816
-0.5036,-0.503697,0.144256,0.140835,-0,0,0.000919361,9.4681e-05,0,-27,-0.531586,0,-25.6567,-2.0617,0.82
-0.5036,-0.503697,0.14426,0.140836,-0,0,0.000928002,0.000120703,0,-27,-0.531586,0,-25.6792,-2.01825,0.824
-0.5036,-0.503697,0.144264,0.140837,-0,0,0.000936679,0.00013805,0,-27,-0.531586,0,-25.702,-1.99657,0.828
-0.5036,-0.503697,0.144267,0.140837,-0,0,0.000945394,0.000120824,0,-27,-0.531586,0,-25.7277,-2.06142,0.832
-0.5036,-0.503697,0.144271,0.140838,-0,0,0.000954145,0.000138131,0,-27,-0.531586,0,-25.751,-2.04003,0.836
-0.5036,-0.503697,0.144275,0.140838,-0,0,0.000962934,0.000120879,0,-27,-0.531586,0,-25.7771,-2.10514,0.84
-0.5036,-0.503697,0.144279,0.140838,-0,0,0.000971759,0.000109377,0,-27,-0.531586,0,-25.8036,-2.15596,0.844
-0.5036,-0.503697,0.144283,0.140838,-0,0,0.000980621,7.29178e-05,0,-28,-0.531586,0,-25.8329,-2.26926,0.848
-0.5036,-0.503697,0.144287,0.140839,-0,0,0.000989519,7.74028e-05,0,-28,-0.531586,0,-25.8598,-2.28029,0.852
-0.5036,-0.503697,0.144291,0.140839,-0,0,0.000998455,8.03928e-05,0,-28,-0.531586,0,-25.887,-2.29515,0.856
-0.5036,-0.503697,0.144295,0.14084,-0,0,0.00100743,0.000111177,0,-28,-0.531586,0,-25.9119,-2.24062,0.86
-0.5036,-0.503697,0.144299,0.140841,-0,0,0.00101643,0.000160491,0,-28,-0.531586,0,-25.9345,-2.13986,0.864
-0.5036,-0.503697,0.144303,0.140842,-0,0,0.00102548,0.000193367,0,-28,-0.531586,0,-25.9574,-2.08028,0.868
-0.5036,-0.503697,0.144307,0.140844,-0,-5.75818e-05,0.00103456,0.000272866,0,-27,-0.535387,-0.201536,-25.9753,-1.90424,0.872
-0.5036,-0.503697,0.144311,0.140844,-0,1.91939e-05,0.00104368,0.000239492,0,-28,-0.531586,0.0671788,-26.0013,-2.01047,0.876
-0.5036,-0.503697,0.144315,0.140846,-0,1.2796e-05,0.00105283,0.000274825,0,-27,-0.531586,0.0447859,-26.0224,-1.94502,0.88
-0.5036,-0.503697,0.14432,0.140848,-0,8.53064e-06,0.00106202,0.000355962,0,-27,-0.531586,0.0298573,-26.0386,-1.76515,0.884
-0.5036,-0.503697,0.144324,0.140849,-0,5.6871e-06,0.00107125,0.000381263,0,-27,-0.531586,0.0199048,-26.0576,-1.72497,0.888
-0.5036,-0.503697,0.144328,0.140851,-0,3.7914e-06,0.00108051,0.000340548,0,-27,-0.531586,0.0132699,-26.0821,-1.84991,0.892
-0.5036,-0.503697,0.144332,0.140853,-0,2.5276e-06,0.00108981,0.000399778,0,-27,-0.531586,0.00884659,-26.0991,-1.72509,0.896
-0.5036,-0.503697,0.144337,0.140855,-0,1.68507e-06,0.00109915,0.000496846,0,-27,-0.531586,0.00589773,-26.1112,-1.50576,0.9
-0.5036,-0.503697,0.144341,0.140858,-0,1.12338e-06,0.00110852,0.000532767,0,-27,-0.531586,0.00393182,-26.1262,-1.43938,0.904
-0.5036,-0.503697,0.144346,0.140861,-0,7.48918e-07,0.00111793,0.000585505,0,-27,-0.531586,0.00262121,-26.1389,-1.33106,0.908
-0.5036,-0.503697,0.14435,0.140864,-0,4.99279e-07,0.00112737,0.000649455,0,-27,-0.531586,0.00174748,-26.1492,-1.19479,0.912
-0.5036,-0.503697,0.144355,0.140867,-0,3.32852e-07,0.00113685,0.000720879,0,-27,-0.531586,0.00116498,-26.1573,-1.03993,0.916
-0.5036,-0.503697,0.144359,0.140871,-0,-2.8569e-05,0.00114637,0.000797286,0,-27,-0.533486,-0.0999916,-26.163,-0.872699,0.92
-0.5036,-0.503697,0.144364,0.140875,-0,9.74491e-06,0.00115592,0.000877015,0,-26,-0.531586,0.0341072,-26.1665,-0.697255,0.924
-0.5036,-0.503697,0.144369,0.140879,-0,6.49661e-06,0.0011655,0.000930168,0,-26,-0.531586,0.0227381,-26.1702,-0.588341,0.928
-0.5036,-0.503697,0.144373,0.140883,-0,4.33107e-06,0.00117513,0.000908021,0,-26,-0.531586,0.0151587,-26.1794,-0.667765,0.932
-0.5036,-0.503697,0.144378,0.140886,-0,2.88738e-06,0.00118479,0.000893257,0,-26,-0.531586,0.0101058,-26.1889,-0.728823,0.936
-0.5036,-0.503697,0.144383,0.14089,-0,1.92492e-06,0.00119448,0.000883414,0,-26,-0.531586,0.00673722,-26.1987,-0.777666,0.94
-0.5036,-0.503697,0.144387,0.140893,-0,1.28328e-06,0.00120421,0.000848061,0,-27,-0.531586,0.00449148,-26.2113,-0.890373,0.944
-0.5036,-0.503697,0.144392,0.140896,-0,8.5552e-07,0.00121398,0.000882074,0,-27,-0.531586,0.00299432,-26.2191,-0.829753,0.948
-0.5036,-0.503697,0.144397,0.1409,-0,5.70347e-07,0.00122378,0.000875959,0,-27,-0.531586,0.00199621,-26.2298,-0.869544,0.952
-0.5036,-0.503697,0.144402,0.140903,-0,-2.84107e-05,0.00123361,0.000843091,0,-27,-0.533486,-0.0994374,-26.2433,-0.976305,0.956
-0.5036,-0.503697,0.144407,0.140906,-0,9.85046e-06,0.00124348,0.00084997,0,-27,-0.531586,0.0344766,-26.2545,-0.983787,0.96
-0.5036,-0.503697,0.144412,0.14091,-0,6.56697e-06,0.00125339,0.000825765,0,-27,-0.531586,0.0229844,-26.2687,-1.06907,0.964
-0.5036,-0.503697,0.144417,0.140913,-0,4.37798e-06,0.00126333,0.000809628,0,-27,-0.531586,0.0153229,-26.2831,-1.13427,0.968
-0.5036,-0.503697,0.144422,0.140915,-0,2.91866e-06,0.00127331,0.000741289,0,-27,-0.531586,0.0102153,-26.303,-1.33006,0.972
-0.5036,-0.503697,0.144427,0.140918,-0,1.94577e-06,0.00128333,0.000753311,0,-27,-0.531586,0.0068102,-26.318,-1.32504,0.976
-0.5036,-0.503697,0.144432,0.140921,-0,1.29718e-06,0.00129337,0.000703744,0,-27,-0.531586,0.00454013,-26.3386,-1.47408,0.98
-0.5036,-0.503697,0.144438,0.140923,-0,8.64787e-07,0.00130346,0.000641908,0,-28,-0.531586,0.00302675,-26.362,-1.65387,0.984
-0.5036,-0.503697,0.144443,0.140924,-0,5.76525e-07,0.00131358,0.000571893,0,-28,-0.531586,0.00201784,-26.3883,-1.85421,0.988
-0.5036,-0.503697,0.144448,0.140926,-0,3.8435e-07,0.00132373,0.000496426,0,-28,-0.531586,0.00134522,-26.4175,-2.06826,0.992
-0.5036,-0.503697,0.144453,0.140927,-0,2.56233e-07,0.00133392,0.000446114,0,-28,-0.531586,0.000896816,-26.447,-2.21951,0.996
-0.5036,-0.503697,0.144459,0.140928,-0,1.70822e-07,0.00134414,0.0003262,0,-29,-0.531586,0.000597877,-26.4845,-2.54485,1
-0.5036,-0.503697,0.144464,0.140928,-0,1.13881e-07,0.0013544,0.000275049,0,-29,-0.531586,0.000398585,-26.5198,-2.69838,1.004
-0.5036,-0.503697,0.14447,0.140929,-0,7.59209e-08,0.00136469,0.000212157,0,-29,-0.531586,0.000265723,-26.558,-2.88134,1.008
-0.5036,-0.503697,0.144475,0.140929,-0,5.0614e-08,0.00137502,0.000170229,0,-29,-0.531586,0.000177149,-26.5965,-3.01198,1.012
-0.5036,-0.503697,0.144481,0.140929,-0,3.37426e-08,0.00138538,8.46949e-05,0,-29,-0.531586,0.000118099,-26.6405,-3.25172,1.016
-0.5036,-0.503697,0.144486,0.140929,-0,2.24951e-08,0.00139578,0.000114045,0,-29,-0.531586,7.87328e-05,-26.6771,-3.20434,1.02
-0.5036,-0.503697,0.144492,0.140929,-0,1.49967e-08,0.00140622,7.60301e-05,0,-30,-0.531586,5.24885e-05,-26.7191,-3.32546,1.024
-0.5036,-0.503697,0.144497,0.140929,-0,9.99782e-09,0.00141668,5.06867e-05,0,-30,-0.531586,3.49924e-05,-26.7614,-3.41499,1.028
-0.5036,-0.503697,0.144503,0.14093,-0,6.66521e-09,0.00142718,6.25821e-05,0,-30,-0.531586,2.33282e-05,-26.8015,-3.4115,1.032
-0.5036,-0.503697,0.144509,0.14093,-0,4.44347e-09,0.00143772,9.93032e-05,0,-30,-0.531586,1.55522e-05,-26.8393,-3.34604,1.036
-0.5036,-0.503697,0.144515,0.14093,-0,2.96232e-09,0.00144829,6.62022e-05,0,-30,-0.531586,1.03681e-05,-26.8826,-3.45522,1.04
-0.5036,-0.503697,0.14452,0.14093,-0,1.97488e-09,0.0014589,1.53438e-05,0,-30,-0.531586,6.91207e-06,-26.9288,-3.60888,1.044
-0.5036,-0.503697,0.144526,0.140931,-0,1.31659e-09,0.00146954,9.6602e-05,0,-30,-0.531586,4.60805e-06,-26.9649,-3.43233,1.048
-0.5036,-0.503697,0.144532,0.140931,-0,8.77723e-10,0.00148021,6.44013e-05,0,-30,-0.531586,3.07203e-06,-27.0092,-3.53952,1.052
-0.5036,-0.503697,0.144538,0.140931,-0,5.85149e-10,0.00149092,7.17251e-05,0,-30,-0.531586,2.04802e-06,-27.0512,-3.54798,1.056
-0.5036,-0.503697,0.144544,0.140932,-0,3.90099e-10,0.00150166,7.66077e-05,0,-30,-0.531586,1.36535e-06,-27.0935,-3.56263,1.06
-0.5036,-0.503697,0.14455,0.140932,-0,2.60066e-10,0.00151244,7.98627e-05,0,-30,-0.531586,9.10232e-07,-27.1361,-3.58143,1.064
-0.5036,-0.503697,0.144556,0.140932,-0,1.73377e-10,0.00152325,8.20327e-05,0,-30,-0.531586,6.06821e-07,-27.179,-3.60304,1.068
-0.5036,-0.503697,0.144562,0.140933,-0,1.15585e-10,0.00153409,8.34794e-05,0,-30,-0.531586,4.04547e-07,-27.2223,-3.62653,1.072
-0.5036,-0.503697,0.144569,0.140933,-0,7.70566e-11,0.00154497,0.000113235,0,-30,-0.531586,2.69698e-07,-27.2633,-3.57934,1.076
-0.5036,-0.503697,0.144575,0.140933,-0,5.13711e-11,0.00155588,4.66989e-05,0,-31,-0.531586,1.79799e-07,-27.3124,-3.77296,1.08
-0.5036,-0.503697,0.144581,0.140934,-0,3.42474e-11,0.00156683,8.87145e-05,0,-31,-0.531586,1.19866e-07,-27.354,-3.69529,1.084
-0.5036,-0.503697,0.144587,0.140933,-0,2.28316e-11,0.00157781,3.03521e-05,0,-31,-0.531586,7.99106e-08,-27.4038,-3.86865,1.088
-0.5036,-0.503697,0.144594,0.140934,-0,1.52211e-11,0.00158883,0.000106607,0,-31,-0.531586,5.32737e-08,-27.4435,-3.70555,1.092
-0.5036,-0.503697,0.1446,0.140934,-0,1.01474e-11,0.00159988,7.10717e-05,0,-31,-0.531586,3.55158e-08,-27.4914,-3.82201,1.096
-0.5036,-0.503697,0.144606,0.140935,-0,6.76492e-12,0.00161096,7.6172e-05,0,-31,-0.531586,2.36772e-08,-27.5369,-3.83697,1.1
-0.5036,-0.503697,0.144613,0.140935,-0,4.50995e-12,0.00162208,0.000108363,0,-31,-0.531586,1.57848e-08,-27.5803,-3.78428,1.104
-0.5036,-0.503697,0.144619,0.140936,-0,3.00663e-12,0.00163323,0.000129824,0,-31,-0.531586,1.05232e-08,-27.6239,-3.7585,1.108
-0.5036,-0.503697,0.144626,0.140937,-0,2.00442e-12,0.00164441,0.000144131,0,-31,-0.531586,7.01547e-09,-27.6679,-3.75069,1.112
-0.5036,-0.503697,0.144633,0.140938,-0,1.33628e-12,0.00165563,0.000153669,0,-31,-0.531586,4.67698e-09,-27.7122,-3.75489,1.116
-0.5036,-0.503697,0.144639,0.140939,-0,8.90853e-13,0.00166688,0.00021761,0,-31,-0.531586,3.11799e-09,-27.7517,-3.62317,1.12
-0.5036,-0.503697,0.144646,0.140939,-0,5.93902e-13,0.00167816,0.000145073,0,-31,-0.531586,2.07866e-09,-27.8018,-3.83272,1.124
-0.5036,-0.503697,0.144653,0.14094,-0,3.95935e-13,0.00168948,0.000154297,0,-31,-0.531586,1.38577e-09,-27.8472,-3.83795,1.128
-0.5036,-0.503697,0.144659,0.14094,-0,2.63957e-13,0.00170083,0.000160447,0,-31,-0.531586,9.23848e-10,-27.8929,-3.85096,1.132
-0.5036,-0.503697,0.144666,0.140941,-0,1.75971e-13,0.00171221,0.000135755,0,-31,-0.531586,6.15899e-10,-27.9415,-3.94115,1.136
-0.5036,-0.503697,0.144673,0.140942,-0,1.17314e-13,0.00172363,0.000176876,0,-31,-0.531586,4.10599e-10,-27.9852,-3.86689,1.14
-0.5036,-0.503697,0.14468,0.140942,-0,7.82094e-14,0.00173508,0.000117918,0,-32,-0.531586,2.73733e-10,-28.0371,-4.04292,1.144
-0.5036,-0.503697,0.144687,0.140942,-0,5.21396e-14,0.00174657,7.86117e-05,0,-32,-0.531586,1.82488e-10,-28.0893,-4.16989,1.148
-0.5036,-0.503697,0.144694,0.140942,-0,3.47597e-14,0.00175809,8.11987e-05,0,-32,-0.531586,1.21659e-10,-28.1393,-4.19222,1.152
-0.5036,-0.503697,0.144701,0.140942,-0,2.31731e-14,0.00176964,5.41325e-05,0,-32,-0.531586,8.1106e-11,-28.1922,-4.28876,1.156
-0.5036,-0.503697,0.144708,0.140942,-0,1.54488e-14,0.00178122,3.60883e-05,0,-32,-0.531586,5.40707e-11,-28.2455,-4.36283,1.16
-0.5036,-0.503697,0.144715,0.140942,-0,1.02992e-14,0.00179284,5.28498e-05,0,-32,-0.531586,3.60471e-11,-28.2965,-4.34997,1.164
-0.5036,-0.503697,0.144722,0.140943,-0,6.86612e-15,0.00180449,6.40241e-05,0,-32,-0.531586,2.40314e-11,-28.3479,-4.35116,1.168
-0.5036,-0.503697,0.14473,0.140943,-0,4.57741e-15,0.00181617,0.000100265,0,-32,-0.531586,1.60209e-11,-28.397,-4.28977,1.172
-0.5036,-0.503697,0.144737,0.140945,-0,3.05161e-15,0.00182789,0.000182007,0,-32,-0.531586,1.06806e-11,-28.4413,-4.1147,1.176
-0.5036,-0.503697,0.144744,0.140946,-0,2.0344e-15,0.00183964,0.000207711,0,-32,-0.531586,7.12042e-12,-28.4885,-4.07981,1.18
-0.5036,-0.503697,0.144752,0.140947,-0,1.35627e-15,0.00185142,0.000253637,0,-32,-0.531586,4.74694e-12,-28.5335,-3.99445,1.184
-0.5036,-0.503697,0.144759,0.140948,-0,9.0418e-16,0.00186323,0.000255464,0,-32,-0.531586,3.16463e-12,-28.5815,-4.01942,1.188
-0.5036,-0.503697,0.144767,0.14095,-0,6.02787e-16,0.00187508,0.000343055,0,-32,-0.531586,2.10975e-12,-28.622,-3.83006,1.192
-0.5036,-0.503697,0.144774,0.140951,-0,4.01858e-16,0.00188696,0.000315076,0,-32,-0.531586,1.4065e-12,-28.6707,-3.92971,1.196
-0.5036,-0.503697,0.144782,0.140953,-0,2.67905e-16,0.00189887,0.000382796,0,-32,-0.531586,9.37668e-13,-28.7119,-3.79019,1.2
-0.5036,-0.503697,0.144789,0.140954,-0,1.78603e-16,0.00191082,0.00034157,0,-32,-0.531586,6.25112e-13,-28.7613,-3.92312,1.204
-0.5036,-0.503697,0.144797,0.140956,-0,1.19069e-16,0.00192279,0.000371668,0,-32,-0.531586,4.16741e-13,-28.8058,-3.87782,1.208
-0.5036,-0.503697,0.144805,0.140958,-0,7.93793e-17,0.0019348,0.000362942,0,-32,-0.531586,2.77828e-13,-28.8533,-3.92966,1.212
-0.5036,-0.503697,0.144812,0.140959,-0,5.29195e-17,0.00194685,0.000357125,0,-32,-0.531586,1.85218e-13,-28.9012,-3.9743,1.216
-0.5036,-0.503697,0.14482,0.140961,-0,3.52797e-17,0.00195892,0.000382038,0,-32,-0.531586,1.23479e-13,-28.9468,-3.94221,1.22
-0.5036,-0.503697,0.144828,0.140962,-0,2.35198e-17,0.00197103,0.000398647,0,-32,-0.531586,8.23193e-14,-28.9928,-3.93096,1.224
-0.5036,-0.503697,0.144836,0.140964,-0,1.56799e-17,0.00198317,0.000380928,0,-33,-0.531586,5.48795e-14,-29.0418,-4.0056,1.228
-0.5036,-0.503697,0.144844,0.140967,-0,1.04532e-17,0.00199534,0.00048428,0,-32,-0.531586,3.65863e-14,-29.0807,-3.77765,1.232
-0.5036,-0.503697,0.144852,0.140969,-0,6.96883e-18,0.00200755,0.000495599,0,-32,-0.531586,2.43909e-14,-29.1252,-3.77987,1.236
-0.5036,-0.503697,0.14486,0.140971,-0,4.64589e-18,0.00201978,0.000560726,0,-32,-0.531586,1.62606e-14,-29.1649,-3.64764,1.24
-0.5036,-0.503697,0.144868,0.140974,-0,3.09726e-18,0.00203205,0.000604145,0,-32,-0.531586,1.08404e-14,-29.2049,-3.56976,1.244
-0.5036,-0.503697,0.144876,0.140978,-0,2.06484e-18,0.00204435,0.000719464,0,-32,-0.531586,7.22693e-15,-29.2376,-3.31222,1.248
-0.5036,-0.503697,0.144885,0.140981,-0,1.37656e-18,0.00205668,0.00070997,0,-32,-0.531586,4.81796e-15,-29.2784,-3.36679,1.252
-0.5036,-0.503697,0.144893,0.140985,-0,9.17706e-19,0.00206905,0.000790013,0,-32,-0.531586,3.21197e-15,-29.3117,-3.19759,1.256
-0.5036,-0.503697,0.144901,0.140989,-0,6.11804e-19,0.00208145,0.000900958,0,-32,-0.531586,2.14131e-15,-29.3403,-2.95122,1.26
-0.5036,-0.503697,0.144909,0.140994,-0,4.07869e-19,0.00209387,0.0010325,0,-32,-0.531586,1.42754e-15,-29.3641,-2.65343,1.264
-0.5036,-0.503697,0.144918,0.141,-0,2.71913e-19,0.00210633,0.00117778,0,-31,-0.531586,9.51695e-16,-29.383,-2.32139,1.268
-0.5036,-0.503697,0.144926,0.141007,-0,1.81275e-19,0.00211883,0.00133221,0,-31,-0.531586,6.34463e-16,-29.3972,-1.96653,1.272
-0.5036,-0.503697,0.144935,0.141014,-0,1.2085e-19,0.00213135,0.00149275,0,-31,-0.531586,4.22975e-16,-29.4065,-1.5965,1.276
-0.5036,-0.503697,0.144943,0.14102,-0,8.05668e-20,0.00214391,0.0015134,0,-31,-0.531586,2.81984e-16,-29.424,-1.57625,1.28
-0.5036,-0.503697,0.144952,0.141026,-0,5.37112e-20,0.00215649,0.00149838,0,-31,-0.531586,1.87989e-16,-29.4445,-1.64528,1.284
-0.5036,-0.503697,0.144961,0.141032,-0,3.58074e-20,0.00216911,0.00148837,0,-31,-0.531586,1.25326e-16,-29.4653,-1.70187,1.288
-0.5036,-0.503697,0.144969,0.141037,-0,2.38716e-20,0.00218176,0.0014529,0,-31,-0.531586,8.35507e-17,-29.4891,-1.82216,1.292
-0.5036,-0.503697,0.144978,0.141043,-0,1.59144e-20,0.00219445,0.00142925,0,-31,-0.531586,5.57005e-17,-29.5133,-1.91298,1.296
-0.5036,-0.503697,0.144987,0.141047,-0,1.06096e-20,0.00220716,0.00132712,0,-31,-0.531586,3.71337e-17,-29.5456,-2.2001,1.3
-0.5036,-0.503697,0.144996,0.141051,-0,7.07308e-21,0.00221991,0.00117265,0,-32,-0.531586,2.47558e-17,-29.5861,-2.61813,1.304
-0.5036,-0.503697,0.145005,0.141055,-0,4.71538e-21,0.00223268,0.00109847,0,-32,-0.531586,1.65038e-17,-29.6244,-2.83553,1.308
-0.5036,-0.503697,0.145014,0.141058,-0,3.14359e-21,0.00224549,0.00102022,0,-32,-0.531586,1.10026e-17,-29.6657,-3.06317,1.312
-0.5036,-0.503697,0.145023,0.141061,-0,2.09573e-21,0.00225833,0.000939267,0,-33,-0.531586,7.33504e-18,-29.7099,-3.29766,1.316
-0.5036,-0.503697,0.145032,0.141065,-0,1.39715e-21,0.0022712,0.000914087,0,-33,-0.531586,4.89003e-18,-29.7519,-3.39278,1.32
-0.5036,-0.503697,0.145041,0.141068,-0,9.31434e-22,0.0022841,0.000897301,0,-33,-0.531586,3.26002e-18,-29.7943,-3.467,1.324
-0.5036,-0.503697,0.14505,0.141072,-0,6.20956e-22,0.00229704,0.000914901,0,-33,-0.531586,2.17335e-18,-29.8346,-3.45534,1.328
-0.5036,-0.503697,0.145059,0.141076,-0,4.13971e-22,0.00231,0.000984216,0,-33,-0.531586,1.4489e-18,-29.87,-3.31446,1.332
-0.5036,-0.503697,0.145068,0.141081,-0,2.7598e-22,0.00232299,0.00103043,0,-33,-0.531586,9.65931e-19,-29.9058,-3.23142,1.336
-0.5036,-0.503697,0.145078,0.141085,-0,1.83987e-22,0.00233602,0.00103244,0,-33,-0.531586,6.43954e-19,-29.9446,-3.25895,1.34
-0.5036,-0.503697,0.145087,0.14109,-0,1.22658e-22,0.00234908,0.00112016,0,-33,-0.531586,4.29303e-19,-29.976,-3.0723,1.344
-0.5036,-0.503697,0.145096,0.141096,-0,8.1772e-23,0.00236217,0.00126501,0,-32,-0.531586,2.86202e-19,-30,-2.74289,1.348
-0.5036,-0.503697,0.145106,0.141103,-0,5.45147e-23,0.00237529,0.00139037,0,-32,-0.531586,1.90801e-19,-30.0218,-2.4623,1.352
-0.5036,-0.503697,0.145115,0.141111,-0,3.63431e-23,0.00238844,0.00156031,0,-32,-0.531586,1.27201e-19,-30.0363,-2.07031,1.356
-0.5036,-0.503697,0.145125,0.141119,-0,2.42287e-23,0.00240162,0.0017024,0,-31,-0.531586,8.48006e-20,-30.0485,-1.74804,1.36
-0.5036,-0.503697,0.145135,0.141127,-0,1.61525e-23,0.00241483,0.00185471,0,-31,-0.531586,5.65337e-20,-30.056,-1.40031,1.364
-0.5036,-0.503697,0.145144,0.141136,-0,1.07683e-23,0.00242807,0.00198503,0,-31,-0.531586,3.76891e-20,-30.0613,-1.10759,1.368
-0.5036,-0.503697,0.145154,0.141145,-0,7.17888e-24,0.00244134,0.00204313,0,-31,-0.531586,2.51261e-20,-30.0695,-0.995536,1.372
-0.5036,-0.503697,0.145164,0.141153,-0,4.78592e-24,0.00245465,0.00202428,0,-31,-0.531586,1.67507e-20,-30.0834,-1.07592,1.376
-0.5036,-0.503697,0.145174,0.141159,-0,3.19062e-24,0.00246798,0.00189655,0,-31,-0.531586,1.11672e-20,-30.108,-1.42859,1.38
-0.5036,-0.503697,0.145184,0.141165,-0,2.12708e-24,0.00248135,0.00175381,0,-31,-0.531586,7.44477e-21,-30.1382,-1.81884,1.384
-0.5036,-0.503697,0.145194,0.14117,-0,1.41805e-24,0.00249474,0.00157228,0,-32,-0.531586,4.96318e-21,-30.1765,-2.30616,1.388
-0.5036,-0.503697,0.145204,0.141175,-0,9.45367e-25,0.00250817,0.00142247,0,-32,-0.531586,3.30879e-21,-30.2179,-2.71425,1.392
-0.5036,-0.503697,0.145214,0.141178,-0,6.30245e-25,0.00252162,0.00126501,0,-33,-0.531586,2.20586e-21,-30.2648,-3.14153,1.396
-0.5036,-0.503697,0.145224,0.141182,-0,4.20163e-25,0.00253511,0.00116004,0,-33,-0.531586,1.47057e-21,-30.3122,-3.43767,1.4
-0.5036,-0.503697,0.145234,0.141185,-0,2.80109e-25,0.00254863,0.00103248,0,-34,-0.531586,9.80381e-22,-30.3651,-3.79037,1.404
-0.5036,-0.503697,0.145244,0.141189,-0,1.86739e-25,0.00256218,0.000976229,0,-34,-0.531586,6.53587e-22,-30.4159,-3.96487,1.408
-0.5036,-0.503697,0.145254,0.141193,-0,1.24493e-25,0.00257575,0.000967519,0,-34,-0.531586,4.35725e-22,-30.4644,-4.02058,1.412
-0.5036,-0.503697,0.145265,0.141196,-0,8.29952e-26,0.00258936,0.000932922,0,-34,-0.531586,2.90483e-22,-30.516,-4.1411,1.416
-0.5036,-0.503697,0.145275,0.1412,-0,5.53301e-26,0.002603,0.000967439,0,-34,-0.531586,1.93656e-22,-30.5628,-4.0889,1.42
-0.5036,-0.503697,0.145286,0.141206,-0,3.68868e-26,0.00261667,0.00110561,0,-34,-0.531586,1.29104e-22,-30.5996,-3.77763,1.424
-0.5036,-0.503697,0.145296,0.141211,-0,2.45912e-26,0.00263036,0.00116894,0,-34,-0.531586,8.60691e-23,-30.6395,-3.65356,1.428
-0.5036,-0.503697,0.145307,0.141217,-0,1.63941e-26,0.00264409,0.00132632,0,-33,-0.531586,5.73794e-23,-30.6694,-3.29443,1.432
-0.5036,-0.503697,0.145317,0.141224,-0,1.09294e-26,0.00265785,0.00140245,0,-33,-0.531586,3.82529e-23,-30.7023,-3.1385,1.436
-0.5036,-0.503697,0.145328,0.14123,-0,7.28627e-27,0.00267164,0.00148199,0,-33,-0.531586,2.5502e-23,-30.733,-2.97411,1.44
-0.5036,-0.503697,0.145339,0.141237,-0,4.85752e-27,0.00268546,0.00153502,0,-33,-0.531586,1.70013e-23,-30.7641,-2.87608,1.444
-0.5036,-0.503697,0.145349,0.141243,-0,3.23834e-27,0.0026993,0.0015128,0,-33,-0.531586,1.13342e-23,-30.8008,-2.96627,1.448
-0.5036,-0.503697,0.14536,0.141249,-0,2.1589e-27,0.00271318,0.00155556,0,-33,-0.531586,7.55614e-24,-30.8328,-2.89406,1.452
-0.5036,-0.503697,0.145371,0.141255,-0,1.43926e-27,0.00272709,0.00152648,0,-33,-0.531586,5.03742e-24,-30.8703,-3.00151,1.456
-0.5036,-0.503697,0.145382,0.14126,-0,9.59509e-28,0.00274103,0.00142073,0,-34,-0.531586,3.35828e-24,-30.9161,-3.30074,1.46
-0.5036,-0.503697,0.145393,0.141265,-0,6.39673e-28,0.00275499,0.00137902,0,-34,-0.531586,2.23886e-24,-30.9596,-3.43994,1.464
-0.5036,-0.503697,0.145404,0.14127,-0,4.26449e-28,0.00276899,0.00135121,0,-34,-0.531586,1.49257e-24,-31.0036,-3.54445,1.468
-0.5036,-0.503697,0.145415,0.141276,-0,2.84299e-28,0.00278301,0.00136146,0,-34,-0.531586,9.95047e-25,-31.0454,-3.55388,1.472
-0.5036,-0.503697,0.145426,0.14128,-0,1.89533e-28,0.00279707,0.00125313,0,-34,-0.531586,6.63365e-25,-31.0981,-3.85984,1.476
-0.5036,-0.503697,0.145438,0.141285,-0,1.26355e-28,0.00281115,0.00123849,0,-35,-0.531586,4.42243e-25,-31.1459,-3.93165,1.48
-0.5036,-0.503697,0.145449,0.141288,-0,8.42368e-29,0.00282527,0.00111357,0,-35,-0.531586,2.94829e-25,-31.2045,-4.27924,1.484
-0.5036,-0.503697,0.14546,0.141293,-0,5.61578e-29,0.00283941,0.00114545,0,-35,-0.531586,1.96552e-25,-31.2532,-4.23489,1.488
-0.5036,-0.503697,0.145472,0.141297,-0,3.74386e-29,0.00285358,0.00110913,0,-35,-0.531586,1.31035e-25,-31.3075,-4.36114,1.492
-0.5036,-0.503697,0.145483,0.141302,-0,2.4959e-29,0.00286779,0.0011137,0,-35,-0.531586,8.73566e-26,-31.3597,-4.38522,1.496
-0.5036,-0.503697,0.145495,0.141307,-0,1.66394e-29,0.00288202,0.00114554,0,-35,-0.531586,5.82378e-26,-31.4096,-4.3412,1.5
-0.5036,-0.503697,0.145506,0.141311,-0,1.10929e-29,0.00289628,0.00116677,0,-35,-0.531586,3.88252e-26,-31.46,-4.32378,1.504
-0.5036,-0.503697,0.145518,0.141317,-0,7.39527e-30,0.00291057,0.0012385,0,-35,-0.531586,2.58835e-26,-31.5057,-4.18017,1.508
-0.5036,-0.503697,0.145529,0.141323,-0,4.93018e-30,0.00292489,0.00137269,0,-35,-0.531586,1.72556e-26,-31.544,-3.88049,1.512
-0.5036,-0.503697,0.145541,0.14133,-0,3.28679e-30,0.00293924,0.00149095,0,-35,-0.531586,1.15038e-26,-31.5801,-3.62072,1.516
-0.5036,-0.503697,0.145553,0.141338,-0,2.19119e-30,0.00295361,0.00159857,0,-35,-0.531586,7.66917e-27,-31.6141,-3.3876,1.52
-0.5036,-0.503697,0.145565,0.141346,-0,1.46079e-30,0.00296802,0.00178549,0,-34,-0.531586,5.11278e-27,-31.6381,-2.95632,1.524
-0.5036,-0.503697,0.145577,0.141354,-0,9.73863e-31,0.00298245,0.00182373,0,-34,-0.531586,3.40852e-27,-31.6704,-2.89682,1.528
-0.5036,-0.503697,0.145589,0.141361,-0,6.49242e-31,0.00299692,0.00182043,0,-34,-0.531586,2.27235e-27,-31.7057,-2.94123,1.532
-0.5036,-0.503697,0.145601,0.141368,-0,4.32828e-31,0.00301141,0.00178944,0,-34,-0.531586,1.5149e-27,-31.744,-3.05493,1.536
-0.5036,-0.503697,0.145613,0.141375,-0,2.88552e-31,0.00302593,0.00173999,0,-35,-0.531586,1.00993e-27,-31.7853,-3.21487,1.54
-0.5036,-0.503697,0.145625,0.14138,-0,1.92368e-31,0.00304048,0.00164944,0,-35,-0.531586,6.73288e-28,-31.8322,-3.47762,1.544
-0.5036,-0.503697,0.145637,0.141386,-0,1.28245e-31,0.00305506,0.00156028,0,-35,-0.531586,4.48859e-28,-31.8822,-3.73696,1.548
-0.5036,-0.503696,0.145649,0.141391,-0,2.87909e-05,0.00306967,0.00144326,0,-36,-0.529686,0.100768,-31.9378,-4.06603,1.552
-0.5036,-0.503697,0.145662,0.141395,-0,-9.59697e-06,0.00308431,0.00130766,0,-36,-0.531586,-0.0335894,-31.999,-4.4416,1.556
-0.5036,-0.503697,0.145674,0.141399,-0,-6.39798e-06,0.00309897,0.00121727,0,-36,-0.531586,-0.0223929,-32.0607,-4.70426,1.56
-0.5036,-0.503697,0.145686,0.141403,-0,-4.26532e-06,0.00311366,0.001157,0,-37,-0.531586,-0.0149286,-32.1228,-4.89165,1.564
-0.5036,-0.503697,0.145699,0.141407,-0,-2.84355e-06,0.00312839,0.00111683,0,-37,-0.531586,-0.00995242,-32.1853,-5.0289,1.568
-0.5036,-0.503697,0.145711,0.141412,-0,-1.8957e-06,0.00314314,0.00111883,0,-37,-0.531586,-0.00663495,-32.2457,-5.06076,1.572
-0.5036,-0.503697,0.145724,0.141416,-0,-1.2638e-06,0.00315792,0.00109138,0,-37,-0.531586,-0.0044233,-32.3091,-5.16634,1.576
-0.5036,-0.503697,0.145737,0.14142,-0,-8.42533e-07,0.00317272,0.00107308,0,-37,-0.531586,-0.00294886,-32.373,-5.24911,1.58
-0.5036,-0.503697,0.145749,0.141425,-0,-5.61689e-07,0.00318756,0.00111846,0,-37,-0.531586,-0.00196591,-32.4321,-5.17275,1.584
-0.5036,-0.503697,0.145762,0.141429,-0,-3.74459e-07,0.00320242,0.00106234,0,-37,-0.531586,-0.00131061,-32.4995,-5.35021,1.588
-0.5036,-0.503697,0.145775,0.141434,-0,-2.49639e-07,0.00321731,0.0011113,0,-37,-0.531586,-0.000873738,-32.5595,-5.26504,1.592
-0.5036,-0.503697,0.145788,0.141438,-0,-1.66426e-07,0.00323223,0.00111515,0,-37,-0.531586,-0.000582492,-32.6225,-5.29272,1.596
-0.5036,-0.503697,0.145801,0.141443,-0,-1.10951e-07,0.00324718,0.0011465,0,-37,-0.531586,-0.000388328,-32.6834,-5.2517,1.6
-0.5036,-0.503697,0.145814,0.141448,-0,-7.39672e-08,0.00326216,0.0011962,0,-37,-0.531586,-0.000258885,-32.7422,-5.1649,1.604
-0.5036,-0.503697,0.145827,0.141453,-0,-4.93115e-08,0.00327716,0.00122933,0,-37,-0.531586,-0.00017259,-32.8014,-5.11958,1.608
-0.5036,-0.503697,0.14584,0.14146,-0,-3.28743e-08,0.0032922,0.00133779,0,-37,-0.531586,-0.00011506,-32.8533,-4.88602,1.612
-0.5036,-0.503697,0.145853,0.141465,-0,-2.19162e-08,0.00330726,0.00138131,0,-37,-0.531586,-7.67067e-05,-32.9083,-4.81488,1.616
-0.5036,-0.503697,0.145867,0.141472,-0,-1.46108e-08,0.00332235,0.0014679,0,-37,-0.531586,-5.11378e-05,-32.9585,-4.63612,1.62
-0.5036,-0.503697,0.14588,0.141479,-0,-9.74054e-09,0.00333746,0.00152563,0,-37,-0.531586,-3.40919e-05,-33.0092,-4.52959,1.624
-0.5036,-0.503697,0.145893,0.141486,-0,-6.49369e-09,0.00335261,0.0015929,0,-37,-0.531586,-2.27279e-05,-33.0577,-4.39926,1.628
-0.5036,-0.503697,0.145907,0.141492,-0,-4.32913e-09,0.00336778,0.00158017,0,-37,-0.531586,-1.51519e-05,-33.1118,-4.46902,1.632
-0.5036,-0.503697,0.14592,0.141498,-0,-2.88609e-09,0.00338298,0.00160048,0,-37,-0.531586,-1.01013e-05,-33.1639,-4.45626,1.636
-0.5036,-0.503696,0.145934,0.141505,-0,2.8789e-05,0.00339821,0.0016428,0,-37,-0.529686,0.100762,-33.2138,-4.38851,1.64
-0.5036,-0.503697,0.145947,0.141512,-0,-9.59826e-06,0.00341346,0.00167102,0,-37,-0.531586,-0.0335939,-33.2641,-4.3561,1.644
-0.5036,-0.503697,0.145961,0.141519,-0,-6.39884e-06,0.00342874,0.00168983,0,-37,-0.531586,-0.0223959,-33.3149,-4.34728,1.648
-0.5036,-0.503697,0.145975,0.141526,-0,-4.26589e-06,0.00344405,0.00170237,0,-37,-0.531586,-0.0149306,-33.3662,-4.3542,1.652
-0.5036,-0.503697,0.145989,0.141533,-0,-2.84393e-06,0.00345939,0.00173952,0,-37,-0.531586,-0.00995375,-33.4153,-4.29967,1.656
-0.5036,-0.503697,0.146002,0.14154,-0,-1.89595e-06,0.00347476,0.00176429,0,-37,-0.531586,-0.00663583,-33.4649,-4.27616,1.66
-0.5036,-0.503697,0.146016,0.141548,-0,-1.26397e-06,0.00349015,0.0018096,0,-37,-0.531586,-0.00442389,-33.5124,-4.20139,1.664
-0.5036,-0.503697,0.14603,0.141556,-0,-8.42645e-07,0.00350557,0.0018398,0,-37,-0.531586,-0.00294926,-33.5603,-4.16443,1.668
-0.5036,-0.503697,0.146044,0.141563,-0,-5.61764e-07,0.00352102,0.00183114,0,-37,-0.531586,-0.00196617,-33.6113,-4.22469,1.672
-0.5036,-0.503697,0.146059,0.14157,-0,-3.74509e-07,0.00353649,0.00182537,0,-37,-0.531586,-0.00131078,-33.6628,-4.27781,1.676
-0.5036,-0.503697,0.146073,0.141578,-0,-2.49673e-07,0.003552,0.00185031,0,-37,-0.531586,-0.000873854,-33.7121,-4.25421,1.68
-0.5036,-0.503697,0.146087,0.141585,-0,-1.66448e-07,0.00356753,0.00186694,0,-38,-0.531586,-0.00058257,-33.7619,-4.25146,1.684
-0.5036,-0.503697,0.146101,0.141594,-0,-1.10966e-07,0.00358308,0.00193561,0,-37,-0.531586,-0.00038838,-33.8069,-4.11868,1.688
-0.5036,-0.503697,0.146116,0.141602,-0,-7.39771e-08,0.00359867,0.00198139,0,-37,-0.531586,-0.00025892,-33.8525,-4.04319,1.692
-0.5036,-0.503697,0.14613,0.141611,-0,-4.93181e-08,0.00361428,0.0020407,0,-37,-0.531586,-0.000172613,-33.8959,-3.93394,1.696
-0.5036,-0.503697,0.146145,0.141619,-0,-3.28787e-08,0.00362991,0.00202266,0,-37,-0.531586,-0.000115075,-33.945,-4.01814,1.7
-0.5036,-0.503697,0.146159,0.141625,-0,-2.19191e-08,0.00364558,0.00192426,0,-38,-0.531586,-7.6717e-05,-34.0023,-4.30331,1.704
-0.5036,-0.503697,0.146174,0.141631,-0,-1.46128e-08,0.00366127,0.00174349,0,-38,-0.531586,-5.11447e-05,-34.0704,-4.79445,1.708
-0.5036,-0.503697,0.146188,0.141635,-0,-9.74184e-09,0.00367699,0.00153661,0,-39,-0.531586,-3.40964e-05,-34.1468,-5.35095,1.712
-0.5036,-0.503697,0.146203,0.141639,-0,-6.49456e-09,0.00369274,0.00128353,0,-40,-0.531586,-2.2731e-05,-34.234,-6.02303,1.716
-0.5036,-0.503697,0.146218,0.141641,-0,-4.32971e-09,0.00370851,0.00102843,0,-41,-0.531586,-1.5154e-05,-34.3295,-6.7002,1.72
-0.5036,-0.503697,0.146233,0.141641,-0,-2.88647e-09,0.00372431,0.00071441,0,-41,-0.531586,-1.01026e-05,-34.4384,-7.52474,1.724
-0.5036,-0.503697,0.146248,0.141641,-0,-1.92431e-09,0.00374013,0.000476274,0,-42,-0.531586,-6.7351e-06,-34.5504,-8.15965,1.728
-0.5036,-0.503697,0.146263,0.141641,-0,-1.28288e-09,0.00375599,0.000317516,0,-43,-0.531586,-4.49007e-06,-34.6628,-8.59618,1.732
-0.5036,-0.503697,0.146278,0.141641,-0,-8.55251e-10,0.00377187,0.000211677,0,-43,-0.531586,-2.99338e-06,-34.7757,-8.90047,1.736
-0.5036,-0.503697,0.146293,0.141641,-0,-5.70167e-10,0.00378777,0.000141118,0,-44,-0.531586,-1.99558e-06,-34.8891,-9.11664,1.74
-0.5036,-0.503697,0.146308,0.141641,-0,-3.80111e-10,0.0038037,9.40787e-05,0,-44,-0.531586,-1.33039e-06,-35.003,-9.27407,1.744
-0.5036,-0.503697,0.146323,0.141641,-0,-2.53408e-10,0.00381966,6.27191e-05,0,-44,-0.531586,-8.86927e-07,-35.1173,-9.39236,1.748
-0.5036,-0.503697,0.146339,0.141641,-0,-1.68938e-10,0.00383565,4.18128e-05,0,-44,-0.531586,-5.91284e-07,-35.2322,-9.48459,1.752
-0.5036,-0.503697,0.146354,0.141641,-0,-1.12626e-10,0.00385166,5.66661e-05,0,-44,-0.531586,-3.9419e-07,-35.3449,-9.48749,1.756
-0.5036,-0.503697,0.146369,0.141641,-0,-7.50837e-11,0.0038677,3.77774e-05,0,-45,-0.531586,-2.62793e-07,-35.4607,-9.57481,1.76
-0.5036,-0.503697,0.146385,0.141641,-0,-5.00558e-11,0.00388377,2.51849e-05,0,-45,-0.531586,-1.75195e-07,-35.577,-9.64645,1.764
-0.5036,-0.503697,0.1464,0.141641,-0,-3.33706e-11,0.00389986,1.679e-05,0,-45,-0.531586,-1.16797e-07,-35.6937,-9.70767,1.768
-0.5036,-0.503697,0.146416,0.141641,-0,-2.2247e-11,0.00391597,-1.75976e-05,0,-45,-0.531586,-7.78646e-08,-35.8135,-9.83393,1.772
-0.5036,-0.503697,0.146432,0.141641,-0,-1.48314e-11,0.00393212,1.70592e-05,0,-45,-0.531586,-5.19097e-08,-35.9287,-9.78765,1.776
-0.5036,-0.503697,0.146448,0.141641,-0,-9.88757e-12,0.00394829,1.13728e-05,0,-45,-0.531586,-3.46065e-08,-36.0469,-9.84229,1.78
-0.5036,-0.503697,0.146463,0.141641,-0,-6.59171e-12,0.00396448,7.58186e-06,0,-46,-0.531586,-2.3071e-08,-36.1656,-9.89225,1.784
-0.5036,-0.503697,0.146479,0.141641,-0,-4.39448e-12,0.00398071,5.05457e-06,0,-46,-0.531586,-1.53807e-08,-36.2847,-9.93913,1.788
-0.5036,-0.503697,0.146495,0.141641,-0,-2.92965e-12,0.00399695,3.36971e-06,0,-46,-0.531586,-1.02538e-08,-36.4044,-9.98396,1.792
-0.5036,-0.503697,0.146511,0.141641,-0,-1.9531e-12,0.00401323,2.24648e-06,0,-46,-0.531586,-6.83585e-09,-36.5246,-10.0275,1.796
-0.5036,-0.503697,0.146527,0.141641,-0,-1.30207e-12,0.00402953,1.49765e-06,0,-46,-0.531586,-4.55723e-09,-36.6452,-10.0701,1.8
-0.5036,-0.503697,0.146544,0.141641,-0,-8.68045e-13,0.00404585,9.98434e-07,0,-46,-0.531586,-3.03816e-09,-36.7663,-10.1121,1.804
-0.5036,-0.503697,0.14656,0.141641,-0,-5.78696e-13,0.00406221,6.65623e-07,0,-47,-0.531586,-2.02544e-09,-36.888,-10.1539,1.808
-0.5036,-0.503697,0.146576,0.141641,-0,-3.85798e-13,0.00407858,4.43748e-07,0,-47,-0.531586,-1.35029e-09,-37.0101,-10.1954,1.812
-0.5036,-0.503697,0.146592,0.141641,-0,-2.57198e-13,0.00409499,2.95832e-07,0,-47,-0.531586,-9.00194e-10,-37.1327,-10.2367,1.816
-0.5036,-0.503697,0.146609,0.141642,-0,-1.71466e-13,0.00411142,2.89881e-05,0,-47,-0.531586,-6.0013e-10,-37.2532,-10.2061,1.82
-0.5036,-0.503697,0.146625,0.141641,-0,-1.1431e-13,0.00412787,-9.46549e-06,0,-47,-0.531586,-4.00086e-10,-37.3794,-10.3433,1.824
-0.5036,-0.503697,0.146642,0.141641,-0,-7.62069e-14,0.00414435,-6.31033e-06,0,-47,-0.531586,-2.66724e-10,-37.5034,-10.3767,1.828
-0.5036,-0.503697,0.146658,0.141641,-0,-5.08046e-14,0.00416086,-4.20689e-06,0,-48,-0.531586,-1.77816e-10,-37.628,-10.4127,1.832
-0.5036,-0.503697,0.146675,0.141641,-0,-3.38697e-14,0.00417739,-2.80459e-06,0,-48,-0.531586,-1.18544e-10,-37.7531,-10.4505,1.836
-0.5036,-0.503697,0.146692,0.141642,-0,-2.25798e-14,0.00419395,2.69212e-05,0,-48,-0.531586,-7.90294e-11,-37.8761,-10.4176,1.84
-0.5036,-0.503697,0.146709,0.141642,-0,-1.50532e-14,0.00421053,1.79475e-05,0,-48,-0.531586,-5.26863e-11,-38.0021,-10.4815,1.844
-0.5036,-0.503697,0.146726,0.141642,-0,-1.00355e-14,0.00422714,1.1965e-05,0,-48,-0.531586,-3.51242e-11,-38.1287,-10.5379,1.848
-0.5036,-0.503697,0.146742,0.141642,-0,-6.69032e-15,0.00424377,7.97665e-06,0,-48,-0.531586,-2.34161e-11,-38.2558,-10.5895,1.852
-0.5036,-0.503697,0.146759,0.141642,-0,-4.46021e-15,0.00426043,5.31777e-06,0,-49,-0.531586,-1.56107e-11,-38.3833,-10.6378,1.856
-0.5036,-0.503697,0.146777,0.141642,-0,-2.97348e-15,0.00427712,3.54518e-06,0,-49,-0.531586,-1.04072e-11,-38.5114,-10.6839,1.86
-0.5036,-0.503697,0.146794,0.141642,-0,-1.98232e-15,0.00429383,2.36345e-06,0,-49,-0.531586,-6.93811e-12,-38.64,-10.7287,1.864
-0.5036,-0.503697,0.146811,0.141642,-0,-1.32154e-15,0.00431056,1.57563e-06,0,-49,-0.531586,-4.62541e-12,-38.769,-10.7725,1.868
-0.5036,-0.503697,0.146828,0.141642,-0,-8.8103e-16,0.00432732,1.05042e-06,0,-49,-0.531586,-3.0836e-12,-38.8986,-10.8157,1.872
-0.5036,-0.503697,0.146845,0.141642,-0,-5.87353e-16,0.00434411,7.00282e-07,0,-49,-0.531586,-2.05574e-12,-39.0287,-10.8585,1.876
-0.5036,-0.503697,0.146863,0.141642,-0,-3.91569e-16,0.00436092,2.92578e-05,0,-49,-0.531586,-1.37049e-12,-39.1566,-10.8292,1.88
-0.5036,-0.503697,0.14688,0.141642,-0,-2.61046e-16,0.00437776,-9.28574e-06,0,-50,-0.531586,-9.13661e-13,-39.2903,-10.9676,1.884
-0.5036,-0.503697,0.146898,0.141642,-0,-1.74031e-16,0.00439462,-6.19049e-06,0,-50,-0.531586,-6.09107e-13,-39.4219,-11.002,1.888
-0.5036,-0.503697,0.146916,0.141642,-0,-1.1602e-16,0.0044115,-4.12699e-06,0,-50,-0.531586,-4.06071e-13,-39.554,-11.0391,1.892
-0.5036,-0.503697,0.146933,0.141642,-0,-7.73469e-17,0.00442841,2.60396e-05,0,-50,-0.531586,-2.70714e-13,-39.684,-11.0059,1.896
-0.5036,-0.503697,0.146951,0.141642,-0,-5.15646e-17,0.00444535,1.73597e-05,0,-50,-0.531586,-1.80476e-13,-39.8171,-11.07,1.9
-0.5036,-0.503697,0.146969,0.141642,-0,-3.43764e-17,0.00446231,1.15732e-05,0,-51,-0.531586,-1.20317e-13,-39.9507,-11.1268,1.904
-0.5036,-0.503697,0.146987,0.141642,-0,-2.29176e-17,0.00447929,7.71544e-06,0,-51,-0.531586,-8.02116e-14,-40.0848,-11.1789,1.908
-0.5036,-0.503697,0.147005,0.141642,-0,-1.52784e-17,0.0044963,3.39345e-05,0,-51,-0.531586,-5.34744e-14,-40.2169,-11.1559,1.912
-0.5036,-0.503697,0.147023,0.141643,-0,-1.01856e-17,0.00451334,5.1414e-05,0,-51,-0.531586,-3.56496e-14,-40.3494,-11.1548,1.916
-0.5036,-0.503697,0.147041,0.141643,-0,-6.7904e-18,0.0045304,3.4276e-05,0,-51,-0.531586,-2.37664e-14,-40.4851,-11.2403,1.92
-0.5036,-0.503697,0.147059,0.141643,-0,-4.52694e-18,0.00454748,2.28506e-05,0,-51,-0.531586,-1.58443e-14,-40.6213,-11.3116,1.924
-0.5036,-0.503697,0.147077,0.141643,-0,-3.01796e-18,0.00456459,4.40247e-05,0,-52,-0.531586,-1.05628e-14,-40.7554,-11.3014,1.928
-0.5036,-0.503697,0.147095,0.141643,-0,-2.01197e-18,0.00458172,5.81407e-05,0,-52,-0.531586,-7.0419e-15,-40.89,-11.309,1.932
-0.5036,-0.503697,0.147114,0.141643,-0,-1.34131e-18,0.00459888,3.87605e-05,0,-52,-0.531586,-4.6946e-15,-41.0277,-11.4003,1.936
-0.5036,-0.503697,0.147132,0.141644,-0,-8.94209e-19,0.00461606,8.34222e-05,0,-52,-0.531586,-3.12973e-15,-41.1607,-11.3316,1.94
-0.5036,-0.503697,0.147151,0.141644,-0,-5.9614e-19,0.00463327,8.44057e-05,0,-52,-0.531586,-2.08649e-15,-41.2969,-11.3722,1.944
-0.5036,-0.503697,0.147169,0.141645,-0,-3.97426e-19,0.0046505,8.50614e-05,0,-52,-0.531586,-1.39099e-15,-41.4335,-11.4136,1.948
-0.5036,-0.503697,0.147188,0.141645,-0,-2.64951e-19,0.00466776,8.54985e-05,0,-53,-0.531586,-9.27328e-16,-41.5707,-11.4556,1.952
-0.5036,-0.503697,0.147207,0.141645,-0,-1.76634e-19,0.00468504,5.6999e-05,0,-53,-0.531586,-6.18219e-16,-41.711,-11.5701,1.956
-0.5036,-0.503697,0.147225,0.141645,-0,-1.17756e-19,0.00470234,6.67903e-05,0,-53,-0.531586,-4.12146e-16,-41.8492,-11.5889,1.96
-0.5036,-0.503697,0.147244,0.141645,-0,-7.8504e-20,0.00471967,4.45268e-05,0,-53,-0.531586,-2.74764e-16,-41.9905,-11.6879,1.964
-0.5036,-0.503697,0.147263,0.141645,-0,-5.2336e-20,0.00473702,2.96846e-05,0,-53,-0.531586,-1.83176e-16,-42.1324,-11.7683,1.968
-0.5036,-0.503697,0.147282,0.141646,-0,-3.48907e-20,0.0047544,4.85806e-05,0,-54,-0.531586,-1.22117e-16,-42.2722,-11.7645,1.972
-0.5036,-0.503697,0.147301,0.141646,-0,-2.32604e-20,0.0047718,3.23871e-05,0,-54,-0.531586,-8.14115e-17,-42.4151,-11.8485,1.976
-0.5036,-0.503697,0.14732,0.141646,-0,-1.5507e-20,0.00478922,2.15914e-05,0,-54,-0.531586,-5.42744e-17,-42.5585,-11.9191,1.98
-0.5036,-0.503697,0.147339,0.141646,-0,-1.0338e-20,0.00480667,4.31852e-05,0,-54,-0.531586,-3.61829e-17,-42.6998,-11.9087,1.984
-0.5036,-0.503697,0.147359,0.141646,-0,-6.89198e-21,0.00482414,2.87901e-05,0,-54,-0.531586,-2.41219e-17,-42.8443,-11.9884,1.988
-0.5036,-0.503697,0.147378,0.141647,-0,-4.59465e-21,0.00484164,4.79843e-05,0,-54,-0.531586,-1.60813e-17,-42.9867,-11.9841,1.992
-0.5036,-0.503697,0.147397,0.141647,-0,-3.0631e-21,0.00485916,3.19896e-05,0,-55,-0.531586,-1.07209e-17,-43.1322,-12.0679,1.996
-0.5036,-0.503697,0.147417,0.141647,-0,-2.04207e-21,0.0048767,5.01173e-05,0,-55,-0.531586,-7.14724e-18,-43.2756,-12.0665,2
-0.5036,-0.503697,0.147436,0.141647,-0,-1.36138e-21,0.00489427,6.22025e-05,0,-55,-0.531586,-4.76483e-18,-43.4196,-12.0802,2.004
-0.5036,-0.503697,0.147456,0.141648,-0,-9.07586e-22,0.00491186,7.02592e-05,0,-55,-0.531586,-3.17655e-18,-43.5641,-12.104,2.008
-0.5036,-0.503697,0.147476,0.141648,-0,-6.05057e-22,0.00492948,7.56304e-05,0,-55,-0.531586,-2.1177e-18,-43.7091,-12.1346,2.012
-0.5036,-0.503697,0.147496,0.141649,-0,-4.03372e-22,0.00494712,0.000108002,0,-55,-0.531586,-1.4118e-18,-43.8521,-12.0978,2.016
-0.5036,-0.503697,0.147515,0.14165,-0,-2.68914e-22,0.00496478,0.000158374,0,-56,-0.531586,-9.412e-19,-43.993,-12.016,2.02
-0.5036,-0.503697,0.147535,0.14165,-0,-1.79276e-22,0.00498247,0.000105583,0,-56,-0.531586,-6.27467e-19,-44.1422,-12.1922,2.024
-0.5036,-0.503697,0.147555,0.14165,-0,-1.19518e-22,0.00500018,0.00012797,0,-56,-0.531586,-4.18311e-19,-44.2868,-12.1805,2.028
-0.5036,-0.503697,0.147575,0.141651,-0,-7.96783e-23,0.00501791,0.000114105,0,-56,-0.531586,-2.78874e-19,-44.4345,-12.2595,2.032
-0.5036,-0.503697,0.147595,0.141651,-0,-5.31189e-23,0.00503567,0.000133652,0,-56,-0.531586,-1.85916e-19,-44.5801,-12.255,2.036
-0.5036,-0.503697,0.147616,0.141652,-0,-3.54126e-23,0.00505345,0.000117892,0,-57,-0.531586,-1.23944e-19,-44.7288,-12.3389,2.04
-0.5036,-0.503697,0.147636,0.141652,-0,-2.36084e-23,0.00507125,0.000107386,0,-57,-0.531586,-8.26294e-20,-44.8781,-12.4097,2.044
-0.5036,-0.503697,0.147656,0.141652,-0,-1.57389e-23,0.00508908,0.000100381,0,-57,-0.531586,-5.50863e-20,-45.0279,-12.4717,2.048
-0.5036,-0.503697,0.147677,0.141653,-0,-1.04926e-23,0.00510693,9.57118e-05,0,-57,-0.531586,-3.67242e-20,-45.1783,-12.528,2.052
-0.5036,-0.503697,0.147697,0.141653,-0,-6.99508e-24,0.0051248,9.25988e-05,0,-57,-0.531586,-2.44828e-20,-45.3292,-12.5805,2.056
-0.5036,-0.503697,0.147718,0.141653,-0,-4.66339e-24,0.0051427,9.05234e-05,0,-58,-0.531586,-1.63219e-20,-45.4806,-12.6304,2.06
-0.5036,-0.503697,0.147738,0.141654,-0,-3.10892e-24,0.00516062,0.000146722,0,-58,-0.531586,-1.08812e-20,-45.6274,-12.5347,2.064
-0.5036,-0.503697,0.147759,0.141655,-0,-2.07262e-24,0.00517856,0.000155396,0,-58,-0.531586,-7.25416e-21,-45.7773,-12.5579,2.068
-0.5036,-0.503697,0.14778,0.141657,-0,-1.38174e-24,0.00519653,0.000218761,0,-58,-0.531586,-4.83611e-21,-45.9225,-12.4444,2.072
-0.5036,-0.503697,0.1478,0.141658,-0,-9.21163e-25,0.00521452,0.000261005,0,-58,-0.531586,-3.22407e-21,-46.0683,-12.3838,2.076
-0.5036,-0.503697,0.147821,0.141659,-0,-6.14109e-25,0.00523253,0.000289167,0,-58,-0.531586,-2.14938e-21,-46.2147,-12.3584,2.08
-0.5036,-0.503697,0.147842,0.141661,-0,-4.09406e-25,0.00525057,0.000307942,0,-58,-0.531586,-1.43292e-21,-46.3615,-12.3566,2.084
-0.5036,-0.503697,0.147863,0.141662,-0,-2.72937e-25,0.00526862,0.000349249,0,-58,-0.531586,-9.5528e-22,-46.5064,-12.2984,2.088
-0.5036,-0.503697,0.147884,0.141664,-0,-1.81958e-25,0.00528671,0.000347996,0,-59,-0.531586,-6.36853e-22,-46.6543,-12.3468,2.092
-0.5036,-0.503697,0.147906,0.141666,-0,-1.21305e-25,0.00530481,0.000404743,0,-59,-0.531586,-4.24569e-22,-46.7977,-12.2502,2.096
-0.5036,-0.503697,0.147927,0.141668,-0,-8.08703e-26,0.00532294,0.000413783,0,-59,-0.531586,-2.83046e-22,-46.9441,-12.2729,2.1
-0.5036,-0.503697,0.147948,0.141669,-0,-5.39135e-26,0.00534108,0.00041981,0,-59,-0.531586,-1.88697e-22,-47.0911,-12.3032,2.104
-0.5036,-0.503697,0.14797,0.141671,-0,-3.59423e-26,0.00535926,0.000423828,0,-59,-0.531586,-1.25798e-22,-47.2387,-12.3386,2.108
-0.5036,-0.503697,0.147991,0.141673,-0,-2.39616e-26,0.00537745,0.000426507,0,-59,-0.531586,-8.38655e-23,-47.3868,-12.3774,2.112
-0.5036,-0.503697,0.148013,0.141674,-0,-1.59744e-26,0.00539567,0.000428292,0,-59,-0.531586,-5.59103e-23,-47.5354,-12.4184,2.116
-0.5036,-0.503697,0.148034,0.141676,-0,-1.06496e-26,0.00541391,0.000400692,0,-60,-0.531586,-3.72735e-23,-47.6872,-12.533,2.12
-0.5036,-0.503697,0.148056,0.141677,-0,-7.09972e-27,0.00543217,0.000382292,0,-60,-0.531586,-2.4849e-23,-47.8395,-12.6247,2.124
-0.5036,-0.503697,0.148078,0.141679,-0,-4.73315e-27,0.00545046,0.000370025,0,-60,-0.531586,-1.6566e-23,-47.9924,-12.7011,2.128
-0.5036,-0.503697,0.148099,0.14168,-0,-3.15543e-27,0.00546876,0.000333056,0,-60,-0.531586,-1.1044e-23,-48.1484,-12.8393,2.132
-0.5036,-0.503697,0.148121,0.14168,-0,-2.10362e-27,0.00548709,0.000279619,0,-61,-0.531586,-7.36267e-24,-48.3076,-13.0187,2.136
-0.5036,-0.503697,0.148143,0.141681,-0,-1.40241e-27,0.00550545,0.000243995,0,-61,-0.531586,-4.90845e-24,-48.4673,-13.1536,2.14
-0.5036,-0.503697,0.148165,0.141682,-0,-9.34943e-28,0.00552382,0.000220245,0,-61,-0.531586,-3.2723e-24,-48.6275,-13.2589,2.144
-0.5036,-0.503697,0.148188,0.141682,-0,-6.23295e-28,0.00554222,0.000175621,0,-62,-0.531586,-2.18153e-24,-48.7909,-13.4165,2.148
-0.5036,-0.503697,0.14821,0.141683,-0,-4.1553e-28,0.00556064,0.000174662,0,-62,-0.531586,-1.45436e-24,-48.9523,-13.4649,2.152
-0.5036,-0.503697,0.148232,0.141684,-0,-2.7702e-28,0.00557908,0.000202814,0,-62,-0.531586,-9.6957e-25,-49.1116,-13.4407,2.156
-0.5036,-0.503697,0.148254,0.141685,-0,-1.8468e-28,0.00559754,0.000250373,0,-62,-0.531586,-6.4638e-25,-49.2689,-13.3679,2.16
-0.5036,-0.503697,0.148277,0.141687,-0,-1.2312e-28,0.00561603,0.000282079,0,-62,-0.531586,-4.3092e-25,-49.4267,-13.3349,2.164
-0.5036,-0.503697,0.148299,0.141689,-0,-8.208e-29,0.00563453,0.000360798,0,-62,-0.531586,-2.8728e-25,-49.5799,-13.1843,2.168
-0.5036,-0.503697,0.148322,0.14169,-0,-5.472e-29,0.00565306,0.000384487,0,-62,-0.531586,-1.9152e-25,-49.7363,-13.1714,2.172
-0.5036,-0.503697,0.148345,0.141692,-0,-3.648e-29,0.00567162,0.000371488,0,-63,-0.531586,-1.2768e-25,-49.8958,-13.2503,2.176
-0.5036,-0.503697,0.148367,0.141693,-0,-2.432e-29,0.00569019,0.000391613,0,-63,-0.531586,-8.512e-26,-50.0533,-13.2464,2.18
-0.5036,-0.503697,0.14839,0.141695,-0,-1.62133e-29,0.00570879,0.00040503,0,-63,-0.531586,-5.67467e-26,-50.2113,-13.2594,2.184
-0.5036,-0.503697,0.148413,0.141697,-0,-1.08089e-29,0.0057274,0.000385184,0,-63,-0.531586,-3.78311e-26,-50.3725,-13.3555,2.188
-0.5036,-0.503697,0.148436,0.141698,-0,-7.20593e-30,0.00574604,0.000371953,0,-63,-0.531586,-2.52207e-26,-50.5342,-13.4352,2.192
-0.5036,-0.503697,0.148459,0.1417,-0,-4.80395e-30,0.0057647,0.000391923,0,-64,-0.531586,-1.68138e-26,-50.6939,-13.432,2.196
-0.5036,-0.503697,0.148482,0.141701,-0,-3.20263e-30,0.00578339,0.000376446,0,-64,-0.531586,-1.12092e-26,-50.8568,-13.5174,2.2
-0.5036,-0.503697,0.148505,0.141702,-0,-2.13509e-30,0.00580209,0.000337337,0,-64,-0.531586,-7.47281e-27,-51.0228,-13.6619,2.204
-0.5036,-0.503697,0.148528,0.141703,-0,-1.42339e-30,0.00582082,0.000311264,0,-64,-0.531586,-4.98188e-27,-51.1894,-13.7739,2.208
-0.5036,-0.503697,0.148552,0.141704,-0,-9.48929e-31,0.00583957,0.000265091,0,-65,-0.531586,-3.32125e-27,-51.3591,-13.9362,2.212
-0.5036,-0.503697,0.148575,0.141704,-0,-6.32619e-31,0.00585833,0.000205518,0,-65,-0.531586,-2.21417e-27,-51.532,-14.132,2.216
-0.5036,-0.503697,0.148599,0.141705,-0,-4.21746e-31,0.00587713,0.000194594,0,-65,-0.531586,-1.47611e-27,-51.7028,-14.2063,2.22
-0.5036,-0.503697,0.148622,0.141705,-0,-2.81164e-31,0.00589594,0.00015852,0,-66,-0.531586,-9.84074e-28,-51.8768,-14.3435,2.224
-0.5036,-0.503697,0.148646,0.141705,-0,-1.87443e-31,0.00591477,0.00010568,0,-66,-0.531586,-6.5605e-28,-52.054,-14.5227,2.228
-0.5036,-0.503697,0.148669,0.141706,-0,-1.24962e-31,0.00593363,9.92444e-05,0,-66,-0.531586,-4.37366e-28,-52.2291,-14.586,2.232
-0.5036,-0.503697,0.148693,0.141706,-0,-8.33079e-32,0.0059525,6.61629e-05,0,-67,-0.531586,-2.91578e-28,-52.4074,-14.7159,2.236
-0.5036,-0.503697,0.148717,0.141706,-0,-5.55386e-32,0.0059714,7.28995e-05,0,-67,-0.531586,-1.94385e-28,-52.5837,-14.7463,2.24
-0.5036,-0.503697,0.148741,0.141706,-0,-3.70257e-32,0.00599032,4.85997e-05,0,-67,-0.531586,-1.2959e-28,-52.7631,-14.8543,2.244
-0.5036,-0.503697,0.148765,0.141706,-0,-2.46838e-32,0.00600926,6.11907e-05,0,-67,-0.531586,-8.63934e-29,-52.9405,-14.8702,2.248
-0.5036,-0.503697,0.148789,0.141707,-0,-1.64559e-32,0.00602823,6.95847e-05,0,-68,-0.531586,-5.75956e-29,-53.1185,-14.8966,2.252
-0.5036,-0.503697,0.148813,0.141707,-0,-1.09706e-32,0.00604721,4.63898e-05,0,-68,-0.531586,-3.8397e-29,-53.2996,-15.002,2.256
-0.5036,-0.503697,0.148837,0.141707,-0,-7.31372e-33,0.00606621,3.09266e-05,0,-68,-0.531586,-2.5598e-29,-53.4813,-15.0882,2.26
-0.5036,-0.503697,0.148862,0.141707,-0,-4.87582e-33,0.00608524,2.06177e-05,0,-68,-0.531586,-1.70654e-29,-53.6636,-15.1616,2.264
-0.5036,-0.503697,0.148886,0.141707,-0,-3.25054e-33,0.00610428,4.25361e-05,0,-68,-0.531586,-1.13769e-29,-53.8438,-15.1544,2.268
-0.5036,-0.503697,0.148911,0.141707,-0,-2.16703e-33,0.00612335,2.83574e-05,0,-69,-0.531586,-7.5846e-30,-54.0272,-15.2375,2.272
-0.5036,-0.503697,0.148935,0.141707,-0,-1.44469e-33,0.00614244,1.89049e-05,0,-69,-0.531586,-5.0564e-30,-54.2112,-15.3088,2.276
-0.5036,-0.503697,0.14896,0.141707,-0,-9.63124e-34,0.00616155,1.26033e-05,0,-69,-0.531586,-3.37093e-30,-54.3958,-15.3724,2.28
-0.5036,-0.503697,0.148984,0.141707,-0,-6.42083e-34,0.00618068,3.71931e-05,0,-69,-0.531586,-2.24729e-30,-54.5783,-15.3587,2.284
-0.5036,-0.503697,0.149009,0.141707,-0,-4.28055e-34,0.00619983,2.47954e-05,0,-70,-0.531586,-1.49819e-30,-54.764,-15.4376,2.288
-0.5036,-0.503697,0.149034,0.141708,-0,-2.8537e-34,0.006219,4.53212e-05,0,-70,-0.531586,-9.98795e-31,-54.9477,-15.4342,2.292
-0.5036,-0.503697,0.149059,0.141708,-0,-1.90247e-34,0.0062382,5.90051e-05,0,-70,-0.531586,-6.65864e-31,-55.132,-15.448,2.296
-0.5036,-0.503697,0.149084,0.141708,-0,-1.26831e-34,0.00625741,6.81276e-05,0,-70,-0.531586,-4.43909e-31,-55.3168,-15.4732,2.3
-0.5036,-0.503697,0.149109,0.141709,-0,-8.45541e-35,0.00627664,0.000103,0,-70,-0.531586,-2.95939e-31,-55.4997,-15.4341,2.304
-0.5036,-0.503697,0.149134,0.14171,-0,-5.63694e-35,0.0062959,0.000126249,0,-71,-0.531586,-1.97293e-31,-55.6831,-15.4241,2.308
-0.5036,-0.503697,0.149159,0.14171,-0,-3.75796e-35,0.00631517,0.000141748,0,-71,-0.531586,-1.31529e-31,-55.8671,-15.4336,2.312
-0.5036,-0.503697,0.149185,0.141711,-0,-2.50531e-35,0.00633447,0.00015208,0,-71,-0.531586,-8.76857e-32,-56.0516,-15.456,2.316
-0.5036,-0.503697,0.14921,0.141712,-0,-1.6702e-35,0.00635379,0.000158969,0,-71,-0.531586,-5.84572e-32,-56.2368,-15.487,2.32
-0.5036,-0.503697,0.149235,0.141713,-0,-1.11347e-35,0.00637312,0.000163561,0,-71,-0.531586,-3.89714e-32,-56.4225,-15.5239,2.324
-0.5036,-0.503697,0.149261,0.141713,-0,-7.42313e-36,0.00639248,0.000137832,0,-72,-0.531586,-2.5981e-32,-56.6114,-15.6366,2.328
-0.5036,-0.503697,0.149287,0.141713,-0,-4.94875e-36,0.00641186,0.000120679,0,-72,-0.531586,-1.73206e-32,-56.8009,-15.728,2.332
-0.5036,-0.503697,0.149312,0.141714,-0,-3.29917e-36,0.00643126,0.000109243,0,-72,-0.531586,-1.15471e-32,-56.9909,-15.805,2.336
-0.5036,-0.503697,0.149338,0.141714,-0,-2.19945e-36,0.00645068,7.28289e-05,0,-73,-0.531586,-7.69806e-33,-57.1841,-15.9446,2.34
-0.5036,-0.503697,0.149364,0.141714,-0,-1.4663e-36,0.00647011,7.73435e-05,0,-73,-0.531586,-5.13204e-33,-57.3754,-15.9819,2.344
-0.5036,-0.503697,0.14939,0.141714,-0,-9.77532e-37,0.00648957,5.15624e-05,0,-73,-0.531586,-3.42136e-33,-57.5698,-16.095,2.348
-0.5036,-0.503697,0.149416,0.141714,-0,-6.51688e-37,0.00650905,6.31658e-05,0,-73,-0.531586,-2.28091e-33,-57.7621,-16.1147,2.352
-0.5036,-0.503697,0.149442,0.141715,-0,-4.34458e-37,0.00652855,7.09015e-05,0,-74,-0.531586,-1.5206e-33,-57.9551,-16.1441,2.356
-0.5036,-0.503697,0.149468,0.141715,-0,-2.89639e-37,0.00654807,4.72677e-05,0,-74,-0.531586,-1.01374e-33,-58.1513,-16.252,2.36
-0.5036,-0.503697,0.149494,0.141715,-0,-1.93093e-37,0.00656761,6.03027e-05,0,-74,-0.531586,-6.75824e-34,-58.3454,-16.2683,2.364
-0.5036,-0.503697,0.149521,0.141715,-0,-1.28728e-37,0.00658717,6.89927e-05,0,-74,-0.531586,-4.5055e-34,-58.5401,-16.2954,2.368
-0.5036,-0.503697,0.149547,0.141716,-0,-8.5819e-38,0.00660675,7.47861e-05,0,-75,-0.531586,-3.00366e-34,-58.7355,-16.3299,2.372
-0.5036,-0.503697,0.149573,0.141716,-0,-5.72126e-38,0.00662635,4.98574e-05,0,-75,-0.531586,-2.00244e-34,-58.934,-16.4412,2.376
-0.5036,-0.503697,0.1496,0.141716,-0,-3.81418e-38,0.00664597,6.20292e-05,0,-75,-0.531586,-1.33496e-34,-59.1304,-16.4599,2.38
-0.5036,-0.503697,0.149627,0.141716,-0,-2.54278e-38,0.00666561,4.13528e-05,0,-75,-0.531586,-8.89974e-35,-59.3301,-16.5606,2.384
-0.5036,-0.503697,0.149653,0.141716,-0,-1.69519e-38,0.00668527,5.63594e-05,0,-76,-0.531586,-5.93316e-35,-59.5278,-16.5723,2.388
-0.5036,-0.503697,0.14968,0.141716,-0,-1.13013e-38,0.00670495,3.7573e-05,0,-76,-0.531586,-3.95544e-35,-59.7286,-16.6684,2.392
-0.5036,-0.503697,0.149707,0.141716,-0,-7.53417e-39,0.00672465,2.50486e-05,0,-76,-0.531586,-2.63696e-35,-59.9301,-16.749,2.396
-0.5036,-0.503697,0.149734,0.141716,-0,-5.02278e-39,0.00674437,1.66991e-05,0,-76,-0.531586,-1.75797e-35,-60.1321,-16.8192,2.4
-0.5036,-0.503697,0.149761,0.141717,-0,-3.34852e-39,0.0067641,3.99237e-05,0,-77,-0.531586,-1.17198e-35,-60.3322,-16.8105,2.404
-0.5036,-0.503697,0.149788,0.141717,-0,-2.23235e-39,0.00678386,2.66158e-05,0,-77,-0.531586,-7.81322e-36,-60.5354,-16.8931,2.408
-0.5036,-0.503697,0.149815,0.141717,-0,-1.48823e-39,0.00680364,1.77438e-05,0,-77,-0.531586,-5.20881e-36,-60.7392,-16.9647,2.412
-0.5036,-0.503697,0.149842,0.141717,-0,-9.92155e-40,0.00682344,4.06202e-05,0,-77,-0.531586,-3.47254e-36,-60.941,-16.957,2.416
-0.5036,-0.503697,0.14987,0.141717,-0,-6.61436e-40,0.00684325,5.5871e-05,0,-78,-0.531586,-2.31503e-36,-61.1434,-16.9685,2.42
-0.5036,-0.503697,0.149897,0.141718,-0,-4.40958e-40,0.00686309,6.60383e-05,0,-78,-0.531586,-1.54335e-36,-61.3464,-16.9926,2.424
-0.5036,-0.503697,0.149925,0.141718,-0,-2.93972e-40,0.00688294,7.28164e-05,0,-78,-0.531586,-1.0289e-36,-61.55,-17.0253,2.428
-0.5036,-0.503697,0.149952,0.141718,-0,-1.95981e-40,0.00690282,7.73352e-05,0,-78,-0.531586,-6.85934e-37,-61.7542,-17.0637,2.432
-0.5036,-0.503697,0.14998,0.141718,-0,-1.30654e-40,0.00692271,2.27659e-05,0,-79,-0.531586,-4.57289e-37,-61.9642,-17.2499,2.436
-0.5036,-0.503697,0.150008,0.141719,-0,-8.71027e-41,0.00694263,0.000130341,0,-79,-0.531586,-3.0486e-37,-62.1618,-17.0307,2.44
-0.5036,-0.503697,0.150035,0.141719,-0,-5.80685e-41,0.00696256,8.6894e-05,0,-79,-0.531586,-2.0324e-37,-62.3704,-17.1892,2.444
-0.5036,-0.503697,0.150063,0.14172,-0,-3.87123e-41,0.00698251,0.000115511,0,-79,-0.531586,-1.35493e-37,-62.5744,-17.1675,2.448
-0.5036,-0.503697,0.150091,0.141721,-0,-2.58082e-41,0.00700248,0.000134589,0,-79,-0.531586,-9.03288e-38,-62.779,-17.1697,2.452
-0.5036,-0.503697,0.150119,0.141721,-0,-1.72055e-41,0.00702247,0.000147308,0,-80,-0.531586,-6.02192e-38,-62.9842,-17.1879,2.456
-0.5036,-0.503697,0.150148,0.141723,-0,-1.14703e-41,0.00704248,0.000184578,0,-80,-0.531586,-4.01461e-38,-63.1874,-17.1448,2.46
-0.5036,-0.503697,0.150176,0.141723,-0,-7.64688e-42,0.00706251,0.000151843,0,-80,-0.531586,-2.67641e-38,-63.3963,-17.2767,2.464
-0.5036,-0.503697,0.150204,0.141724,-0,-5.09792e-42,0.00708256,0.000158811,0,-80,-0.531586,-1.78427e-38,-63.6033,-17.3094,2.468
-0.5036,-0.503697,0.150232,0.141724,-0,-3.39861e-42,0.00710263,0.000105874,0,-81,-0.531586,-1.18951e-38,-63.8161,-17.4919,2.472
-0.5036,-0.503697,0.150261,0.141724,-0,-2.26574e-42,0.00712271,9.93734e-05,0,-81,-0.531586,-7.9301e-39,-64.0269,-17.5583,2.476
-0.5036,-0.503697,0.150289,0.141724,-0,-1.51049e-42,0.00714282,9.50398e-05,0,-81,-0.531586,-5.28673e-39,-64.2383,-17.6194,2.48
-0.5036,-0.503697,0.150318,0.141725,-0,-1.007e-42,0.00716294,9.21508e-05,0,-82,-0.531586,-3.52449e-39,-64.4503,-17.677,2.484
-0.5036,-0.503697,0.150347,0.141725,-0,-6.71331e-43,0.00718308,9.02248e-05,0,-82,-0.531586,-2.34966e-39,-64.6629,-17.7321,2.488
-0.5036,-0.503697,0.150375,0.141725,-0,-4.47554e-43,0.00720324,6.01499e-05,0,-82,-0.531586,-1.56644e-39,-64.8787,-17.8577,2.492
-0.5036,-0.503697,0.150404,0.141725,-0,-2.98369e-43,0.00722342,4.00999e-05,0,-83,-0.531586,-1.04429e-39,-65.0951,-17.9583,2.496
-0.5036,-0.503697,0.150433,0.141725,-0,-1.98913e-43,0.00724362,5.55242e-05,0,-83,-0.531586,-6.96195e-40,-65.3095,-17.9702,2.5
-0.5036,-0.503697,0.150462,0.141725,-0,-1.32609e-43,0.00726384,3.70161e-05,0,-83,-0.531586,-4.6413e-40,-65.5271,-18.0671,2.504
-0.5036,-0.503697,0.150491,0.141726,-0,-8.84057e-44,0.00728407,5.34683e-05,0,-83,-0.531586,-3.0942e-40,-65.7427,-18.0765,2.508
-0.5036,-0.503697,0.150521,0.141726,-0,-5.89372e-44,0.00730433,6.44365e-05,0,-84,-0.531586,-2.0628e-40,-65.959,-18.0997,2.512
-0.5036,-0.503697,0.15055,0.141726,-0,-3.92914e-44,0.0073246,4.29577e-05,0,-84,-0.531586,-1.3752e-40,-66.1784,-18.2041,2.516
-0.5036,-0.503697,0.150579,0.141726,-0,-2.61943e-44,0.00734489,2.86384e-05,0,-84,-0.531586,-9.168e-41,-66.3985,-18.2906,2.52
-0.5036,-0.503697,0.150609,0.141726,-0,-1.74629e-44,0.0073652,4.78832e-05,0,-84,-0.531586,-6.112e-41,-66.6165,-18.2933,2.524
-0.5036,-0.503697,0.150638,0.141727,-0,-1.16419e-44,0.00738553,6.07131e-05,0,-85,-0.531586,-4.07467e-41,-66.8352,-18.312,2.528
-0.5036,-0.503697,0.150668,0.141727,-0,-7.76127e-45,0.00740588,6.92663e-05,0,-85,-0.531586,-2.71645e-41,-67.0545,-18.3415,2.532
-0.5036,-0.503697,0.150697,0.141727,-0,-5.17418e-45,0.00742624,7.49685e-05,0,-85,-0.531586,-1.81096e-41,-67.2744,-18.3782,2.536
-0.5036,-0.503697,0.150727,0.141728,-0,-3.44945e-45,0.00744663,7.87699e-05,0,-85,-0.531586,-1.20731e-41,-67.4949,-18.4196,2.54
-0.5036,-0.503697,0.150757,0.141728,-0,-2.29964e-45,0.00746703,0.000110095,0,-86,-0.531586,-8.04873e-42,-67.7134,-18.3923,2.544
-0.5036,-0.503697,0.150787,0.141729,-0,-1.53309e-45,0.00748745,0.00015977,0,-86,-0.531586,-5.36582e-42,-67.9299,-18.3192,2.548
-0.5036,-0.503697,0.150817,0.141729,-0,-1.02206e-45,0.00750789,0.000106513,0,-86,-0.531586,-3.57721e-42,-68.1548,-18.5034,2.552
-0.5036,-0.503697,0.150847,0.14173,-0,-6.81374e-46,0.00752834,0.000157381,0,-86,-0.531586,-2.38481e-42,-68.3726,-18.4274,2.556
-0.5036,-0.503697,0.150877,0.141731,-0,-4.54249e-46,0.00754882,0.000133712,0,-87,-0.531586,-1.58987e-42,-68.5962,-18.5378,2.56
-0.5036,-0.503697,0.150907,0.141731,-0,-3.02833e-46,0.00756931,0.000117932,0,-87,-0.531586,-1.05991e-42,-68.8204,-18.6284,2.564
-0.5036,-0.503697,0.150938,0.141732,-0,-2.01888e-46,0.00758982,0.000136203,0,-87,-0.531586,-7.0661e-43,-69.0426,-18.634,2.568
-0.5036,-0.503697,0.150968,0.141732,-0,-1.34592e-46,0.00761035,0.000119593,0,-87,-0.531586,-4.71073e-43,-69.268,-18.7269,2.572
-0.5036,-0.503697,0.150998,0.141733,-0,-8.97282e-47,0.0076309,0.00010852,0,-88,-0.531586,-3.14049e-43,-69.494,-18.8059,2.576
-0.5036,-0.503697,0.151029,0.141733,-0,-5.98188e-47,0.00765146,0.000101137,0,-88,-0.531586,-2.09366e-43,-69.7207,-18.8758,2.58
-0.5036,-0.503697,0.15106,0.141734,-0,-3.98792e-47,0.00767204,0.000125007,0,-88,-0.531586,-1.39577e-43,-69.9453,-18.8676,2.584
-0.5036,-0.503697,0.15109,0.141734,-0,-2.65861e-47,0.00769264,0.000112129,0,-89,-0.531586,-9.30515e-44,-70.1732,-18.9513,2.588
-0.5036,-0.503697,0.151121,0.141734,-0,-1.77241e-47,0.00771326,0.000103543,0,-89,-0.531586,-6.20343e-44,-70.4017,-19.0243,2.592
-0.5036,-0.503697,0.151152,0.141735,-0,-1.18161e-47,0.0077339,0.000155402,0,-89,-0.531586,-4.13562e-44,-70.6256,-18.9462,2.596
-0.5036,-0.503697,0.151183,0.141736,-0,-7.87737e-48,0.00775455,0.000132392,0,-89,-0.531586,-2.75708e-44,-70.8554,-19.0554,2.6
-0.5036,-0.503697,0.151214,0.141736,-0,-5.25158e-48,0.00777522,8.82614e-05,0,-90,-0.531586,-1.83805e-44,-71.0883,-19.2174,2.604
-0.5036,-0.503697,0.151245,0.141736,-0,-3.50106e-48,0.00779591,0.000116423,0,-90,-0.531586,-1.22537e-44,-71.3167,-19.1987,2.608
-0.5036,-0.503697,0.151276,0.141737,-0,-2.33404e-48,0.00781662,0.000106406,0,-90,-0.531586,-8.16913e-45,-71.5483,-19.2755,2.612
-0.5036,-0.503697,0.151308,0.141738,-0,-1.55602e-48,0.00783734,0.00015731,0,-90,-0.531586,-5.44609e-45,-71.7753,-19.2001,2.616
-0.5036,-0.503697,0.151339,0.141737,-0,-1.03735e-48,0.00785808,7.60825e-05,0,-91,-0.531586,-3.63072e-45,-72.0134,-19.455,2.62
-0.5036,-0.503697,0.151371,0.141738,-0,-6.91566e-49,0.00787884,7.95126e-05,0,-91,-0.531586,-2.42048e-45,-72.2468,-19.4983,2.624
-0.5036,-0.503697,0.151402,0.141738,-0,-4.61044e-49,0.00789962,5.30084e-05,0,-92,-0.531586,-1.61366e-45,-72.4835,-19.6165,2.628
-0.5036,-0.503697,0.151434,0.141738,-0,-3.07363e-49,0.00792041,6.41299e-05,0,-92,-0.531586,-1.07577e-45,-72.7182,-19.6407,2.632
-0.5036,-0.503697,0.151466,0.141738,-0,-2.04909e-49,0.00794122,4.27532e-05,0,-92,-0.531586,-7.1718e-46,-72.9561,-19.7462,2.636
-0.5036,-0.503697,0.151497,0.141738,-0,-1.36606e-49,0.00796205,-2.88764e-07,0,-93,-0.531586,-4.7812e-46,-73.1973,-19.9059,2.64
-0.5036,-0.503697,0.151529,0.141738,-0,-9.10705e-50,0.0079829,5.73893e-05,0,-93,-0.531586,-3.18747e-46,-73.4313,-19.8138,2.644
-0.5036,-0.503697,0.151561,0.141738,-0,-6.07137e-50,0.00800376,9.46864e-06,0,-93,-0.531586,-2.12498e-46,-73.6737,-19.9857,2.648
-0.5036,-0.503697,0.151593,0.141739,-0,-4.04758e-50,0.00802464,6.38943e-05,0,-93,-0.531586,-1.41665e-46,-73.9089,-19.9019,2.652
-0.5036,-0.503697,0.151625,0.141739,-0,-2.69838e-50,0.00804554,7.13871e-05,0,-94,-0.531586,-9.44435e-47,-74.1474,-19.9354,2.656
-0.5036,-0.503697,0.151658,0.141739,-0,-1.79892e-50,0.00806645,7.63823e-05,0,-94,-0.531586,-6.29623e-47,-74.3864,-19.9752,2.66
-0.5036,-0.503697,0.15169,0.14174,-0,-1.19928e-50,0.00808739,7.97125e-05,0,-94,-0.531586,-4.19749e-47,-74.6262,-20.0192,2.664
-0.5036,-0.503697,0.151722,0.141741,-0,-7.99521e-51,0.00810834,0.000139514,0,-94,-0.531586,-2.79832e-47,-74.8613,-19.9221,2.668
-0.5036,-0.503697,0.151755,0.141741,-0,-5.33014e-51,0.0081293,9.30096e-05,0,-95,-0.531586,-1.86555e-47,-75.1049,-20.0907,2.672
-0.5036,-0.503697,0.151787,0.141741,-0,-3.55343e-51,0.00815028,9.07973e-05,0,-95,-0.531586,-1.2437e-47,-75.3465,-20.1487,2.676
-0.5036,-0.503697,0.15182,0.141742,-0,-2.36895e-51,0.00817128,0.000118113,0,-95,-0.531586,-8.29133e-48,-75.5861,-20.1329,2.68
-0.5036,-0.503697,0.151853,0.141742,-0,-1.5793e-51,0.0081923,0.000107533,0,-96,-0.531586,-5.52756e-48,-75.829,-20.2119,2.684
-0.5036,-0.503697,0.151886,0.141743,-0,-1.05287e-51,0.00821333,0.00010048,0,-96,-0.531586,-3.68504e-48,-76.0725,-20.2821,2.688
-0.5036,-0.503697,0.151918,0.141743,-0,-7.01912e-52,0.00823438,9.57774e-05,0,-96,-0.531586,-2.45669e-48,-76.3166,-20.3465,2.692
-0.5036,-0.503697,0.151951,0.141743,-0,-4.67941e-52,0.00825545,6.38516e-05,0,-97,-0.531586,-1.63779e-48,-76.564,-20.479,2.696
-0.5036,-0.503697,0.151984,0.141743,-0,-3.11961e-52,0.00827654,7.13587e-05,0,-97,-0.531586,-1.09186e-48,-76.8093,-20.5129,2.7
-0.5036,-0.503697,0.152018,0.141743,-0,-2.07974e-52,0.00829764,4.75724e-05,0,-97,-0.531586,-7.27909e-49,-77.058,-20.6252,2.704
-0.5036,-0.503697,0.152051,0.141744,-0,-1.38649e-52,0.00831875,6.05059e-05,0,-97,-0.531586,-4.85272e-49,-77.3046,-20.6456,2.708
-0.5036,-0.503697,0.152084,0.141744,-0,-9.24328e-53,0.00833989,9.79191e-05,0,-98,-0.531586,-3.23515e-49,-77.5493,-20.6049,2.712
-0.5036,-0.503697,0.152118,0.141744,-0,-6.16219e-53,0.00836104,3.64885e-05,0,-98,-0.531586,-2.15677e-49,-77.8024,-20.8114,2.716
-0.5036,-0.503697,0.152151,0.141744,-0,-4.10813e-53,0.00838221,-4.46527e-06,0,-99,-0.531586,-1.43784e-49,-78.0562,-20.9667,2.72
-0.5036,-0.503697,0.152185,0.141744,-0,-2.73875e-53,0.00840339,5.4605e-05,0,-99,-0.531586,-9.58563e-50,-78.3028,-20.872,2.724
-0.5036,-0.503697,0.152218,0.141745,-0,-1.82583e-53,0.00842459,6.51943e-05,0,-99,-0.531586,-6.39042e-50,-78.5526,-20.8985,2.728
-0.5036,-0.503697,0.152252,0.141745,-0,-1.21722e-53,0.00844581,7.22538e-05,0,-99,-0.531586,-4.26028e-50,-78.8031,-20.9339,2.732
-0.5036,-0.503697,0.152286,0.141745,-0,-8.11482e-54,0.00846704,7.69601e-05,0,-100,-0.531586,-2.84019e-50,-79.0542,-20.9752,2.736
-0.5036,-0.503697,0.15232,0.141746,-0,-5.40988e-54,0.00848829,8.00977e-05,0,-100,-0.531586,-1.89346e-50,-79.3059,-21.0205,2.74
-0.5036,-0.503697,0.152354,0.141746,-0,-3.60658e-54,0.00850955,0.00011098,0,-100,-0.531586,-1.2623e-50,-79.5557,-20.9964,2.744
-0.5036,-0.503697,0.152388,0.141746,-0,-2.40439e-54,0.00853084,4.51959e-05,0,-101,-0.531586,-8.41536e-51,-79.8139,-21.2141,2.748
-0.5036,-0.503697,0.152422,0.141746,-0,-1.60293e-54,0.00855214,3.01306e-05,0,-101,-0.531586,-5.61024e-51,-80.0701,-21.305,2.752
-0.5036,-0.503697,0.152456,0.141746,-0,-1.06862e-54,0.00857345,4.8878e-05,0,-101,-0.531586,-3.74016e-51,-80.3244,-21.3114,2.756
-0.5036,-0.503697,0.152491,0.141747,-0,-7.12412e-55,0.00859478,6.13763e-05,0,-101,-0.531586,-2.49344e-51,-80.5793,-21.3335,2.76
-0.5036,-0.503697,0.152525,0.141747,-0,-4.74941e-55,0.00861613,6.97084e-05,0,-102,-0.531586,-1.66229e-51,-80.8349,-21.366,2.764
-0.5036,-0.503697,0.15256,0.141747,-0,-3.16627e-55,0.00863749,7.52632e-05,0,-102,-0.531586,-1.1082e-51,-81.0911,-21.4056,2.768
-0.5036,-0.503697,0.152594,0.141748,-0,-2.11085e-55,0.00865887,7.89664e-05,0,-102,-0.531586,-7.38797e-52,-81.348,-21.4498,2.772
-0.5036,-0.503697,0.152629,0.141748,-0,-1.40723e-55,0.00868026,8.14352e-05,0,-103,-0.531586,-4.92532e-52,-81.6055,-21.4971,2.776
-0.5036,-0.503697,0.152664,0.141748,-0,-9.38156e-56,0.00870167,8.30811e-05,0,-103,-0.531586,-3.28354e-52,-81.8636,-21.5465,2.78
-0.5036,-0.503697,0.152698,0.141749,-0,-6.25437e-56,0.0087231,8.41783e-05,0,-103,-0.531586,-2.18903e-52,-82.1224,-21.5973,2.784
-0.5036,-0.503697,0.152733,0.141749,-0,-4.16958e-56,0.00874454,0.000113701,0,-103,-0.531586,-1.45935e-52,-82.3792,-21.5771,2.788
-0.5036,-0.503697,0.152768,0.141751,-0,-2.77972e-56,0.008766,0.000162173,0,-104,-0.531586,-9.72902e-53,-82.6341,-21.5096,2.792
-0.5036,-0.503697,0.152803,0.141751,-0,-1.85315e-56,0.00878748,0.000165697,0,-104,-0.531586,-6.48601e-53,-82.8922,-21.5544,2.796
-0.5036,-0.503697,0.152839,0.141752,-0,-1.23543e-56,0.00880897,0.000196838,0,-104,-0.531586,-4.32401e-53,-83.1484,-21.5303,2.8
-0.5036,-0.503697,0.152874,0.141754,-0,-8.23621e-57,0.00883047,0.000246389,0,-104,-0.531586,-2.88267e-53,-83.4026,-21.4602,2.804
-0.5036,-0.503697,0.152909,0.141755,-0,-5.4908e-57,0.00885199,0.000279423,0,-105,-0.531586,-1.92178e-53,-83.6575,-21.4314,2.808
-0.5036,-0.503697,0.152945,0.141756,-0,-3.66054e-57,0.00887353,0.000301446,0,-105,-0.531586,-1.28119e-53,-83.913,-21.4302,2.812
-0.5036,-0.503697,0.15298,0.141758,-0,-2.44036e-57,0.00889509,0.000316127,0,-105,-0.531586,-8.54125e-54,-84.1692,-21.4474,2.816
-0.5036,-0.503697,0.153016,0.14176,-0,-1.62691e-57,0.00891665,0.000383497,0,-105,-0.531586,-5.69417e-54,-84.4208,-21.3329,2.82
-0.5036,-0.503697,0.153052,0.141761,-0,-1.0846e-57,0.00893824,0.000342038,0,-106,-0.531586,-3.79611e-54,-84.6809,-21.4905,2.824
-0.5036,-0.503697,0.153087,0.141762,-0,-7.23069e-58,0.00895984,0.000343189,0,-106,-0.531586,-2.53074e-54,-84.939,-21.5416,2.828
-0.5036,-0.503697,0.153123,0.141763,-0,-4.82046e-58,0.00898145,0.000286374,0,-106,-0.531586,-1.68716e-54,-85.2029,-21.7377,2.832
-0.5036,-0.503697,0.153159,0.141764,-0,-3.21364e-58,0.00900308,0.000248498,0,-107,-0.531586,-1.12477e-54,-85.4675,-21.8865,2.836
-0.5036,-0.503697,0.153195,0.141764,-0,-2.14243e-58,0.00902473,0.000223247,0,-107,-0.531586,-7.49849e-55,-85.7327,-22.0037,2.84
-0.5036,-0.503697,0.153231,0.141765,-0,-1.42828e-58,0.00904639,0.000206413,0,-108,-0.531586,-4.999e-55,-85.9986,-22.0999,2.844
-0.5036,-0.503697,0.153268,0.141765,-0,-9.5219e-59,0.00906807,0.0001664,0,-108,-0.531586,-3.33266e-55,-86.2677,-22.2542,2.848
-0.5036,-0.503697,0.153304,0.141766,-0,-6.34793e-59,0.00908976,0.000139724,0,-108,-0.531586,-2.22178e-55,-86.5375,-22.3751,2.852
-0.5036,-0.503697,0.15334,0.141766,-0,-4.23195e-59,0.00911147,0.000150731,0,-109,-0.531586,-1.48118e-55,-86.8054,-22.4018,2.856
-0.5036,-0.503697,0.153377,0.141766,-0,-2.8213e-59,0.00913319,0.000100488,0,-109,-0.531586,-9.87456e-56,-87.079,-22.5818,2.86
-0.5036,-0.503697,0.153414,0.141767,-0,-1.88087e-59,0.00915493,0.000124574,0,-109,-0.531586,-6.58304e-56,-87.3482,-22.5759,2.864
-0.5036,-0.503697,0.15345,0.141767,-0,-1.25391e-59,0.00917668,0.00011184,0,-110,-0.531586,-4.38869e-56,-87.6205,-22.6621,2.868
-0.5036,-0.503697,0.153487,0.141768,-0,-8.35941e-60,0.00919845,0.000103351,0,-110,-0.531586,-2.9258e-56,-87.8936,-22.7377,2.872
-0.5036,-0.503697,0.153524,0.141768,-0,-5.57294e-60,0.00922023,6.89006e-05,0,-111,-0.531586,-1.95053e-56,-88.1699,-22.8783,2.876
-0.5036,-0.503697,0.153561,0.141768,-0,-3.7153e-60,0.00924203,7.47247e-05,0,-111,-0.531586,-1.30035e-56,-88.4442,-22.9183,2.88
-0.5036,-0.503697,0.153598,0.141768,-0,-2.47686e-60,0.00926384,4.98164e-05,0,-111,-0.531586,-8.66902e-57,-88.7218,-23.0351,2.884
-0.5036,-0.503697,0.153635,0.141769,-0,-1.65124e-60,0.00928567,9.07928e-05,0,-111,-0.531586,-5.77935e-57,-88.9949,-22.9872,2.888
-0.5036,-0.503697,0.153672,0.141768,-0,-1.10083e-60,0.00930751,3.17376e-05,0,-112,-0.531586,-3.8529e-57,-89.2763,-23.1894,2.892
-0.5036,-0.503697,0.153709,0.14177,-0,-7.33886e-61,0.00932937,0.000107531,0,-112,-0.531586,-2.5686e-57,-89.5481,-23.0546,2.896
-0.5036,-0.503697,0.153747,0.14177,-0,-4.89257e-61,0.00935124,0.000100478,0,-112,-0.531586,-1.7124e-57,-89.8257,-23.1269,2.9
-0.5036,-0.503697,0.153784,0.141771,-0,-3.26171e-61,0.00937313,0.000153358,0,-113,-0.531586,-1.1416e-57,-90.0988,-23.0494,2.904
-0.5036,-0.503697,0.153822,0.141772,-0,-2.17448e-61,0.00939503,0.000159821,0,-113,-0.531586,-7.61066e-58,-90.3752,-23.088,2.908
-0.5036,-0.503697,0.153859,0.141773,-0,-1.44965e-61,0.00941695,0.000221711,0,-113,-0.531586,-5.07378e-58,-90.647,-22.9881,2.912
-0.5036,-0.503697,0.153897,0.141773,-0,-9.66434e-62,0.00943888,0.000176598,0,-114,-0.531586,-3.38252e-58,-90.9272,-23.1557,2.916
-0.5036,-0.503697,0.153935,0.141774,-0,-6.44289e-62,0.00946082,0.000146523,0,-114,-0.531586,-2.25501e-58,-91.2081,-23.2857,2.92
-0.5036,-0.503697,0.153973,0.141774,-0,-4.29526e-62,0.00948278,0.000155264,0,-114,-0.531586,-1.50334e-58,-91.4871,-23.3188,2.924
-0.5036,-0.503697,0.154011,0.141775,-0,-2.86351e-62,0.00950476,0.000189882,0,-115,-0.531586,-1.00223e-58,-91.7641,-23.2872,2.928
-0.5036,-0.503697,0.154049,0.141775,-0,-1.909e-62,0.00952675,0.000126588,0,-115,-0.531586,-6.68152e-59,-92.0496,-23.5004,2.932
-0.5036,-0.503697,0.154087,0.141776,-0,-1.27267e-62,0.00954875,0.000141974,0,-115,-0.531586,-4.45434e-59,-92.3306,-23.5169,2.936
-0.5036,-0.503697,0.154125,0.141775,-0,-8.48447e-63,0.00957077,3.70674e-05,0,-116,-0.531586,-2.96956e-59,-92.6225,-23.8343,2.94
-0.5036,-0.503697,0.154163,0.141776,-0,-5.65631e-63,0.0095928,8.22934e-05,0,-116,-0.531586,-1.97971e-59,-92.9048,-23.7763,2.944
-0.5036,-0.503697,0.154202,0.141776,-0,-3.77087e-63,0.00961485,8.36532e-05,0,-117,-0.531586,-1.31981e-59,-93.1903,-23.828,2.948
-0.5036,-0.503697,0.15424,0.141776,-0,-2.51392e-63,0.00963691,5.57688e-05,0,-117,-0.531586,-8.7987e-60,-93.4791,-23.9529,2.952
-0.5036,-0.503697,0.154279,0.141777,-0,-1.67594e-63,0.00965899,6.59701e-05,0,-117,-0.531586,-5.8658e-60,-93.766,-23.9825,2.956
-0.5036,-0.503697,0.154318,0.141777,-0,-1.1173e-63,0.00968108,0.000101562,0,-117,-0.531586,-3.91054e-60,-94.0509,-23.9488,2.96
-0.5036,-0.503697,0.154356,0.141778,-0,-7.44864e-64,0.00970318,9.64989e-05,0,-118,-0.531586,-2.60702e-60,-94.3391,-24.0167,2.964
-0.5036,-0.503697,0.154395,0.141778,-0,-4.96576e-64,0.0097253,0.000121914,0,-118,-0.531586,-1.73802e-60,-94.6253,-24.0085,2.968
-0.5036,-0.503697,0.154434,0.14178,-0,-3.31051e-64,0.00974744,0.000167649,0,-118,-0.531586,-1.15868e-60,-94.9096,-23.9495,2.972
-0.5036,-0.503697,0.154473,0.14178,-0,-2.207e-64,0.00976958,0.000140557,0,-119,-0.531586,-7.72451e-61,-95.1998,-24.0726,2.976
-0.5036,-0.503697,0.154512,0.141781,-0,-1.47134e-64,0.00979174,0.000151286,0,-119,-0.531586,-5.14968e-61,-95.488,-24.1011,2.98
-0.5036,-0.503697,0.154552,0.141782,-0,-9.80891e-65,0.00981392,0.000216021,0,-119,-0.531586,-3.43312e-61,-95.7717,-23.9947,2.984
-0.5036,-0.503697,0.154591,0.141784,-0,-6.53927e-65,0.00983611,0.000287969,0,-119,-0.531586,-2.28874e-61,-96.0535,-23.8703,2.988
-0.5036,-0.503697,0.15463,0.141785,-0,-4.35951e-65,0.00985831,0.000278352,0,-120,-0.531586,-1.52583e-61,-96.3412,-23.9499,2.992
-0.5036,-0.503697,0.15467,0.141786,-0,-2.90634e-65,0.00988053,0.000300732,0,-120,-0.531586,-1.01722e-61,-96.6269,-23.9495,2.996
-0.5036,-0.503697,0.154709,0.141787,-0,-1.93756e-65,0.00990276,0.000315652,0,-120,-0.531586,-6.78147e-62,-96.9133,-23.9678,3
-0.5036,-0.503697,0.154749,0.141789,-0,-1.29171e-65,0.009925,0.000354389,0,-121,-0.531586,-4.52098e-62,-97.1977,-23.9265,3.004
-0.5036,-0.503697,0.154789,0.14179,-0,-8.61139e-66,0.00994726,0.00026505,0,-121,-0.531586,-3.01399e-62,-97.4932,-24.2055,3.008
-0.5036,-0.503697,0.154828,0.14179,-0,-5.74092e-66,0.00996953,0.000234282,0,-122,-0.531586,-2.00932e-62,-97.7868,-24.3381,3.012
-0.5036,-0.503697,0.154868,0.14179,-0,-3.82728e-66,0.00999182,0.000156188,0,-122,-0.531586,-1.33955e-62,-98.0862,-24.5891,3.016
-0.5036,-0.503697,0.154908,0.141791,-0,-2.55152e-66,0.0100141,0.000132916,0,-123,-0.531586,-8.93033e-63,-98.3837,-24.703,3.02
-0.5036,-0.503697,0.154949,0.141791,-0,-1.70101e-66,0.0100364,0.000117402,0,-123,-0.531586,-5.95355e-63,-98.6819,-24.7976,3.024
-0.5036,-0.503697,0.154989,0.141791,-0,-1.13401e-66,0.0100588,7.82678e-05,0,-123,-0.531586,-3.96903e-63,-98.9833,-24.9512,3.028
-0.5036,-0.503697,0.155029,0.141791,-0,-7.56006e-67,0.0100811,8.09695e-05,0,-124,-0.531586,-2.64602e-63,-99.2828,-25.0003,3.032
-0.5036,-0.503697,0.155069,0.141791,-0,-5.04004e-67,0.0101035,5.39797e-05,0,-124,-0.531586,-1.76402e-63,-99.5856,-25.1237,3.036
-0.5036,-0.503697,0.15511,0.141792,-0,-3.36003e-67,0.0101258,6.47774e-05,0,-125,-0.531586,-1.17601e-63,-99.8864,-25.1526,3.04
-0.5036,-0.503697,0.15515,0.141792,-0,-2.24002e-67,0.0101482,0.000100767,0,-125,-0.531586,-7.84007e-64,-100.185,-25.1186,3.044
-0.5036,-0.503697,0.155191,0.141792,-0,-1.49335e-67,0.0101706,6.71778e-05,0,-125,-0.531586,-5.22671e-64,-100.49,-25.2586,3.048
-0.5036,-0.503697,0.155232,0.141793,-0,-9.95564e-68,0.010193,7.35762e-05,0,-126,-0.531586,-3.48447e-64,-100.793,-25.2986,3.052
-0.5036,-0.503697,0.155273,0.141793,-0,-6.63709e-68,0.0102154,0.000106633,0,-126,-0.531586,-2.32298e-64,-101.094,-25.272,3.056
-0.5036,-0.503697,0.155313,0.141793,-0,-4.42473e-68,0.0102379,7.10884e-05,0,-126,-0.531586,-1.54866e-64,-101.401,-25.4169,3.06
-0.5036,-0.503697,0.155354,0.141794,-0,-2.94982e-68,0.0102603,7.61832e-05,0,-127,-0.531586,-1.03244e-64,-101.706,-25.4603,3.064
-0.5036,-0.503696,0.155396,0.141794,-0,2.87909e-05,0.0102828,0.000108371,0,-127,-0.529686,0.100768,-102.009,-25.436,3.068
-0.5036,-0.503697,0.155437,0.141795,-0,-9.59697e-06,0.0103052,0.000101038,0,-127,-0.531586,-0.0335894,-102.315,-25.5105,3.072
-0.5036,-0.503697,0.155478,0.141795,-0,-6.39798e-06,0.0103277,0.000124941,0,-128,-0.531586,-0.0223929,-102.619,-25.507,3.076
-0.5036,-0.503697,0.155519,0.141796,-0,-4.26532e-06,0.0103502,0.000140876,0,-128,-0.531586,-0.0149286,-102.924,-25.5234,3.08
-0.5036,-0.503697,0.155561,0.141797,-0,-2.84355e-06,0.0103727,0.000209081,0,-128,-0.531586,-0.00995242,-103.225,-25.4092,3.084
-0.5036,-0.503697,0.155602,0.141798,-0,-1.8957e-06,0.0103953,0.000196969,0,-129,-0.531586,-0.00663495,-103.531,-25.4958,3.088
-0.5036,-0.503697,0.155644,0.1418,-0,-1.2638e-06,0.0104178,0.000275267,0,-129,-0.531586,-0.0044233,-103.83,-25.3564,3.092
-0.5036,-0.503697,0.155686,0.141801,-0,-8.42533e-07,0.0104404,0.000298675,0,-129,-0.531586,-0.00294886,-104.133,-25.3542,3.096
-0.5036,-0.503697,0.155727,0.141802,-0,-5.61689e-07,0.0104629,0.000256699,0,-129,-0.531586,-0.00196591,-104.441,-25.5156,3.1
-0.5036,-0.503697,0.155769,0.141804,-0,-3.74459e-07,0.0104855,0.000343878,0,-130,-0.531586,-0.00131061,-104.74,-25.3541,3.104
-0.5036,-0.503697,0.155811,0.141805,-0,-2.49639e-07,0.0105081,0.000315625,0,-130,-0.531586,-0.000873738,-105.047,-25.4812,3.108
-0.5036,-0.503697,0.155853,0.141806,-0,-1.66426e-07,0.0105307,0.00032558,0,-130,-0.531586,-0.000582492,-105.352,-25.5128,3.112
-0.5036,-0.503697,0.155896,0.141808,-0,-1.10951e-07,0.0105533,0.000303426,0,-131,-0.531586,-0.000388328,-105.661,-25.6247,3.116
-0.5036,-0.503697,0.155938,0.141809,-0,-7.39672e-08,0.010576,0.000317448,0,-131,-0.531586,-0.000258885,-105.967,-25.6463,3.12
-0.5036,-0.503697,0.15598,0.141809,-0,-4.93115e-08,0.0105986,0.000182841,0,-132,-0.531586,-0.00017259,-106.287,-26.0394,3.124
-0.5036,-0.503697,0.156023,0.141809,-0,-3.28743e-08,0.0106213,0.000179476,0,-132,-0.531586,-0.00011506,-106.6,-26.1044,3.128
-0.5036,-0.503697,0.156065,0.141809,-0,-2.19162e-08,0.0106439,0.000119651,0,-133,-0.531586,-7.67067e-05,-106.919,-26.3107,3.132
-0.5036,-0.503697,0.156108,0.141808,-0,-1.46108e-08,0.0106666,-6.60573e-06,0,-133,-0.531586,-5.11378e-05,-107.247,-26.683,3.136
-0.5036,-0.503697,0.15615,0.141809,-0,-9.74054e-09,0.0106893,5.3178e-05,0,-134,-0.531586,-3.40919e-05,-107.562,-26.5903,3.14
-0.5036,-0.503697,0.156193,0.141809,-0,-6.49369e-09,0.010712,3.5452e-05,0,-134,-0.531586,-2.27279e-05,-107.883,-26.6914,3.144
-0.5036,-0.503697,0.156236,0.141809,-0,-4.32913e-09,0.0107347,2.36347e-05,0,-134,-0.531586,-1.51519e-05,-108.205,-26.7777,3.148
-0.5036,-0.503697,0.156279,0.141809,-0,-2.88609e-09,0.0107575,1.57565e-05,0,-135,-0.531586,-1.01013e-05,-108.527,-26.8542,3.152
-0.5036,-0.503697,0.156322,0.141809,-0,-1.92406e-09,0.0107802,-1.82866e-05,0,-135,-0.531586,-6.7342e-06,-108.853,-26.9962,3.156
-0.5036,-0.503697,0.156365,0.141809,-0,-1.2827e-09,0.010803,4.53908e-05,0,-136,-0.531586,-4.48947e-06,-109.171,-26.8939,3.16
-0.5036,-0.503697,0.156409,0.141809,-0,-8.55136e-10,0.0108257,3.02605e-05,0,-136,-0.531586,-2.99298e-06,-109.496,-26.9886,3.164
-0.5036,-0.503697,0.156452,0.141809,-0,-5.70091e-10,0.0108485,2.01737e-05,0,-136,-0.531586,-1.99532e-06,-109.821,-27.0708,3.168
-0.5036,-0.503697,0.156495,0.141809,-0,-3.80061e-10,0.0108713,1.34491e-05,0,-137,-0.531586,-1.33021e-06,-110.147,-27.1446,3.172
-0.5036,-0.503697,0.156539,0.14181,-0,-2.53374e-10,0.0108941,3.7757e-05,0,-137,-0.531586,-8.86808e-07,-110.471,-27.1409,3.176
-0.5036,-0.503697,0.156583,0.14181,-0,-1.68916e-10,0.0109169,2.51713e-05,0,-138,-0.531586,-5.91205e-07,-110.798,-27.2294,3.18
-0.5036,-0.503697,0.156626,0.14181,-0,-1.12611e-10,0.0109397,1.67809e-05,0,-138,-0.531586,-3.94137e-07,-111.126,-27.3074,3.184
-0.5036,-0.503697,0.15667,0.14181,-0,-7.50737e-11,0.0109626,3.99782e-05,0,-138,-0.531586,-2.62758e-07,-111.452,-27.3065,3.188
-0.5036,-0.503697,0.156714,0.14181,-0,-5.00491e-11,0.0109854,2.66521e-05,0,-139,-0.531586,-1.75172e-07,-111.781,-27.397,3.192
-0.5036,-0.503697,0.156758,0.14181,-0,-3.33661e-11,0.0110083,4.6559e-05,0,-139,-0.531586,-1.16781e-07,-112.108,-27.4044,3.196
-0.5036,-0.503697,0.156802,0.141811,-0,-2.22441e-11,0.0110312,5.98303e-05,0,-139,-0.531586,-7.78542e-08,-112.436,-27.4284,3.2
-0.5036,-0.503697,0.156846,0.141811,-0,-1.48294e-11,0.0110541,3.98868e-05,0,-140,-0.531586,-5.19028e-08,-112.767,-27.5355,3.204
-0.5036,-0.503697,0.156891,0.141811,-0,-9.88625e-12,0.011077,5.53822e-05,0,-140,-0.531586,-3.46019e-08,-113.097,-27.554,3.208
-0.5036,-0.503697,0.156935,0.141811,-0,-6.59083e-12,0.0110999,6.57124e-05,0,-141,-0.531586,-2.30679e-08,-113.427,-27.5854,3.212
-0.5036,-0.503697,0.156979,0.141811,-0,-4.39389e-12,0.0111228,4.38082e-05,0,-141,-0.531586,-1.53786e-08,-113.76,-27.6975,3.216
-0.5036,-0.503697,0.157024,0.141812,-0,-2.92926e-12,0.0111458,5.79964e-05,0,-141,-0.531586,-1.02524e-08,-114.092,-27.7194,3.22
-0.5036,-0.503697,0.157068,0.141812,-0,-1.95284e-12,0.0111687,9.62461e-05,0,-142,-0.531586,-6.83494e-09,-114.421,-27.6811,3.224
-0.5036,-0.503697,0.157113,0.141812,-0,-1.30189e-12,0.0111917,3.53732e-05,0,-142,-0.531586,-4.55663e-09,-114.759,-27.8907,3.228
-0.5036,-0.503697,0.157158,0.141812,-0,-8.67929e-13,0.0112146,2.35821e-05,0,-143,-0.531586,-3.03775e-09,-115.095,-27.9776,3.232
-0.5036,-0.503697,0.157203,0.141812,-0,-5.78619e-13,0.0112376,4.45123e-05,0,-143,-0.531586,-2.02517e-09,-115.429,-27.9828,3.236
-0.5036,-0.503697,0.157248,0.141813,-0,-3.85746e-13,0.0112606,5.84658e-05,0,-143,-0.531586,-1.35011e-09,-115.764,-28.0054,3.24
-0.5036,-0.503697,0.157293,0.141813,-0,-5.75818e-05,0.0112836,6.77681e-05,0,-144,-0.535387,-0.201536,-116.1,-28.0396,3.244
-0.5036,-0.503697,0.157338,0.141813,-0,1.91939e-05,0.0113066,7.39697e-05,0,-144,-0.531586,0.0671788,-116.436,-28.0817,3.248
-0.5036,-0.503697,0.157383,0.141814,-0,1.2796e-05,0.0113297,7.8104e-05,0,-144,-0.531586,0.0447859,-116.773,-28.1289,3.252
-0.5036,-0.503697,0.157429,0.141814,-0,8.53064e-06,0.0113527,0.000109651,0,-145,-0.531586,0.0298573,-117.108,-28.1077,3.256
-0.5036,-0.503697,0.157474,0.141815,-0,5.6871e-06,0.0113758,0.000101892,0,-145,-0.531586,0.0199048,-117.446,-28.1847,3.26
-0.5036,-0.503697,0.15752,0.141815,-0,3.7914e-06,0.0113988,9.67187e-05,0,-146,-0.531586,0.0132699,-117.785,-28.2553,3.264
-0.5036,-0.503697,0.157565,0.141815,-0,2.5276e-06,0.0114219,9.32701e-05,0,-146,-0.531586,0.00884659,-118.125,-28.3216,3.268
-0.5036,-0.503697,0.157611,0.141816,-0,1.68507e-06,0.011445,9.0971e-05,0,-146,-0.531586,0.00589773,-118.466,-28.3851,3.272
-0.5036,-0.503697,0.157657,0.141817,-0,1.12338e-06,0.0114681,0.00014702,0,-147,-0.531586,0.00393182,-118.802,-28.3027,3.276
-0.5036,-0.503697,0.157703,0.141818,-0,7.48918e-07,0.0114912,0.000155595,0,-147,-0.531586,0.00262121,-119.141,-28.339,3.28
-0.5036,-0.503697,0.157749,0.141819,-0,4.99279e-07,0.0115143,0.000190103,0,-147,-0.531586,0.00174748,-119.478,-28.3106,3.284
-0.5036,-0.503697,0.157795,0.141819,-0,3.32852e-07,0.0115375,0.000184317,0,-148,-0.531586,0.00116498,-119.819,-28.3829,3.288
-0.5036,-0.503697,0.157841,0.141821,-0,2.21902e-07,0.0115606,0.000238042,0,-148,-0.531586,0.000776656,-120.155,-28.3064,3.292
-0.5036,-0.503697,0.157888,0.141822,-0,1.47934e-07,0.0115838,0.000273858,0,-148,-0.531586,0.00051777,-120.492,-28.2748,3.296
-0.5036,-0.503697,0.157934,0.141823,-0,9.86229e-08,0.0116069,0.000297736,0,-149,-0.531586,0.00034518,-120.829,-28.273,3.3
