peachynonah/Fire_monitor_KIRO_CDSL/csv_datas/trial10/cdsl_data_t10_3.csv
joint1_pos_desired, joint1_pos, joint2_pos_desired, joint2_pos, joint1_vel_desired, joint1_vel_filtered, joint2_vel_desired, joint2_vel_filtered, target_torque_joint1, target_torque_joint2, propo_term_torque_joint1, deriv_term_torque_joint1, propo_term_torque_joint2, deriv_term_torque_joint2, current_time
-0.5036,-0.503697,0.171,0.168761,-0,0,2.35947e-08,0,0,-20,-0.531586,0,-20.1479,-5.89867e-05,0.004
-0.5036,-0.503697,0.171,0.168616,-0,0,9.43444e-08,-0.012121,0,-51,-0.531586,0,-21.457,-30.3027,0.008
-0.5036,-0.503696,0.171,0.168512,-0,2.87909e-05,2.12198e-07,-0.0167755,0,-64,-0.529686,0.100768,-22.396,-41.9393,0.012
-0.5036,-0.503697,0.171,0.168423,-0,-9.59697e-06,3.77103e-07,-0.0185829,0,-69,-0.531586,-0.0335894,-23.1951,-46.4583,0.016
-0.5036,-0.503696,0.171,0.168351,-0,2.23929e-05,5.89009e-07,-0.0183483,0,-69,-0.529686,0.0783753,-23.8388,-45.8723,0.02
-0.5036,-0.503697,0.171,0.1683,-0,-7.14441e-05,8.47864e-07,-0.0164645,0,-65,-0.535387,-0.250055,-24.2959,-41.1634,0.024
-0.5036,-0.503697,0.171,0.16827,-0,9.95242e-06,1.15362e-06,-0.0135099,0,-58,-0.531586,0.0348335,-24.5696,-33.7777,0.028
-0.5036,-0.503697,0.171,0.168259,-0,-2.2156e-05,1.50622e-06,-0.00995672,0,-49,-0.533486,-0.0775459,-24.6722,-24.8956,0.032
-0.5036,-0.503697,0.171,0.168263,-0,1.40203e-05,1.90561e-06,-0.00629232,0,-40,-0.531586,0.049071,-24.635,-15.7356,0.036
-0.5036,-0.503696,0.171,0.168274,-0,3.81378e-05,2.35175e-06,-0.00330236,0,-32,-0.529686,0.133482,-24.5387,-8.26179,0.04
-0.5036,-0.503697,0.171,0.168289,-0,-3.21567e-05,2.84458e-06,-0.000877194,0,-26,-0.533486,-0.112548,-24.3957,-2.2001,0.044
-0.5036,-0.503697,0.171,0.168308,-0,-5.02287e-05,3.38405e-06,0.000998705,0,-21,-0.535387,-0.1758,-24.2248,2.4883,0.048
-0.5036,-0.503696,0.171,0.16833,-0,5.2887e-05,3.97011e-06,0.00245084,0,-17,-0.529686,0.185104,-24.0322,6.11718,0.052
-0.5036,-0.503697,0.171,0.168352,-0,-5.11148e-05,4.60272e-06,0.0035053,0,-15,-0.535387,-0.178902,-23.8302,8.75175,0.056
-0.5036,-0.503697,0.171,0.168374,-0,-5.2856e-06,5.2818e-06,0.00417949,0,-13,-0.533486,-0.0184996,-23.6314,10.4355,0.06
-0.5036,-0.503697,0.171,0.168397,-0,-3.23147e-05,6.00733e-06,0.00465774,0,-11,-0.535387,-0.113101,-23.4295,11.6293,0.064
-0.5036,-0.503697,0.171,0.168418,-0,-2.15431e-05,6.77924e-06,0.00489019,0,-11,-0.535387,-0.0754009,-23.2369,12.2085,0.068
-0.5036,-0.503697,0.171,0.168439,-0,4.32198e-05,7.59748e-06,0.00495879,0,-10,-0.531586,0.151269,-23.0537,12.378,0.072
-0.5036,-0.503697,0.171,0.168457,-0,2.22607e-08,8.462e-06,0.00486057,0,-10,-0.533486,7.79123e-05,-22.8861,12.1303,0.076
-0.5036,-0.503697,0.171,0.168473,-0,2.88058e-05,9.37276e-06,0.00456476,0,-11,-0.531586,0.10082,-22.7434,11.3885,0.08
-0.5036,-0.503697,0.171,0.168486,-0,1.92038e-05,1.03297e-05,0.00413723,0,-12,-0.531586,0.0672135,-22.6256,10.3173,0.084
-0.5036,-0.503697,0.171,0.168498,-0,1.28026e-05,1.13328e-05,0.00376584,0,-13,-0.531586,0.044809,-22.5172,9.38626,0.088
-0.5036,-0.503697,0.171,0.168508,-0,-2.02559e-05,1.23819e-05,0.00334549,0,-14,-0.533486,-0.0708956,-22.4274,8.33278,0.092
-0.5036,-0.503697,0.171,0.168516,-0,-1.35039e-05,1.34771e-05,0.00286373,0,-15,-0.533486,-0.0472637,-22.3595,7.12563,0.096
-0.5036,-0.503697,0.171,0.168523,-0,1.97883e-05,1.46182e-05,0.00248497,0,-16,-0.531586,0.0692591,-22.2978,6.17588,0.1
-0.5036,-0.503697,0.171001,0.168528,-0,1.31922e-05,1.58053e-05,0.00205972,0,-17,-0.531586,0.0461727,-22.2548,5.10979,0.104
-0.5036,-0.503697,0.171001,0.168532,-0,-1.99961e-05,1.70382e-05,0.00168985,0,-18,-0.533486,-0.0699864,-22.2212,4.18202,0.108
-0.5036,-0.503697,0.171001,0.168534,-0,1.54602e-05,1.8317e-05,0.00135689,0,-18,-0.531586,0.0541106,-22.197,3.34644,0.112
-0.5036,-0.503697,0.171001,0.168536,-0,1.03068e-05,1.96416e-05,0.00101976,0,-19,-0.531586,0.0360737,-22.1852,2.50029,0.116
-0.5036,-0.503697,0.171001,0.168536,-0,6.87119e-06,2.10118e-05,0.000737421,0,-20,-0.531586,0.0240492,-22.1797,1.79102,0.12
-0.5036,-0.503697,0.171001,0.168536,-0,4.58079e-06,2.24277e-05,0.000434032,0,-21,-0.531586,0.0160328,-22.1867,1.02901,0.124
-0.5036,-0.503697,0.171001,0.168535,-0,-2.57371e-05,2.38893e-05,0.000260564,0,-21,-0.533486,-0.0900797,-22.1907,0.591686,0.128
-0.5036,-0.503697,0.171001,0.168535,-0,-1.7158e-05,2.53964e-05,0.000173709,0,-21,-0.533486,-0.0600531,-22.1915,0.370782,0.132
-0.5036,-0.503697,0.171001,0.168536,-0,-1.14387e-05,2.69491e-05,0.000144597,0,-21,-0.533486,-0.0400354,-22.1894,0.29412,0.136
-0.5036,-0.503697,0.171001,0.168535,-0,-7.6258e-06,2.85472e-05,6.76071e-05,0,-22,-0.533486,-0.0266903,-22.1935,0.0976499,0.14
-0.5036,-0.503697,0.171001,0.168536,-0,-5.08386e-06,3.01907e-05,7.38623e-05,0,-22,-0.533486,-0.0177935,-22.1914,0.109179,0.144
-0.5036,-0.503697,0.171002,0.168536,-0,-3.38924e-06,3.18796e-05,4.92416e-05,0,-22,-0.533486,-0.0118623,-22.1925,0.043405,0.148
-0.5036,-0.503697,0.171002,0.168536,-0,-2.2595e-06,3.36138e-05,3.28277e-05,0,-22,-0.533486,-0.00790823,-22.1937,-0.00196513,0.152
-0.5036,-0.503697,0.171002,0.168536,-0,2.72846e-05,3.53932e-05,7.9467e-05,0,-22,-0.531586,0.0954961,-22.1888,0.110184,0.156
-0.5036,-0.503697,0.171002,0.168536,-0,-1.06012e-05,3.72179e-05,-4.60386e-06,0,-22,-0.533486,-0.0371042,-22.1963,-0.104554,0.16
-0.5036,-0.503697,0.171002,0.168536,-0,-7.06746e-06,3.90877e-05,-3.06924e-06,0,-22,-0.533486,-0.0247361,-22.1977,-0.105392,0.164
-0.5036,-0.503697,0.171002,0.168536,-0,-4.71164e-06,4.10027e-05,-2.04616e-06,0,-22,-0.533486,-0.0164907,-22.1991,-0.107622,0.168
-0.5036,-0.503697,0.171002,0.168536,-0,2.56498e-05,4.29627e-05,-1.36411e-06,0,-22,-0.531586,0.0897744,-22.2006,-0.110817,0.172
-0.5036,-0.503697,0.171003,0.168536,-0,1.70999e-05,4.49677e-05,-9.09404e-07,0,-22,-0.531586,0.0598496,-22.2022,-0.114693,0.176
-0.5036,-0.503697,0.171003,0.168536,-0,-1.7391e-05,4.70177e-05,-6.0627e-07,0,-22,-0.533486,-0.0608685,-22.2038,-0.11906,0.18
-0.5036,-0.503697,0.171003,0.168536,-0,1.71969e-05,4.91125e-05,-4.0418e-07,0,-22,-0.531586,0.0601892,-22.2056,-0.123792,0.184
-0.5036,-0.503697,0.171003,0.168536,-0,-1.73263e-05,5.12523e-05,-2.69453e-07,0,-22,-0.533486,-0.0606421,-22.2074,-0.128804,0.188
-0.5036,-0.503697,0.171003,0.168536,-0,1.72401e-05,5.34368e-05,-1.79635e-07,0,-22,-0.531586,0.0603402,-22.2093,-0.134041,0.192
-0.5036,-0.503697,0.171004,0.168536,-0,-1.72976e-05,5.56661e-05,-1.19757e-07,0,-22,-0.533486,-0.0605414,-22.2112,-0.139465,0.196
-0.5036,-0.503697,0.171004,0.168536,-0,-1.15317e-05,5.79401e-05,-7.9838e-08,0,-22,-0.533486,-0.040361,-22.2133,-0.14505,0.2
-0.5036,-0.503697,0.171004,0.168536,-0,2.11031e-05,6.02588e-05,-5.32253e-08,0,-22,-0.531586,0.0738609,-22.2154,-0.15078,0.204
-0.5036,-0.503697,0.171004,0.168536,-0,-1.47222e-05,6.26221e-05,-3.54835e-08,0,-22,-0.533486,-0.0515276,-22.2176,-0.156644,0.208
-0.5036,-0.503697,0.171005,0.168536,-0,-9.81478e-06,6.50299e-05,-2.36557e-08,0,-22,-0.533486,-0.0343517,-22.2199,-0.162634,0.212
-0.5036,-0.503697,0.171005,0.168536,-0,-6.54319e-06,6.74822e-05,-1.57705e-08,0,-22,-0.533486,-0.0229012,-22.2223,-0.168745,0.216
-0.5036,-0.503697,0.171005,0.168536,-0,-4.36213e-06,6.9979e-05,-1.05136e-08,0,-22,-0.533486,-0.0152674,-22.2248,-0.174974,0.22
-0.5036,-0.503697,0.171005,0.168536,-0,-2.90808e-06,7.25202e-05,-7.00909e-09,0,-22,-0.533486,-0.0101783,-22.2273,-0.181318,0.224
-0.5036,-0.503697,0.171006,0.168536,-0,2.68522e-05,7.51057e-05,-4.67273e-09,0,-22,-0.531586,0.0939827,-22.23,-0.187776,0.228
-0.5036,-0.503697,0.171006,0.168536,-0,-1.08895e-05,7.77355e-05,-3.11515e-09,0,-22,-0.533486,-0.0381131,-22.2327,-0.194347,0.232
-0.5036,-0.503697,0.171006,0.168536,-0,-7.25964e-06,8.04096e-05,-2.07677e-09,0,-22,-0.533486,-0.0254087,-22.2356,-0.201029,0.236
-0.5036,-0.503697,0.171007,0.168536,-0,2.39512e-05,8.31279e-05,-1.38451e-09,0,-22,-0.531586,0.0838291,-22.2385,-0.207823,0.24
-0.5036,-0.503697,0.171007,0.168536,-0,1.59674e-05,8.58903e-05,-9.23008e-10,0,-22,-0.531586,0.0558861,-22.2416,-0.214728,0.244
-0.5036,-0.503697,0.171007,0.168536,-0,-1.8146e-05,8.86969e-05,-6.15339e-10,0,-22,-0.533486,-0.0635109,-22.2447,-0.221744,0.248
-0.5036,-0.503697,0.171008,0.168536,-0,1.66936e-05,9.15474e-05,-4.10226e-10,0,-22,-0.531586,0.0584277,-22.248,-0.22887,0.252
-0.5036,-0.503697,0.171008,0.168536,-0,-1.76618e-05,9.4442e-05,-2.73484e-10,0,-22,-0.533486,-0.0618165,-22.2513,-0.236106,0.256
-0.5036,-0.503697,0.171008,0.168536,-0,1.70164e-05,9.73806e-05,-1.82323e-10,0,-22,-0.531586,0.0595573,-22.2548,-0.243452,0.26
-0.5036,-0.503697,0.171009,0.168536,-0,1.13442e-05,0.000100363,-1.21548e-10,0,-22,-0.531586,0.0397048,-22.2583,-0.250908,0.264
-0.5036,-0.503697,0.171009,0.168536,-0,-2.12281e-05,0.000103389,-8.10323e-11,0,-22,-0.533486,-0.0742983,-22.262,-0.258473,0.268
-0.5036,-0.503697,0.17101,0.168536,-0,1.46389e-05,0.000106459,-5.40215e-11,0,-22,-0.531586,0.051236,-22.2658,-0.266148,0.272
-0.5036,-0.503697,0.17101,0.168536,-0,-1.90317e-05,0.000109573,-3.60143e-11,0,-22,-0.533486,-0.0666109,-22.2697,-0.273933,0.276
-0.5036,-0.503697,0.171011,0.168536,-0,-1.26878e-05,0.000112731,-2.40096e-11,0,-22,-0.533486,-0.0444073,-22.2737,-0.281827,0.28
-0.5036,-0.503697,0.171011,0.168536,-0,-8.45853e-06,0.000115932,-1.60064e-11,0,-22,-0.533486,-0.0296048,-22.2778,-0.28983,0.284
-0.5036,-0.503697,0.171012,0.168536,-0,2.31519e-05,0.000119177,2.87909e-05,0,-22,-0.531586,0.0810317,-22.2789,-0.225964,0.288
-0.5036,-0.503697,0.171012,0.168536,-0,-1.33563e-05,0.000122465,-9.59698e-06,0,-22,-0.533486,-0.0467471,-22.2863,-0.330155,0.292
-0.5036,-0.503697,0.171012,0.168536,-0,-8.90421e-06,0.000125797,-6.39799e-06,0,-22,-0.533486,-0.0311647,-22.2908,-0.330487,0.296
-0.5036,-0.503697,0.171013,0.168536,-0,2.28548e-05,0.000129172,-4.26533e-06,0,-22,-0.531586,0.0799917,-22.2954,-0.333593,0.3
-0.5036,-0.503697,0.171014,0.168536,-0,-1.35544e-05,0.000132591,-2.84355e-06,0,-22,-0.533486,-0.0474404,-22.3001,-0.338586,0.304
-0.5036,-0.503697,0.171014,0.168536,-0,-9.03627e-06,0.000136053,-1.8957e-06,0,-22,-0.533486,-0.0316269,-22.305,-0.344871,0.308
-0.5036,-0.503697,0.171015,0.168536,-0,-6.02418e-06,0.000139558,-1.2638e-06,0,-22,-0.533486,-0.0210846,-22.3099,-0.352054,0.312
-0.5036,-0.503697,0.171015,0.168536,-0,-4.01612e-06,0.000143107,-8.42533e-07,0,-22,-0.533486,-0.0140564,-22.315,-0.359873,0.316
-0.5036,-0.503697,0.171016,0.168536,-0,-2.67741e-06,0.000146698,-5.61689e-07,0,-22,-0.533486,-0.00937095,-22.3202,-0.36815,0.32
-0.5036,-0.503697,0.171016,0.168536,-0,-1.78494e-06,0.000150333,-3.74459e-07,0,-22,-0.533486,-0.0062473,-22.3256,-0.376769,0.324
-0.5036,-0.503697,0.171017,0.168536,-0,2.7601e-05,0.000154011,-2.4964e-07,0,-22,-0.531586,0.0966034,-22.331,-0.385652,0.328
-0.5036,-0.503697,0.171018,0.168536,-0,1.84006e-05,0.000157732,-1.66426e-07,0,-22,-0.531586,0.0644022,-22.3367,-0.394747,0.332
-0.5036,-0.503697,0.171018,0.168536,-0,-1.65238e-05,0.000161496,-1.10951e-07,0,-22,-0.533486,-0.0578334,-22.3424,-0.404018,0.336
-0.5036,-0.503697,0.171019,0.168536,-0,-1.10159e-05,0.000165303,-7.39673e-08,0,-22,-0.533486,-0.0385556,-22.3483,-0.413443,0.34
-0.5036,-0.503697,0.17102,0.168536,-0,2.1447e-05,0.000169153,-4.93115e-08,0,-22,-0.531586,0.0750645,-22.3543,-0.423006,0.344
-0.5036,-0.503697,0.17102,0.168536,-0,1.4298e-05,0.000173046,-3.28743e-08,0,-22,-0.531586,0.050043,-22.3605,-0.432697,0.348
-0.5036,-0.503697,0.171021,0.168536,-0,-1.92589e-05,0.000176981,-2.19162e-08,0,-22,-0.533486,-0.0674062,-22.3668,-0.442508,0.352
-0.5036,-0.503697,0.171022,0.168536,-0,1.59516e-05,0.00018096,-1.46108e-08,0,-22,-0.531586,0.0558307,-22.3732,-0.452435,0.356
-0.5036,-0.503697,0.171022,0.168536,-0,1.06344e-05,0.000184981,-9.74055e-09,0,-22,-0.531586,0.0372205,-22.3798,-0.462476,0.36
-0.5036,-0.503697,0.171023,0.168536,-0,-2.17013e-05,0.000189044,2.87844e-05,0,-22,-0.533486,-0.0759546,-22.3834,-0.400649,0.364
-0.5036,-0.503697,0.171024,0.168536,-0,1.43234e-05,0.00019315,1.91896e-05,0,-22,-0.531586,0.0501319,-22.3903,-0.434902,0.368
-0.5036,-0.503697,0.171025,0.168536,-0,-1.9242e-05,0.000197299,1.27931e-05,0,-22,-0.533486,-0.067347,-22.3973,-0.461265,0.372
-0.5036,-0.503697,0.171025,0.168536,-0,-1.2828e-05,0.00020149,-2.02622e-05,0,-22,-0.533486,-0.044898,-22.4076,-0.554381,0.376
-0.5036,-0.503697,0.171026,0.168536,-0,2.02389e-05,0.000205724,4.40737e-05,0,-22,-0.531586,0.0708362,-22.4087,-0.404126,0.38
-0.5036,-0.503697,0.171027,0.168536,-0,1.34926e-05,0.00021,5.91551e-07,0,-22,-0.531586,0.0472242,-22.4193,-0.523521,0.384
-0.5036,-0.503697,0.171028,0.168536,-0,-1.97958e-05,0.000214319,3.94367e-07,0,-22,-0.533486,-0.0692855,-22.427,-0.534811,0.388
-0.5036,-0.503697,0.171029,0.168536,-0,1.55937e-05,0.000218679,2.62911e-07,0,-22,-0.531586,0.0545779,-22.4347,-0.546041,0.392
-0.5036,-0.503697,0.17103,0.168536,-0,-1.83951e-05,0.000223082,-2.86157e-05,0,-23,-0.533486,-0.064383,-22.4458,-0.629245,0.396
-0.5036,-0.503697,0.171031,0.168536,-0,1.65275e-05,0.000227528,9.71382e-06,0,-22,-0.531586,0.0578463,-22.4508,-0.544534,0.4
-0.5036,-0.503697,0.171032,0.168536,-0,1.10183e-05,0.000232015,6.47588e-06,0,-23,-0.531586,0.0385642,-22.4591,-0.563847,0.404
-0.5036,-0.503697,0.171032,0.168536,-0,-2.14454e-05,0.000236544,4.31726e-06,0,-23,-0.533486,-0.0750588,-22.4675,-0.580568,0.408
-0.5036,-0.503697,0.171033,0.168536,-0,-1.42969e-05,0.000241116,2.87817e-06,0,-23,-0.533486,-0.0500392,-22.4761,-0.595594,0.412
-0.5036,-0.503697,0.171034,0.168536,-0,1.92597e-05,0.000245729,1.91878e-06,0,-23,-0.531586,0.0674088,-22.4849,-0.609526,0.416
-0.5036,-0.503697,0.171035,0.168536,-0,1.28398e-05,0.000250385,1.27919e-06,0,-23,-0.531586,0.0449392,-22.4938,-0.622764,0.42
-0.5036,-0.503697,0.171036,0.168536,-0,-2.02311e-05,0.000255082,8.52791e-07,0,-23,-0.533486,-0.0708088,-22.5029,-0.635573,0.424
-0.5036,-0.503697,0.171037,0.168536,-0,1.53035e-05,0.000259821,5.68527e-07,0,-23,-0.531586,0.0535624,-22.5122,-0.648132,0.428
-0.5036,-0.503697,0.171038,0.168536,-0,1.02024e-05,0.000264602,3.79018e-07,0,-23,-0.531586,0.0357083,-22.5216,-0.660558,0.432
-0.5036,-0.503697,0.17104,0.168536,-0,-2.19894e-05,0.000269425,2.52679e-07,0,-23,-0.533486,-0.0769627,-22.5312,-0.672931,0.436
-0.5036,-0.503697,0.171041,0.168536,-0,1.41314e-05,0.00027429,1.68453e-07,0,-23,-0.531586,0.0494597,-22.541,-0.685303,0.44
-0.5036,-0.503697,0.171042,0.168536,-0,9.4209e-06,0.000279196,1.12302e-07,0,-23,-0.531586,0.0329732,-22.551,-0.697709,0.444
-0.5036,-0.503697,0.171043,0.168536,-0,-2.25103e-05,0.000284143,7.48678e-08,0,-23,-0.533486,-0.0787861,-22.5611,-0.710171,0.448
-0.5036,-0.503697,0.171044,0.168536,-0,1.3784e-05,0.000289133,4.99119e-08,0,-23,-0.531586,0.0482442,-22.5714,-0.722707,0.452
-0.5036,-0.503697,0.171045,0.168536,-0,-1.96016e-05,0.000294164,3.32746e-08,0,-23,-0.533486,-0.0686055,-22.5819,-0.735326,0.456
-0.5036,-0.503697,0.171046,0.168536,-0,1.57232e-05,0.000299236,2.21831e-08,0,-23,-0.531586,0.0550313,-22.5926,-0.748034,0.46
-0.5036,-0.503697,0.171048,0.168536,-0,1.04821e-05,0.000304349,1.47887e-08,0,-23,-0.531586,0.0366875,-22.6035,-0.760837,0.464
-0.5036,-0.503697,0.171049,0.168536,-0,6.9881e-06,0.000309504,9.85914e-09,0,-23,-0.531586,0.0244583,-22.6145,-0.773737,0.468
-0.5036,-0.503697,0.17105,0.168536,-0,-2.41322e-05,0.000314701,6.57276e-09,0,-23,-0.533486,-0.0844627,-22.6258,-0.786736,0.472
-0.5036,-0.503697,0.171051,0.168536,-0,-1.60881e-05,0.000319938,4.38184e-09,0,-23,-0.533486,-0.0563085,-22.6372,-0.799835,0.476
-0.5036,-0.503697,0.171053,0.168536,-0,1.80655e-05,0.000325217,2.92123e-09,0,-23,-0.531586,0.0632293,-22.6488,-0.813036,0.48
-0.5036,-0.503697,0.171054,0.168536,-0,1.20437e-05,0.000330537,1.94748e-09,0,-23,-0.531586,0.0421528,-22.6606,-0.826338,0.484
-0.5036,-0.503697,0.171055,0.168536,-0,8.02911e-06,0.000335898,1.29832e-09,0,-23,-0.531586,0.0281019,-22.6726,-0.839742,0.488
-0.5036,-0.503697,0.171057,0.168536,-0,5.35274e-06,0.0003413,8.65548e-10,0,-23,-0.531586,0.0187346,-22.6848,-0.853249,0.492
-0.5036,-0.503697,0.171058,0.168536,-0,-2.52224e-05,0.000346744,5.77032e-10,0,-23,-0.533486,-0.0882785,-22.6972,-0.866857,0.496
-0.5036,-0.503697,0.171059,0.168536,-0,1.1976e-05,0.000352228,3.84688e-10,0,-23,-0.531586,0.0419159,-22.7098,-0.880568,0.5
-0.5036,-0.503697,0.171061,0.168536,-0,-2.08069e-05,0.000357753,2.56459e-10,0,-23,-0.533486,-0.0728243,-22.7225,-0.894381,0.504
-0.5036,-0.503697,0.171062,0.168536,-0,1.49196e-05,0.000363319,1.70972e-10,0,-23,-0.531586,0.0522187,-22.7355,-0.908296,0.508
-0.5036,-0.503697,0.171064,0.168536,-0,9.94642e-06,0.000368925,1.13982e-10,0,-23,-0.531586,0.0348125,-22.7487,-0.922313,0.512
-0.5036,-0.503697,0.171065,0.168536,-0,-2.216e-05,0.000374573,7.59878e-11,0,-23,-0.533486,-0.0775599,-22.7621,-0.936432,0.516
-0.5036,-0.503697,0.171067,0.168536,-0,-1.47733e-05,0.000380261,5.06585e-11,0,-23,-0.533486,-0.0517066,-22.7757,-0.950652,0.52
-0.5036,-0.503697,0.171068,0.168536,-0,-9.84888e-06,0.00038599,3.37723e-11,0,-23,-0.533486,-0.0344711,-22.7895,-0.964974,0.524
-0.5036,-0.503697,0.17107,0.168536,-0,2.2225e-05,0.000391759,2.25149e-11,0,-23,-0.531586,0.0777875,-22.8035,-0.979398,0.528
-0.5036,-0.503697,0.171071,0.168536,-0,1.48167e-05,0.000397569,1.50099e-11,0,-23,-0.531586,0.0518583,-22.8177,-0.993923,0.532
-0.5036,-0.503697,0.171073,0.168536,-0,9.87778e-06,0.00040342,1.00066e-11,0,-23,-0.531586,0.0345722,-22.8321,-1.00855,0.536
-0.5036,-0.503697,0.171075,0.168536,-0,6.58519e-06,0.000409311,6.67108e-12,0,-23,-0.531586,0.0230482,-22.8467,-1.02328,0.54
-0.5036,-0.503697,0.171076,0.168536,-0,4.39012e-06,0.000415242,4.44739e-12,0,-23,-0.531586,0.0153654,-22.8615,-1.03811,0.544
-0.5036,-0.503697,0.171078,0.168536,-0,2.92675e-06,0.000421214,2.96492e-12,0,-23,-0.531586,0.0102436,-22.8766,-1.05304,0.548
-0.5036,-0.503697,0.17108,0.168536,-0,1.95117e-06,0.000427227,1.97662e-12,0,-23,-0.531586,0.00682908,-22.8919,-1.06807,0.552
-0.5036,-0.503697,0.171081,0.168536,-0,1.30078e-06,0.000433279,1.31774e-12,0,-23,-0.531586,0.00455272,-22.9074,-1.0832,0.556
-0.5036,-0.503697,0.171083,0.168536,-0,-2.79237e-05,0.000439372,8.78496e-13,0,-24,-0.533486,-0.0977331,-22.9231,-1.09843,0.56
-0.5036,-0.503697,0.171085,0.168537,-0,-1.86158e-05,0.000445505,5.75819e-05,0,-23,-0.533486,-0.0651554,-22.9328,-0.969807,0.564
-0.5036,-0.503697,0.171087,0.168536,-0,-1.24106e-05,0.000451678,-1.91939e-05,0,-24,-0.533486,-0.0434369,-22.9551,-1.17718,0.568
-0.5036,-0.503697,0.171088,0.168536,-0,2.05172e-05,0.000457891,-1.2796e-05,0,-24,-0.531586,0.0718103,-22.9715,-1.17672,0.572
-0.5036,-0.503697,0.17109,0.168536,-0,-1.51128e-05,0.000464144,-8.53064e-06,0,-24,-0.533486,-0.0528947,-22.9881,-1.18169,0.576
-0.5036,-0.503697,0.171092,0.168536,-0,-1.00752e-05,0.000470437,2.31038e-05,0,-24,-0.533486,-0.0352631,-23.0018,-1.11833,0.58
-0.5036,-0.503697,0.171094,0.168536,-0,2.20741e-05,0.00047677,1.54026e-05,0,-24,-0.531586,0.0772595,-23.0189,-1.15342,0.584
-0.5036,-0.503697,0.171096,0.168536,-0,1.47161e-05,0.000483143,1.02684e-05,0,-24,-0.531586,0.0515063,-23.0362,-1.18219,0.588
-0.5036,-0.503697,0.171098,0.168536,-0,-1.89802e-05,0.000489556,6.84558e-06,0,-24,-0.533486,-0.0664307,-23.0537,-1.20678,0.592
-0.5036,-0.503697,0.1711,0.168536,-0,1.61375e-05,0.000496008,4.56372e-06,0,-24,-0.531586,0.0564811,-23.0714,-1.22861,0.596
-0.5036,-0.503697,0.171102,0.168536,-0,-1.80326e-05,0.000502501,3.04248e-06,0,-24,-0.533486,-0.0631142,-23.0894,-1.24865,0.6
-0.5036,-0.503697,0.171104,0.168536,-0,1.67692e-05,0.000509033,-2.67626e-05,0,-24,-0.531586,0.0586921,-23.1107,-1.33949,0.604
-0.5036,-0.503697,0.171106,0.168536,-0,-1.76115e-05,0.000515604,1.09492e-05,0,-24,-0.533486,-0.0616402,-23.126,-1.26164,0.608
-0.5036,-0.503697,0.171108,0.168536,-0,-1.1741e-05,0.000522215,7.29946e-06,0,-24,-0.533486,-0.0410934,-23.1447,-1.28729,0.612
-0.5036,-0.503697,0.17111,0.168537,-0,-7.82732e-06,0.000528866,3.36572e-05,0,-24,-0.533486,-0.0273956,-23.1605,-1.23802,0.616
-0.5036,-0.503697,0.171112,0.168536,-0,2.35727e-05,0.000535556,-3.51437e-05,0,-24,-0.531586,0.0825045,-23.1859,-1.42675,0.62
-0.5036,-0.503697,0.171114,0.168536,-0,-1.30758e-05,0.000542286,5.36179e-06,0,-24,-0.533486,-0.0457652,-23.2022,-1.34231,0.624
-0.5036,-0.503697,0.171117,0.168537,-0,-8.71719e-06,0.000549055,3.23655e-05,0,-24,-0.533486,-0.0305102,-23.2187,-1.29172,0.628
-0.5036,-0.503697,0.171119,0.168537,-0,-5.81146e-06,0.000555864,2.1577e-05,0,-24,-0.533486,-0.0203401,-23.2386,-1.33572,0.632
-0.5036,-0.503697,0.171121,0.168537,-0,2.49166e-05,0.000562712,1.43846e-05,0,-24,-0.531586,0.0872082,-23.2587,-1.37082,0.636
-0.5036,-0.503697,0.171123,0.168537,-0,1.66111e-05,0.000569599,9.58976e-06,0,-24,-0.531586,0.0581388,-23.2791,-1.40002,0.64
-0.5036,-0.503697,0.171126,0.168537,-0,-1.77169e-05,0.000576525,6.39318e-06,0,-24,-0.533486,-0.0620091,-23.2998,-1.42533,0.644
-0.5036,-0.503697,0.171128,0.168537,-0,1.69797e-05,0.00058349,4.26212e-06,0,-24,-0.531586,0.0594289,-23.3206,-1.44807,0.648
-0.5036,-0.503697,0.17113,0.168537,-0,-1.74711e-05,0.000590495,2.84141e-06,0,-24,-0.533486,-0.061149,-23.3418,-1.46913,0.652
-0.5036,-0.503697,0.171133,0.168537,-0,1.71435e-05,0.000597538,1.89427e-06,0,-24,-0.531586,0.0600022,-23.3632,-1.48911,0.656
-0.5036,-0.503697,0.171135,0.168537,-0,1.1429e-05,0.000604621,1.26285e-06,0,-24,-0.531586,0.0400015,-23.3848,-1.5084,0.66
-0.5036,-0.503697,0.171138,0.168537,-0,-2.11716e-05,0.000611742,8.419e-07,0,-24,-0.533486,-0.0741006,-23.4067,-1.52725,0.664
-0.5036,-0.503697,0.17114,0.168537,-0,1.46765e-05,0.000618903,5.61266e-07,0,-24,-0.531586,0.0513679,-23.4288,-1.54585,0.668
-0.5036,-0.503697,0.171142,0.168537,-0,-1.90066e-05,0.000626102,3.74178e-07,0,-25,-0.533486,-0.066523,-23.4513,-1.56432,0.672
-0.5036,-0.503697,0.171145,0.168537,-0,1.61199e-05,0.00063334,2.49452e-07,0,-25,-0.531586,0.0564196,-23.4739,-1.58273,0.676
-0.5036,-0.503697,0.171148,0.168537,-0,-1.80443e-05,0.000640617,5.77482e-05,0,-24,-0.533486,-0.0631552,-23.4906,-1.45717,0.68
-0.5036,-0.503697,0.17115,0.168537,-0,1.67614e-05,0.000647933,3.84988e-05,0,-25,-0.531586,0.0586648,-23.5138,-1.52359,0.684
-0.5036,-0.503697,0.171153,0.168536,-0,1.11742e-05,0.000655287,-6.07069e-05,0,-25,-0.531586,0.0391099,-23.5466,-1.78999,0.688
-0.5036,-0.503697,0.171155,0.168537,-0,7.4495e-06,0.00066268,1.71106e-05,0,-25,-0.531586,0.0260732,-23.5641,-1.61392,0.692
-0.5036,-0.503697,0.171158,0.168538,-0,-2.38246e-05,0.000670112,6.89889e-05,0,-25,-0.533486,-0.0833861,-23.5819,-1.50281,0.696
-0.5036,-0.503697,0.171161,0.168537,-0,-1.58831e-05,0.000677582,1.72017e-05,0,-25,-0.533486,-0.0555907,-23.6093,-1.65095,0.7
-0.5036,-0.503697,0.171163,0.168538,-0,-1.05887e-05,0.00068509,4.02587e-05,0,-25,-0.533486,-0.0370605,-23.6307,-1.61208,0.704
-0.5036,-0.503697,0.171166,0.168538,-0,2.17318e-05,0.000692637,2.68391e-05,0,-25,-0.531586,0.0760612,-23.6555,-1.6645,0.708
-0.5036,-0.503697,0.171169,0.168538,-0,-1.43031e-05,0.000700223,1.78928e-05,0,-25,-0.533486,-0.0500607,-23.6805,-1.70582,0.712
-0.5036,-0.503697,0.171172,0.168538,-0,-9.53538e-06,0.000707846,1.19285e-05,0,-25,-0.533486,-0.0333738,-23.7059,-1.73979,0.716
-0.5036,-0.503697,0.171175,0.168538,-0,2.2434e-05,0.000715508,3.67433e-05,0,-25,-0.531586,0.078519,-23.7284,-1.69691,0.72
-0.5036,-0.503697,0.171178,0.168538,-0,1.4956e-05,0.000723209,2.44955e-05,0,-25,-0.531586,0.052346,-23.7543,-1.74678,0.724
-0.5036,-0.503697,0.17118,0.168538,-0,9.97067e-06,0.000730947,1.63303e-05,0,-25,-0.531586,0.0348973,-23.7805,-1.78654,0.728
-0.5036,-0.503697,0.171183,0.168538,-0,6.64711e-06,0.000738724,1.08869e-05,0,-25,-0.531586,0.0232649,-23.8069,-1.81959,0.732
-0.5036,-0.503697,0.171186,0.168538,-0,4.43141e-06,0.000746538,7.25793e-06,0,-25,-0.531586,0.0155099,-23.8337,-1.8482,0.736
-0.5036,-0.503697,0.171189,0.168539,-0,-2.58367e-05,0.000754391,3.36295e-05,0,-25,-0.533486,-0.0904283,-23.8576,-1.8019,0.74
-0.5036,-0.503697,0.171192,0.168538,-0,-1.72244e-05,0.000762282,-6.37123e-06,0,-25,-0.533486,-0.0602855,-23.888,-1.92163,0.744
-0.5036,-0.503697,0.171195,0.168539,-0,1.7308e-05,0.00077021,2.45434e-05,0,-25,-0.531586,0.0605779,-23.9125,-1.86417,0.748
-0.5036,-0.503697,0.171199,0.168539,-0,-1.72523e-05,0.000778177,1.63623e-05,0,-25,-0.533486,-0.060383,-23.9403,-1.90454,0.752
-0.5036,-0.503697,0.171202,0.168539,-0,-1.15015e-05,0.000786181,1.09082e-05,0,-25,-0.533486,-0.0402553,-23.9685,-1.93818,0.756
-0.5036,-0.503697,0.171205,0.168539,-0,-7.66768e-06,0.000794223,7.27213e-06,0,-25,-0.533486,-0.0268369,-23.9969,-1.96738,0.76
-0.5036,-0.503697,0.171208,0.168539,-0,2.36791e-05,0.000802303,4.84809e-06,0,-26,-0.531586,0.082877,-24.0257,-1.99364,0.764
-0.5036,-0.503697,0.171211,0.168539,-0,-1.30048e-05,0.000810421,3.23206e-06,0,-26,-0.533486,-0.0455169,-24.0547,-2.01797,0.768
-0.5036,-0.503697,0.171215,0.168539,-0,-8.66989e-06,0.000818576,3.09456e-05,0,-26,-0.533486,-0.0303446,-24.0809,-1.96908,0.772
-0.5036,-0.503697,0.171218,0.168539,-0,2.3011e-05,0.000826769,2.06304e-05,0,-26,-0.531586,0.0805385,-24.1105,-2.01535,0.776
-0.5036,-0.503697,0.171221,0.168539,-0,1.53407e-05,0.000835,4.25445e-05,0,-26,-0.531586,0.0536923,-24.1373,-1.98114,0.78
-0.5036,-0.503697,0.171224,0.168539,-0,1.02271e-05,0.000843268,2.8363e-05,0,-26,-0.531586,0.0357949,-24.1675,-2.03726,0.784
-0.5036,-0.503697,0.171228,0.168539,-0,-2.19729e-05,0.000851574,1.89087e-05,0,-26,-0.533486,-0.076905,-24.198,-2.08166,0.788
-0.5036,-0.503697,0.171231,0.168539,-0,1.41424e-05,0.000859916,1.26058e-05,0,-26,-0.531586,0.0494983,-24.2288,-2.11828,0.792
-0.5036,-0.503697,0.171235,0.16854,-0,-1.93627e-05,0.000868297,3.71948e-05,0,-26,-0.533486,-0.0677694,-24.2568,-2.07776,0.796
-0.5036,-0.503697,0.171238,0.16854,-0,-1.29085e-05,0.000876714,2.47965e-05,0,-26,-0.533486,-0.0451796,-24.2883,-2.12979,0.8
-0.5036,-0.503697,0.171242,0.16854,-0,-8.60564e-06,0.000885169,4.53219e-05,0,-26,-0.533486,-0.0301197,-24.3169,-2.09962,0.804
-0.5036,-0.503697,0.171245,0.16854,-0,-5.73709e-06,0.000893662,5.90056e-05,0,-26,-0.533486,-0.0200798,-24.3458,-2.08664,0.808
-0.5036,-0.503697,0.171249,0.168541,-0,2.49662e-05,0.000902191,6.8128e-05,0,-26,-0.531586,0.0873817,-24.375,-2.08516,0.812
-0.5036,-0.503697,0.171253,0.168541,-0,-1.21468e-05,0.000910757,7.42096e-05,0,-26,-0.533486,-0.0425138,-24.4045,-2.09137,0.816
-0.5036,-0.503697,0.171256,0.168541,-0,2.06931e-05,0.000919361,4.9473e-05,0,-26,-0.531586,0.0724257,-24.4375,-2.17472,0.82
-0.5036,-0.503697,0.17126,0.168541,-0,1.37954e-05,0.000928002,6.1773e-05,0,-26,-0.531586,0.0482838,-24.4676,-2.16557,0.824
-0.5036,-0.503697,0.171264,0.168542,-0,9.19692e-06,0.000936679,9.87638e-05,0,-26,-0.531586,0.0321892,-24.4949,-2.09479,0.828
-0.5036,-0.503697,0.171267,0.168542,-0,-2.26596e-05,0.000945394,9.46335e-05,0,-26,-0.533486,-0.0793088,-24.5257,-2.1269,0.832
-0.5036,-0.503697,0.171271,0.168543,-0,-1.51064e-05,0.000954145,0.000120671,0,-26,-0.533486,-0.0528725,-24.5537,-2.08369,0.836
-0.5036,-0.503697,0.171275,0.168544,-0,1.872e-05,0.000962934,0.00016682,0,-26,-0.531586,0.0655199,-24.5789,-1.99028,0.84
-0.5036,-0.503697,0.171279,0.168545,-0,1.248e-05,0.000971759,0.000197586,0,-26,-0.531586,0.0436799,-24.6044,-1.93543,0.844
-0.5036,-0.503697,0.171283,0.168546,-0,8.31999e-06,0.000980621,0.000246888,0,-26,-0.531586,0.02912,-24.6271,-1.83433,0.848
-0.5036,-0.503697,0.171287,0.168548,-0,-2.32443e-05,0.000989519,0.000308546,0,-26,-0.533486,-0.0813549,-24.647,-1.70243,0.852
-0.5036,-0.503697,0.171291,0.16855,-0,1.32947e-05,0.000998455,0.000349652,0,-26,-0.531586,0.0465316,-24.6672,-1.62201,0.856
-0.5036,-0.503697,0.171295,0.168552,-0,8.86316e-06,0.00100743,0.000405847,0,-26,-0.531586,0.0310211,-24.6847,-1.50395,0.86
-0.5036,-0.503697,0.171299,0.168555,-0,-2.28821e-05,0.00101643,0.000529683,0,-25,-0.533486,-0.0800875,-24.6931,-1.21688,0.864
-0.5036,-0.503697,0.171303,0.168558,-0,1.35362e-05,0.00102548,0.00061224,0,-25,-0.531586,0.0473766,-24.7019,-1.0331,0.868
-0.5036,-0.503697,0.171307,0.168562,-0,-1.97668e-05,0.00103456,0.000696069,0,-25,-0.533486,-0.0691839,-24.7079,-0.84623,0.872
-0.5036,-0.503697,0.171311,0.168566,-0,1.5613e-05,0.00104368,0.000838328,0,-25,-0.531586,0.0546457,-24.7048,-0.513377,0.876
-0.5036,-0.503697,0.171315,0.168571,-0,1.04087e-05,0.00105283,0.000990749,0,-24,-0.531586,0.0364304,-24.6959,-0.15521,0.88
-0.5036,-0.503697,0.17132,0.168577,-0,6.93913e-06,0.00106202,0.00114995,0,-24,-0.531586,0.024287,-24.6812,0.219803,0.884
-0.5036,-0.503697,0.171324,0.168583,-0,4.62609e-06,0.00107125,0.00128487,0,-24,-0.531586,0.0161913,-24.6636,0.53404,0.888
-0.5036,-0.503697,0.171328,0.16859,-0,3.08406e-06,0.00108051,0.0014324,0,-23,-0.531586,0.0107942,-24.6401,0.879706,0.892
-0.5036,-0.503697,0.171332,0.168598,-0,2.05604e-06,0.00108981,0.00158833,0,-23,-0.531586,0.00719614,-24.6108,1.2463,0.896
-0.5036,-0.503697,0.171337,0.168606,-0,1.37069e-06,0.00109915,0.00172108,0,-23,-0.531586,0.00479742,-24.5787,1.55483,0.9
-0.5036,-0.503697,0.171341,0.168614,-0,-2.78771e-05,0.00110852,0.00180958,0,-22,-0.533486,-0.09757,-24.5469,1.75264,0.904
-0.5036,-0.503697,0.171346,0.168622,-0,1.02062e-05,0.00111793,0.00186858,0,-22,-0.531586,0.0357216,-24.5154,1.87662,0.908
-0.5036,-0.503697,0.17135,0.168629,-0,-2.19868e-05,0.00112737,0.00182154,0,-22,-0.533486,-0.0769538,-24.4937,1.73541,0.912
-0.5036,-0.503697,0.171355,0.168635,-0,1.41331e-05,0.00113685,0.00176138,0,-22,-0.531586,0.0494657,-24.4754,1.56134,0.916
-0.5036,-0.503697,0.171359,0.168641,-0,-1.93689e-05,0.00114637,0.0016637,0,-23,-0.533486,-0.0677911,-24.4636,1.29334,0.92
-0.5036,-0.503697,0.171364,0.168645,-0,-1.29126e-05,0.00115592,0.00145463,0,-23,-0.533486,-0.0451941,-24.4677,0.746771,0.924
-0.5036,-0.503697,0.171369,0.168647,-0,-8.6084e-06,0.0011655,0.00111371,0,-24,-0.533486,-0.0301294,-24.494,-0.129498,0.928
-0.5036,-0.503697,0.171373,0.168647,-0,2.3052e-05,0.00117513,0.000713679,0,-25,-0.531586,0.080682,-24.5392,-1.15362,0.932
-0.5036,-0.503697,0.171378,0.168646,-0,-1.34229e-05,0.00118479,0.000418204,0,-26,-0.533486,-0.0469803,-24.5879,-1.91645,0.936
-0.5036,-0.503697,0.171383,0.168646,-0,1.98423e-05,0.00119448,0.000250012,0,-26,-0.531586,0.0694481,-24.6338,-2.36117,0.94
-0.5036,-0.503697,0.171387,0.168646,-0,1.32282e-05,0.00120421,0.000195466,0,-27,-0.531586,0.0462987,-24.6739,-2.52186,0.944
-0.5036,-0.503697,0.171392,0.168647,-0,8.8188e-06,0.00121398,0.000187892,0,-27,-0.531586,0.0308658,-24.7112,-2.56521,0.948
-0.5036,-0.503697,0.171397,0.168646,-0,5.8792e-06,0.00122378,9.64706e-05,0,-27,-0.531586,0.0205772,-24.7582,-2.81826,0.952
-0.5036,-0.503697,0.171402,0.168646,-0,-2.48715e-05,0.00123361,6.43137e-05,0,-27,-0.533486,-0.0870501,-24.8024,-2.92325,0.956
-0.5036,-0.503697,0.171407,0.168646,-0,1.221e-05,0.00124348,4.28758e-05,0,-27,-0.531586,0.0427348,-24.847,-3.00152,0.96
-0.5036,-0.503697,0.171412,0.168646,-0,8.13997e-06,0.00125339,2.85839e-05,0,-27,-0.531586,0.0284899,-24.892,-3.06202,0.964
-0.5036,-0.503697,0.171417,0.168646,-0,5.42665e-06,0.00126333,1.90559e-05,0,-28,-0.531586,0.0189933,-24.9373,-3.1107,0.968
-0.5036,-0.503697,0.171422,0.168646,-0,3.61776e-06,0.00127331,1.27039e-05,0,-28,-0.531586,0.0126622,-24.9829,-3.15152,0.972
-0.5036,-0.503697,0.171427,0.168646,-0,2.41184e-06,0.00128333,8.46929e-06,0,-28,-0.531586,0.00844145,-25.0289,-3.18714,0.976
-0.5036,-0.503697,0.171432,0.168646,-0,1.6079e-06,0.00129337,5.6462e-06,0,-28,-0.531586,0.00562763,-25.0753,-3.21932,0.98
-0.5036,-0.503697,0.171438,0.168646,-0,-2.7719e-05,0.00130346,3.76413e-06,0,-28,-0.533486,-0.0970165,-25.1221,-3.24923,0.984
-0.5036,-0.503697,0.171443,0.168646,-0,-1.84793e-05,0.00131358,2.50942e-06,0,-28,-0.533486,-0.0646777,-25.1692,-3.27767,0.988
-0.5036,-0.503697,0.171448,0.168647,-0,1.64714e-05,0.00132373,3.04639e-05,0,-28,-0.531586,0.0576498,-25.2135,-3.23316,0.992
-0.5036,-0.503697,0.171453,0.168646,-0,1.09809e-05,0.00133392,-8.48168e-06,0,-28,-0.531586,0.0384332,-25.2645,-3.356,0.996
-0.5036,-0.503697,0.171459,0.168646,-0,7.32061e-06,0.00134414,-5.65445e-06,0,-28,-0.531586,0.0256221,-25.3127,-3.37449,1
-0.5036,-0.503697,0.171464,0.168646,-0,4.88041e-06,0.0013544,-3.76963e-06,0,-28,-0.531586,0.0170814,-25.3613,-3.39542,1.004
-0.5036,-0.503697,0.17147,0.168646,-0,3.2536e-06,0.00136469,-2.51309e-06,0,-28,-0.531586,0.0113876,-25.4102,-3.41802,1.008
-0.5036,-0.503697,0.171475,0.168646,-0,2.16907e-06,0.00137502,-1.67539e-06,0,-28,-0.531586,0.00759174,-25.4595,-3.44174,1.012
-0.5036,-0.503696,0.171481,0.168646,-0,3.0237e-05,0.00138538,-1.11693e-06,0,-28,-0.529686,0.105829,-25.5092,-3.46625,1.016
-0.5036,-0.503696,0.171486,0.168646,-0,2.0158e-05,0.00139578,-7.44619e-07,0,-29,-0.529686,0.0705529,-25.5593,-3.49132,1.02
-0.5036,-0.503697,0.171492,0.168646,-0,-7.29341e-05,0.00140622,-4.96413e-07,0,-29,-0.535387,-0.255269,-25.6097,-3.51678,1.024
-0.5036,-0.503696,0.171497,0.168646,-0,3.775e-05,0.00141668,-3.30942e-07,0,-29,-0.529686,0.132125,-25.6605,-3.54253,1.028
-0.5036,-0.503697,0.171503,0.168647,-0,-6.12061e-05,0.00142718,2.85703e-05,0,-29,-0.535387,-0.214221,-25.7086,-3.49653,1.032
-0.5036,-0.503697,0.171509,0.168646,-0,1.67778e-05,0.00143772,-9.74406e-06,0,-29,-0.531586,0.0587223,-25.7633,-3.61866,1.036
-0.5036,-0.503697,0.171515,0.168647,-0,1.11852e-05,0.00144829,2.22949e-05,0,-29,-0.531586,0.0391482,-25.8121,-3.56499,1.04
-0.5036,-0.503697,0.17152,0.168646,-0,7.4568e-06,0.0014589,-1.39277e-05,0,-29,-0.531586,0.0260988,-25.8675,-3.68206,1.044
-0.5036,-0.503697,0.171526,0.168647,-0,4.9712e-06,0.00146954,1.95058e-05,0,-29,-0.531586,0.0173992,-25.9171,-3.62507,1.048
-0.5036,-0.503697,0.171532,0.168647,-0,3.31413e-06,0.00148021,1.30039e-05,0,-29,-0.531586,0.0115995,-25.9702,-3.66801,1.052
-0.5036,-0.503697,0.171538,0.168647,-0,-5.53724e-05,0.00149092,8.66925e-06,0,-29,-0.535387,-0.193803,-26.0237,-3.70562,1.056
-0.5036,-0.503697,0.171544,0.168646,-0,2.06669e-05,0.00150166,-2.30114e-05,0,-29,-0.531586,0.0723341,-26.0807,-3.81168,1.06
-0.5036,-0.503697,0.17155,0.168647,-0,1.37779e-05,0.00151244,1.345e-05,0,-29,-0.531586,0.0482228,-26.1318,-3.74747,1.064
-0.5036,-0.503697,0.171556,0.168647,-0,-4.83966e-05,0.00152325,8.96665e-06,0,-29,-0.535387,-0.169388,-26.1865,-3.7857,1.068
-0.5036,-0.503697,0.171562,0.168647,-0,2.53175e-05,0.00153409,5.97777e-06,0,-30,-0.531586,0.0886112,-26.2415,-3.82029,1.072
-0.5036,-0.503697,0.171569,0.168647,-0,1.68783e-05,0.00154497,3.98518e-06,0,-30,-0.531586,0.0590741,-26.2969,-3.85247,1.076
-0.5036,-0.503697,0.171575,0.168647,-0,-4.63296e-05,0.00155588,2.65679e-06,0,-30,-0.535387,-0.162154,-26.3528,-3.88307,1.08
-0.5036,-0.503697,0.171581,0.168646,-0,2.66954e-05,0.00156683,-2.70197e-05,0,-30,-0.531586,0.093434,-26.4121,-3.98463,1.084
-0.5036,-0.503696,0.171587,0.168647,-0,4.65879e-05,0.00157781,1.07778e-05,0,-30,-0.529686,0.163058,-26.4656,-3.91759,1.088
-0.5036,-0.503697,0.171594,0.168647,-0,-5.53142e-05,0.00158883,7.18518e-06,0,-30,-0.535387,-0.1936,-26.5226,-3.95411,1.092
-0.5036,-0.503697,0.1716,0.168647,-0,2.07057e-05,0.00159988,4.79012e-06,0,-30,-0.531586,0.07247,-26.58,-3.98772,1.096
-0.5036,-0.503697,0.171606,0.168647,-0,1.38038e-05,0.00161096,3.19341e-06,0,-30,-0.531586,0.0483134,-26.6378,-4.01941,1.1
-0.5036,-0.503696,0.171613,0.168647,-0,3.79935e-05,0.00162208,2.12894e-06,0,-30,-0.529686,0.132977,-26.696,-4.04987,1.104
-0.5036,-0.503697,0.171619,0.168647,-0,-3.46195e-06,0.00163323,1.41929e-06,0,-30,-0.531586,-0.0121168,-26.7545,-4.07951,1.108
-0.5036,-0.503696,0.171626,0.168647,-0,2.6483e-05,0.00164441,9.46196e-07,0,-30,-0.529686,0.0926904,-26.8135,-4.10866,1.112
-0.5036,-0.503697,0.171633,0.168647,-0,-1.11356e-05,0.00165563,6.30798e-07,0,-31,-0.531586,-0.0389747,-26.8729,-4.13749,1.116
-0.5036,-0.503697,0.171639,0.168647,-0,-7.42375e-06,0.00166688,4.20532e-07,0,-31,-0.531586,-0.0259831,-26.9328,-4.16614,1.12
-0.5036,-0.503697,0.171646,0.168647,-0,-6.2531e-05,0.00167816,2.80354e-07,0,-31,-0.535387,-0.218859,-26.993,-4.1947,1.124
-0.5036,-0.503697,0.171653,0.168647,-0,1.58945e-05,0.00168948,1.86903e-07,0,-31,-0.531586,0.0556308,-27.0536,-4.22323,1.128
-0.5036,-0.503697,0.171659,0.168647,-0,1.05963e-05,0.00170083,1.24602e-07,0,-31,-0.531586,0.0370872,-27.1146,-4.25176,1.132
-0.5036,-0.503697,0.171666,0.168647,-0,7.06423e-06,0.00171221,8.3068e-08,0,-31,-0.531586,0.0247248,-27.176,-4.28033,1.136
-0.5036,-0.503697,0.171673,0.168647,-0,4.70948e-06,0.00172363,5.53787e-08,0,-31,-0.531586,0.0164832,-27.2379,-4.30894,1.14
-0.5036,-0.503697,0.17168,0.168647,-0,-2.56513e-05,0.00173508,3.69191e-08,0,-31,-0.533486,-0.0897794,-27.3001,-4.33762,1.144
-0.5036,-0.503697,0.171687,0.168647,-0,1.16901e-05,0.00174657,2.46127e-08,0,-31,-0.531586,0.0409153,-27.3628,-4.36636,1.148
-0.5036,-0.503697,0.171694,0.168647,-0,7.79339e-06,0.00175809,1.64085e-08,0,-31,-0.531586,0.0272769,-27.4259,-4.39518,1.152
-0.5036,-0.503697,0.171701,0.168647,-0,5.19559e-06,0.00176964,1.0939e-08,0,-31,-0.531586,0.0181846,-27.4894,-4.42407,1.156
-0.5036,-0.503697,0.171708,0.168647,-0,3.46373e-06,0.00178122,7.29266e-09,0,-32,-0.531586,0.012123,-27.5533,-4.45304,1.16
-0.5036,-0.503697,0.171715,0.168647,-0,2.30915e-06,0.00179284,4.86178e-09,0,-32,-0.531586,0.00808203,-27.6176,-4.48208,1.164
-0.5036,-0.503697,0.171722,0.168647,-0,1.53943e-06,0.00180449,3.24118e-09,0,-32,-0.531586,0.00538802,-27.6824,-4.51121,1.168
-0.5036,-0.503696,0.17173,0.168647,-0,2.98172e-05,0.00181617,2.16079e-09,0,-32,-0.529686,0.10436,-27.7476,-4.54042,1.172
-0.5036,-0.503697,0.171737,0.168647,-0,-8.91278e-06,0.00182789,1.44053e-09,0,-32,-0.531586,-0.0311947,-27.8132,-4.56971,1.176
-0.5036,-0.503697,0.171744,0.168647,-0,-5.94185e-06,0.00183964,2.87919e-05,0,-32,-0.531586,-0.0207965,-27.8761,-4.52711,1.18
-0.5036,-0.503697,0.171752,0.168647,-0,-3.96124e-06,0.00185142,-9.59633e-06,0,-32,-0.531586,-0.0138643,-27.9456,-4.65254,1.184
-0.5036,-0.503696,0.171759,0.168647,-0,2.61501e-05,0.00186323,-6.39756e-06,0,-32,-0.529686,0.0915254,-28.0125,-4.67407,1.188
-0.5036,-0.503697,0.171767,0.168647,-0,-6.89394e-05,0.00187508,2.45259e-05,0,-32,-0.535387,-0.241288,-28.0767,-4.62638,1.192
-0.5036,-0.503697,0.171774,0.168647,-0,1.16223e-05,0.00188696,-1.24403e-05,0,-32,-0.531586,0.0406779,-28.1475,-4.7485,1.196
-0.5036,-0.503697,0.171782,0.168647,-0,7.74818e-06,0.00189887,2.04974e-05,0,-32,-0.531586,0.0271186,-28.2125,-4.69594,1.2
-0.5036,-0.503697,0.171789,0.168647,-0,5.16545e-06,0.00191082,-1.5126e-05,0,-33,-0.531586,0.0180791,-28.2842,-4.81486,1.204
-0.5036,-0.503697,0.171797,0.168647,-0,3.44363e-06,0.00192279,-1.0084e-05,0,-33,-0.531586,0.0120527,-28.3532,-4.8322,1.208
-0.5036,-0.503697,0.171805,0.168647,-0,2.29576e-06,0.0019348,-6.72267e-06,0,-33,-0.531586,0.00803515,-28.4226,-4.85382,1.212
-0.5036,-0.503696,0.171812,0.168647,-0,3.03214e-05,0.00194685,-4.48178e-06,0,-33,-0.529686,0.106125,-28.4925,-4.87832,1.216
-0.5036,-0.503697,0.17182,0.168647,-0,-8.57664e-06,0.00195892,2.58031e-05,0,-33,-0.531586,-0.0300182,-28.5597,-4.8328,1.22
-0.5036,-0.503697,0.171828,0.168647,-0,-5.71776e-06,0.00197103,1.7202e-05,0,-33,-0.531586,-0.0200122,-28.6304,-4.88457,1.224
-0.5036,-0.503697,0.171836,0.168647,-0,-3.81184e-06,0.00198317,1.1468e-05,0,-33,-0.531586,-0.0133414,-28.7016,-4.92925,1.228
-0.5036,-0.503696,0.171844,0.168647,-0,2.62497e-05,0.00199534,7.64535e-06,0,-33,-0.529686,0.0918739,-28.7732,-4.96924,1.232
-0.5036,-0.503696,0.171852,0.168647,-0,1.74998e-05,0.00200755,5.0969e-06,0,-33,-0.529686,0.0612493,-28.8453,-5.00612,1.236
-0.5036,-0.503697,0.17186,0.168647,-0,-1.71244e-05,0.00201978,3.39794e-06,0,-33,-0.531586,-0.0599354,-28.9178,-5.04096,1.24
-0.5036,-0.503697,0.171868,0.168647,-0,-1.14163e-05,0.00203205,2.26529e-06,0,-34,-0.531586,-0.0399569,-28.9907,-5.07446,1.244
-0.5036,-0.503697,0.171876,0.168647,-0,-7.61084e-06,0.00204435,1.51019e-06,0,-34,-0.531586,-0.0266379,-29.0641,-5.1071,1.248
-0.5036,-0.503697,0.171885,0.168647,-0,-5.07389e-06,0.00205668,1.0068e-06,0,-34,-0.531586,-0.0177586,-29.1379,-5.13919,1.252
-0.5036,-0.503696,0.171893,0.168647,-0,2.54083e-05,0.00206905,6.71197e-07,0,-34,-0.529686,0.0889292,-29.2122,-5.17094,1.256
-0.5036,-0.503697,0.171901,0.168647,-0,-1.1852e-05,0.00208145,4.47465e-07,0,-34,-0.531586,-0.0414821,-29.2869,-5.2025,1.26
-0.5036,-0.503697,0.171909,0.168647,-0,-7.90136e-06,0.00209387,2.9831e-07,0,-34,-0.531586,-0.0276548,-29.362,-5.23394,1.264
-0.5036,-0.503697,0.171918,0.168647,-0,-5.26757e-06,0.00210633,1.98873e-07,0,-34,-0.531586,-0.0184365,-29.4376,-5.26534,1.268
-0.5036,-0.503697,0.171926,0.168647,-0,-3.51172e-06,0.00211883,1.32582e-07,0,-34,-0.531586,-0.012291,-29.5137,-5.29674,1.272
-0.5036,-0.503697,0.171935,0.168647,-0,-2.34114e-06,0.00213135,8.83881e-08,0,-34,-0.531586,-0.008194,-29.5902,-5.32816,1.276
-0.5036,-0.503697,0.171943,0.168647,-0,-1.56076e-06,0.00214391,5.89254e-08,0,-35,-0.531586,-0.00546267,-29.6671,-5.35962,1.28
-0.5036,-0.503697,0.171952,0.168647,-0,-1.04051e-06,0.00215649,3.92836e-08,0,-35,-0.531586,-0.00364178,-29.7446,-5.39114,1.284
-0.5036,-0.503697,0.171961,0.168647,-0,-5.82755e-05,0.00216911,2.61891e-08,0,-35,-0.535387,-0.203964,-29.8224,-5.42272,1.288
-0.5036,-0.503696,0.171969,0.168647,-0,4.75224e-05,0.00218176,1.74594e-08,0,-35,-0.529686,0.166328,-29.9007,-5.45437,1.292
-0.5036,-0.503697,0.171978,0.168647,-0,-2.59002e-05,0.00219445,2.88026e-05,0,-35,-0.533486,-0.0906508,-29.9764,-5.41411,1.296
-0.5036,-0.503697,0.171987,0.168647,-0,1.15241e-05,0.00220716,1.92017e-05,0,-35,-0.531586,0.0403344,-30.0556,-5.4699,1.3
-0.5036,-0.503697,0.171996,0.168647,-0,-4.98991e-05,0.00221991,1.28011e-05,0,-35,-0.535387,-0.174647,-30.1353,-5.51776,1.304
-0.5036,-0.503697,0.172005,0.168647,-0,2.43158e-05,0.00223268,8.53409e-06,0,-35,-0.531586,0.0851052,-30.2155,-5.56037,1.308
-0.5036,-0.503697,0.172014,0.168647,-0,1.62105e-05,0.00224549,5.6894e-06,0,-35,-0.531586,0.0567368,-30.2961,-5.5995,1.312
-0.5036,-0.503697,0.172023,0.168647,-0,1.0807e-05,0.00225833,3.79293e-06,0,-36,-0.531586,0.0378245,-30.3771,-5.63634,1.316
-0.5036,-0.503697,0.172032,0.168647,-0,7.20467e-06,0.0022712,2.52862e-06,0,-36,-0.531586,0.0252164,-30.4587,-5.67168,1.32
-0.5036,-0.503697,0.172041,0.168647,-0,4.80312e-06,0.0022841,1.68575e-06,0,-36,-0.531586,0.0168109,-30.5407,-5.70604,1.324
-0.5036,-0.503697,0.17205,0.168647,-0,3.20208e-06,0.00229704,1.12383e-06,0,-36,-0.531586,0.0112073,-30.6231,-5.73978,1.328
-0.5036,-0.503697,0.172059,0.168648,-0,2.13472e-06,0.00231,2.95401e-05,0,-36,-0.531586,0.00747151,-30.7029,-5.70115,1.332
-0.5036,-0.503697,0.172068,0.168648,-0,1.42315e-06,0.00232299,1.96934e-05,0,-36,-0.531586,0.00498101,-30.7863,-5.75825,1.336
-0.5036,-0.503697,0.172078,0.168648,-0,9.48764e-07,0.00233602,1.3129e-05,0,-36,-0.531586,0.00332067,-30.8702,-5.80723,1.34
-0.5036,-0.503697,0.172087,0.168648,-0,6.32509e-07,0.00234908,8.75264e-06,0,-36,-0.531586,0.00221378,-30.9545,-5.85081,1.344
-0.5036,-0.503697,0.172096,0.168648,-0,4.21673e-07,0.00236217,5.83509e-06,0,-36,-0.531586,0.00147585,-31.0393,-5.89083,1.348
-0.5036,-0.503697,0.172106,0.168648,-0,2.81115e-07,0.00237529,3.89006e-06,0,-37,-0.531586,0.000983903,-31.1246,-5.92849,1.352
-0.5036,-0.503697,0.172115,0.168648,-0,1.8741e-07,0.00238844,2.59337e-06,0,-37,-0.531586,0.000655935,-31.2103,-5.96461,1.356
-0.5036,-0.503697,0.172125,0.168648,-0,-5.74569e-05,0.00240162,3.05198e-05,0,-37,-0.535387,-0.201099,-31.2935,-5.92774,1.36
-0.5036,-0.503697,0.172135,0.168648,-0,1.92772e-05,0.00241483,4.91375e-05,0,-37,-0.531586,0.0674704,-31.377,-5.91423,1.364
-0.5036,-0.503697,0.172144,0.168649,-0,1.28515e-05,0.00242807,6.15492e-05,0,-37,-0.531586,0.0449802,-31.4611,-5.9163,1.368
-0.5036,-0.503697,0.172154,0.168649,-0,8.56766e-06,0.00244134,9.86147e-05,0,-37,-0.531586,0.0299868,-31.5425,-5.85682,1.372
-0.5036,-0.503697,0.172164,0.168649,-0,5.71178e-06,0.00245465,6.57431e-05,0,-37,-0.531586,0.0199912,-31.6307,-5.97226,1.376
-0.5036,-0.503697,0.172174,0.16865,-0,3.80785e-06,0.00246798,7.26197e-05,0,-37,-0.531586,0.0133275,-31.7162,-5.98841,1.38
-0.5036,-0.503697,0.172184,0.16865,-0,2.53857e-06,0.00248135,4.84131e-05,0,-37,-0.531586,0.00888498,-31.8053,-6.08233,1.384
-0.5036,-0.503697,0.172194,0.16865,-0,1.69238e-06,0.00249474,6.10663e-05,0,-37,-0.531586,0.00592332,-31.8917,-6.08419,1.388
-0.5036,-0.503697,0.172204,0.16865,-0,1.12825e-06,0.00250817,4.07109e-05,0,-38,-0.531586,0.00394888,-31.9818,-6.16864,1.392
-0.5036,-0.503697,0.172214,0.168651,-0,7.52168e-07,0.00252162,8.47224e-05,0,-38,-0.531586,0.00263259,-32.0661,-6.09225,1.396
-0.5036,-0.503697,0.172224,0.168651,-0,5.01445e-07,0.00253511,8.52726e-05,0,-38,-0.531586,0.00175506,-32.154,-6.1246,1.4
-0.5036,-0.503697,0.172234,0.168652,-0,3.34297e-07,0.00254863,0.00011443,0,-38,-0.531586,0.00117004,-32.2393,-6.08549,1.404
-0.5036,-0.503697,0.172244,0.168652,-0,2.22865e-07,0.00256218,0.000105078,0,-38,-0.531586,0.000780026,-32.3282,-6.14274,1.408
-0.5036,-0.503697,0.172254,0.168653,-0,1.48576e-07,0.00257575,0.000127634,0,-38,-0.531586,0.000520017,-32.4144,-6.1203,1.412
-0.5036,-0.503697,0.172265,0.168654,-0,9.90509e-08,0.00258936,0.000142671,0,-38,-0.531586,0.000346678,-32.5012,-6.11672,1.416
-0.5036,-0.503697,0.172275,0.168654,-0,6.6034e-08,0.002603,0.000152696,0,-38,-0.531586,0.000231119,-32.5884,-6.12576,1.42
-0.5036,-0.503697,0.172286,0.168655,-0,4.40226e-08,0.00261667,0.00018817,0,-38,-0.531586,0.000154079,-32.6731,-6.07124,1.424
-0.5036,-0.503697,0.172296,0.168656,-0,2.93484e-08,0.00263036,0.000211819,0,-38,-0.531586,0.000102719,-32.7582,-6.04636,1.428
-0.5036,-0.503696,0.172307,0.168657,-0,2.88105e-05,0.00264409,0.000227586,0,-38,-0.529686,0.100837,-32.8438,-6.04127,1.432
-0.5036,-0.503697,0.172317,0.168659,-0,-9.58393e-06,0.00265785,0.000266888,0,-38,-0.531586,-0.0335438,-32.9268,-5.97741,1.436
-0.5036,-0.503697,0.172328,0.16866,-0,-6.38929e-06,0.00267164,0.000293089,0,-38,-0.531586,-0.0223625,-33.0103,-5.94637,1.44
-0.5036,-0.503696,0.172339,0.168661,-0,2.45314e-05,0.00268546,0.000281765,0,-39,-0.529686,0.0858599,-33.0974,-6.00923,1.444
-0.5036,-0.503696,0.172349,0.168663,-0,1.63543e-05,0.0026993,0.000331798,0,-39,-0.529686,0.0572399,-33.1787,-5.91876,1.448
-0.5036,-0.503697,0.17236,0.168665,-0,-1.78881e-05,0.00271318,0.000393944,0,-39,-0.531586,-0.0626083,-33.2575,-5.79809,1.452
-0.5036,-0.503697,0.172371,0.168667,-0,-1.19254e-05,0.00272709,0.000406584,0,-39,-0.531586,-0.0417389,-33.3399,-5.80126,1.456
-0.5036,-0.503697,0.172382,0.168669,-0,-7.95026e-06,0.00274103,0.000472593,0,-39,-0.531586,-0.0278259,-33.4166,-5.67108,1.46
-0.5036,-0.503697,0.172393,0.168672,-0,-5.30017e-06,0.00275499,0.000516598,0,-39,-0.531586,-0.0185506,-33.4937,-5.59598,1.464
-0.5036,-0.503697,0.172404,0.168674,-0,-3.53345e-06,0.00276899,0.000574726,0,-39,-0.531586,-0.0123671,-33.5683,-5.48565,1.468
-0.5036,-0.503697,0.172415,0.168678,-0,-2.35563e-06,0.00278301,0.00067106,0,-38,-0.531586,-0.00824471,-33.6371,-5.27988,1.472
-0.5036,-0.503697,0.172426,0.168682,-0,-1.57042e-06,0.00279707,0.000764074,0,-38,-0.531586,-0.00549647,-33.7034,-5.08249,1.476
-0.5036,-0.503697,0.172438,0.168687,-0,-1.04695e-06,0.00281115,0.000941246,0,-38,-0.531586,-0.00366432,-33.7577,-4.67477,1.48
-0.5036,-0.503696,0.172449,0.168693,-0,2.8093e-05,0.00282527,0.00111694,0,-38,-0.529686,0.0983254,-33.8063,-4.27081,1.484
-0.5036,-0.503697,0.17246,0.1687,-0,-1.00623e-05,0.00283941,0.00132045,0,-37,-0.531586,-0.035218,-33.846,-3.79741,1.488
-0.5036,-0.503696,0.172472,0.168707,-0,2.20827e-05,0.00285358,0.00154249,0,-37,-0.529686,0.0772896,-33.877,-3.27774,1.492
-0.5036,-0.503697,0.172483,0.168716,-0,-7.1651e-05,0.00286779,0.0017481,0,-36,-0.535387,-0.250778,-33.9022,-2.79922,1.496
-0.5036,-0.503697,0.172495,0.168725,-0,9.81455e-06,0.00288202,0.00194275,0,-36,-0.531586,0.0343509,-33.9218,-2.34816,1.5
-0.5036,-0.503697,0.172506,0.168735,-0,6.54303e-06,0.00289628,0.00207252,0,-36,-0.531586,0.0229006,-33.9418,-2.05939,1.504
-0.5036,-0.503697,0.172518,0.168744,-0,-5.32198e-05,0.00291057,0.00218783,0,-35,-0.535387,-0.186269,-33.9593,-1.80685,1.508
-0.5036,-0.503697,0.172529,0.168754,-0,-6.68896e-06,0.00292489,0.00229349,0,-35,-0.533486,-0.0234114,-33.9742,-1.5785,1.512
-0.5036,-0.503697,0.172541,0.168764,-0,2.43316e-05,0.00293924,0.00233514,0,-35,-0.531586,0.0851607,-33.9926,-1.51024,1.516
-0.5036,-0.503697,0.172553,0.168774,-0,1.62211e-05,0.00295361,0.0023917,0,-35,-0.531586,0.0567738,-34.0085,-1.40479,1.52
-0.5036,-0.503697,0.172565,0.168784,-0,-4.67678e-05,0.00296802,0.00245819,0,-35,-0.535387,-0.163687,-34.0219,-1.27457,1.524
-0.5036,-0.503697,0.172577,0.168795,-0,2.64033e-05,0.00298245,0.00250252,0,-35,-0.531586,0.0924116,-34.0357,-1.19983,1.528
-0.5036,-0.503697,0.172589,0.168806,-0,1.76022e-05,0.00299692,0.00258966,0,-35,-0.531586,0.0616077,-34.0438,-1.01815,1.532
-0.5036,-0.503697,0.172601,0.168818,-0,1.17348e-05,0.00301141,0.00273412,0,-34,-0.531586,0.0410718,-34.0431,-0.693224,1.536
-0.5036,-0.503697,0.172613,0.16883,-0,7.82321e-06,0.00302593,0.00280164,0,-34,-0.531586,0.0273812,-34.0461,-0.560733,1.54
-0.5036,-0.503697,0.172625,0.168843,-0,5.21547e-06,0.00304048,0.00299061,0,-34,-0.531586,0.0182541,-34.034,-0.124693,1.544
-0.5036,-0.503697,0.172637,0.168854,-0,3.47698e-06,0.00305506,0.00291505,0,-34,-0.531586,0.0121694,-34.0442,-0.350038,1.548
-0.5036,-0.503697,0.172649,0.168865,-0,-2.64729e-05,0.00306967,0.00283588,0,-34,-0.533486,-0.0926553,-34.0581,-0.584466,1.552
-0.5036,-0.503697,0.172662,0.168875,-0,1.11423e-05,0.00308431,0.00269673,0,-35,-0.531586,0.038998,-34.0818,-0.968928,1.556
-0.5036,-0.503697,0.172674,0.168883,-0,7.4282e-06,0.00309897,0.00248881,0,-35,-0.531586,0.0259987,-34.1185,-1.52541,1.56
-0.5036,-0.503696,0.172686,0.168892,-0,3.37431e-05,0.00311366,0.00237898,0,-35,-0.529686,0.118101,-34.1525,-1.83672,1.564
-0.5036,-0.503696,0.172699,0.1689,-0,2.24954e-05,0.00312839,0.00227697,0,-36,-0.529686,0.0787338,-34.1903,-2.12855,1.568
-0.5036,-0.503696,0.172711,0.168909,-0,1.49969e-05,0.00314314,0.00226654,0,-36,-0.529686,0.0524892,-34.2223,-2.19149,1.572
-0.5036,-0.503697,0.172724,0.168918,-0,-1.8793e-05,0.00315792,0.0022308,0,-36,-0.531586,-0.0657754,-34.258,-2.31779,1.576
-0.5036,-0.503696,0.172737,0.168927,-0,1.62623e-05,0.00317272,0.00226456,0,-36,-0.529686,0.0569179,-34.288,-2.27042,1.58
-0.5036,-0.503697,0.172749,0.168937,-0,-7.55313e-05,0.00318756,0.00237343,0,-36,-0.535387,-0.264359,-34.3092,-2.03532,1.584
-0.5036,-0.503697,0.172762,0.168948,-0,7.22768e-06,0.00320242,0.00247481,0,-36,-0.531586,0.0252969,-34.3278,-1.81904,1.588
-0.5036,-0.503697,0.172775,0.168959,-0,4.81845e-06,0.00321731,0.00257118,0,-35,-0.531586,0.0168646,-34.3439,-1.61533,1.592
-0.5036,-0.503697,0.172788,0.16897,-0,3.2123e-06,0.00323223,0.00260664,0,-35,-0.531586,0.0112431,-34.3636,-1.56399,1.596
-0.5036,-0.503697,0.172801,0.168981,-0,2.14153e-06,0.00324718,0.00271665,0,-35,-0.531586,0.00749537,-34.3745,-1.32633,1.6
-0.5036,-0.503696,0.172814,0.168994,-0,3.02186e-05,0.00326216,0.00281878,0,-35,-0.529686,0.105765,-34.3828,-1.10844,1.604
-0.5036,-0.503697,0.172827,0.169005,-0,-8.64518e-06,0.00327716,0.00282929,0,-35,-0.531586,-0.0302581,-34.3979,-1.11969,1.608
-0.5036,-0.503697,0.17284,0.169017,-0,-5.76345e-06,0.0032922,0.00292267,0,-35,-0.531586,-0.0201721,-34.4042,-0.923827,1.612
-0.5036,-0.503697,0.172853,0.16903,-0,-3.8423e-06,0.00330726,0.00301371,0,-35,-0.531586,-0.0134481,-34.408,-0.733873,1.616
-0.5036,-0.503696,0.172867,0.169043,-0,2.62294e-05,0.00332235,0.00310319,0,-34,-0.529686,0.0918029,-34.4092,-0.54788,1.62
-0.5036,-0.503697,0.17288,0.169056,-0,-6.88865e-05,0.00333746,0.00310527,0,-34,-0.535387,-0.241103,-34.4171,-0.580483,1.624
-0.5036,-0.503697,0.172893,0.169069,-0,1.16575e-05,0.00335261,0.00319303,0,-34,-0.531586,0.0408013,-34.4162,-0.398953,1.628
-0.5036,-0.503697,0.172907,0.169081,-0,7.77167e-06,0.00336778,0.00313637,0,-35,-0.531586,0.0272008,-34.4284,-0.578532,1.632
-0.5036,-0.503697,0.17292,0.169092,-0,5.18111e-06,0.00338298,0.00301222,0,-35,-0.531586,0.0181339,-34.4504,-0.926896,1.636
-0.5036,-0.503697,0.172934,0.169104,-0,3.45408e-06,0.00339821,0.00298704,0,-35,-0.531586,0.0120893,-34.4667,-1.02792,1.64
-0.5036,-0.503697,0.172947,0.169115,-0,2.30272e-06,0.00341346,0.00294146,0,-35,-0.531586,0.00805951,-34.4867,-1.18,1.644
-0.5036,-0.503697,0.172961,0.169127,-0,-5.60467e-05,0.00342874,0.00291107,0,-35,-0.535387,-0.196163,-34.5073,-1.29418,1.648
-0.5036,-0.503697,0.172975,0.169139,-0,2.02174e-05,0.00344405,0.00291961,0,-35,-0.531586,0.0707608,-34.5253,-1.31112,1.652
-0.5036,-0.503697,0.172989,0.169151,-0,-1.53127e-05,0.00345939,0.00295409,0,-35,-0.533486,-0.0535944,-34.5407,-1.26326,1.656
-0.5036,-0.503697,0.173002,0.169163,-0,1.85825e-05,0.00347476,0.00297707,0,-35,-0.531586,0.0650387,-34.5567,-1.24421,1.66
-0.5036,-0.503697,0.173016,0.169175,-0,-1.64026e-05,0.00349015,0.00302119,0,-35,-0.533486,-0.0574091,-34.5701,-1.1724,1.664
-0.5036,-0.503696,0.17303,0.169188,-0,4.66468e-05,0.00350557,0.00310818,0,-35,-0.529686,0.163264,-34.5779,-0.993474,1.668
-0.5036,-0.503697,0.173044,0.169202,-0,2.30693e-06,0.00352102,0.00319497,0,-35,-0.531586,0.00807425,-34.5831,-0.815129,1.672
-0.5036,-0.503697,0.173059,0.169216,-0,-5.60439e-05,0.00353649,0.00328161,0,-35,-0.535387,-0.196154,-34.5858,-0.637197,1.676
-0.5036,-0.503697,0.173073,0.169229,-0,-8.57167e-06,0.003552,0.00333938,0,-35,-0.533486,-0.0300009,-34.589,-0.531539,1.68
-0.5036,-0.503697,0.173087,0.169243,-0,2.30765e-05,0.00356753,0.00332031,0,-35,-0.531586,0.0807677,-34.599,-0.618042,1.684
-0.5036,-0.503697,0.173101,0.169256,-0,-1.34066e-05,0.00358308,0.00336518,0,-35,-0.533486,-0.0469231,-34.6033,-0.544765,1.688
-0.5036,-0.503697,0.173116,0.169269,-0,1.98532e-05,0.00359867,0.00327992,0,-35,-0.531586,0.0694862,-34.6206,-0.796854,1.692
-0.5036,-0.503697,0.17313,0.169281,-0,1.32355e-05,0.00361428,0.00316551,0,-35,-0.531586,0.0463241,-34.6447,-1.12192,1.696
-0.5036,-0.503697,0.173145,0.169293,-0,8.82364e-06,0.00362991,0.00314681,0,-35,-0.531586,0.0308827,-34.6632,-1.20776,1.7
-0.5036,-0.503697,0.173159,0.169306,-0,5.88243e-06,0.00364558,0.00319193,0,-35,-0.531586,0.0205885,-34.676,-1.13412,1.704
-0.5036,-0.503697,0.173174,0.169319,-0,3.92162e-06,0.00366127,0.00319322,0,-35,-0.531586,0.0137257,-34.6925,-1.17014,1.708
-0.5036,-0.503697,0.173188,0.169333,-0,2.61441e-06,0.00367699,0.00328045,0,-35,-0.531586,0.00915044,-34.7002,-0.991354,1.712
-0.5036,-0.503697,0.173203,0.169346,-0,1.74294e-06,0.00369274,0.00328102,0,-35,-0.531586,0.00610029,-34.7147,-1.02929,1.716
-0.5036,-0.503697,0.173218,0.169358,-0,1.16196e-06,0.00370851,0.00319503,0,-36,-0.531586,0.00406686,-34.7391,-1.2837,1.72
-0.5036,-0.503697,0.173233,0.169371,-0,-2.80163e-05,0.00372431,0.00325287,0,-35,-0.533486,-0.098057,-34.7516,-1.1786,1.724
-0.5036,-0.503697,0.173248,0.169385,-0,1.01134e-05,0.00374013,0.00326263,0,-35,-0.531586,0.0353969,-34.7678,-1.19375,1.728
-0.5036,-0.503697,0.173263,0.169398,-0,6.74227e-06,0.00375599,0.00326914,0,-36,-0.531586,0.0235979,-34.7846,-1.21711,1.732
-0.5036,-0.503697,0.173278,0.169412,-0,4.49485e-06,0.00377187,0.00335986,0,-35,-0.531586,0.015732,-34.7926,-1.03002,1.736
-0.5036,-0.503697,0.173293,0.169426,-0,2.99656e-06,0.00378777,0.00344912,0,-35,-0.531586,0.010488,-34.7981,-0.846622,1.74
-0.5036,-0.503697,0.173308,0.169441,-0,-2.67932e-05,0.0038037,0.00353743,0,-35,-0.533486,-0.0937763,-34.801,-0.665699,1.744
-0.5036,-0.503697,0.173323,0.169455,-0,1.09288e-05,0.00381966,0.00350992,0,-35,-0.531586,0.0382507,-34.8139,-0.774359,1.748
-0.5036,-0.503697,0.173339,0.169467,-0,7.28585e-06,0.00383565,0.00331884,0,-36,-0.531586,0.0255005,-34.8459,-1.29203,1.752
-0.5036,-0.503697,0.173354,0.169475,-0,4.85724e-06,0.00385166,0.00290354,0,-37,-0.531586,0.0170003,-34.9097,-2.3703,1.756
-0.5036,-0.503697,0.173369,0.169482,-0,3.23816e-06,0.0038677,0.00248272,0,-38,-0.531586,0.0113336,-34.9895,-3.46245,1.76
-0.5036,-0.503697,0.173385,0.169486,-0,2.15877e-06,0.00388377,0.00202943,0,-39,-0.531586,0.0075557,-35.0886,-4.63584,1.764
-0.5036,-0.503697,0.1734,0.169488,-0,-2.73517e-05,0.00389986,0.00149691,0,-41,-0.533486,-0.0957311,-35.2132,-6.00737,1.768
-0.5036,-0.503697,0.173416,0.169489,-0,-1.82345e-05,0.00391597,0.00105552,0,-42,-0.533486,-0.0638207,-35.3477,-7.15113,1.772
-0.5036,-0.503697,0.173432,0.169489,-0,1.66346e-05,0.00393212,0.00070368,0,-43,-0.531586,0.0582211,-35.4889,-8.07109,1.776
-0.5036,-0.503697,0.173448,0.169489,-0,1.10897e-05,0.00394829,0.00046912,0,-44,-0.531586,0.0388141,-35.6308,-8.69792,1.78
-0.5036,-0.503697,0.173463,0.169489,-0,7.39315e-06,0.00396448,0.000312747,0,-44,-0.531586,0.025876,-35.7732,-9.12934,1.784
-0.5036,-0.503697,0.173479,0.169489,-0,4.92877e-06,0.00398071,0.000208498,0,-45,-0.531586,0.0172507,-35.9162,-9.43052,1.788
-0.5036,-0.503697,0.173495,0.169489,-0,-2.55051e-05,0.00399695,0.000138999,0,-45,-0.533486,-0.0892678,-36.0598,-9.64489,1.792
-0.5036,-0.503697,0.173511,0.169489,-0,1.17875e-05,0.00401323,9.26657e-05,0,-46,-0.531586,0.0412564,-36.204,-9.80141,1.796
-0.5036,-0.503697,0.173527,0.169489,-0,7.85836e-06,0.00402953,6.17771e-05,0,-46,-0.531586,0.0275043,-36.3488,-9.91938,1.8
-0.5036,-0.503697,0.173544,0.169489,-0,5.23891e-06,0.00404585,4.11848e-05,0,-46,-0.531586,0.0183362,-36.4941,-10.0117,1.804
-0.5036,-0.503697,0.17356,0.169489,-0,3.4926e-06,0.00406221,2.74565e-05,0,-46,-0.531586,0.0122241,-36.6401,-10.0869,1.808
-0.5036,-0.503697,0.173576,0.169489,-0,-2.64625e-05,0.00407858,1.83043e-05,0,-46,-0.533486,-0.0926188,-36.7866,-10.1507,1.812
-0.5036,-0.503697,0.173592,0.169488,-0,1.11492e-05,0.00409499,-1.6588e-05,0,-47,-0.531586,0.0390224,-36.9368,-10.2789,1.816
-0.5036,-0.503697,0.173609,0.169489,-0,7.43283e-06,0.00411142,1.77322e-05,0,-47,-0.531586,0.0260149,-37.0815,-10.2342,1.82
-0.5036,-0.503697,0.173625,0.169488,-0,4.95522e-06,0.00412787,-1.69694e-05,0,-47,-0.531586,0.0173433,-37.2329,-10.3621,1.824
-0.5036,-0.503697,0.173642,0.169489,-0,3.30348e-06,0.00414435,1.7478e-05,0,-47,-0.531586,0.0115622,-37.3787,-10.3172,1.828
-0.5036,-0.503697,0.173658,0.169489,-0,2.20232e-06,0.00416086,1.1652e-05,0,-47,-0.531586,0.00770812,-37.5282,-10.373,1.832
-0.5036,-0.503697,0.173675,0.169489,-0,-2.73227e-05,0.00417739,7.76799e-06,0,-48,-0.533486,-0.0956295,-37.6782,-10.4241,1.836
-0.5036,-0.503697,0.173692,0.169488,-0,1.05758e-05,0.00419395,-2.36123e-05,0,-48,-0.531586,0.0370152,-37.832,-10.5439,1.84
-0.5036,-0.503697,0.173709,0.169489,-0,7.05052e-06,0.00421053,4.18403e-05,0,-48,-0.531586,0.0246768,-37.9771,-10.4217,1.844
-0.5036,-0.503697,0.173726,0.169489,-0,4.70035e-06,0.00422714,2.78936e-05,0,-48,-0.531586,0.0164512,-38.129,-10.4981,1.848
-0.5036,-0.503697,0.173742,0.169489,-0,3.13357e-06,0.00424377,1.85957e-05,0,-48,-0.531586,0.0109675,-38.2815,-10.5629,1.852
-0.5036,-0.503697,0.173759,0.169489,-0,2.08904e-06,0.00426043,1.23971e-05,0,-49,-0.531586,0.00731165,-38.4345,-10.6201,1.856
-0.5036,-0.503697,0.173777,0.169489,-0,1.3927e-06,0.00427712,8.26476e-06,0,-49,-0.531586,0.00487444,-38.5882,-10.6721,1.86
-0.5036,-0.503697,0.173794,0.169489,-0,-2.78625e-05,0.00429383,5.50984e-06,0,-49,-0.533486,-0.0975186,-38.7425,-10.7208,1.864
-0.5036,-0.503697,0.173811,0.169489,-0,-1.8575e-05,0.00431056,3.67323e-06,0,-49,-0.533486,-0.0650124,-38.8974,-10.7672,1.868
-0.5036,-0.503697,0.173828,0.169489,-0,-1.23833e-05,0.00432732,2.44882e-06,0,-49,-0.533486,-0.0433416,-39.0528,-10.8122,1.872
-0.5036,-0.503697,0.173845,0.169489,-0,-8.25554e-06,0.00434411,1.63254e-06,0,-50,-0.533486,-0.0288944,-39.2089,-10.8562,1.876
-0.5036,-0.503697,0.173863,0.169489,-0,2.32872e-05,0.00436092,1.08836e-06,0,-50,-0.531586,0.0815053,-39.3656,-10.8996,1.88
-0.5036,-0.503697,0.17388,0.169489,-0,1.55248e-05,0.00437776,2.95165e-05,0,-50,-0.531586,0.0543369,-39.5198,-10.8706,1.884
-0.5036,-0.503697,0.173898,0.169489,-0,-1.8441e-05,0.00439462,1.96777e-05,0,-50,-0.533486,-0.0645437,-39.6777,-10.9373,1.888
-0.5036,-0.503697,0.173916,0.169489,-0,-1.2294e-05,0.0044115,-4.44634e-05,0,-50,-0.533486,-0.0430291,-39.8424,-11.1399,1.892
-0.5036,-0.503697,0.173933,0.169489,-0,2.05949e-05,0.00442841,2.79396e-05,0,-50,-0.531586,0.0720822,-39.9953,-11.0012,1.896
-0.5036,-0.503697,0.173951,0.169489,-0,1.37299e-05,0.00444535,1.86264e-05,0,-51,-0.531586,0.0480548,-40.1551,-11.0668,1.9
-0.5036,-0.503697,0.173969,0.169489,-0,9.15329e-06,0.00446231,1.24176e-05,0,-51,-0.531586,0.0320365,-40.3154,-11.1247,1.904
-0.5036,-0.503697,0.173987,0.169489,-0,6.10219e-06,0.00447929,8.27839e-06,0,-51,-0.531586,0.0213577,-40.4764,-11.1775,1.908
-0.5036,-0.503697,0.174005,0.169489,-0,4.06813e-06,0.0044963,5.51893e-06,0,-51,-0.531586,0.0142385,-40.6379,-11.227,1.912
-0.5036,-0.503697,0.174023,0.169489,-0,2.71209e-06,0.00451334,3.67929e-06,0,-52,-0.531586,0.0094923,-40.8001,-11.2741,1.916
-0.5036,-0.503697,0.174041,0.169489,-0,1.80806e-06,0.0045304,2.45286e-06,0,-52,-0.531586,0.0063282,-40.9629,-11.3199,1.92
-0.5036,-0.503697,0.174059,0.16949,-0,1.20537e-06,0.00454748,3.04262e-05,0,-52,-0.531586,0.0042188,-41.1232,-11.2926,1.924
-0.5036,-0.503697,0.174077,0.16949,-0,8.03581e-07,0.00456459,2.02841e-05,0,-52,-0.531586,0.00281253,-41.2872,-11.3608,1.928
-0.5036,-0.503697,0.174095,0.16949,-0,-2.82552e-05,0.00458172,1.35227e-05,0,-52,-0.533486,-0.0988932,-41.4518,-11.4205,1.932
-0.5036,-0.503697,0.174114,0.16949,-0,-1.88368e-05,0.00459888,3.78061e-05,0,-53,-0.533486,-0.0659288,-41.614,-11.4027,1.936
-0.5036,-0.503697,0.174132,0.16949,-0,1.62331e-05,0.00461606,2.52041e-05,0,-53,-0.531586,0.0568157,-41.7798,-11.4771,1.94
-0.5036,-0.503697,0.174151,0.16949,-0,1.0822e-05,0.00463327,1.68027e-05,0,-53,-0.531586,0.0378771,-41.9463,-11.5412,1.944
-0.5036,-0.503697,0.174169,0.16949,-0,-2.15762e-05,0.0046505,1.12018e-05,0,-53,-0.533486,-0.0755168,-42.1134,-11.5982,1.948
-0.5036,-0.503697,0.174188,0.16949,-0,-1.43842e-05,0.00466776,7.46787e-06,0,-53,-0.533486,-0.0503445,-42.2811,-11.6507,1.952
-0.5036,-0.503697,0.174207,0.16949,-0,-9.58944e-06,0.00468504,4.97858e-06,0,-54,-0.533486,-0.033563,-42.4495,-11.7001,1.956
-0.5036,-0.503697,0.174225,0.16949,-0,2.2398e-05,0.00470234,3.31905e-06,0,-54,-0.531586,0.0783929,-42.6185,-11.7476,1.96
-0.5036,-0.503697,0.174244,0.169491,-0,1.4932e-05,0.00471967,5.97946e-05,0,-54,-0.531586,0.0522619,-42.7818,-11.6497,1.964
-0.5036,-0.503697,0.174263,0.16949,-0,-1.88363e-05,0.00473702,1.10721e-05,0,-54,-0.533486,-0.065927,-42.9552,-11.8149,1.968
-0.5036,-0.503697,0.174282,0.16949,-0,1.62334e-05,0.0047544,7.38141e-06,0,-54,-0.531586,0.0568169,-43.126,-11.8675,1.972
-0.5036,-0.503697,0.174301,0.16949,-0,-1.79687e-05,0.0047718,4.92094e-06,0,-55,-0.533486,-0.0628903,-43.2975,-11.9172,1.976
-0.5036,-0.503697,0.17432,0.16949,-0,1.68118e-05,0.00478922,3.28063e-06,0,-55,-0.531586,0.0588414,-43.4696,-11.9649,1.98
-0.5036,-0.503697,0.174339,0.16949,-0,-1.7583e-05,0.00480667,2.18708e-06,0,-55,-0.533486,-0.0615406,-43.6423,-12.0112,1.984
-0.5036,-0.503697,0.174359,0.16949,-0,-1.1722e-05,0.00482414,1.45806e-06,0,-55,-0.533486,-0.0410271,-43.8157,-12.0567,1.988
-0.5036,-0.503697,0.174378,0.169491,-0,2.09762e-05,0.00484164,2.9763e-05,0,-56,-0.531586,0.0734168,-43.9865,-12.0297,1.992
-0.5036,-0.503697,0.174397,0.169491,-0,1.39842e-05,0.00485916,7.74238e-05,0,-56,-0.531586,0.0489446,-44.1549,-11.9543,1.996
-0.5036,-0.503697,0.174417,0.169491,-0,9.32277e-06,0.0048767,2.2825e-05,0,-56,-0.531586,0.0326297,-44.3333,-12.1347,2
-0.5036,-0.503697,0.174436,0.169491,-0,6.21518e-06,0.00489427,4.40076e-05,0,-56,-0.531586,0.0217531,-44.5061,-12.1257,2.004
-0.5036,-0.503697,0.174456,0.169491,-0,4.14345e-06,0.00491186,2.93384e-05,0,-56,-0.531586,0.0145021,-44.6826,-12.2063,2.008
-0.5036,-0.503697,0.174476,0.169492,-0,2.7623e-06,0.00492948,4.83498e-05,0,-57,-0.531586,0.00966806,-44.8566,-12.2028,2.012
-0.5036,-0.503697,0.174496,0.169492,-0,1.84154e-06,0.00494712,3.22332e-05,0,-57,-0.531586,0.00644537,-45.0344,-12.2872,2.016
-0.5036,-0.503697,0.174515,0.169492,-0,1.22769e-06,0.00496478,2.14888e-05,0,-57,-0.531586,0.00429692,-45.2128,-12.3582,2.02
-0.5036,-0.503697,0.174535,0.169492,-0,8.1846e-07,0.00498247,4.31168e-05,0,-57,-0.531586,0.00286461,-45.3887,-12.3484,2.024
-0.5036,-0.503697,0.174555,0.169492,-0,5.4564e-07,0.00500018,2.87445e-05,0,-57,-0.531586,0.00190974,-45.5684,-12.4286,2.028
-0.5036,-0.503697,0.174575,0.169492,-0,-2.84272e-05,0.00501791,-9.6279e-06,0,-58,-0.533486,-0.0994951,-45.7519,-12.5688,2.032
-0.5036,-0.503697,0.174595,0.169492,-0,9.83948e-06,0.00503567,5.11632e-05,0,-58,-0.531586,0.0344382,-45.9266,-12.4613,2.036
-0.5036,-0.503697,0.174616,0.169492,-0,6.55965e-06,0.00505345,3.41088e-05,0,-58,-0.531586,0.0229588,-46.1082,-12.5484,2.04
-0.5036,-0.503697,0.174636,0.169493,-0,4.3731e-06,0.00507125,5.15301e-05,0,-58,-0.531586,0.0153059,-46.2874,-12.5493,2.044
-0.5036,-0.503697,0.174656,0.169493,-0,2.9154e-06,0.00508908,6.31444e-05,0,-59,-0.531586,0.0102039,-46.4671,-12.5648,2.048
-0.5036,-0.503697,0.174677,0.169493,-0,1.9436e-06,0.00510693,4.20962e-05,0,-59,-0.531586,0.0068026,-46.6507,-12.6621,2.052
-0.5036,-0.503697,0.174697,0.169494,-0,-2.74952e-05,0.0051248,8.5646e-05,0,-59,-0.533486,-0.0962332,-46.8286,-12.5979,2.056
-0.5036,-0.503697,0.174718,0.169494,-0,1.04608e-05,0.0051427,8.58883e-05,0,-59,-0.531586,0.0366128,-47.0103,-12.642,2.06
-0.5036,-0.503697,0.174738,0.169496,-0,-2.18171e-05,0.00516062,0.000172423,0,-59,-0.533486,-0.0763597,-47.1833,-12.4705,2.064
-0.5036,-0.503697,0.174759,0.169496,-0,-1.45447e-05,0.00517856,0.000143739,0,-59,-0.533486,-0.0509065,-47.3663,-12.5871,2.068
-0.5036,-0.503697,0.17478,0.169497,-0,1.90945e-05,0.00519653,0.000182199,0,-60,-0.531586,0.0668306,-47.5438,-12.5358,2.072
-0.5036,-0.503697,0.1748,0.169498,-0,1.27296e-05,0.00521452,0.000207839,0,-60,-0.531586,0.0445537,-47.7218,-12.5167,2.076
-0.5036,-0.503697,0.174821,0.169499,-0,8.48642e-06,0.00523253,0.000253723,0,-60,-0.531586,0.0297025,-47.8974,-12.447,2.08
-0.5036,-0.503697,0.174842,0.169501,-0,5.65762e-06,0.00525057,0.000313103,0,-60,-0.531586,0.0198017,-48.0706,-12.3437,2.084
-0.5036,-0.503697,0.174863,0.169503,-0,3.77174e-06,0.00526862,0.000381481,0,-60,-0.531586,0.0132011,-48.2413,-12.2179,2.088
-0.5036,-0.503697,0.174884,0.169505,-0,-2.62764e-05,0.00528671,0.000398275,0,-60,-0.533486,-0.0919675,-48.4157,-12.2211,2.092
-0.5036,-0.503697,0.174906,0.169507,-0,1.12733e-05,0.00530481,0.000409471,0,-60,-0.531586,0.0394566,-48.5908,-12.2383,2.096
-0.5036,-0.503697,0.174927,0.169507,-0,7.51554e-06,0.00532294,0.000330563,0,-61,-0.531586,0.0263044,-48.7759,-12.4809,2.1
-0.5036,-0.503697,0.174948,0.169509,-0,-2.37806e-05,0.00534108,0.00036433,0,-61,-0.533486,-0.083232,-48.9523,-12.4419,2.104
-0.5036,-0.503697,0.17497,0.169509,-0,1.29372e-05,0.00535926,0.000271677,0,-61,-0.531586,0.0452802,-49.1418,-12.7189,2.108
-0.5036,-0.503697,0.174991,0.16951,-0,8.62481e-06,0.00537745,0.0002387,0,-62,-0.531586,0.0301868,-49.3288,-12.8469,2.112
-0.5036,-0.503697,0.175013,0.16951,-0,5.74987e-06,0.00539567,0.000159133,0,-62,-0.531586,0.0201246,-49.5228,-13.0913,2.116
-0.5036,-0.503697,0.175034,0.169511,-0,3.83325e-06,0.00541391,0.000163671,0,-62,-0.531586,0.0134164,-49.7111,-13.1256,2.12
-0.5036,-0.503697,0.175056,0.169511,-0,2.5555e-06,0.00543217,0.000137905,0,-63,-0.531586,0.00894425,-49.9032,-13.2357,2.124
-0.5036,-0.503697,0.175078,0.169512,-0,1.70367e-06,0.00545046,0.000178309,0,-63,-0.531586,0.00596283,-50.0898,-13.1804,2.128
-0.5036,-0.503697,0.175099,0.169513,-0,1.13578e-06,0.00546876,0.000234037,0,-63,-0.531586,0.00397522,-50.2739,-13.0868,2.132
-0.5036,-0.503697,0.175121,0.169514,-0,7.57185e-07,0.00548709,0.000213606,0,-63,-0.531586,0.00265015,-50.4649,-13.1837,2.136
-0.5036,-0.503697,0.175143,0.169516,-0,5.0479e-07,0.00550545,0.000257568,0,-63,-0.531586,0.00176676,-50.6503,-13.1197,2.14
-0.5036,-0.503697,0.175165,0.169517,-0,3.36527e-07,0.00552382,0.000286876,0,-63,-0.531586,0.00117784,-50.8364,-13.0924,2.144
-0.5036,-0.503697,0.175188,0.169518,-0,2.24351e-07,0.00554222,0.000277623,0,-64,-0.531586,0.000785229,-51.0263,-13.1615,2.148
-0.5036,-0.503697,0.17521,0.169519,-0,-2.86414e-05,0.00556064,0.000271455,0,-64,-0.533486,-0.100245,-51.2168,-13.223,2.152
-0.5036,-0.503697,0.175232,0.16952,-0,9.69669e-06,0.00557908,0.000238552,0,-64,-0.531586,0.0339384,-51.4111,-13.3513,2.156
-0.5036,-0.503697,0.175254,0.169521,-0,6.46446e-06,0.00559754,0.000245407,0,-64,-0.531586,0.0226256,-51.6029,-13.3803,2.16
-0.5036,-0.503697,0.175277,0.169521,-0,4.30964e-06,0.00561603,0.000221187,0,-65,-0.531586,0.0150837,-51.7986,-13.4871,2.164
-0.5036,-0.503697,0.175299,0.169522,-0,-2.59178e-05,0.00563453,0.000176249,0,-65,-0.533486,-0.0907124,-51.998,-13.6457,2.168
-0.5036,-0.503697,0.175322,0.169522,-0,1.15124e-05,0.00565306,0.000175081,0,-65,-0.531586,0.0402933,-52.1949,-13.695,2.172
-0.5036,-0.503697,0.175345,0.169522,-0,7.67491e-06,0.00567162,8.79297e-05,0,-66,-0.531586,0.0268622,-52.4019,-13.9592,2.176
-0.5036,-0.503697,0.175367,0.169523,-0,5.11661e-06,0.00569019,0.000144993,0,-66,-0.531586,0.0179081,-52.5971,-13.863,2.18
-0.5036,-0.503697,0.17539,0.169524,-0,3.41107e-06,0.00570879,0.000154244,0,-66,-0.531586,0.0119388,-52.796,-13.8864,2.184
-0.5036,-0.503697,0.175413,0.169524,-0,2.27405e-06,0.0057274,0.000102829,0,-67,-0.531586,0.00795917,-53.0019,-14.0614,2.188
-0.5036,-0.503697,0.175436,0.169524,-0,1.51603e-06,0.00574604,9.73436e-05,0,-67,-0.531586,0.00530611,-53.2053,-14.1217,2.192
-0.5036,-0.503697,0.175459,0.169525,-0,1.01069e-06,0.0057647,0.000122478,0,-67,-0.531586,0.00353741,-53.4063,-14.1056,2.196
-0.5036,-0.503697,0.175482,0.169525,-0,-2.81171e-05,0.00578339,0.000110443,0,-67,-0.533486,-0.09841,-53.611,-14.1824,2.2
-0.5036,-0.503697,0.175505,0.169526,-0,1.00462e-05,0.00580209,0.00013121,0,-67,-0.531586,0.0351616,-53.8133,-14.1772,2.204
-0.5036,-0.503697,0.175528,0.169527,-0,6.69745e-06,0.00582082,0.000145055,0,-68,-0.531586,0.0234411,-54.0163,-14.1894,2.208
-0.5036,-0.503697,0.175552,0.169527,-0,4.46496e-06,0.00583957,0.000154285,0,-68,-0.531586,0.0156274,-54.22,-14.2132,2.212
-0.5036,-0.503697,0.175575,0.169528,-0,2.97664e-06,0.00585833,0.000131648,0,-68,-0.531586,0.0104182,-54.4275,-14.3167,2.216
-0.5036,-0.503697,0.175599,0.169529,-0,1.98443e-06,0.00587713,0.000174138,0,-68,-0.531586,0.0069455,-54.6294,-14.2575,2.22
-0.5036,-0.503697,0.175622,0.169529,-0,-2.7468e-05,0.00589594,0.000116092,0,-69,-0.533486,-0.0961379,-54.8413,-14.4496,2.224
-0.5036,-0.503697,0.175646,0.169529,-0,1.04789e-05,0.00591477,7.73947e-05,0,-69,-0.531586,0.0366763,-55.0539,-14.5934,2.228
-0.5036,-0.503697,0.175669,0.169529,-0,6.98596e-06,0.00593363,8.03874e-05,0,-69,-0.531586,0.0244509,-55.264,-14.6331,2.232
-0.5036,-0.503697,0.175693,0.16953,-0,-2.41336e-05,0.0059525,0.000139964,0,-70,-0.533486,-0.0844677,-55.4687,-14.5314,2.236
-0.5036,-0.503697,0.175717,0.16953,-0,-1.60891e-05,0.0059714,9.33096e-05,0,-70,-0.533486,-0.0563118,-55.6833,-14.6952,2.24
-0.5036,-0.503697,0.175741,0.169531,-0,-1.07261e-05,0.00599032,0.000148579,0,-70,-0.533486,-0.0375412,-55.8893,-14.6044,2.244
-0.5036,-0.503697,0.175765,0.169531,-0,2.16402e-05,0.00600926,7.02618e-05,0,-70,-0.531586,0.0757408,-56.1084,-14.8475,2.248
-0.5036,-0.503697,0.175789,0.169531,-0,-1.43641e-05,0.00602823,7.56322e-05,0,-71,-0.533486,-0.0502744,-56.3219,-14.8815,2.252
-0.5036,-0.503697,0.175813,0.169531,-0,-9.57607e-06,0.00604721,2.16305e-05,0,-71,-0.533486,-0.0335163,-56.5424,-15.0639,2.256
-0.5036,-0.503697,0.175837,0.169531,-0,2.24069e-05,0.00606621,7.20022e-05,0,-71,-0.531586,0.0784241,-56.7542,-14.9855,2.26
-0.5036,-0.503697,0.175862,0.169532,-0,1.49379e-05,0.00608524,7.67924e-05,0,-71,-0.531586,0.0522827,-56.9698,-15.0211,2.264
-0.5036,-0.503697,0.175886,0.169532,-0,9.95861e-06,0.00610428,7.99858e-05,0,-72,-0.531586,0.0348551,-57.1861,-15.0607,2.268
-0.5036,-0.503697,0.175911,0.169532,-0,6.63907e-06,0.00612335,5.33239e-05,0,-72,-0.531586,0.0232368,-57.4062,-15.1751,2.272
-0.5036,-0.503697,0.175935,0.169532,-0,4.42605e-06,0.00614244,6.43402e-05,0,-72,-0.531586,0.0154912,-57.6239,-15.1953,2.276
-0.5036,-0.503697,0.17596,0.169532,-0,2.9507e-06,0.00616155,4.28935e-05,0,-73,-0.531586,0.0103274,-57.8454,-15.2966,2.28
-0.5036,-0.503697,0.175984,0.169533,-0,1.96713e-06,0.00618068,5.73866e-05,0,-73,-0.531586,0.00688497,-58.0644,-15.3082,2.284
-0.5036,-0.503697,0.176009,0.169533,-0,1.31142e-06,0.00619983,3.82577e-05,0,-73,-0.531586,0.00458998,-58.2873,-15.4039,2.288
-0.5036,-0.503697,0.176034,0.169533,-0,-2.79166e-05,0.006219,5.42961e-05,0,-73,-0.533486,-0.0977083,-58.5077,-15.4118,2.292
-0.5036,-0.503697,0.176059,0.169533,-0,-1.86111e-05,0.0062382,7.40645e-06,0,-74,-0.533486,-0.0651388,-58.7351,-15.577,2.296
-0.5036,-0.503697,0.176084,0.169534,-0,1.63835e-05,0.00625741,6.25195e-05,0,-74,-0.531586,0.0573423,-58.9538,-15.4872,2.3
-0.5036,-0.503697,0.176109,0.169534,-0,1.09224e-05,0.00627664,7.04706e-05,0,-74,-0.531586,0.0382282,-59.1763,-15.5154,2.304
-0.5036,-0.503697,0.176134,0.169534,-0,7.28157e-06,0.0062959,4.69804e-05,0,-75,-0.531586,0.0254855,-59.4026,-15.6223,2.308
-0.5036,-0.503697,0.176159,0.169535,-0,-2.39365e-05,0.00631517,8.89021e-05,0,-75,-0.533486,-0.0837779,-59.6233,-15.5657,2.312
-0.5036,-0.503697,0.176185,0.169534,-0,1.28332e-05,0.00633447,3.04771e-05,0,-75,-0.531586,0.0449163,-59.8541,-15.76,2.316
-0.5036,-0.503697,0.17621,0.169535,-0,-2.02354e-05,0.00635379,4.9109e-05,0,-75,-0.533486,-0.070824,-60.0794,-15.7617,2.32
-0.5036,-0.503697,0.176235,0.169535,-0,1.53006e-05,0.00637312,6.15303e-05,0,-76,-0.531586,0.0535522,-60.3054,-15.779,2.324
-0.5036,-0.503697,0.176261,0.169536,-0,-1.85905e-05,0.00639248,9.8602e-05,0,-76,-0.533486,-0.0650668,-60.529,-15.7347,2.328
-0.5036,-0.503697,0.176287,0.169536,-0,1.63973e-05,0.00641186,0.000123317,0,-76,-0.531586,0.0573904,-60.7532,-15.7214,2.332
-0.5036,-0.503697,0.176312,0.169537,-0,1.09315e-05,0.00643126,0.000168584,0,-76,-0.531586,0.0382603,-60.9751,-15.6567,2.336
-0.5036,-0.503697,0.176338,0.169537,-0,7.28767e-06,0.00645068,8.35983e-05,0,-77,-0.531586,0.0255068,-61.2101,-15.9177,2.34
-0.5036,-0.503697,0.176364,0.169537,-0,-2.39325e-05,0.00647011,8.45231e-05,0,-77,-0.533486,-0.0837637,-61.4395,-15.964,2.344
-0.5036,-0.503697,0.17639,0.169538,-0,-1.5955e-05,0.00648957,0.000113931,0,-77,-0.533486,-0.0558425,-61.6666,-15.9391,2.348
-0.5036,-0.503697,0.176416,0.169538,-0,-1.06367e-05,0.00650905,4.71628e-05,0,-78,-0.533486,-0.0372283,-61.9037,-16.1547,2.352
-0.5036,-0.503697,0.176442,0.169538,-0,-7.0911e-06,0.00652855,6.02328e-05,0,-78,-0.533486,-0.0248189,-62.1352,-16.1708,2.356
-0.5036,-0.503697,0.176468,0.169538,-0,2.40635e-05,0.00654807,6.89461e-05,0,-78,-0.531586,0.0842223,-62.3675,-16.1978,2.36
-0.5036,-0.503697,0.176494,0.169539,-0,-1.27486e-05,0.00656761,7.4755e-05,0,-78,-0.533486,-0.04462,-62.6005,-16.2321,2.364
-0.5036,-0.503697,0.176521,0.169539,-0,-8.49905e-06,0.00658717,7.86276e-05,0,-79,-0.533486,-0.0297467,-62.8341,-16.2714,2.368
-0.5036,-0.503697,0.176547,0.169539,-0,-5.66603e-06,0.00660675,5.24184e-05,0,-79,-0.533486,-0.0198311,-63.0716,-16.3858,2.372
-0.5036,-0.503697,0.176573,0.169539,-0,-3.77736e-06,0.00662635,3.49456e-05,0,-79,-0.533486,-0.0132207,-63.3098,-16.4785,2.376
-0.5036,-0.503697,0.1766,0.16954,-0,-2.51824e-06,0.00664597,8.08789e-05,0,-79,-0.533486,-0.00881383,-63.5425,-16.4127,2.38
-0.5036,-0.503697,0.176627,0.169539,-0,-1.67882e-06,0.00666561,2.51284e-05,0,-80,-0.533486,-0.00587589,-63.7852,-16.6012,2.384
-0.5036,-0.503697,0.176653,0.169539,-0,2.76717e-05,0.00668527,1.67522e-05,0,-80,-0.531586,0.096851,-64.0256,-16.6713,2.388
-0.5036,-0.503697,0.17668,0.16954,-0,-1.03431e-05,0.00670495,3.99591e-05,0,-80,-0.533486,-0.0362009,-64.2635,-16.6625,2.392
-0.5036,-0.503697,0.176707,0.16954,-0,-6.89541e-06,0.00672465,5.54303e-05,0,-81,-0.533486,-0.0241339,-64.5021,-16.673,2.396
-0.5036,-0.503697,0.176734,0.16954,-0,2.4194e-05,0.00674437,6.57445e-05,0,-81,-0.531586,0.0846789,-64.7414,-16.6966,2.4
-0.5036,-0.503697,0.176761,0.169541,-0,-1.26616e-05,0.0067641,7.26206e-05,0,-81,-0.533486,-0.0443156,-64.9815,-16.7287,2.404
-0.5036,-0.503697,0.176788,0.169541,-0,2.03499e-05,0.00678386,0.000105996,0,-81,-0.531586,0.0712245,-65.2191,-16.6947,2.408
-0.5036,-0.503697,0.176815,0.169542,-0,1.35666e-05,0.00680364,9.94546e-05,0,-82,-0.531586,0.047483,-65.4606,-16.7605,2.412
-0.5036,-0.503697,0.176842,0.169543,-0,9.04438e-06,0.00682344,0.000152676,0,-82,-0.531586,0.0316553,-65.6965,-16.6769,2.416
-0.5036,-0.503697,0.17687,0.169543,-0,-2.27613e-05,0.00684325,0.000101784,0,-82,-0.533486,-0.0796647,-65.9425,-16.8537,2.42
-0.5036,-0.503697,0.176897,0.169543,-0,1.36167e-05,0.00686309,9.66469e-05,0,-83,-0.531586,0.0476584,-66.1861,-16.9161,2.424
-0.5036,-0.503697,0.176925,0.169544,-0,9.0778e-06,0.00688294,9.32222e-05,0,-83,-0.531586,0.0317723,-66.4305,-16.9743,2.428
-0.5036,-0.503697,0.176952,0.169544,-0,6.05187e-06,0.00690282,0.00011973,0,-83,-0.531586,0.0211815,-66.6724,-16.9577,2.432
-0.5036,-0.503697,0.17698,0.169544,-0,4.03458e-06,0.00692271,7.982e-05,0,-84,-0.531586,0.014121,-66.9212,-17.1072,2.436
-0.5036,-0.503697,0.177008,0.169545,-0,-2.61012e-05,0.00694263,0.000139586,0,-84,-0.533486,-0.0913542,-67.1615,-17.0076,2.44
-0.5036,-0.503697,0.177035,0.169545,-0,1.13901e-05,0.00696256,9.30574e-05,0,-84,-0.531586,0.0398654,-67.4118,-17.1738,2.444
-0.5036,-0.503697,0.177063,0.169546,-0,-2.11975e-05,0.00698251,9.08292e-05,0,-84,-0.533486,-0.0741913,-67.6597,-17.2292,2.448
-0.5036,-0.503697,0.177091,0.169546,-0,1.46593e-05,0.00700248,8.93437e-05,0,-85,-0.531586,0.0513074,-67.9083,-17.2828,2.452
-0.5036,-0.503697,0.177119,0.169546,-0,-1.90181e-05,0.00702247,8.83534e-05,0,-85,-0.533486,-0.0665633,-68.1576,-17.3353,2.456
-0.5036,-0.503697,0.177148,0.169547,-0,1.61122e-05,0.00704248,8.76932e-05,0,-85,-0.531586,0.0563927,-68.4077,-17.387,2.46
-0.5036,-0.503697,0.177176,0.169547,-0,1.07415e-05,0.00706251,8.72531e-05,0,-86,-0.531586,0.0375951,-68.6585,-17.4381,2.464
-0.5036,-0.503697,0.177204,0.169547,-0,-2.16299e-05,0.00708256,8.69596e-05,0,-86,-0.533486,-0.0757048,-68.91,-17.489,2.468
-0.5036,-0.503697,0.177232,0.169548,-0,1.4371e-05,0.00710263,0.000115555,0,-86,-0.531586,0.0502984,-69.1591,-17.4677,2.472
-0.5036,-0.503697,0.177261,0.169548,-0,9.58064e-06,0.00712271,0.000105828,0,-86,-0.531586,0.0335322,-69.412,-17.5422,2.476
-0.5036,-0.503697,0.177289,0.169549,-0,6.38709e-06,0.00714282,9.93426e-05,0,-87,-0.531586,0.0223548,-69.6657,-17.6087,2.48
-0.5036,-0.503697,0.177318,0.169549,-0,-2.45329e-05,0.00716294,9.50193e-05,0,-87,-0.533486,-0.085865,-69.9201,-17.6698,2.484
-0.5036,-0.503697,0.177347,0.169549,-0,1.24357e-05,0.00718308,6.33462e-05,0,-87,-0.531586,0.0435249,-70.1783,-17.7993,2.488
-0.5036,-0.503697,0.177375,0.169549,-0,-2.05005e-05,0.00720324,4.22308e-05,0,-88,-0.533486,-0.0717516,-70.4373,-17.9025,2.492
-0.5036,-0.503697,0.177404,0.169549,-0,1.51239e-05,0.00722342,2.81539e-05,0,-88,-0.531586,0.0529338,-70.697,-17.9882,2.496
-0.5036,-0.503697,0.177433,0.169549,-0,-1.87083e-05,0.00724362,4.75602e-05,0,-88,-0.533486,-0.065479,-70.9543,-17.9902,2.5
-0.5036,-0.503697,0.177462,0.169549,-0,1.63187e-05,0.00726384,3.17068e-05,0,-89,-0.531586,0.0571155,-71.2154,-18.0803,2.504
-0.5036,-0.503697,0.177491,0.169549,-0,1.08792e-05,0.00728407,2.11379e-05,0,-89,-0.531586,0.038077,-71.4773,-18.1573,2.508
-0.5036,-0.503697,0.177521,0.16955,-0,-2.15382e-05,0.00730433,4.28828e-05,0,-89,-0.533486,-0.0753835,-71.7367,-18.1536,2.512
-0.5036,-0.503697,0.17755,0.16955,-0,-1.43588e-05,0.0073246,2.85886e-05,0,-90,-0.533486,-0.0502557,-72.0001,-18.24,2.516
-0.5036,-0.503697,0.177579,0.16955,-0,1.92184e-05,0.00734489,4.785e-05,0,-90,-0.531586,0.0672644,-72.261,-18.2426,2.52
-0.5036,-0.503697,0.177609,0.16955,-0,1.28123e-05,0.0073652,6.06909e-05,0,-90,-0.531586,0.044843,-72.5227,-18.2613,2.524
-0.5036,-0.503697,0.177638,0.169551,-0,-2.02494e-05,0.00738553,6.92515e-05,0,-91,-0.533486,-0.0708729,-72.7851,-18.2907,2.528
-0.5036,-0.503697,0.177668,0.169551,-0,-1.34996e-05,0.00740588,7.49586e-05,0,-91,-0.533486,-0.0472486,-73.0482,-18.3273,2.532
-0.5036,-0.503697,0.177697,0.169552,-0,1.97912e-05,0.00742624,0.000107554,0,-91,-0.531586,0.0692692,-73.309,-18.2967,2.536
-0.5036,-0.503697,0.177727,0.169553,-0,1.31941e-05,0.00744663,0.000129285,0,-91,-0.531586,0.0461794,-73.5705,-18.2934,2.54
-0.5036,-0.503697,0.177757,0.169553,-0,8.79608e-06,0.00746703,0.000114981,0,-92,-0.531586,0.0307863,-73.8358,-18.3801,2.544
-0.5036,-0.503697,0.177787,0.169554,-0,5.86406e-06,0.00748745,0.000134236,0,-92,-0.531586,0.0205242,-74.0988,-18.383,2.548
-0.5036,-0.503697,0.177817,0.169555,-0,3.90937e-06,0.00750789,0.000175863,0,-92,-0.531586,0.0136828,-74.3594,-18.3301,2.552
-0.5036,-0.503697,0.177847,0.169555,-0,-2.61847e-05,0.00752834,0.000174824,0,-93,-0.533486,-0.0916464,-74.6238,-18.3838,2.556
-0.5036,-0.503697,0.177877,0.169556,-0,1.13345e-05,0.00754882,0.000174131,0,-93,-0.531586,0.0396707,-74.889,-18.4367,2.56
-0.5036,-0.503697,0.177907,0.169557,-0,7.55632e-06,0.00756931,0.000173669,0,-93,-0.531586,0.0264471,-75.1549,-18.4891,2.564
-0.5036,-0.503696,0.177938,0.169557,-0,3.38285e-05,0.00758982,0.00014457,0,-94,-0.529686,0.1184,-75.4246,-18.6131,2.568
-0.5036,-0.503697,0.177968,0.169557,-0,-6.23861e-06,0.00761035,0.000125171,0,-94,-0.531586,-0.0218351,-75.6951,-18.7129,2.572
-0.5036,-0.503696,0.177998,0.169558,-0,2.46318e-05,0.0076309,0.000112238,0,-94,-0.529686,0.0862115,-75.9664,-18.7966,2.576
-0.5036,-0.503697,0.178029,0.169558,-0,-1.23697e-05,0.00765146,0.000103617,0,-95,-0.531586,-0.0432939,-76.2383,-18.8696,2.58
-0.5036,-0.503697,0.17806,0.169559,-0,-8.24646e-06,0.00767204,0.00012666,0,-95,-0.531586,-0.0288626,-76.5079,-18.8635,2.584
-0.5036,-0.503697,0.17809,0.169559,-0,-5.49764e-06,0.00769264,0.000142022,0,-95,-0.531586,-0.0192417,-76.7783,-18.8766,2.588
-0.5036,-0.503696,0.178121,0.16956,-0,2.51258e-05,0.00771326,0.000123472,0,-96,-0.529686,0.0879404,-77.0525,-18.9745,2.592
-0.5036,-0.503697,0.178152,0.169561,-0,-1.20404e-05,0.0077339,0.000168687,0,-96,-0.531586,-0.0421413,-77.3212,-18.913,2.596
-0.5036,-0.503696,0.178183,0.169561,-0,2.0764e-05,0.00775455,0.000141249,0,-96,-0.529686,0.072674,-77.5969,-19.0333,2.6
-0.5036,-0.503697,0.178214,0.169562,-0,-1.49483e-05,0.00777522,0.000122957,0,-97,-0.531586,-0.0523189,-77.8733,-19.1307,2.604
-0.5036,-0.503697,0.178245,0.169562,-0,-9.9655e-06,0.00779591,0.000110762,0,-97,-0.531586,-0.0348793,-78.1505,-19.2129,2.608
-0.5036,-0.503697,0.178276,0.169562,-0,-6.64367e-06,0.00781662,0.000102632,0,-97,-0.531586,-0.0232528,-78.4284,-19.285,2.612
-0.5036,-0.503696,0.178308,0.169563,-0,2.43618e-05,0.00783734,0.000126003,0,-97,-0.529686,0.0852663,-78.7039,-19.2783,2.616
-0.5036,-0.503697,0.178339,0.169563,-0,-1.25497e-05,0.00785808,0.000112793,0,-98,-0.531586,-0.043924,-78.9833,-19.3632,2.62
-0.5036,-0.503696,0.178371,0.169564,-0,2.04244e-05,0.00787884,0.000103986,0,-98,-0.529686,0.0714856,-79.2635,-19.4371,2.624
-0.5036,-0.503697,0.178402,0.169564,-0,-1.51746e-05,0.00789962,0.000126906,0,-98,-0.531586,-0.0531112,-79.5413,-19.4318,2.628
-0.5036,-0.503697,0.178434,0.169565,-0,-1.01164e-05,0.00792041,0.000113395,0,-99,-0.531586,-0.0354075,-79.8229,-19.5175,2.632
-0.5036,-0.503697,0.178466,0.169565,-0,-6.43261e-05,0.00794122,0.000133179,0,-99,-0.535387,-0.225141,-80.1022,-19.5201,2.636
-0.5036,-0.503697,0.178497,0.169566,-0,-4.28841e-05,0.00796205,0.000146368,0,-99,-0.535387,-0.150094,-80.3823,-19.5392,2.64
-0.5036,-0.503697,0.178529,0.169567,-0,-2.85894e-05,0.0079829,0.000183951,0,-100,-0.535387,-0.100063,-80.66,-19.4974,2.644
-0.5036,-0.503697,0.178561,0.169568,-0,3.85223e-05,0.00800376,0.000209007,0,-100,-0.531586,0.134828,-80.9384,-19.4869,2.648
-0.5036,-0.503697,0.178593,0.169569,-0,2.56815e-05,0.00802464,0.000225711,0,-100,-0.531586,0.0898853,-81.2176,-19.4973,2.652
-0.5036,-0.503697,0.178625,0.16957,-0,1.7121e-05,0.00804554,0.000208056,0,-101,-0.531586,0.0599235,-81.5006,-19.5937,2.656
-0.5036,-0.503696,0.178658,0.16957,-0,4.02049e-05,0.00806645,0.000167495,0,-101,-0.529686,0.140717,-81.7875,-19.7474,2.66
-0.5036,-0.503696,0.17869,0.16957,-0,2.68033e-05,0.00808739,0.000140454,0,-101,-0.529686,0.0938115,-82.0752,-19.8673,2.664
-0.5036,-0.503697,0.178722,0.16957,-0,-6.85039e-05,0.00810834,9.3636e-05,0,-102,-0.535387,-0.239764,-82.3667,-20.0367,2.668
-0.5036,-0.503696,0.178755,0.16957,-0,4.07035e-05,0.0081293,6.2424e-05,0,-102,-0.529686,0.142462,-82.659,-20.1672,2.672
-0.5036,-0.503697,0.178787,0.16957,-0,-1.65526e-06,0.00815028,4.1616e-05,0,-103,-0.531586,-0.00579341,-82.952,-20.2717,2.676
-0.5036,-0.503697,0.17882,0.169571,-0,-1.10351e-06,0.00817128,5.65349e-05,0,-103,-0.531586,-0.00386228,-83.2427,-20.2869,2.68
-0.5036,-0.503696,0.178853,0.169571,-0,2.80553e-05,0.0081923,3.769e-05,0,-103,-0.529686,0.0981934,-83.5372,-20.3865,2.684
-0.5036,-0.503697,0.178886,0.169571,-0,-6.76693e-05,0.00821333,5.39176e-05,0,-104,-0.535387,-0.236842,-83.8294,-20.3985,2.688
-0.5036,-0.503697,0.178918,0.169571,-0,1.2469e-05,0.00823438,3.5945e-05,0,-104,-0.531586,0.0436415,-84.1255,-20.4961,2.692
-0.5036,-0.503697,0.178951,0.169572,-0,8.31267e-06,0.00825545,5.27543e-05,0,-104,-0.531586,0.0290943,-84.4192,-20.5067,2.696
-0.5036,-0.503697,0.178984,0.169572,-0,-5.20401e-05,0.00827654,6.39604e-05,0,-105,-0.535387,-0.18214,-84.7137,-20.5314,2.7
-0.5036,-0.503697,0.179018,0.169572,-0,2.28885e-05,0.00829764,4.26403e-05,0,-105,-0.531586,0.0801096,-85.012,-20.6375,2.704
-0.5036,-0.503696,0.179051,0.169572,-0,4.40499e-05,0.00831875,5.72178e-05,0,-105,-0.529686,0.154175,-85.308,-20.6538,2.708
-0.5036,-0.503696,0.179084,0.169573,-0,2.93666e-05,0.00833989,6.69361e-05,0,-106,-0.529686,0.102783,-85.6047,-20.6824,2.712
-0.5036,-0.503697,0.179118,0.169573,-0,-6.6795e-05,0.00836104,4.46241e-05,0,-106,-0.535387,-0.233783,-85.9053,-20.791,2.716
-0.5036,-0.503697,0.179151,0.169573,-0,1.30518e-05,0.00838221,5.85403e-05,0,-107,-0.531586,0.0456814,-86.2036,-20.8092,2.72
-0.5036,-0.503696,0.179185,0.169573,-0,3.74921e-05,0.00840339,6.78178e-05,0,-107,-0.529686,0.131222,-86.5026,-20.8389,2.724
-0.5036,-0.503697,0.179218,0.169574,-0,-6.1378e-05,0.00842459,0.000102794,0,-107,-0.535387,-0.214823,-86.7993,-20.8045,2.728
-0.5036,-0.503697,0.179252,0.169574,-0,1.66632e-05,0.00844581,9.73201e-05,0,-107,-0.531586,0.0583211,-87.0999,-20.8712,2.732
-0.5036,-0.503697,0.179286,0.169575,-0,-1.76821e-05,0.00846704,0.000122462,0,-108,-0.533486,-0.0618875,-87.3981,-20.8614,2.736
-0.5036,-0.503696,0.17932,0.169576,-0,4.57938e-05,0.00848829,0.000139223,0,-108,-0.529686,0.160278,-87.6971,-20.8727,2.74
-0.5036,-0.503697,0.179354,0.169576,-0,-2.70527e-05,0.00850955,9.28154e-05,0,-109,-0.533486,-0.0946844,-88.003,-21.0418,2.744
-0.5036,-0.503697,0.179388,0.169576,-0,1.07558e-05,0.00853084,0.000119459,0,-109,-0.531586,0.0376453,-88.3036,-21.0284,2.748
-0.5036,-0.503697,0.179422,0.169577,-0,-5.04113e-05,0.00855214,0.00010843,0,-109,-0.535387,-0.17644,-88.6079,-21.1093,2.752
-0.5036,-0.503696,0.179456,0.169577,-0,5.27652e-05,0.00857345,0.000101078,0,-110,-0.529686,0.184678,-88.9131,-21.1809,2.756
-0.5036,-0.503697,0.179491,0.169577,-0,6.3859e-06,0.00859478,9.6176e-05,0,-110,-0.531586,0.0223506,-89.219,-21.2465,2.76
-0.5036,-0.503697,0.179525,0.169578,-0,-5.33246e-05,0.00861613,9.29083e-05,0,-110,-0.535387,-0.186636,-89.5257,-21.308,2.764
-0.5036,-0.503697,0.17956,0.169578,-0,2.20321e-05,0.00863749,9.07298e-05,0,-111,-0.531586,0.0771124,-89.8331,-21.3669,2.768
-0.5036,-0.503697,0.179594,0.169578,-0,1.46881e-05,0.00865887,8.92774e-05,0,-111,-0.531586,0.0514083,-90.1414,-21.424,2.772
-0.5036,-0.503697,0.179629,0.169579,-0,-1.89989e-05,0.00868026,8.83092e-05,0,-111,-0.533486,-0.066496,-90.4504,-21.4799,2.776
-0.5036,-0.503697,0.179664,0.169579,-0,1.6125e-05,0.00870167,8.76637e-05,0,-112,-0.531586,0.0564375,-90.7601,-21.535,2.78
-0.5036,-0.503697,0.179698,0.169579,-0,1.075e-05,0.0087231,5.84425e-05,0,-112,-0.531586,0.037625,-91.0738,-21.6616,2.784
-0.5036,-0.503697,0.179733,0.16958,-0,-2.16243e-05,0.00874454,9.65435e-05,0,-113,-0.533486,-0.0756849,-91.382,-21.62,2.788
-0.5036,-0.503697,0.179768,0.169581,-0,1.43748e-05,0.008766,0.000150735,0,-113,-0.531586,0.0503116,-91.6878,-21.5382,2.792
-0.5036,-0.503697,0.179803,0.169582,-0,-1.92078e-05,0.00878748,0.000186863,0,-113,-0.533486,-0.0672271,-91.9945,-21.5015,2.796
-0.5036,-0.503697,0.179839,0.169583,-0,1.59858e-05,0.00880897,0.000182157,0,-113,-0.531586,0.0559501,-92.305,-21.567,2.8
-0.5036,-0.503697,0.179874,0.169584,-0,1.06572e-05,0.00883047,0.000207811,0,-114,-0.531586,0.0373001,-92.6132,-21.5567,2.804
-0.5036,-0.503697,0.179909,0.169584,-0,7.10478e-06,0.00885199,0.000167331,0,-114,-0.531586,0.0248667,-92.9283,-21.7117,2.808
-0.5036,-0.503697,0.179945,0.169584,-0,4.73652e-06,0.00887353,0.000140345,0,-115,-0.531586,0.0165778,-93.2443,-21.833,2.812
-0.5036,-0.503697,0.17998,0.169585,-0,-5.44242e-05,0.00889509,0.000122354,0,-115,-0.535387,-0.190485,-93.561,-21.9318,2.816
-0.5036,-0.503696,0.180016,0.169585,-0,5.009e-05,0.00891665,8.15696e-05,0,-115,-0.529686,0.175315,-93.8816,-22.0877,2.82
-0.5036,-0.503697,0.180052,0.169585,-0,4.60241e-06,0.00893824,5.43797e-05,0,-116,-0.531586,0.0161084,-94.203,-22.2096,2.824
-0.5036,-0.503697,0.180087,0.169585,-0,3.06827e-06,0.00895984,6.50441e-05,0,-116,-0.531586,0.0107389,-94.5221,-22.237,2.828
-0.5036,-0.503696,0.180123,0.169585,-0,3.08364e-05,0.00898145,4.33627e-05,0,-117,-0.529686,0.107928,-94.845,-22.3452,2.832
-0.5036,-0.503697,0.180159,0.169585,-0,-8.2333e-06,0.00900308,2.89085e-05,0,-117,-0.531586,-0.0288165,-95.1687,-22.4354,2.836
-0.5036,-0.503697,0.180195,0.169585,-0,-3.42798e-05,0.00902473,4.80632e-05,0,-117,-0.533486,-0.119979,-95.4901,-22.4417,2.84
-0.5036,-0.503697,0.180231,0.169586,-0,-5.16441e-05,0.00904639,6.08331e-05,0,-118,-0.535387,-0.180754,-95.8123,-22.4639,2.844
-0.5036,-0.503697,0.180268,0.169586,-0,2.31524e-05,0.00906807,4.05554e-05,0,-118,-0.531586,0.0810335,-96.1384,-22.5688,2.848
-0.5036,-0.503697,0.180304,0.169586,-0,1.5435e-05,0.00908976,8.46188e-05,0,-118,-0.531586,0.0540224,-96.459,-22.5128,2.852
-0.5036,-0.503697,0.18034,0.169587,-0,-1.8501e-05,0.00911147,8.52034e-05,0,-119,-0.533486,-0.0647533,-96.7835,-22.5657,2.856
-0.5036,-0.503696,0.180377,0.169587,-0,4.52479e-05,0.00913319,0.000114384,0,-119,-0.529686,0.158368,-97.1057,-22.547,2.86
-0.5036,-0.503697,0.180414,0.169588,-0,-5.62075e-05,0.00915493,0.000133838,0,-119,-0.535387,-0.196726,-97.4287,-22.5527,2.864
-0.5036,-0.503697,0.18045,0.169589,-0,2.01102e-05,0.00917668,0.000175598,0,-120,-0.531586,0.0703856,-97.7493,-22.5027,2.868
-0.5036,-0.503697,0.180487,0.16959,-0,-4.41751e-05,0.00919845,0.000174647,0,-120,-0.535387,-0.154613,-98.0738,-22.5595,2.872
-0.5036,-0.503697,0.180524,0.169591,-0,2.81318e-05,0.00922023,0.000231595,0,-120,-0.531586,0.0984613,-98.3929,-22.4716,2.876
-0.5036,-0.503697,0.180561,0.169593,-0,-3.88273e-05,0.00924203,0.00026956,0,-121,-0.535387,-0.135896,-98.7128,-22.4312,2.88
-0.5036,-0.503697,0.180598,0.169594,-0,3.1697e-05,0.00926384,0.000323662,0,-121,-0.531586,0.110939,-99.0304,-22.3504,2.884
-0.5036,-0.503697,0.180635,0.169596,-0,2.11313e-05,0.00928567,0.00038852,0,-121,-0.531586,0.0739596,-99.3456,-22.2429,2.888
-0.5036,-0.503697,0.180672,0.169599,-0,-4.34943e-05,0.00930751,0.00046055,0,-121,-0.535387,-0.15223,-99.6585,-22.1174,2.892
-0.5036,-0.503697,0.180709,0.169602,-0,2.85856e-05,0.00932937,0.000566152,0,-121,-0.531586,0.10005,-99.966,-21.908,2.896
-0.5036,-0.503697,0.180747,0.169604,-0,1.90571e-05,0.00935124,0.00055018,0,-122,-0.531586,0.0666998,-100.284,-22.0027,2.9
-0.5036,-0.503697,0.180784,0.169606,-0,-4.48771e-05,0.00937313,0.000568323,0,-122,-0.535387,-0.15707,-100.599,-22.012,2.904
-0.5036,-0.503697,0.180822,0.169609,-0,-1.12715e-06,0.00939503,0.000580419,0,-122,-0.533486,-0.00394504,-100.915,-22.0365,2.908
-0.5036,-0.503696,0.180859,0.169612,-0,5.68304e-05,0.00941695,0.000617273,0,-123,-0.529686,0.198906,-101.229,-21.9992,2.912
-0.5036,-0.503697,0.180897,0.169614,-0,9.09602e-06,0.00943888,0.000641843,0,-123,-0.531586,0.0318361,-101.543,-21.9926,2.916
-0.5036,-0.503697,0.180935,0.169617,-0,6.06401e-06,0.00946082,0.000658223,0,-123,-0.531586,0.021224,-101.859,-22.0065,2.92
-0.5036,-0.503697,0.180973,0.16962,-0,4.04267e-06,0.00948278,0.000669142,0,-124,-0.531586,0.0141494,-102.175,-22.0341,2.924
-0.5036,-0.503697,0.181011,0.169622,-0,-5.48867e-05,0.00950476,0.000647631,0,-124,-0.535387,-0.192104,-102.495,-22.1428,2.928
-0.5036,-0.503696,0.181049,0.169624,-0,4.97816e-05,0.00952675,0.0006045,0,-125,-0.529686,0.174236,-102.819,-22.3056,2.932
-0.5036,-0.503696,0.181087,0.169626,-0,3.31877e-05,0.00954875,0.000546955,0,-125,-0.529686,0.116157,-103.146,-22.5045,2.936
-0.5036,-0.503697,0.181125,0.169628,-0,-6.66576e-06,0.00957077,0.000508591,0,-126,-0.531586,-0.0233302,-103.475,-22.6555,2.94
-0.5036,-0.503696,0.181163,0.169629,-0,2.43471e-05,0.0095928,0.000454224,0,-126,-0.529686,0.0852148,-103.807,-22.8464,2.944
-0.5036,-0.503697,0.181202,0.16963,-0,-1.25595e-05,0.00961485,0.000389189,0,-127,-0.531586,-0.0439584,-104.144,-23.0642,2.948
-0.5036,-0.503697,0.18124,0.169631,-0,-8.37302e-06,0.00963691,0.000345832,0,-127,-0.531586,-0.0293056,-104.481,-23.2277,2.952
-0.5036,-0.503696,0.181279,0.169632,-0,2.32089e-05,0.00965899,0.000288137,0,-128,-0.529686,0.0812312,-104.822,-23.4271,2.956
-0.5036,-0.503697,0.181318,0.169633,-0,-1.33183e-05,0.00968108,0.000278464,0,-128,-0.531586,-0.0466141,-105.161,-23.5065,2.96
-0.5036,-0.503697,0.181356,0.169634,-0,-8.87888e-06,0.00970318,0.000243224,0,-129,-0.531586,-0.0310761,-105.504,-23.6499,2.964
-0.5036,-0.503697,0.181395,0.169634,-0,-6.35011e-05,0.0097253,0.000219731,0,-129,-0.535387,-0.222254,-105.847,-23.7639,2.968
-0.5036,-0.503697,0.181434,0.169635,-0,1.52478e-05,0.00974744,0.000204069,0,-130,-0.531586,0.0533672,-106.191,-23.8584,2.972
-0.5036,-0.503697,0.181473,0.169636,-0,1.01652e-05,0.00976958,0.000193628,0,-130,-0.531586,0.0355782,-106.537,-23.9399,2.976
-0.5036,-0.503697,0.181512,0.169636,-0,6.77679e-06,0.00979174,0.000186667,0,-130,-0.531586,0.0237188,-106.882,-24.0127,2.98
-0.5036,-0.503696,0.181552,0.169638,-0,3.33088e-05,0.00981392,0.000210818,0,-131,-0.529686,0.116581,-107.226,-24.0078,2.984
-0.5036,-0.503697,0.181591,0.169639,-0,-6.58507e-06,0.00983611,0.000226918,0,-131,-0.531586,-0.0230477,-107.57,-24.023,2.988
-0.5036,-0.503697,0.18163,0.169639,-0,-4.39004e-06,0.00985831,0.00020886,0,-132,-0.531586,-0.0153652,-107.919,-24.1236,2.992
-0.5036,-0.503696,0.18167,0.16964,-0,2.58642e-05,0.00988053,0.000196822,0,-132,-0.529686,0.0905248,-108.268,-24.2093,2.996
-0.5036,-0.503697,0.181709,0.169641,-0,-1.15481e-05,0.00990276,0.000188797,0,-132,-0.531586,-0.0404184,-108.618,-24.2849,3
-0.5036,-0.503697,0.181749,0.169641,-0,-7.69874e-06,0.009925,0.000154655,0,-133,-0.531586,-0.0269456,-108.971,-24.4259,3.004
-0.5036,-0.503696,0.181789,0.169641,-0,2.36584e-05,0.00994726,0.000103104,0,-133,-0.529686,0.0828045,-109.329,-24.6104,3.008
-0.5036,-0.503697,0.181828,0.169641,-0,-1.30186e-05,0.00996953,9.75266e-05,0,-134,-0.531586,-0.0455652,-109.684,-24.68,3.012
-0.5036,-0.503696,0.181868,0.169641,-0,2.01118e-05,0.00999182,6.50178e-05,0,-134,-0.529686,0.0703914,-110.044,-24.817,3.016
-0.5036,-0.503696,0.181908,0.169641,-0,1.34079e-05,0.0100141,4.33452e-05,0,-135,-0.529686,0.0469276,-110.404,-24.9269,3.02
-0.5036,-0.503696,0.181949,0.169641,-0,8.93859e-06,0.0100364,2.88968e-05,0,-135,-0.529686,0.0312851,-110.765,-25.0188,3.024
-0.5036,-0.503696,0.181989,0.169642,-0,5.95906e-06,0.0100588,4.80554e-05,0,-136,-0.529686,0.0208567,-111.123,-25.0268,3.028
-0.5036,-0.503696,0.182029,0.169642,-0,3.97271e-06,0.0100811,6.08279e-05,0,-136,-0.529686,0.0139045,-111.483,-25.0507,3.032
-0.5036,-0.503697,0.182069,0.169642,-0,-5.49334e-05,0.0101035,6.93428e-05,0,-136,-0.533486,-0.192267,-111.843,-25.0853,3.036
-0.5036,-0.503697,0.18211,0.169643,-0,-7.83133e-06,0.0101258,7.50195e-05,0,-137,-0.531586,-0.0274096,-112.204,-25.127,3.04
-0.5036,-0.503697,0.18215,0.169643,-0,-5.22088e-06,0.0101482,0.000107595,0,-137,-0.531586,-0.0182731,-112.563,-25.1015,3.044
-0.5036,-0.503697,0.182191,0.169644,-0,-6.10624e-05,0.0101706,0.000129312,0,-138,-0.535387,-0.213719,-112.922,-25.1032,3.048
-0.5036,-0.503697,0.182232,0.169644,-0,1.68736e-05,0.010193,0.000114999,0,-138,-0.531586,0.0590574,-113.286,-25.195,3.052
-0.5036,-0.503697,0.182273,0.169645,-0,1.1249e-05,0.0102154,0.000134248,0,-138,-0.531586,0.0393716,-113.647,-25.2029,3.056
-0.5036,-0.503696,0.182313,0.169645,-0,3.62903e-05,0.0102379,8.94985e-05,0,-139,-0.529686,0.127016,-114.015,-25.3709,3.06
-0.5036,-0.503697,0.182354,0.169645,-0,-4.5974e-06,0.0102603,8.84566e-05,0,-139,-0.531586,-0.0160909,-114.381,-25.4296,3.064
-0.5036,-0.503697,0.182396,0.169646,-0,-6.06468e-05,0.0102828,8.7762e-05,0,-140,-0.535387,-0.212264,-114.748,-25.4875,3.068
-0.5036,-0.503697,0.182437,0.169646,-0,1.71507e-05,0.0103052,8.72989e-05,0,-140,-0.531586,0.0600273,-115.115,-25.5449,3.072
-0.5036,-0.503697,0.182478,0.169646,-0,1.14338e-05,0.0103277,5.81993e-05,0,-141,-0.531586,0.0400182,-115.486,-25.6738,3.076
-0.5036,-0.503697,0.182519,0.169646,-0,-4.99593e-05,0.0103502,6.75904e-05,0,-141,-0.535387,-0.174858,-115.856,-25.7066,3.08
-0.5036,-0.503697,0.182561,0.169647,-0,2.42756e-05,0.0103727,0.000102642,0,-141,-0.531586,0.0849647,-116.222,-25.6753,3.084
-0.5036,-0.503696,0.182602,0.169648,-0,4.49747e-05,0.0103953,0.000154801,0,-142,-0.529686,0.157411,-116.587,-25.6012,3.088
-0.5036,-0.503697,0.182644,0.169649,-0,1.19219e-06,0.0104178,0.000131992,0,-142,-0.531586,0.00417267,-116.958,-25.7146,3.092
-0.5036,-0.503697,0.182686,0.169649,-0,-5.67871e-05,0.0104404,0.000145576,0,-143,-0.535387,-0.198755,-117.328,-25.737,3.096
-0.5036,-0.503697,0.182727,0.16965,-0,1.97238e-05,0.0104629,0.000125842,0,-143,-0.531586,0.0690333,-117.701,-25.8427,3.1
-0.5036,-0.503697,0.182769,0.16965,-0,1.31492e-05,0.0104855,0.000112685,0,-144,-0.531586,0.0460222,-118.075,-25.9321,3.104
-0.5036,-0.503697,0.182811,0.16965,-0,-4.88157e-05,0.0105081,0.000103915,0,-144,-0.535387,-0.170855,-118.449,-26.0105,3.108
-0.5036,-0.503697,0.182853,0.16965,-0,-3.75288e-06,0.0105307,6.92764e-05,0,-144,-0.533486,-0.0131351,-118.828,-26.1536,3.112
-0.5036,-0.503697,0.182896,0.16965,-0,2.6289e-05,0.0105533,4.61842e-05,0,-145,-0.531586,0.0920115,-119.208,-26.2679,3.116
-0.5036,-0.503696,0.182938,0.169651,-0,4.63169e-05,0.010576,5.95804e-05,0,-145,-0.529686,0.162109,-119.585,-26.2909,3.12
-0.5036,-0.503696,0.18298,0.169651,-0,3.0878e-05,0.0105986,3.97203e-05,0,-146,-0.529686,0.108073,-119.966,-26.3972,3.124
-0.5036,-0.503696,0.183023,0.169651,-0,2.05853e-05,0.0106213,2.64802e-05,0,-146,-0.529686,0.0720486,-120.348,-26.4869,3.128
-0.5036,-0.503697,0.183065,0.169651,-0,-7.26492e-05,0.0106439,4.64444e-05,0,-147,-0.535387,-0.254272,-120.728,-26.4937,3.132
-0.5036,-0.503697,0.183108,0.169651,-0,9.14902e-06,0.0106666,5.97538e-05,0,-147,-0.531586,0.0320216,-121.108,-26.5171,3.136
-0.5036,-0.503697,0.18315,0.169651,-0,-5.14825e-05,0.0106893,3.98359e-05,0,-148,-0.535387,-0.180189,-121.493,-26.6237,3.14
-0.5036,-0.503697,0.183193,0.169652,-0,-3.43217e-05,0.010712,8.41391e-05,0,-148,-0.535387,-0.120126,-121.872,-26.5697,3.144
-0.5036,-0.503697,0.183236,0.169653,-0,3.47007e-05,0.0107347,0.000113675,0,-148,-0.531586,0.121453,-122.251,-26.5526,3.148
-0.5036,-0.503696,0.183279,0.169653,-0,5.19247e-05,0.0107575,0.000133365,0,-149,-0.529686,0.181737,-122.632,-26.5602,3.152
-0.5036,-0.503697,0.183322,0.169654,-0,5.82558e-06,0.0107802,0.000117701,0,-149,-0.531586,0.0203895,-123.017,-26.6562,3.156
-0.5036,-0.503697,0.183365,0.169654,-0,3.88372e-06,0.010803,0.000136049,0,-150,-0.531586,0.013593,-123.399,-26.6673,3.16
-0.5036,-0.503696,0.183409,0.169655,-0,3.13801e-05,0.0108257,0.000148281,0,-150,-0.529686,0.10983,-123.782,-26.6936,3.164
-0.5036,-0.503696,0.183452,0.169655,-0,2.092e-05,0.0108485,0.000127645,0,-150,-0.529686,0.0732202,-124.169,-26.8021,3.168
-0.5036,-0.503697,0.183495,0.169656,-0,-7.24261e-05,0.0108713,0.000142679,0,-151,-0.535387,-0.253491,-124.554,-26.8215,3.172
-0.5036,-0.503697,0.183539,0.169657,-0,9.2978e-06,0.0108941,0.00012391,0,-151,-0.531586,0.0325423,-124.942,-26.9255,3.176
-0.5036,-0.503697,0.183583,0.169657,-0,6.19853e-06,0.0109169,0.000111398,0,-152,-0.531586,0.0216949,-125.332,-27.0138,3.18
-0.5036,-0.503697,0.183626,0.169657,-0,4.13235e-06,0.0109397,0.000103056,0,-152,-0.531586,0.0144632,-125.722,-27.0917,3.184
-0.5036,-0.503697,0.18367,0.169658,-0,-2.6036e-05,0.0109626,9.74949e-05,0,-153,-0.533486,-0.0911261,-126.113,-27.1627,3.188
-0.5036,-0.503696,0.183714,0.169658,-0,4.02245e-05,0.0109854,9.37875e-05,0,-153,-0.529686,0.140786,-126.505,-27.2291,3.192
-0.5036,-0.503697,0.183758,0.169658,-0,-3.07655e-05,0.0110083,9.13159e-05,0,-154,-0.533486,-0.107679,-126.898,-27.2925,3.196
-0.5036,-0.503697,0.183802,0.169659,-0,8.28058e-06,0.0110312,8.96682e-05,0,-154,-0.531586,0.028982,-127.292,-27.3538,3.2
-0.5036,-0.503697,0.183846,0.169659,-0,5.52039e-06,0.0110541,5.97788e-05,0,-155,-0.531586,0.0193214,-127.689,-27.4857,3.204
-0.5036,-0.503696,0.183891,0.169659,-0,3.24712e-05,0.011077,6.86435e-05,0,-155,-0.529686,0.113649,-128.084,-27.5208,3.208
-0.5036,-0.503697,0.183935,0.16966,-0,-6.47253e-05,0.0110999,0.000103344,0,-155,-0.535387,-0.226539,-128.477,-27.4914,3.212
