peachynonah/Fire_monitor_KIRO_CDSL/csv_datas/trial10/cdsl_data_t10_7.csv
joint1_pos_desired, joint1_pos, joint2_pos_desired, joint2_pos, joint1_vel_desired, joint1_vel_filtered, joint2_vel_desired, joint2_vel_filtered, target_torque_joint1, target_torque_joint2, propo_term_torque_joint1, deriv_term_torque_joint1, propo_term_torque_joint2, deriv_term_torque_joint2, current_time
-1.18,-1.18187,0.576653,0.181137,0,0,1.88345e-07,0,0,-1582,-0,-0,-1582.06,-0.000282517,0.004
-1.18,-1.18187,0.576653,0.181137,0,0,7.52776e-07,0,0,-1582,-0,-0,-1582.06,-0.00112916,0.008
-1.18,-1.18187,0.576653,0.181144,0,0,1.69239e-06,0.0006334,0,-1581,-0,-0,-1582.03,0.947562,0.012
-1.18,-1.18187,0.576653,0.181255,0,0,3.00629e-06,0.00966415,0,-1567,-0,-0,-1581.59,14.4917,0.016
-1.18,-1.18187,0.576653,0.181493,0,0,4.69356e-06,0.0262509,0,-1541,-0,-0,-1580.64,39.3693,0.02
-1.18,-1.18187,0.576653,0.181844,0,-2.87909e-05,6.75331e-06,0.0467234,0,-1509,-0,-0,-1579.24,70.075,0.024
-1.18,-1.18187,0.576653,0.182308,0,-1.91939e-05,9.18463e-06,0.0698727,0,-1472,-0,-0,-1577.38,104.795,0.028
-1.18,-1.18187,0.576653,0.18287,0,1.5995e-05,1.19866e-05,0.0933959,0,-1435,-0,0,-1575.13,140.076,0.032
-1.18,-1.18187,0.576653,0.183506,0,1.06633e-05,1.51584e-05,0.11521,0,-1399,-0,0,-1572.59,172.793,0.036
-1.18,-1.18187,0.576653,0.184166,0,7.10887e-06,1.86991e-05,0.131855,0,-1372,-0,0,-1569.95,197.755,0.04
-1.18,-1.18187,0.576653,0.184813,0,-2.40517e-05,2.26077e-05,0.141771,0,-1354,-0,-0,-1567.36,212.623,0.044
-1.18,-1.18187,0.576653,0.185447,0,1.27565e-05,2.68834e-05,0.147403,0,-1343,-0,0,-1564.82,221.064,0.048
-1.18,-1.18187,0.576654,0.18605,0,-2.02866e-05,3.15253e-05,0.14848,0,-1339,-0,-0,-1562.42,222.673,0.052
-1.18,-1.18187,0.576654,0.186648,0,1.52665e-05,3.65325e-05,0.148824,0,-1336,-0,0,-1560.02,223.181,0.056
-1.18,-1.18187,0.576654,0.187231,0,6.77595e-05,4.19041e-05,0.147844,0,-1335,-0,0,-1557.69,221.703,0.06
-1.18,-1.18187,0.576654,0.187813,0,-1.24088e-05,4.76392e-05,0.147075,0,-1334,-0,-0,-1555.36,220.541,0.064
-1.18,-1.18187,0.576654,0.188407,0,-3.70635e-05,5.37369e-05,0.147542,0,-1331,-0,-0,-1552.99,221.232,0.068
-1.18,-1.18187,0.576654,0.188997,0,4.08194e-06,6.01963e-05,0.147478,0,-1329,-0,0,-1550.63,221.127,0.072
-1.18,-1.18187,0.576655,0.189582,0,6.03031e-05,6.70165e-05,0.147091,0,-1327,-0,0,-1548.29,220.536,0.076
-1.18,-1.18187,0.576655,0.190172,0,-4.61707e-05,7.41967e-05,0.147235,0,-1325,-0,-0,-1545.93,220.742,0.08
-1.18,-1.18187,0.576655,0.190763,0,-1.98953e-06,8.17359e-05,0.147361,0,-1322,-0,-0,-1543.57,220.918,0.084
-1.18,-1.18187,0.576656,0.191345,0,-1.32635e-06,8.96332e-05,0.146782,0,-1321,-0,-0,-1541.24,220.038,0.088
-1.18,-1.18187,0.576656,0.191917,0,-2.96752e-05,9.78879e-05,0.145532,0,-1320,-0,-0,-1538.96,218.152,0.092
-1.18,-1.18187,0.576656,0.192458,0,9.00749e-06,0.000106499,0.142051,0,-1323,-0,0,-1536.8,212.916,0.096
-1.18,-1.18187,0.576657,0.19298,0,-2.27859e-05,0.000115465,0.138232,0,-1327,-0,-0,-1534.71,207.175,0.1
-1.18,-1.18187,0.576657,0.193465,0,7.11822e-05,0.000124786,0.132577,0,-1334,-0,0,-1532.77,198.679,0.104
-1.18,-1.18187,0.576658,0.193925,0,-1.01271e-05,0.000134461,0.126734,0,-1341,-0,-0,-1530.93,189.9,0.108
-1.18,-1.18187,0.576658,0.194358,0,-6.75139e-06,0.000144489,0.120565,0,-1348,-0,-0,-1529.2,180.63,0.112
-1.18,-1.18187,0.576659,0.194774,0,-4.50093e-06,0.000154868,0.115069,0,-1355,-0,-0,-1527.54,172.372,0.116
-1.18,-1.18187,0.57666,0.195166,0,-3.17915e-05,0.000165599,0.109362,0,-1362,-0,-0,-1525.97,163.794,0.12
-1.18,-1.18187,0.57666,0.195545,0,6.51784e-05,0.00017668,0.104463,0,-1368,-0,0,-1524.46,156.429,0.124
-1.18,-1.18187,0.576661,0.19591,0,-1.41296e-05,0.00018811,0.100074,0,-1373,-0,-0,-1523,149.829,0.128
-1.18,-1.18187,0.576662,0.196265,0,-9.41972e-06,0.000199888,0.096313,0,-1377,-0,-0,-1521.59,144.17,0.132
-1.18,-1.18187,0.576663,0.196606,0,5.1302e-05,0.000212014,0.0926253,0,-1381,-0,0,-1520.23,138.62,0.136
-1.18,-1.18187,0.576664,0.196936,0,-2.33805e-05,0.000224487,0.0892167,0,-1385,-0,-0,-1518.91,133.488,0.14
-1.18,-1.18187,0.576664,0.197247,0,-1.5587e-05,0.000237305,0.0854472,0,-1389,-0,-0,-1517.67,127.815,0.144
-1.18,-1.18187,0.576665,0.197548,0,-1.03913e-05,0.000250469,0.0820417,0,-1393,-0,-0,-1516.47,122.687,0.148
-1.18,-1.18187,0.576666,0.197827,0,-6.92755e-06,0.000263976,0.0779288,0,-1398,-0,-0,-1515.36,116.497,0.152
-1.18,-1.18187,0.576668,0.198094,0,-4.61837e-06,0.000277826,0.0741791,0,-1403,-0,-0,-1514.29,110.852,0.156
-1.18,-1.18187,0.576669,0.198349,0,-3.07891e-06,0.000292019,0.0707004,0,-1407,-0,-0,-1513.28,105.613,0.16
-1.18,-1.18187,0.57667,0.198593,0,-2.05261e-06,0.000306553,0.06746,0,-1411,-0,-0,-1512.31,100.73,0.164
-1.18,-1.18187,0.576671,0.19882,0,5.62134e-05,0.000321428,0.0639178,0,-1416,-0,0,-1511.4,95.3945,0.168
-1.18,-1.18187,0.576672,0.199036,0,-2.01062e-05,0.000336642,0.060635,0,-1420,-0,-0,-1510.54,90.4475,0.172
-1.18,-1.18187,0.576674,0.199233,0,-1.34041e-05,0.000352195,0.0568341,0,-1425,-0,-0,-1509.76,84.7229,0.176
-1.18,-1.18187,0.576675,0.199417,0,1.98548e-05,0.000368086,0.0532062,0,-1429,-0,0,-1509.03,79.2572,0.18
-1.18,-1.18187,0.576677,0.199592,0,-1.55544e-05,0.000384314,0.050039,0,-1433,-0,-0,-1508.34,74.482,0.184
-1.18,-1.18187,0.576678,0.199756,0,-1.03696e-05,0.000400878,0.0470638,0,-1437,-0,-0,-1507.69,69.9944,0.188
-1.18,-1.18187,0.57668,0.199907,0,-6.91305e-06,0.000417777,0.0439287,0,-1441,-0,-0,-1507.09,65.2664,0.192
-1.18,-1.18187,0.576682,0.20005,0,-4.6087e-06,0.000435011,0.0412053,0,-1445,-0,-0,-1506.53,61.1554,0.196
-1.18,-1.18187,0.576683,0.200183,0,-3.07247e-06,0.000452578,0.0385547,0,-1448,-0,-0,-1506,57.1531,0.2
-1.18,-1.18187,0.576685,0.200306,0,-2.04831e-06,0.000470478,0.0359815,0,-1452,-0,-0,-1505.52,53.2665,0.204
-1.18,-1.18187,0.576687,0.200421,0,-1.36554e-06,0.000488709,0.0335174,0,-1455,-0,-0,-1505.07,49.5431,0.208
-1.18,-1.18187,0.576689,0.200523,0,-9.10361e-07,0.000507272,0.0308959,0,-1459,-0,-0,-1504.66,45.5829,0.212
-1.18,-1.18187,0.576691,0.200616,0,-6.06907e-07,0.000526164,0.028342,0,-1462,-0,-0,-1504.3,41.7238,0.216
-1.18,-1.18187,0.576693,0.200698,0,-4.04605e-07,0.000545386,0.0257181,0,-1466,-0,-0,-1503.98,37.7591,0.22
-1.18,-1.18187,0.576696,0.200763,0,-2.69737e-07,0.000564936,0.0225293,0,-1470,-0,-0,-1503.73,32.9466,0.224
-1.18,-1.18187,0.576698,0.200809,0,-2.89707e-05,0.000584814,0.0188487,0,-1476,-0,-0,-1503.56,27.3959,0.228
-1.18,-1.18187,0.5767,0.200834,0,6.70589e-05,0.000605018,0.0146676,0,-1482,-0,0,-1503.47,21.0938,0.232
-1.18,-1.18187,0.576703,0.200847,0,-1.28759e-05,0.000625548,0.0108436,0,-1488,-0,-0,-1503.42,15.3271,0.236
-1.18,-1.18187,0.576705,0.200852,0,-8.58393e-06,0.000646403,0.00766096,0,-1492,-0,-0,-1503.41,10.5218,0.24
-1.18,-1.18187,0.576708,0.200853,0,-5.72262e-06,0.000667582,0.00516489,0,-1496,-0,-0,-1503.42,6.74596,0.244
-1.18,-1.18187,0.576711,0.200853,0,-3.81508e-06,0.000689084,0.00347205,0,-1499,-0,-0,-1503.43,4.17445,0.248
-1.18,-1.18187,0.576713,0.200853,0,-2.54339e-06,0.000710908,0.0023147,0,-1501,-0,-0,-1503.44,2.40569,0.252
-1.18,-1.18187,0.576716,0.200853,0,-1.69559e-06,0.000733053,0.00157192,0,-1502,-0,-0,-1503.45,1.25831,0.256
-1.18,-1.18187,0.576719,0.200853,0,-1.13039e-06,0.00075552,0.00104795,0,-1503,-0,-0,-1503.46,0.438644,0.26
-1.18,-1.18187,0.576722,0.200853,0,-7.53596e-07,0.000778306,0.000698633,0,-1503,-0,-0,-1503.48,-0.119509,0.264
-1.18,-1.18187,0.576726,0.200854,0,-5.02397e-07,0.00080141,0.000494546,0,-1503,-0,-0,-1503.49,-0.460296,0.268
-1.18,-1.18187,0.576729,0.200854,0,-3.34931e-07,0.000824833,0.000329697,0,-1504,-0,-0,-1503.5,-0.742704,0.272
-1.18,-1.18187,0.576732,0.200854,0,-2.23288e-07,0.000848573,0.000219798,0,-1504,-0,-0,-1503.51,-0.943162,0.276
-1.18,-1.18187,0.576736,0.200854,0,-1.48858e-07,0.000872629,0.000146532,0,-1504,-0,-0,-1503.53,-1.08915,0.28
-1.18,-1.18187,0.576739,0.200854,0,-9.92389e-08,0.000897001,9.76881e-05,0,-1504,-0,-0,-1503.54,-1.19897,0.284
-1.18,-1.18187,0.576743,0.200854,0,-6.61593e-08,0.000921687,6.51254e-05,0,-1504,-0,-0,-1503.56,-1.28484,0.288
-1.18,-1.18187,0.576747,0.200854,0,-4.41062e-08,0.000946687,4.34169e-05,0,-1504,-0,-0,-1503.57,-1.3549,0.292
-1.18,-1.18187,0.57675,0.200854,0,-2.94041e-08,0.000972,2.89446e-05,0,-1505,-0,-0,-1503.59,-1.41458,0.296
-1.18,-1.18187,0.576754,0.200854,0,-1.96028e-08,0.000997625,1.92964e-05,0,-1505,-0,-0,-1503.6,-1.46749,0.3
-1.18,-1.18187,0.576758,0.200854,0,-1.30685e-08,0.00102356,1.28643e-05,0,-1505,-0,-0,-1503.62,-1.51604,0.304
-1.18,-1.18187,0.576763,0.200854,0,-8.71233e-09,0.00104981,8.57619e-06,0,-1505,-0,-0,-1503.64,-1.56185,0.308
-1.18,-1.18187,0.576767,0.200854,0,-5.80822e-09,0.00107636,5.71746e-06,0,-1505,-0,-0,-1503.65,-1.60597,0.312
-1.18,-1.18187,0.576771,0.200854,0,-3.87215e-09,0.00110323,3.26026e-05,0,-1505,-0,-0,-1503.67,-1.60594,0.316
-1.18,-1.18187,0.576776,0.200854,0,-2.58143e-09,0.0011304,2.1735e-05,0,-1505,-0,-0,-1503.69,-1.663,0.32
-1.18,-1.18187,0.57678,0.200854,0,-1.72095e-09,0.00115788,1.449e-05,0,-1505,-0,-0,-1503.7,-1.71508,0.324
-1.18,-1.18187,0.576785,0.200854,0,-1.1473e-09,0.00118566,9.66002e-06,0,-1505,-0,-0,-1503.72,-1.76401,0.328
-1.18,-1.18187,0.57679,0.200854,0,-7.64869e-10,0.00121375,6.44001e-06,0,-1505,-0,-0,-1503.74,-1.81097,0.332
-1.18,-1.18187,0.576795,0.200854,0,-5.09913e-10,0.00124215,4.29334e-06,0,-1505,-0,-0,-1503.76,-1.85678,0.336
-1.18,-1.18187,0.5768,0.200854,0,-3.39942e-10,0.00127085,2.86223e-06,0,-1505,-0,-0,-1503.78,-1.90198,0.34
-1.18,-1.18187,0.576805,0.200854,0,-2.26628e-10,0.00129985,1.90815e-06,0,-1505,-0,-0,-1503.8,-1.94691,0.344
-1.18,-1.18187,0.57681,0.200854,0,-1.51085e-10,0.00132915,1.2721e-06,0,-1505,-0,-0,-1503.82,-1.99182,0.348
-1.18,-1.18187,0.576815,0.200854,0,2.87908e-05,0.00135875,8.48067e-07,0,-1505,-0,0,-1503.85,-2.03686,0.352
-1.18,-1.18187,0.576821,0.200854,0,-9.59704e-06,0.00138866,5.65378e-07,0,-1505,-0,-0,-1503.87,-2.08214,0.356
-1.18,-1.18187,0.576826,0.200854,0,2.23929e-05,0.00141886,3.76919e-07,0,-1506,-0,0,-1503.89,-2.12773,0.36
-1.18,-1.18187,0.576832,0.200854,0,-1.38623e-05,0.00144936,2.51279e-07,0,-1506,-0,-0,-1503.91,-2.17367,0.364
-1.18,-1.18187,0.576838,0.200854,0,-9.24155e-06,0.00148016,1.6752e-07,0,-1506,-0,-0,-1503.94,-2.21999,0.368
-1.18,-1.18187,0.576844,0.200854,0,-6.16103e-06,0.00151126,1.1168e-07,0,-1506,-0,-0,-1503.96,-2.26672,0.372
-1.18,-1.18187,0.57685,0.200854,0,-4.10736e-06,0.00154265,7.44531e-08,0,-1506,-0,-0,-1503.98,-2.31387,0.376
-1.18,-1.18187,0.576856,0.200854,0,-2.73824e-06,0.00157434,4.96354e-08,0,-1506,-0,-0,-1504.01,-2.36144,0.38
-1.18,-1.18187,0.576863,0.200854,0,2.69654e-05,0.00160632,3.30903e-08,0,-1506,-0,0,-1504.03,-2.40943,0.384
-1.18,-1.18187,0.576869,0.200854,0,-1.0814e-05,0.0016386,2.20602e-08,0,-1506,-0,-0,-1504.06,-2.45786,0.388
-1.18,-1.18187,0.576876,0.200854,0,-7.20931e-06,0.00167116,1.47068e-08,0,-1506,-0,-0,-1504.09,-2.50673,0.392
-1.18,-1.18187,0.576883,0.200854,0,-4.80621e-06,0.00170402,9.80452e-09,0,-1506,-0,-0,-1504.11,-2.55602,0.396
-1.18,-1.18187,0.576889,0.200854,0,-3.20414e-06,0.00173718,6.53635e-09,0,-1506,-0,-0,-1504.14,-2.60575,0.4
-1.18,-1.18187,0.576897,0.200854,0,-2.13609e-06,0.00177062,4.35757e-09,0,-1506,-0,-0,-1504.17,-2.65592,0.404
-1.18,-1.18187,0.576904,0.200854,0,-1.42406e-06,0.00180435,2.90504e-09,0,-1506,-0,-0,-1504.2,-2.70651,0.408
-1.18,-1.18187,0.576911,0.200854,0,-9.49375e-07,0.00183836,1.9367e-09,0,-1506,-0,-0,-1504.23,-2.75754,0.412
-1.18,-1.18187,0.576918,0.200854,0,-6.32916e-07,0.00187267,1.29113e-09,0,-1507,-0,-0,-1504.26,-2.809,0.416
-1.18,-1.18187,0.576926,0.200855,0,-4.21944e-07,0.00190726,5.75827e-05,0,-1507,-0,-0,-1504.28,-2.77452,0.42
-1.18,-1.18187,0.576934,0.200854,0,-2.81296e-07,0.00194214,-4.79843e-05,0,-1507,-0,-0,-1504.32,-2.98519,0.424
-1.18,-1.18187,0.576941,0.200854,0,-1.87531e-07,0.00197731,2.55923e-05,0,-1507,-0,-0,-1504.35,-2.92757,0.428
-1.18,-1.18187,0.576949,0.200855,0,-1.25021e-07,0.00201276,4.58525e-05,0,-1507,-0,-0,-1504.38,-2.95035,0.432
-1.18,-1.18187,0.576958,0.200854,0,-8.3347e-08,0.00204849,1.77739e-06,0,-1507,-0,-0,-1504.41,-3.07006,0.436
-1.18,-1.18187,0.576966,0.200854,0,-5.55647e-08,0.0020845,1.18493e-06,0,-1507,-0,-0,-1504.45,-3.12498,0.44
-1.18,-1.18187,0.576974,0.200854,0,2.87539e-05,0.0021208,7.8995e-07,0,-1507,-0,0,-1504.48,-3.18001,0.444
-1.18,-1.18187,0.576983,0.200854,0,-9.62167e-06,0.00215738,5.26633e-07,0,-1507,-0,-0,-1504.51,-3.23527,0.448
-1.18,-1.18187,0.576991,0.200854,0,-6.41445e-06,0.00219423,3.51089e-07,0,-1507,-0,-0,-1504.55,-3.29082,0.452
-1.18,-1.18187,0.577,0.200854,0,-4.2763e-06,0.00223137,2.34059e-07,0,-1507,-0,-0,-1504.58,-3.3467,0.456
-1.18,-1.18187,0.577009,0.200854,0,-2.85087e-06,0.00226879,1.5604e-07,0,-1508,-0,-0,-1504.62,-3.40295,0.46
-1.18,-1.18187,0.577018,0.200854,0,-1.90058e-06,0.00230648,1.04026e-07,0,-1508,-0,-0,-1504.66,-3.45956,0.464
-1.18,-1.18187,0.577028,0.200854,0,-1.26705e-06,0.00234445,6.93509e-08,0,-1508,-0,-0,-1504.69,-3.51657,0.468
-1.18,-1.18187,0.577037,0.200854,0,-8.44701e-07,0.0023827,4.62339e-08,0,-1508,-0,-0,-1504.73,-3.57397,0.472
-1.18,-1.18187,0.577047,0.200854,0,-5.63134e-07,0.00242122,3.08226e-08,0,-1508,-0,-0,-1504.77,-3.63178,0.476
-1.18,-1.18187,0.577057,0.200854,0,-3.75423e-07,0.00246001,2.05484e-08,0,-1508,-0,-0,-1504.81,-3.68999,0.48
-1.18,-1.18187,0.577067,0.200854,0,-2.50282e-07,0.00249908,1.36989e-08,0,-1508,-0,-0,-1504.85,-3.7486,0.484
-1.18,-1.18187,0.577077,0.200854,0,-1.66854e-07,0.00253843,9.13263e-09,0,-1508,-0,-0,-1504.89,-3.80762,0.488
-1.18,-1.18187,0.577087,0.200854,0,-1.11236e-07,0.00257804,6.08842e-09,0,-1508,-0,-0,-1504.93,-3.86705,0.492
-1.18,-1.18187,0.577097,0.200854,0,2.87168e-05,0.00261793,4.05895e-09,0,-1508,-0,0,-1504.97,-3.92688,0.496
-1.18,-1.18187,0.577108,0.200854,0,-9.64641e-06,0.00265808,2.70596e-09,0,-1509,-0,-0,-1505.01,-3.98712,0.5
-1.18,-1.18187,0.577119,0.200854,0,-6.43094e-06,0.00269851,1.80398e-09,0,-1509,-0,-0,-1505.06,-4.04776,0.504
-1.18,-1.18187,0.577129,0.200854,0,-4.28729e-06,0.0027392,1.20265e-09,0,-1509,-0,-0,-1505.1,-4.1088,0.508
-1.18,-1.18187,0.57714,0.200854,0,-2.8582e-06,0.00278016,8.01767e-10,0,-1509,-0,-0,-1505.14,-4.17024,0.512
-1.18,-1.18187,0.577152,0.200854,0,2.68855e-05,0.00282139,5.34511e-10,0,-1509,-0,0,-1505.19,-4.23209,0.516
-1.18,-1.18187,0.577163,0.200854,0,-1.08673e-05,0.00286289,3.56341e-10,0,-1509,-0,-0,-1505.23,-4.29433,0.52
-1.18,-1.18187,0.577175,0.200854,0,-7.24486e-06,0.00290465,2.37561e-10,0,-1509,-0,-0,-1505.28,-4.35697,0.524
-1.18,-1.18187,0.577186,0.200854,0,2.3961e-05,0.00294668,1.58374e-10,0,-1509,-0,0,-1505.33,-4.42001,0.528
-1.18,-1.18187,0.577198,0.200854,0,1.5974e-05,0.00298897,1.05582e-10,0,-1509,-0,0,-1505.37,-4.48345,0.532
-1.18,-1.18187,0.57721,0.200854,0,-1.81416e-05,0.00303152,-2.87909e-05,0,-1510,-0,-0,-1505.42,-4.59046,0.536
-1.18,-1.18187,0.577222,0.200854,0,-1.20944e-05,0.00307433,9.59702e-06,0,-1510,-0,-0,-1505.47,-4.5971,0.54
-1.18,-1.18187,0.577235,0.200855,0,-8.06293e-06,0.00311741,3.51889e-05,0,-1510,-0,-0,-1505.52,-4.62333,0.544
-1.18,-1.18187,0.577247,0.200854,0,-5.37528e-06,0.00316075,-5.33163e-06,0,-1510,-0,-0,-1505.57,-4.74912,0.548
-1.18,-1.18187,0.57726,0.200855,0,-3.58352e-06,0.00320434,5.40274e-05,0,-1510,-0,-0,-1505.62,-4.72547,0.552
-1.18,-1.18187,0.577273,0.200854,0,-2.38901e-06,0.0032482,-5.03545e-05,0,-1510,-0,-0,-1505.68,-4.94783,0.556
-1.18,-1.18187,0.577286,0.200855,0,-1.59268e-06,0.00329231,2.40122e-05,0,-1510,-0,-0,-1505.73,-4.90245,0.56
-1.18,-1.18187,0.577299,0.200855,0,-1.06178e-06,0.00333669,4.47991e-05,0,-1510,-0,-0,-1505.78,-4.93783,0.564
-1.18,-1.18187,0.577313,0.200854,0,-7.07856e-07,0.00338131,-2.77158e-05,0,-1510,-0,-0,-1505.83,-5.11354,0.568
-1.18,-1.18187,0.577326,0.200855,0,-4.71904e-07,0.0034262,1.03137e-05,0,-1511,-0,-0,-1505.89,-5.12383,0.572
-1.18,-1.18187,0.57734,0.200855,0,-3.14603e-07,0.00347134,6.87581e-06,0,-1511,-0,-0,-1505.94,-5.19669,0.576
-1.18,-1.18187,0.577354,0.200855,0,2.85812e-05,0.00351673,4.58387e-06,0,-1511,-0,0,-1506,-5.26822,0.58
-1.18,-1.18187,0.577368,0.200855,0,-9.7368e-06,0.00356238,3.05592e-06,0,-1511,-0,-0,-1506.05,-5.33898,0.584
-1.18,-1.18187,0.577383,0.200855,0,-6.4912e-06,0.00360828,2.03728e-06,0,-1511,-0,-0,-1506.11,-5.40936,0.588
-1.18,-1.18187,0.577397,0.200855,0,-4.32747e-06,0.00365443,1.35818e-06,0,-1511,-0,-0,-1506.17,-5.4796,0.592
-1.18,-1.18187,0.577412,0.200855,0,-2.88498e-06,0.00370083,9.05456e-07,0,-1511,-0,-0,-1506.23,-5.54988,0.596
-1.18,-1.18187,0.577427,0.200855,0,-1.92332e-06,0.00374748,6.03638e-07,0,-1511,-0,-0,-1506.29,-5.62031,0.6
-1.18,-1.18187,0.577442,0.200855,0,-1.28221e-06,0.00379438,4.02425e-07,0,-1512,-0,-0,-1506.35,-5.69097,0.604
-1.18,-1.18187,0.577457,0.200855,0,-8.54808e-07,0.00384153,2.68283e-07,0,-1512,-0,-0,-1506.41,-5.7619,0.608
-1.18,-1.18187,0.577473,0.200855,0,-5.69872e-07,0.00388893,1.78856e-07,0,-1512,-0,-0,-1506.47,-5.83313,0.612
-1.18,-1.18187,0.577488,0.200855,0,-3.79915e-07,0.00393658,1.19237e-07,0,-1512,-0,-0,-1506.53,-5.90468,0.616
-1.18,-1.18187,0.577504,0.200855,0,-2.53276e-07,0.00398447,7.94914e-08,0,-1512,-0,-0,-1506.6,-5.97658,0.62
-1.18,-1.18187,0.57752,0.200855,0,-1.68851e-07,0.0040326,5.29942e-08,0,-1512,-0,-0,-1506.66,-6.04883,0.624
-1.18,-1.18187,0.577536,0.200855,0,-1.12567e-07,0.00408098,3.53295e-08,0,-1512,-0,-0,-1506.73,-6.12142,0.628
-1.18,-1.18187,0.577553,0.200855,0,-7.50449e-08,0.00412961,2.3553e-08,0,-1512,-0,-0,-1506.79,-6.19438,0.632
-1.18,-1.18187,0.577569,0.200855,0,-5.00299e-08,0.00417848,1.5702e-08,0,-1513,-0,-0,-1506.86,-6.26769,0.636
-1.18,-1.18187,0.577586,0.200855,0,-3.33533e-08,0.00422759,1.0468e-08,0,-1513,-0,-0,-1506.93,-6.34137,0.64
-1.18,-1.18187,0.577603,0.200855,0,2.87687e-05,0.00427694,6.97867e-09,0,-1513,-0,0,-1506.99,-6.4154,0.644
-1.18,-1.18187,0.57762,0.200855,0,-9.6118e-06,0.00432653,4.65244e-09,0,-1513,-0,-0,-1507.06,-6.48979,0.648
-1.18,-1.18187,0.577638,0.200855,0,-6.40787e-06,0.00437637,3.10163e-09,0,-1513,-0,-0,-1507.13,-6.56455,0.652
-1.18,-1.18187,0.577655,0.200855,0,-4.27191e-06,0.00442644,2.06775e-09,0,-1513,-0,-0,-1507.2,-6.63966,0.656
-1.18,-1.18187,0.577673,0.200855,0,-2.84794e-06,0.00447675,1.3785e-09,0,-1513,-0,-0,-1507.27,-6.71512,0.66
-1.18,-1.18187,0.577691,0.200855,0,-1.89863e-06,0.0045273,9.19001e-10,0,-1514,-0,-0,-1507.35,-6.79094,0.664
-1.18,-1.18187,0.577709,0.200855,0,-1.26575e-06,0.00457808,6.12668e-10,0,-1514,-0,-0,-1507.42,-6.86712,0.668
-1.18,-1.18187,0.577728,0.200855,0,-8.43834e-07,0.0046291,4.08445e-10,0,-1514,-0,-0,-1507.49,-6.94365,0.672
-1.18,-1.18187,0.577746,0.200855,0,-5.62556e-07,0.00468036,2.72297e-10,0,-1514,-0,-0,-1507.57,-7.02054,0.676
-1.18,-1.18187,0.577765,0.200855,0,-3.75037e-07,0.00473185,1.81531e-10,0,-1514,-0,-0,-1507.64,-7.09777,0.68
-1.18,-1.18187,0.577784,0.200855,0,2.85409e-05,0.00478357,1.21021e-10,0,-1514,-0,0,-1507.72,-7.17536,0.684
-1.18,-1.18187,0.577804,0.200855,0,-9.76366e-06,0.00483553,8.06805e-11,0,-1515,-0,-0,-1507.8,-7.25329,0.688
-1.18,-1.18187,0.577823,0.200855,0,-6.50911e-06,0.00488772,5.3787e-11,0,-1515,-0,-0,-1507.87,-7.33158,0.692
-1.18,-1.18187,0.577843,0.200855,0,-4.3394e-06,0.00494014,3.5858e-11,0,-1515,-0,-0,-1507.95,-7.41021,0.696
-1.18,-1.18187,0.577862,0.200855,0,-2.89294e-06,0.00499279,2.39053e-11,0,-1515,-0,-0,-1508.03,-7.48918,0.7
-1.18,-1.18187,0.577883,0.200855,0,-1.92862e-06,0.00504567,1.59369e-11,0,-1515,-0,-0,-1508.11,-7.5685,0.704
-1.18,-1.18187,0.577903,0.200855,0,-1.28575e-06,0.00509878,2.87909e-05,0,-1515,-0,-0,-1508.19,-7.60498,0.708
-1.18,-1.18187,0.577923,0.200855,0,2.79338e-05,0.00515211,1.9194e-05,0,-1515,-0,0,-1508.27,-7.69938,0.712
-1.18,-1.18187,0.577944,0.200854,0,-1.01684e-05,0.00520568,-4.47859e-05,0,-1516,-0,-0,-1508.36,-7.8757,0.716
-1.18,-1.18187,0.577965,0.200854,0,-6.77895e-06,0.00525947,-2.98573e-05,0,-1516,-0,-0,-1508.44,-7.93399,0.72
-1.18,-1.18187,0.577986,0.200854,0,-4.5193e-06,0.00531349,-1.99048e-05,0,-1516,-0,-0,-1508.53,-8.00009,0.724
-1.18,-1.18187,0.578008,0.200855,0,2.57781e-05,0.00536773,4.4312e-05,0,-1516,-0,0,-1508.61,-7.98513,0.728
-1.18,-1.18187,0.578029,0.200855,0,1.71854e-05,0.0054222,2.95413e-05,0,-1516,-0,0,-1508.7,-8.08898,0.732
-1.18,-1.18187,0.578051,0.200855,0,-1.7334e-05,0.00547689,1.96942e-05,0,-1516,-0,-0,-1508.78,-8.18579,0.736
-1.18,-1.18187,0.578073,0.200855,0,-1.1556e-05,0.0055318,1.31295e-05,0,-1517,-0,-0,-1508.87,-8.27801,0.74
-1.18,-1.18187,0.578095,0.200855,0,-7.704e-06,0.00558694,8.75298e-06,0,-1517,-0,-0,-1508.96,-8.36727,0.744
-1.18,-1.18187,0.578118,0.200855,0,-5.136e-06,0.00564229,5.83532e-06,0,-1517,-0,-0,-1509.05,-8.45469,0.748
-1.18,-1.18187,0.57814,0.200855,0,-3.424e-06,0.00569787,3.89021e-06,0,-1517,-0,-0,-1509.14,-8.54097,0.752
-1.18,-1.18187,0.578163,0.200855,0,-2.28267e-06,0.00575367,2.59348e-06,0,-1517,-0,-0,-1509.23,-8.62661,0.756
-1.18,-1.18187,0.578186,0.200855,0,-1.52178e-06,0.00580968,1.72898e-06,0,-1518,-0,-0,-1509.33,-8.71193,0.76
-1.18,-1.18187,0.57821,0.200855,0,-1.01452e-06,0.00586591,1.15266e-06,0,-1518,-0,-0,-1509.42,-8.79714,0.764
-1.18,-1.18187,0.578233,0.200855,0,-6.76346e-07,0.00592237,7.68437e-07,0,-1518,-0,-0,-1509.51,-8.88239,0.768
-1.18,-1.18187,0.578257,0.200855,0,-4.50897e-07,0.00597903,5.12291e-07,0,-1518,-0,-0,-1509.61,-8.96778,0.772
-1.18,-1.18187,0.578281,0.200855,0,-3.00598e-07,0.00603592,3.41528e-07,0,-1518,-0,-0,-1509.7,-9.05336,0.776
-1.18,-1.18187,0.578305,0.200855,0,-2.00399e-07,0.00609301,2.27685e-07,0,-1518,-0,-0,-1509.8,-9.13918,0.78
-1.18,-1.18187,0.57833,0.200855,0,-1.33599e-07,0.00615033,1.5179e-07,0,-1519,-0,-0,-1509.9,-9.22526,0.784
-1.18,-1.18187,0.578355,0.200855,0,-8.90661e-08,0.00620785,1.01193e-07,0,-1519,-0,-0,-1510,-9.31163,0.788
-1.18,-1.18187,0.578379,0.200855,0,2.87315e-05,0.00626559,6.74622e-08,0,-1519,-0,0,-1510.1,-9.39829,0.792
-1.18,-1.18187,0.578405,0.200855,0,-9.63656e-06,0.00632354,4.49748e-08,0,-1519,-0,-0,-1510.2,-9.48525,0.796
-1.18,-1.18187,0.57843,0.200855,0,-6.42437e-06,0.00638171,2.99832e-08,0,-1519,-0,-0,-1510.3,-9.57251,0.8
-1.18,-1.18187,0.578456,0.200855,0,-4.28292e-06,0.00644008,1.99888e-08,0,-1520,-0,-0,-1510.4,-9.66009,0.804
-1.18,-1.18187,0.578482,0.200855,0,-2.85528e-06,0.00649866,1.33259e-08,0,-1520,-0,-0,-1510.51,-9.74797,0.808
-1.18,-1.18187,0.578508,0.200855,0,-1.90352e-06,0.00655745,8.88392e-09,0,-1520,-0,-0,-1510.61,-9.83617,0.812
-1.18,-1.18187,0.578534,0.200855,0,-1.26901e-06,0.00661645,5.92261e-09,0,-1520,-0,-0,-1510.72,-9.92467,0.816
-1.18,-1.18187,0.578561,0.200855,0,-8.46008e-07,0.00667566,3.94841e-09,0,-1520,-0,-0,-1510.82,-10.0135,0.82
-1.18,-1.18187,0.578587,0.200855,0,-5.64005e-07,0.00673507,2.63227e-09,0,-1521,-0,-0,-1510.93,-10.1026,0.824
-1.18,-1.18187,0.578615,0.200855,0,-3.76004e-07,0.00679469,1.75485e-09,0,-1521,-0,-0,-1511.04,-10.192,0.828
-1.18,-1.18187,0.578642,0.200855,0,-2.50669e-07,0.00685452,1.1699e-09,0,-1521,-0,-0,-1511.15,-10.2818,0.832
-1.18,-1.18187,0.578669,0.200855,0,-1.67113e-07,0.00691455,7.79932e-10,0,-1521,-0,-0,-1511.26,-10.3718,0.836
-1.18,-1.18187,0.578697,0.200855,0,-1.11408e-07,0.00697478,5.19955e-10,0,-1521,-0,-0,-1511.37,-10.4622,0.84
-1.18,-1.18187,0.578725,0.200855,0,-7.42723e-08,0.00703522,3.46637e-10,0,-1522,-0,-0,-1511.48,-10.5528,0.844
-1.18,-1.18187,0.578753,0.200855,0,-4.95149e-08,0.00709586,2.31091e-10,0,-1522,-0,-0,-1511.59,-10.6438,0.848
-1.18,-1.18187,0.578782,0.200855,0,-3.30099e-08,0.0071567,1.54061e-10,0,-1522,-0,-0,-1511.71,-10.735,0.852
-1.18,-1.18187,0.578811,0.200855,0,-2.20066e-08,0.00721774,1.02707e-10,0,-1522,-0,-0,-1511.82,-10.8266,0.856
-1.18,-1.18187,0.57884,0.200855,0,-1.46711e-08,0.00727898,6.84714e-11,0,-1522,-0,-0,-1511.94,-10.9185,0.86
-1.18,-1.18187,0.578869,0.200855,0,-9.78072e-09,0.00734042,4.56476e-11,0,-1523,-0,-0,-1512.06,-11.0106,0.864
-1.18,-1.18187,0.578898,0.200855,0,-6.52048e-09,0.00740206,3.04317e-11,0,-1523,-0,-0,-1512.17,-11.1031,0.868
-1.18,-1.18187,0.578928,0.200855,0,-4.34698e-09,0.00746389,2.02878e-11,0,-1523,-0,-0,-1512.29,-11.1958,0.872
-1.18,-1.18187,0.578958,0.200855,0,-2.89799e-09,0.00752593,1.35252e-11,0,-1523,-0,-0,-1512.41,-11.2889,0.876
-1.18,-1.18187,0.578988,0.200855,0,-1.93199e-09,0.00758815,9.01681e-12,0,-1523,-0,-0,-1512.53,-11.3822,0.88
-1.18,-1.18187,0.579019,0.200855,0,-1.288e-09,0.00765058,6.01121e-12,0,-1524,-0,-0,-1512.65,-11.4759,0.884
-1.18,-1.18187,0.57905,0.200855,0,-8.58664e-10,0.0077132,4.00747e-12,0,-1524,-0,-0,-1512.78,-11.5698,0.888
-1.18,-1.18187,0.579081,0.200855,0,-5.72442e-10,0.00777601,2.67165e-12,0,-1524,-0,-0,-1512.9,-11.664,0.892
-1.18,-1.18187,0.579112,0.200855,0,-3.81628e-10,0.00783902,1.7811e-12,0,-1524,-0,-0,-1513.03,-11.7585,0.896
-1.18,-1.18187,0.579143,0.200855,0,-2.54419e-10,0.00790222,1.1874e-12,0,-1525,-0,-0,-1513.15,-11.8533,0.9
-1.18,-1.18187,0.579175,0.200856,0,-1.69613e-10,0.00796561,5.75819e-05,0,-1525,-0,-0,-1513.28,-11.862,0.904
-1.18,-1.18187,0.579207,0.200855,0,-1.13075e-10,0.00802919,-1.91939e-05,0,-1525,-0,-0,-1513.41,-12.0726,0.908
-1.18,-1.18187,0.579239,0.200856,0,-7.53834e-11,0.00809296,4.47859e-05,0,-1525,-0,-0,-1513.53,-12.0723,0.912
-1.18,-1.18187,0.579272,0.200855,0,-5.02556e-11,0.00815692,-2.77246e-05,0,-1525,-0,-0,-1513.67,-12.277,0.916
-1.18,-1.18187,0.579304,0.200855,0,-3.35037e-11,0.00822107,1.03079e-05,0,-1526,-0,-0,-1513.8,-12.3161,0.92
-1.18,-1.18187,0.579337,0.200856,0,-2.23358e-11,0.00828541,3.56628e-05,0,-1526,-0,-0,-1513.93,-12.3746,0.924
-1.18,-1.18187,0.579371,0.200855,0,2.87909e-05,0.00834994,-5.0157e-06,0,-1526,-0,0,-1514.06,-12.5324,0.928
-1.18,-1.18187,0.579404,0.200856,0,-9.59698e-06,0.00841465,2.54471e-05,0,-1526,-0,-0,-1514.19,-12.5838,0.932
-1.18,-1.18187,0.579438,0.200855,0,-6.39799e-06,0.00847955,-1.18262e-05,0,-1527,-0,-0,-1514.33,-12.7371,0.936
-1.18,-1.18187,0.579472,0.200855,0,-4.26533e-06,0.00854463,-7.88412e-06,0,-1527,-0,-0,-1514.47,-12.8288,0.94
-1.18,-1.18187,0.579506,0.200855,0,-2.84355e-06,0.0086099,-5.25608e-06,0,-1527,-0,-0,-1514.6,-12.9227,0.944
-1.18,-1.18187,0.579541,0.200855,0,-1.8957e-06,0.00867535,-3.50405e-06,0,-1527,-0,-0,-1514.74,-13.0183,0.948
-1.18,-1.18187,0.579576,0.200856,0,-1.2638e-06,0.00874098,2.64549e-05,0,-1527,-0,-0,-1514.88,-13.0718,0.952
-1.18,-1.18187,0.579611,0.200855,0,-8.42534e-07,0.0088068,-1.11543e-05,0,-1528,-0,-0,-1515.02,-13.2269,0.956
-1.18,-1.18187,0.579646,0.200855,0,-5.61689e-07,0.0088728,-7.43622e-06,0,-1528,-0,-0,-1515.16,-13.3203,0.96
-1.18,-1.18187,0.579682,0.200855,0,-3.74459e-07,0.00893897,-4.95748e-06,0,-1528,-0,-0,-1515.31,-13.4159,0.964
-1.18,-1.18187,0.579718,0.200855,0,2.85413e-05,0.00900533,-3.30499e-06,0,-1528,-0,0,-1515.45,-13.513,0.968
-1.18,-1.18187,0.579754,0.200855,0,-9.7634e-06,0.00907187,-2.20332e-06,0,-1529,-0,-0,-1515.59,-13.6111,0.972
-1.18,-1.18187,0.57979,0.200855,0,-6.50893e-06,0.00913858,-1.46888e-06,0,-1529,-0,-0,-1515.74,-13.7101,0.976
-1.18,-1.18187,0.579827,0.200855,0,-4.33929e-06,0.00920548,-9.79255e-07,0,-1529,-0,-0,-1515.89,-13.8097,0.98
-1.18,-1.18187,0.579864,0.200855,0,2.58981e-05,0.00927255,-6.52837e-07,0,-1529,-0,0,-1516.03,-13.9098,0.984
-1.18,-1.18187,0.579901,0.200855,0,-1.15255e-05,0.0093398,-4.35225e-07,0,-1530,-0,-0,-1516.18,-14.0103,0.988
-1.18,-1.18187,0.579939,0.200855,0,-7.6837e-06,0.00940722,-2.9015e-07,0,-1530,-0,-0,-1516.33,-14.1113,0.992
-1.18,-1.18187,0.579976,0.200855,0,-5.12247e-06,0.00947482,-1.93433e-07,0,-1530,-0,-0,-1516.48,-14.2125,0.996
-1.18,-1.18187,0.580015,0.200855,0,-3.41498e-06,0.00954259,-1.28955e-07,0,-1530,-0,-0,-1516.64,-14.3141,1
-1.18,-1.18187,0.580053,0.200855,0,-2.27665e-06,0.00961053,-8.59703e-08,0,-1531,-0,-0,-1516.79,-14.4159,1.004
-1.18,-1.18187,0.580091,0.200855,0,-1.51777e-06,0.00967865,-5.73135e-08,0,-1531,-0,-0,-1516.94,-14.5181,1.008
-1.18,-1.18187,0.58013,0.200855,0,5.657e-05,0.00974694,-3.8209e-08,0,-1531,-0,0,-1517.1,-14.6205,1.012
-1.18,-1.18187,0.580169,0.200855,0,-4.86594e-05,0.0098154,-2.54727e-08,0,-1531,-0,-0,-1517.26,-14.7231,1.016
-1.18,-1.18187,0.580209,0.200855,0,-3.6487e-06,0.00988403,-1.69818e-08,0,-1532,-0,-0,-1517.41,-14.8261,1.02
-1.18,-1.18187,0.580248,0.200855,0,-2.43247e-06,0.00995283,-1.13212e-08,0,-1532,-0,-0,-1517.57,-14.9293,1.024
-1.18,-1.18187,0.580288,0.200855,0,-1.62164e-06,0.0100218,-7.54746e-09,0,-1532,-0,-0,-1517.73,-15.0327,1.028
-1.18,-1.18187,0.580329,0.200855,0,5.65008e-05,0.0100909,-5.03164e-09,0,-1533,-0,0,-1517.89,-15.1364,1.032
-1.18,-1.18187,0.580369,0.200855,0,-1.99147e-05,0.0101602,-3.35443e-09,0,-1533,-0,-0,-1518.05,-15.2404,1.036
-1.18,-1.18187,0.58041,0.200855,0,-1.32765e-05,0.0102297,-2.23628e-09,0,-1533,-0,-0,-1518.22,-15.3446,1.04
-1.18,-1.18187,0.580451,0.200855,0,-8.85097e-06,0.0102994,-1.49086e-09,0,-1533,-0,-0,-1518.38,-15.449,1.044
-1.18,-1.18187,0.580492,0.200855,0,-5.90065e-06,0.0103692,-9.93904e-10,0,-1534,-0,-0,-1518.55,-15.5538,1.048
-1.18,-1.18187,0.580534,0.200855,0,-3.93376e-06,0.0104391,-6.62603e-10,0,-1534,-0,-0,-1518.71,-15.6587,1.052
-1.18,-1.18187,0.580576,0.200855,0,-2.62251e-06,0.0105093,-4.41735e-10,0,-1534,-0,-0,-1518.88,-15.7639,1.056
-1.18,-1.18187,0.580618,0.200855,0,-1.74834e-06,0.0105796,-2.9449e-10,0,-1534,-0,-0,-1519.05,-15.8694,1.06
-1.18,-1.18187,0.58066,0.200855,0,-1.16556e-06,0.01065,-1.96327e-10,0,-1535,-0,-0,-1519.22,-15.975,1.064
-1.18,-1.18187,0.580703,0.200855,0,-7.7704e-07,0.0107206,-1.30885e-10,0,-1535,-0,-0,-1519.39,-16.081,1.068
-1.18,-1.18187,0.580746,0.200855,0,2.82729e-05,0.0107914,-8.72563e-11,0,-1535,-0,0,-1519.56,-16.1871,1.072
-1.18,-1.18187,0.58079,0.200855,0,-9.94233e-06,0.0108624,-5.81709e-11,0,-1536,-0,-0,-1519.74,-16.2936,1.076
-1.18,-1.18187,0.580833,0.200855,0,-6.62822e-06,0.0109335,-3.87806e-11,0,-1536,-0,-0,-1519.91,-16.4002,1.08
-1.18,-1.18187,0.580877,0.200855,0,-4.41881e-06,0.0110047,-2.58537e-11,0,-1536,-0,-0,-1520.09,-16.5071,1.084
-1.18,-1.18187,0.580921,0.200855,0,-2.94587e-06,0.0110762,-1.72358e-11,0,-1536,-0,-0,-1520.26,-16.6142,1.088
-1.18,-1.18187,0.580966,0.200855,0,-1.96392e-06,0.0111477,-1.14905e-11,0,-1537,-0,-0,-1520.44,-16.7216,1.092
-1.18,-1.18187,0.58101,0.200855,0,-1.30928e-06,0.0112195,-7.66037e-12,0,-1537,-0,-0,-1520.62,-16.8292,1.096
-1.18,-1.18187,0.581055,0.200855,0,-8.72852e-07,0.0112914,-5.10691e-12,0,-1537,-0,-0,-1520.8,-16.9371,1.1
-1.18,-1.18187,0.581101,0.200855,0,-5.81901e-07,0.0113634,-3.40461e-12,0,-1538,-0,-0,-1520.98,-17.0451,1.104
-1.18,-1.18187,0.581146,0.200855,0,-3.87934e-07,0.0114356,-2.26974e-12,0,-1538,-0,-0,-1521.16,-17.1534,1.108
-1.18,-1.18187,0.581192,0.200855,0,-2.90495e-05,0.011508,-1.51316e-12,0,-1538,-0,-0,-1521.35,-17.262,1.112
-1.18,-1.18187,0.581238,0.200855,0,6.70064e-05,0.0115805,-1.00877e-12,0,-1538,-0,0,-1521.53,-17.3707,1.116
-1.18,-1.18187,0.581285,0.200856,0,-1.29109e-05,0.0116531,2.87909e-05,0,-1539,-0,-0,-1521.72,-17.4365,1.12
-1.18,-1.18187,0.581332,0.200855,0,4.89746e-05,0.011726,-9.59698e-06,0,-1539,-0,0,-1521.9,-17.6033,1.124
-1.18,-1.18187,0.581379,0.200856,0,-2.49321e-05,0.0117989,2.23929e-05,0,-1539,-0,-0,-1522.09,-17.6648,1.128
-1.18,-1.18187,0.581426,0.200855,0,-1.66214e-05,0.011872,-1.38623e-05,0,-1540,-0,-0,-1522.28,-17.8289,1.132
-1.18,-1.18187,0.581474,0.200856,0,-1.10809e-05,0.0119453,1.95494e-05,0,-1540,-0,-0,-1522.47,-17.8886,1.136
-1.18,-1.18187,0.581521,0.200856,0,-7.3873e-06,0.0120187,1.30329e-05,0,-1540,-0,-0,-1522.66,-18.0085,1.14
-1.18,-1.18187,0.58157,0.200855,0,-4.92487e-06,0.0120923,-2.01023e-05,0,-1541,-0,-0,-1522.86,-18.1686,1.144
-1.18,-1.18187,0.581618,0.200855,0,5.42986e-05,0.012166,-1.34015e-05,0,-1541,-0,0,-1523.05,-18.2691,1.148
-1.18,-1.18187,0.581667,0.200856,0,3.61991e-05,0.0122399,1.98566e-05,0,-1541,-0,0,-1523.25,-18.33,1.152
-1.18,-1.18187,0.581716,0.200856,0,-3.34491e-05,0.0123139,1.32377e-05,0,-1541,-0,-0,-1523.44,-18.4509,1.156
-1.18,-1.18187,0.581766,0.200856,0,-2.22994e-05,0.012388,8.82514e-06,0,-1542,-0,-0,-1523.64,-18.5688,1.16
-1.18,-1.18187,0.581815,0.200856,0,-1.48663e-05,0.0124623,5.88343e-06,0,-1542,-0,-0,-1523.84,-18.6846,1.164
-1.18,-1.18187,0.581865,0.200856,0,-9.91086e-06,0.0125367,3.92228e-06,0,-1542,-0,-0,-1524.04,-18.7992,1.168
-1.18,-1.18187,0.581916,0.200856,0,-6.60724e-06,0.0126113,2.61486e-06,0,-1543,-0,-0,-1524.24,-18.9131,1.172
-1.18,-1.18187,0.581966,0.200856,0,-4.40482e-06,0.0126861,1.74324e-06,0,-1543,-0,-0,-1524.44,-19.0265,1.176
-1.18,-1.18187,0.582017,0.200856,0,-2.93655e-06,0.0127609,1.16216e-06,0,-1543,-0,-0,-1524.65,-19.1397,1.18
-1.18,-1.18187,0.582068,0.200856,0,-1.9577e-06,0.0128359,7.74772e-07,0,-1544,-0,-0,-1524.85,-19.2527,1.184
-1.18,-1.18187,0.58212,0.200856,0,-1.30513e-06,0.0129111,5.16515e-07,0,-1544,-0,-0,-1525.06,-19.3659,1.188
-1.18,-1.18187,0.582172,0.200856,0,-8.70089e-07,0.0129864,3.44343e-07,0,-1544,-0,-0,-1525.26,-19.4791,1.192
-1.18,-1.18187,0.582224,0.200856,0,-5.80059e-07,0.0130618,2.29562e-07,0,-1545,-0,-0,-1525.47,-19.5924,1.196
-1.18,-1.18187,0.582276,0.200856,0,-3.86706e-07,0.0131374,1.53041e-07,0,-1545,-0,-0,-1525.68,-19.7059,1.2
-1.18,-1.18187,0.582329,0.200856,0,-2.90487e-05,0.0132131,1.02028e-07,0,-1545,-0,-0,-1525.89,-19.8195,1.204
-1.18,-1.18187,0.582382,0.200856,0,9.42511e-06,0.0132889,6.80184e-08,0,-1546,-0,0,-1526.1,-19.9333,1.208
-1.18,-1.18187,0.582435,0.200856,0,6.2834e-06,0.0133649,4.53456e-08,0,-1546,-0,0,-1526.32,-20.0473,1.212
-1.18,-1.18187,0.582489,0.200856,0,4.18894e-06,0.013441,3.02304e-08,0,-1546,-0,0,-1526.53,-20.1615,1.216
-1.18,-1.18187,0.582543,0.200856,0,6.03745e-05,0.0135173,2.01536e-08,0,-1547,-0,0,-1526.75,-20.2759,1.22
-1.18,-1.18187,0.582597,0.200856,0,-1.73322e-05,0.0135937,1.34357e-08,0,-1547,-0,-0,-1526.96,-20.3905,1.224
-1.18,-1.18187,0.582651,0.200856,0,-1.15548e-05,0.0136702,8.95716e-09,0,-1547,-0,-0,-1527.18,-20.5053,1.228
-1.18,-1.18187,0.582706,0.200856,0,-3.64941e-05,0.0137469,5.97144e-09,0,-1548,-0,-0,-1527.4,-20.6203,1.232
-1.18,-1.18187,0.582761,0.200856,0,4.46151e-06,0.0138237,3.98096e-09,0,-1548,-0,0,-1527.62,-20.7355,1.236
-1.18,-1.18187,0.582817,0.200856,0,2.97434e-06,0.0139006,2.87936e-05,0,-1548,-0,0,-1527.84,-20.8077,1.24
-1.18,-1.18187,0.582872,0.200856,0,1.98289e-06,0.0139776,1.91957e-05,0,-1549,-0,0,-1528.07,-20.9376,1.244
-1.18,-1.18187,0.582929,0.200856,0,1.32193e-06,0.0140548,-1.59938e-05,0,-1549,-0,0,-1528.29,-21.1062,1.248
-1.18,-1.18187,0.582985,0.200856,0,8.81286e-07,0.0141321,1.81284e-05,0,-1549,-0,0,-1528.52,-21.171,1.252
-1.18,-1.18187,0.583042,0.200856,0,5.87524e-07,0.0142096,-1.67053e-05,0,-1550,-0,0,-1528.74,-21.3394,1.256
-1.18,-1.18187,0.583099,0.200856,0,3.91682e-07,0.0142871,1.7654e-05,0,-1550,-0,0,-1528.97,-21.4042,1.26
-1.18,-1.18187,0.583156,0.200856,0,2.61122e-07,0.0143648,1.17694e-05,0,-1550,-0,0,-1529.2,-21.5296,1.264
-1.18,-1.18187,0.583214,0.200856,0,1.74081e-07,0.0144427,7.84624e-06,0,-1551,-0,0,-1529.43,-21.6522,1.268
-1.18,-1.18187,0.583271,0.200856,0,1.16054e-07,0.0145206,5.23083e-06,0,-1551,-0,0,-1529.66,-21.7731,1.272
-1.18,-1.18187,0.58333,0.200856,0,7.73694e-08,0.0145987,3.48722e-06,0,-1551,-0,0,-1529.89,-21.8928,1.276
-1.18,-1.18187,0.583388,0.200856,0,-2.87393e-05,0.0146769,2.32481e-06,0,-1552,-0,-0,-1530.13,-22.0118,1.28
-1.18,-1.18187,0.583447,0.200856,0,6.72132e-05,0.0147552,1.54987e-06,0,-1552,-0,0,-1530.36,-22.1305,1.284
-1.18,-1.18187,0.583506,0.200856,0,-1.2773e-05,0.0148337,1.03325e-06,0,-1552,-0,-0,-1530.6,-22.249,1.288
-1.18,-1.18187,0.583566,0.200856,0,4.90665e-05,0.0149122,6.88833e-07,0,-1553,-0,0,-1530.84,-22.3673,1.292
-1.18,-1.18187,0.583626,0.200856,0,-5.36618e-05,0.0149909,4.59222e-07,0,-1553,-0,-0,-1531.08,-22.4857,1.296
-1.18,-1.18187,0.583686,0.200856,0,-6.9836e-06,0.0150698,3.06148e-07,0,-1553,-0,-0,-1531.32,-22.6042,1.3
-1.18,-1.18187,0.583746,0.200856,0,-4.65573e-06,0.0151487,2.04099e-07,0,-1554,-0,-0,-1531.56,-22.7227,1.304
-1.18,-1.18187,0.583807,0.200856,0,-3.10382e-06,0.0152278,1.36066e-07,0,-1554,-0,-0,-1531.8,-22.8414,1.308
-1.18,-1.18187,0.583868,0.200856,0,-3.08601e-05,0.0153069,9.07106e-08,0,-1555,-0,-0,-1532.05,-22.9603,1.312
-1.18,-1.18187,0.583929,0.200856,0,8.2175e-06,0.0153862,6.04737e-08,0,-1555,-0,0,-1532.29,-23.0793,1.316
-1.18,-1.18187,0.583991,0.200856,0,5.47833e-06,0.0154657,4.03158e-08,0,-1555,-0,0,-1532.54,-23.1984,1.32
-1.18,-1.18187,0.584053,0.200856,0,-2.51387e-05,0.0155452,2.68772e-08,0,-1556,-0,-0,-1532.79,-23.3178,1.324
-1.18,-1.18187,0.584115,0.200856,0,6.96136e-05,0.0156248,1.79181e-08,0,-1556,-0,0,-1533.04,-23.4372,1.328
-1.18,-1.18187,0.584178,0.200856,0,-1.11728e-05,0.0157046,1.19454e-08,0,-1556,-0,-0,-1533.29,-23.5569,1.332
-1.18,-1.18187,0.584241,0.200856,0,-7.4485e-06,0.0157845,7.96362e-09,0,-1557,-0,-0,-1533.54,-23.6767,1.336
-1.18,-1.18187,0.584304,0.200856,0,-3.37566e-05,0.0158645,5.30908e-09,0,-1557,-0,-0,-1533.79,-23.7967,1.34
-1.18,-1.18187,0.584368,0.200856,0,6.28653e-06,0.0159446,3.53938e-09,0,-1557,-0,0,-1534.05,-23.9169,1.344
-1.18,-1.18187,0.584432,0.200856,0,4.19102e-06,0.0160248,2.35959e-09,0,-1558,-0,0,-1534.3,-24.0373,1.348
-1.18,-1.18187,0.584496,0.200856,0,2.79401e-06,0.0161052,1.57306e-09,0,-1558,-0,0,-1534.56,-24.1578,1.352
-1.18,-1.18187,0.584561,0.200856,0,1.86268e-06,0.0161856,1.04871e-09,0,-1559,-0,0,-1534.82,-24.2785,1.356
-1.18,-1.18187,0.584626,0.200856,0,1.24178e-06,0.0162662,2.87916e-05,0,-1559,-0,0,-1535.08,-24.3561,1.36
-1.18,-1.18187,0.584691,0.200856,0,8.27856e-07,0.0163469,1.91944e-05,0,-1559,-0,0,-1535.34,-24.4915,1.364
-1.18,-1.18187,0.584756,0.200856,0,5.51904e-07,0.0164277,1.27963e-05,0,-1560,-0,0,-1535.6,-24.6223,1.368
-1.18,-1.18187,0.584822,0.200856,0,-2.8423e-05,0.0165086,8.53085e-06,0,-1560,-0,-0,-1535.86,-24.7501,1.372
-1.18,-1.18187,0.584888,0.200856,0,9.84227e-06,0.0165896,5.68723e-06,0,-1561,-0,0,-1536.13,-24.8758,1.376
-1.18,-1.18187,0.584955,0.200856,0,6.41434e-05,0.0166707,3.79149e-06,0,-1561,-0,0,-1536.39,-25.0004,1.38
-1.18,-1.18187,0.585022,0.200856,0,4.27622e-05,0.0167519,2.52766e-06,0,-1561,-0,0,-1536.66,-25.1241,1.384
-1.18,-1.18187,0.585089,0.200856,0,-2.90737e-05,0.0168333,1.68511e-06,0,-1562,-0,-0,-1536.93,-25.2474,1.388
-1.18,-1.18187,0.585157,0.200856,0,3.81994e-05,0.0169147,1.1234e-06,0,-1562,-0,0,-1537.2,-25.3704,1.392
-1.18,-1.18187,0.585224,0.200856,0,-3.21156e-05,0.0169962,7.48936e-07,0,-1562,-0,-0,-1537.47,-25.4932,1.396
-1.18,-1.18187,0.585292,0.200856,0,-2.14104e-05,0.0170779,4.99291e-07,0,-1563,-0,-0,-1537.74,-25.6161,1.4
-1.18,-1.18187,0.585361,0.200856,0,-1.42736e-05,0.0171596,3.32861e-07,0,-1563,-0,-0,-1538.02,-25.739,1.404
-1.18,-1.18187,0.58543,0.200856,0,-9.51573e-06,0.0172415,2.21907e-07,0,-1564,-0,-0,-1538.29,-25.8619,1.408
-1.18,-1.18187,0.585499,0.200857,0,5.1238e-05,0.0173235,2.89389e-05,0,-1564,-0,0,-1538.57,-25.9418,1.412
-1.18,-1.18187,0.585568,0.200856,0,-2.34232e-05,0.0174055,-9.49835e-06,0,-1564,-0,-0,-1538.85,-26.1225,1.416
-1.18,-1.18187,0.585638,0.200856,0,-1.56154e-05,0.0174877,-6.33223e-06,0,-1565,-0,-0,-1539.13,-26.241,1.42
-1.18,-1.18187,0.585708,0.200857,0,-1.04103e-05,0.01757,2.45694e-05,0,-1565,-0,-0,-1539.41,-26.3181,1.424
-1.18,-1.18187,0.585779,0.200856,0,-3.57311e-05,0.0176523,-1.24113e-05,0,-1566,-0,-0,-1539.69,-26.4971,1.428
-1.18,-1.18187,0.585849,0.200857,0,3.37611e-05,0.0177348,2.05167e-05,0,-1566,-0,0,-1539.97,-26.5714,1.432
-1.18,-1.18187,0.585921,0.200857,0,-6.28352e-06,0.0178174,1.36778e-05,0,-1566,-0,-0,-1540.26,-26.7055,1.436
-1.18,-1.18187,0.585992,0.200857,0,-4.18902e-06,0.0179,9.11854e-06,0,-1567,-0,-0,-1540.54,-26.8364,1.44
-1.18,-1.18187,0.586064,0.200857,0,-2.79268e-06,0.0179828,6.07903e-06,0,-1567,-0,-0,-1540.83,-26.9651,1.444
-1.18,-1.18187,0.586136,0.200857,0,-1.86178e-06,0.0180657,4.05269e-06,0,-1568,-0,-0,-1541.12,-27.0924,1.448
-1.18,-1.18187,0.586208,0.200857,0,-1.24119e-06,0.0181486,2.70179e-06,0,-1568,-0,-0,-1541.41,-27.2189,1.452
-1.18,-1.18187,0.586281,0.200857,0,-8.2746e-07,0.0182317,1.80119e-06,0,-1569,-0,-0,-1541.7,-27.3448,1.456
-1.18,-1.18187,0.586354,0.200857,0,-5.5164e-07,0.0183148,1.2008e-06,0,-1569,-0,-0,-1541.99,-27.4704,1.46
-1.18,-1.18187,0.586428,0.200857,0,-3.6776e-07,0.0183981,8.00531e-07,0,-1569,-0,-0,-1542.28,-27.5959,1.464
-1.18,-1.18187,0.586501,0.200857,0,-2.45173e-07,0.0184814,5.33687e-07,0,-1570,-0,-0,-1542.58,-27.7213,1.468
-1.18,-1.18187,0.586575,0.200857,0,-2.89544e-05,0.0185648,3.55791e-07,0,-1570,-0,-0,-1542.87,-27.8467,1.472
-1.18,-1.18187,0.58665,0.200857,0,9.48801e-06,0.0186484,2.37194e-07,0,-1571,-0,0,-1543.17,-27.9722,1.476
-1.18,-1.18187,0.586725,0.200857,0,6.32534e-06,0.018732,2.89491e-05,0,-1571,-0,0,-1543.47,-28.0546,1.48
-1.18,-1.18187,0.5868,0.200857,0,4.21689e-06,0.0188157,1.92994e-05,0,-1571,-0,0,-1543.77,-28.1946,1.484
-1.18,-1.18187,0.586875,0.200857,0,2.81126e-06,0.0188995,1.28662e-05,0,-1572,-0,0,-1544.07,-28.3299,1.488
-1.18,-1.18187,0.586951,0.200857,0,1.87417e-06,0.0189834,8.5775e-06,0,-1572,-0,0,-1544.38,-28.4622,1.492
-1.18,-1.18187,0.587027,0.200857,0,1.24945e-06,0.0190674,5.71833e-06,0,-1573,-0,0,-1544.68,-28.5925,1.496
-1.18,-1.18187,0.587103,0.200857,0,5.84148e-05,0.0191514,3.81222e-06,0,-1573,-0,0,-1544.99,-28.7214,1.5
-1.18,-1.18187,0.58718,0.200857,0,3.89432e-05,0.0192356,2.54148e-06,0,-1574,-0,0,-1545.29,-28.8496,1.504
-1.18,-1.18187,0.587257,0.200857,0,-3.16197e-05,0.0193199,1.69432e-06,0,-1574,-0,-0,-1545.6,-28.9772,1.508
-1.18,-1.18187,0.587335,0.200857,0,3.6502e-05,0.0194042,1.12955e-06,0,-1575,-0,0,-1545.91,-29.1046,1.512
-1.18,-1.18187,0.587413,0.200857,0,-3.32472e-05,0.0194886,2.9544e-05,0,-1575,-0,-0,-1546.22,-29.1886,1.516
-1.18,-1.18187,0.587491,0.200857,0,-2.21648e-05,0.0195731,1.9696e-05,0,-1575,-0,-0,-1546.53,-29.3301,1.52
-1.18,-1.18187,0.587569,0.200857,0,-1.47765e-05,0.0196577,1.31306e-05,0,-1576,-0,-0,-1546.85,-29.4669,1.524
-1.18,-1.18187,0.587648,0.200857,0,4.77308e-05,0.0197424,8.75376e-06,0,-1576,-0,0,-1547.16,-29.6005,1.528
-1.18,-1.18187,0.587727,0.200857,0,-2.57613e-05,0.0198272,5.83584e-06,0,-1577,-0,-0,-1547.48,-29.732,1.532
-1.18,-1.18187,0.587807,0.200857,0,-4.59651e-05,0.019912,3.89056e-06,0,-1577,-0,-0,-1547.8,-29.8622,1.536
-1.18,-1.18187,0.587886,0.200858,0,-1.85249e-06,0.0199969,3.13846e-05,0,-1578,-0,-0,-1548.11,-29.9483,1.54
-1.18,-1.18187,0.587967,0.200858,0,-3.00259e-05,0.0200819,2.09231e-05,0,-1578,-0,-0,-1548.43,-30.0915,1.544
-1.18,-1.18187,0.588047,0.200858,0,8.77365e-06,0.020167,1.39487e-05,0,-1578,-0,0,-1548.76,-30.2296,1.548
-1.18,-1.18187,0.588128,0.200858,0,5.8491e-06,0.0202522,9.29915e-06,0,-1579,-0,0,-1549.08,-30.3644,1.552
-1.18,-1.18187,0.588209,0.200858,0,3.8994e-06,0.0203375,3.49904e-05,0,-1579,-0,0,-1549.4,-30.4537,1.556
-1.18,-1.18187,0.588291,0.200858,0,2.5996e-06,0.0204228,2.33269e-05,0,-1580,-0,0,-1549.73,-30.5992,1.56
-1.18,-1.18187,0.588372,0.200859,0,1.73307e-06,0.0205082,4.43422e-05,0,-1580,-0,0,-1550.06,-30.6958,1.564
-1.18,-1.18187,0.588455,0.200859,0,1.15538e-06,0.0205937,5.83524e-05,0,-1581,-0,0,-1550.38,-30.803,1.568
-1.18,-1.18187,0.588537,0.200861,0,7.70252e-07,0.0206793,0.000182856,0,-1581,-0,0,-1550.71,-30.7446,1.572
-1.18,-1.18187,0.58862,0.200866,0,5.13501e-07,0.0207649,0.000582559,0,-1581,-0,0,-1551.02,-30.2735,1.576
-1.18,-1.18187,0.588703,0.200878,0,5.79242e-05,0.0208506,0.00136726,0,-1580,-0,0,-1551.3,-29.2251,1.58
-1.18,-1.18187,0.588787,0.200895,0,-1.89657e-05,0.0209364,0.00237985,0,-1579,-0,-0,-1551.57,-27.8349,1.584
-1.18,-1.18187,0.588871,0.200912,0,-1.26438e-05,0.0210223,0.00299732,0,-1578,-0,-0,-1551.83,-27.0375,1.588
-1.18,-1.18187,0.588955,0.200932,0,-3.72201e-05,0.0211083,0.00366809,0,-1578,-0,-0,-1552.09,-26.1603,1.592
-1.18,-1.18187,0.58904,0.200961,0,-2.48134e-05,0.0211943,0.00486383,0,-1576,-0,-0,-1552.31,-24.4957,1.596
-1.18,-1.18187,0.589125,0.201001,0,1.22486e-05,0.0212804,0.00655351,0,-1574,-0,0,-1552.49,-22.0903,1.6
-1.18,-1.18187,0.58921,0.201055,0,8.16576e-06,0.0213666,0.0088316,0,-1571,-0,0,-1552.62,-18.8025,1.604
-1.18,-1.18187,0.589296,0.201123,0,5.44384e-06,0.0214528,0.0115883,0,-1567,-0,0,-1552.69,-14.7967,1.608
-1.18,-1.18187,0.589382,0.201207,0,6.12111e-05,0.0215391,0.0147505,0,-1562,-0,0,-1552.7,-10.1829,1.612
-1.18,-1.18187,0.589468,0.20131,0,-1.67745e-05,0.0216255,0.0183846,0,-1557,-0,-0,-1552.63,-4.86137,1.616
-1.18,-1.18187,0.589555,0.201429,0,-1.1183e-05,0.021712,0.0221893,0,-1551,-0,-0,-1552.5,0.71595,1.62
-1.18,-1.18187,0.589642,0.201564,0,2.13356e-05,0.0217985,0.0260213,0,-1545,-0,0,-1552.31,6.33422,1.624
-1.18,-1.18187,0.589729,0.20172,0,-1.45672e-05,0.0218851,0.030361,0,-1539,-0,-0,-1552.04,12.7139,1.628
-1.18,-1.18187,0.589817,0.201897,0,-9.71146e-06,0.0219718,0.0350104,0,-1532,-0,-0,-1551.68,19.558,1.632
-1.18,-1.18187,0.589905,0.202095,0,-6.47431e-06,0.0220585,0.0397799,0,-1524,-0,-0,-1551.24,26.5821,1.636
-1.18,-1.18187,0.589993,0.202308,0,-4.3162e-06,0.0221453,0.0442839,0,-1517,-0,-0,-1550.74,33.208,1.64
-1.18,-1.18187,0.590082,0.20254,0,5.47044e-05,0.0222322,0.0488701,0,-1510,-0,0,-1550.17,39.957,1.644
-1.18,-1.18187,0.590171,0.202784,0,-2.11123e-05,0.0223191,0.0529065,0,-1503,-0,-0,-1549.55,45.8811,1.648
-1.18,-1.18187,0.59026,0.20304,0,1.47161e-05,0.0224061,0.0565763,0,-1497,-0,0,-1548.88,51.2553,1.652
-1.18,-1.18187,0.59035,0.203307,0,-1.89802e-05,0.0224932,0.0599729,0,-1491,-0,-0,-1548.17,56.2196,1.656
-1.18,-1.18187,0.59044,0.20358,0,4.49284e-05,0.0225803,0.0627843,0,-1487,-0,0,-1547.44,60.3061,1.66
-1.18,-1.18187,0.590531,0.203869,0,-2.76296e-05,0.0226675,0.0659254,0,-1481,-0,-0,-1546.65,64.8869,1.664
-1.18,-1.18187,0.590622,0.20415,0,-1.84197e-05,0.0227547,0.0673573,0,-1478,-0,-0,-1545.89,66.9039,1.668
-1.18,-1.18187,0.590713,0.204442,0,-1.22798e-05,0.0228421,0.0692044,0,-1475,-0,-0,-1545.09,69.5435,1.672
-1.18,-1.18187,0.590804,0.204742,0,2.06044e-05,0.0229294,0.0711844,0,-1471,-0,0,-1544.25,72.3824,1.676
-1.18,-1.18187,0.590896,0.205046,0,-1.50547e-05,0.0230169,0.0727347,0,-1468,-0,-0,-1543.4,74.5767,1.68
-1.18,-1.18187,0.590989,0.205356,0,-1.00364e-05,0.0231044,0.0743728,0,-1465,-0,-0,-1542.53,76.9027,1.684
-1.18,-1.18187,0.591081,0.205664,0,-6.69097e-06,0.0231919,0.0752346,0,-1463,-0,-0,-1541.67,78.064,1.688
-1.18,-1.18187,0.591174,0.205973,0,-4.46064e-06,0.0232796,0.0758955,0,-1461,-0,-0,-1540.81,78.9239,1.692
-1.18,-1.18187,0.591267,0.206283,0,-3.17647e-05,0.0233672,0.0764225,0,-1460,-0,-0,-1539.94,79.5828,1.696
-1.18,-1.18187,0.591361,0.206593,0,7.61447e-06,0.023455,0.0768026,0,-1459,-0,0,-1539.07,80.0213,1.7
-1.18,-1.18187,0.591455,0.206908,0,5.07631e-06,0.0235428,0.077459,0,-1457,-0,0,-1538.19,80.8744,1.704
-1.18,-1.18187,0.591549,0.207225,0,3.21751e-05,0.0236306,0.0780118,0,-1455,-0,0,-1537.3,81.5718,1.708
-1.18,-1.18187,0.591644,0.207541,0,-7.34084e-06,0.0237186,0.0784092,0,-1454,-0,-0,-1536.41,82.0359,1.712
-1.18,-1.18187,0.591739,0.207856,0,-4.89389e-06,0.0238065,0.0784725,0,-1453,-0,-0,-1535.53,81.999,1.716
-1.18,-1.18187,0.591835,0.208165,0,-3.26259e-06,0.0238945,0.0781117,0,-1453,-0,-0,-1534.68,81.3257,1.72
-1.18,-1.18187,0.59193,0.208468,0,-2.17506e-06,0.0239826,0.0773241,0,-1453,-0,-0,-1533.85,80.0122,1.724
-1.18,-1.18187,0.592026,0.208756,0,-1.45004e-06,0.0240708,0.075561,0,-1455,-0,-0,-1533.08,77.2354,1.728
-1.18,-1.18187,0.592123,0.209041,0,-9.66695e-07,0.0241589,0.074069,0,-1457,-0,-0,-1532.33,74.865,1.732
-1.18,-1.18187,0.59222,0.20931,0,-6.44463e-07,0.0242472,0.0718074,0,-1460,-0,-0,-1531.64,71.3404,1.736
-1.18,-1.18187,0.592317,0.209576,0,-4.29642e-07,0.0243355,0.0700118,0,-1462,-0,-0,-1530.97,68.5146,1.74
-1.18,-1.18187,0.592414,0.209827,0,-2.86428e-07,0.0244238,0.0676344,0,-1465,-0,-0,-1530.35,64.8158,1.744
-1.18,-1.18187,0.592512,0.210069,0,-1.90952e-07,0.0245122,0.0652144,0,-1468,-0,-0,-1529.77,61.0533,1.748
-1.18,-1.18187,0.59261,0.210303,0,2.86636e-05,0.0246007,0.0630253,0,-1471,-0,0,-1529.23,57.637,1.752
-1.18,-1.18187,0.592709,0.210529,0,-9.68184e-06,0.0246891,0.0608749,0,-1474,-0,-0,-1528.72,54.2787,1.756
-1.18,-1.18187,0.592808,0.210743,0,-6.45456e-06,0.0247777,0.0583761,0,-1477,-0,-0,-1528.26,50.3976,1.76
-1.18,-1.18187,0.592907,0.210951,0,-4.30304e-06,0.0248663,0.0562495,0,-1480,-0,-0,-1527.83,47.0749,1.764
-1.18,-1.18187,0.593007,0.211149,0,-2.86869e-06,0.0249549,0.0539681,0,-1483,-0,-0,-1527.43,43.5197,1.768
-1.18,-1.18187,0.593107,0.21134,0,-1.91246e-06,0.0250436,0.0519001,0,-1486,-0,-0,-1527.07,40.2847,1.772
-1.18,-1.18187,0.593207,0.211523,0,-1.27498e-06,0.0251324,0.0498593,0,-1489,-0,-0,-1526.74,37.0904,1.776
-1.18,-1.18187,0.593308,0.211703,0,-8.49983e-07,0.0252211,0.0482396,0,-1491,-0,-0,-1526.42,34.5277,1.78
-1.18,-1.18187,0.593409,0.211877,0,-5.66656e-07,0.02531,0.0466703,0,-1494,-0,-0,-1526.13,32.0406,1.784
-1.18,-1.18187,0.59351,0.212047,0,2.84132e-05,0.0253988,0.0452787,0,-1496,-0,0,-1525.85,29.8198,1.788
-1.18,-1.18187,0.593612,0.212211,0,-9.84882e-06,0.0254878,0.0438327,0,-1498,-0,-0,-1525.61,27.5174,1.792
-1.18,-1.18187,0.593714,0.212369,0,-6.56588e-06,0.0255767,0.042408,0,-1500,-0,-0,-1525.38,25.247,1.796
-1.18,-1.18187,0.593817,0.212519,0,-4.37725e-06,0.0256657,0.0407961,0,-1502,-0,-0,-1525.19,22.6955,1.8
-1.18,-1.18187,0.59392,0.212667,0,2.58728e-05,0.0257548,0.0394911,0,-1504,-0,0,-1525.01,20.6045,1.804
-1.18,-1.18187,0.594023,0.212812,0,-1.15424e-05,0.0258439,0.0384196,0,-1505,-0,-0,-1524.84,18.8636,1.808
-1.18,-1.18187,0.594126,0.212952,0,2.1096e-05,0.025933,0.0373022,0,-1507,-0,0,-1524.7,17.0537,1.812
-1.18,-1.18187,0.59423,0.213093,0,-1.47269e-05,0.0260222,0.0366148,0,-1508,-0,-0,-1524.55,15.8889,1.816
-1.18,-1.18187,0.594335,0.213232,0,-9.81796e-06,0.0261114,0.0360126,0,-1509,-0,-0,-1524.41,14.8518,1.82
-1.18,-1.18187,0.594439,0.213369,0,2.22456e-05,0.0262007,0.0353808,0,-1510,-0,0,-1524.28,13.7702,1.824
-1.18,-1.18187,0.594544,0.213501,0,-1.39605e-05,0.02629,0.0346429,0,-1511,-0,-0,-1524.17,12.5294,1.828
-1.18,-1.18187,0.59465,0.21363,0,-9.30701e-06,0.0263793,0.0337767,0,-1512,-0,-0,-1524.08,11.0961,1.832
-1.18,-1.18187,0.594755,0.213758,0,-6.20467e-06,0.0264687,0.033228,0,-1513,-0,-0,-1523.99,10.139,1.836
-1.18,-1.18187,0.594861,0.213882,0,-4.13645e-06,0.0265581,0.032488,0,-1515,-0,-0,-1523.92,8.89479,1.84
-1.18,-1.18187,0.594968,0.213998,0,-2.75763e-06,0.0266476,0.0313324,0,-1516,-0,-0,-1523.88,7.02726,1.844
-1.18,-1.18187,0.595074,0.21411,0,-1.83842e-06,0.026737,0.0302165,0,-1518,-0,-0,-1523.86,5.21922,1.848
-1.18,-1.18187,0.595182,0.214213,0,2.75653e-05,0.0268266,0.0287528,0,-1520,-0,0,-1523.87,2.8894,1.852
-1.18,-1.18187,0.595289,0.214313,0,-1.04141e-05,0.0269161,0.0274316,0,-1523,-0,-0,-1523.91,0.773134,1.856
-1.18,-1.18187,0.595397,0.214411,0,-6.9427e-06,0.0270057,0.0264643,0,-1524,-0,-0,-1523.94,-0.812101,1.86
-1.18,-1.18187,0.595505,0.214507,0,-4.62847e-06,0.0270954,0.0256468,0,-1526,-0,-0,-1523.99,-2.17289,1.864
-1.18,-1.18187,0.595614,0.214596,0,-3.08564e-06,0.027185,0.0245259,0,-1528,-0,-0,-1524.07,-3.98868,1.868
-1.18,-1.18187,0.595723,0.214683,0,-2.0571e-06,0.0272747,0.0235771,0,-1529,-0,-0,-1524.16,-5.54639,1.872
-1.18,-1.18187,0.595832,0.214767,0,-1.3714e-06,0.0273644,0.0227143,0,-1531,-0,-0,-1524.26,-6.97525,1.876
-1.18,-1.18187,0.595942,0.21485,0,-9.14265e-07,0.0274542,0.0220527,0,-1532,-0,-0,-1524.37,-8.1023,1.88
-1.18,-1.18187,0.596052,0.21493,0,-6.0951e-07,0.027544,0.0214101,0,-1533,-0,-0,-1524.49,-9.2009,1.884
-1.18,-1.18187,0.596162,0.21501,0,-4.0634e-07,0.0276338,0.0209241,0,-1534,-0,-0,-1524.61,-10.0646,1.888
-1.18,-1.18187,0.596273,0.215085,0,-2.70893e-07,0.0277237,0.020197,0,-1536,-0,-0,-1524.75,-11.29,1.892
-1.18,-1.18187,0.596384,0.215156,0,-1.80596e-07,0.0278136,0.0193668,0,-1537,-0,-0,-1524.91,-12.6701,1.896
-1.18,-1.18187,0.596495,0.215224,0,-1.20397e-07,0.0279035,0.0186406,0,-1538,-0,-0,-1525.08,-13.8943,1.9
-1.18,-1.18187,0.596607,0.215288,0,-8.02647e-08,0.0279934,0.0177246,0,-1540,-0,-0,-1525.28,-15.4032,1.904
-1.18,-1.18187,0.596719,0.215349,0,-5.35098e-08,0.0280834,0.0169412,0,-1542,-0,-0,-1525.48,-16.7133,1.908
-1.18,-1.18187,0.596832,0.215407,0,-3.56732e-08,0.0281734,0.0161022,0,-1543,-0,-0,-1525.7,-18.1068,1.912
-1.18,-1.18187,0.596944,0.215468,0,-2.37821e-08,0.0282634,0.0158308,0,-1544,-0,-0,-1525.9,-18.6489,1.916
-1.18,-1.18187,0.597058,0.215525,0,-1.58548e-08,0.0283535,0.0152756,0,-1545,-0,-0,-1526.13,-19.6168,1.92
-1.18,-1.18187,0.597171,0.215581,0,-1.05698e-08,0.0284436,0.0148478,0,-1546,-0,-0,-1526.36,-20.3936,1.924
-1.18,-1.18187,0.597285,0.21563,0,-7.04656e-09,0.0285337,0.0140157,0,-1548,-0,-0,-1526.62,-21.777,1.928
-1.18,-1.18187,0.5974,0.215677,0,-4.69771e-09,0.0286238,0.0132018,0,-1550,-0,-0,-1526.89,-23.133,1.932
-1.18,-1.18187,0.597514,0.215716,0,-3.1318e-09,0.0287139,0.0120833,0,-1552,-0,-0,-1527.19,-24.9459,1.936
-1.18,-1.18187,0.597629,0.215753,0,-2.08787e-09,0.0288041,0.011165,0,-1553,-0,-0,-1527.5,-26.4587,1.94
-1.18,-1.18187,0.597745,0.215792,0,-1.39191e-09,0.0288943,0.0106967,0,-1555,-0,-0,-1527.81,-27.2964,1.944
-1.18,-1.18187,0.59786,0.21583,0,-9.27942e-10,0.0289846,0.0102405,0,-1556,-0,-0,-1528.12,-28.116,1.948
-1.18,-1.18187,0.597977,0.215861,0,-6.18628e-10,0.0290748,0.00941822,0,-1557,-0,-0,-1528.46,-29.4849,1.952
-1.18,-1.18187,0.598093,0.215888,0,-4.12419e-10,0.0291651,0.00858208,0,-1559,-0,-0,-1528.82,-30.8745,1.956
-1.18,-1.18187,0.59821,0.215915,0,-2.74946e-10,0.0292554,0.00796708,0,-1561,-0,-0,-1529.18,-31.9324,1.96
-1.18,-1.18187,0.598327,0.215941,0,-1.83297e-10,0.0293457,0.00744192,0,-1562,-0,-0,-1529.54,-32.8556,1.964
-1.18,-1.18187,0.598445,0.21596,0,-1.22198e-10,0.029436,0.00657357,0,-1564,-0,-0,-1529.94,-34.2936,1.968
-1.18,-1.18187,0.598563,0.215976,0,-8.14654e-11,0.0295263,0.00567797,0,-1566,-0,-0,-1530.35,-35.7726,1.972
-1.18,-1.18187,0.598681,0.215991,0,-5.43103e-11,0.0296167,0.00508091,0,-1567,-0,-0,-1530.76,-36.8037,1.976
-1.18,-1.18187,0.598799,0.216007,0,-3.62068e-11,0.0297071,0.00471165,0,-1568,-0,-0,-1531.17,-37.4932,1.98
-1.18,-1.18187,0.598918,0.216026,0,-2.41379e-11,0.0297975,0.00466702,0,-1569,-0,-0,-1531.57,-37.6957,1.984
-1.18,-1.18187,0.599038,0.216045,0,2.87909e-05,0.0298879,0.00469485,0,-1569,-0,0,-1531.97,-37.7896,1.988
-1.18,-1.18187,0.599158,0.216058,0,-9.59699e-06,0.0299784,0.00422395,0,-1571,-0,-0,-1532.4,-38.6316,1.992
-1.18,-1.18187,0.599278,0.216064,0,-6.39799e-06,0.0300688,0.00333421,0,-1572,-0,-0,-1532.86,-40.1019,1.996
-1.18,-1.18187,0.599398,0.216064,0,-4.26533e-06,0.0301593,0.00225159,0,-1575,-0,-0,-1533.34,-41.8615,2
-1.18,-1.18187,0.599519,0.216065,0,-2.84355e-06,0.0302498,0.00152985,0,-1576,-0,-0,-1533.82,-43.0799,2.004
-1.18,-1.18187,0.59964,0.216065,0,-1.8957e-06,0.0303403,0.0010199,0,-1578,-0,-0,-1534.3,-43.9806,2.008
-1.18,-1.18187,0.599762,0.216065,0,-1.2638e-06,0.0304308,0.000679935,0,-1579,-0,-0,-1534.79,-44.6263,2.012
-1.18,-1.18187,0.599884,0.216065,0,-8.42534e-07,0.0305213,0.00045329,0,-1580,-0,-0,-1535.28,-45.102,2.016
-1.18,-1.18187,0.600006,0.216065,0,-5.61689e-07,0.0306119,0.000330984,0,-1581,-0,-0,-1535.76,-45.4213,2.02
-1.18,-1.18187,0.600128,0.216065,0,-3.74459e-07,0.0307024,0.000220656,0,-1581,-0,-0,-1536.25,-45.7226,2.024
-1.18,-1.18187,0.600251,0.216065,0,-2.4964e-07,0.030793,0.000147104,0,-1582,-0,-0,-1536.75,-45.9688,2.028
-1.18,-1.18187,0.600375,0.216065,0,-1.66426e-07,0.0308835,9.80694e-05,0,-1583,-0,-0,-1537.24,-46.1782,2.032
-1.18,-1.18187,0.600499,0.216065,0,-1.10951e-07,0.0309741,6.53796e-05,0,-1584,-0,-0,-1537.73,-46.3631,2.036
-1.18,-1.18187,0.600623,0.216065,0,-7.39673e-08,0.0310647,4.35864e-05,0,-1584,-0,-0,-1538.23,-46.5317,2.04
-1.18,-1.18187,0.600747,0.216065,0,-4.93115e-08,0.0311553,2.90576e-05,0,-1585,-0,-0,-1538.73,-46.6894,2.044
-1.18,-1.18187,0.600872,0.216065,0,-3.28744e-08,0.031246,1.93717e-05,0,-1586,-0,-0,-1539.23,-46.8399,2.048
-1.18,-1.18187,0.600997,0.216066,0,2.8769e-05,0.0313366,7.04963e-05,0,-1586,-0,0,-1539.73,-46.8991,2.052
-1.18,-1.18187,0.601123,0.216065,0,-9.61159e-06,0.0314272,1.82066e-05,0,-1587,-0,-0,-1540.23,-47.1135,2.056
-1.18,-1.18187,0.601248,0.216065,0,-6.40772e-06,0.0315179,1.21378e-05,0,-1587,-0,-0,-1540.73,-47.2586,2.06
-1.18,-1.18187,0.601375,0.216065,0,-4.27182e-06,0.0316085,8.09184e-06,0,-1588,-0,-0,-1541.24,-47.4006,2.064
-1.18,-1.18187,0.601501,0.216065,0,-2.84788e-06,0.0316992,5.39456e-06,0,-1589,-0,-0,-1541.74,-47.5406,2.068
-1.18,-1.18187,0.601628,0.216065,0,-1.89858e-06,0.0317898,3.59637e-06,0,-1589,-0,-0,-1542.25,-47.6793,2.072
-1.18,-1.18187,0.601756,0.216065,0,-1.26572e-06,0.0318805,2.39758e-06,0,-1590,-0,-0,-1542.76,-47.8171,2.076
-1.18,-1.18187,0.601883,0.216065,0,-8.43815e-07,0.0319711,1.59839e-06,0,-1591,-0,-0,-1543.27,-47.9543,2.08
-1.18,-1.18187,0.602011,0.216065,0,-5.62544e-07,0.0320618,1.06559e-06,0,-1591,-0,-0,-1543.78,-48.0911,2.084
-1.18,-1.18187,0.60214,0.216065,0,-3.75029e-07,0.0321525,7.10395e-07,0,-1592,-0,-0,-1544.3,-48.2277,2.088
-1.18,-1.18187,0.602269,0.216065,0,-2.50019e-07,0.0322432,4.73596e-07,0,-1593,-0,-0,-1544.81,-48.3641,2.092
-1.18,-1.18187,0.602398,0.216065,0,-1.6668e-07,0.0323339,3.15731e-07,0,-1593,-0,-0,-1545.33,-48.5003,2.096
-1.18,-1.18187,0.602527,0.216065,0,-1.1112e-07,0.0324245,2.10487e-07,0,-1594,-0,-0,-1545.85,-48.6365,2.1
-1.18,-1.18187,0.602657,0.216065,0,-7.40798e-08,0.0325152,1.40325e-07,0,-1595,-0,-0,-1546.37,-48.7726,2.104
-1.18,-1.18187,0.602787,0.216066,0,-4.93865e-08,0.0326059,5.76754e-05,0,-1595,-0,-0,-1546.89,-48.8224,2.108
-1.18,-1.18187,0.602918,0.216066,0,-3.29244e-08,0.0326966,9.65934e-06,0,-1596,-0,-0,-1547.41,-49.0304,2.112
-1.18,-1.18187,0.603049,0.216066,0,-2.19496e-08,0.0327873,6.43956e-06,0,-1597,-0,-0,-1547.93,-49.1713,2.116
-1.18,-1.18187,0.60318,0.216066,0,-1.46331e-08,0.032878,4.29304e-06,0,-1597,-0,-0,-1548.46,-49.3105,2.12
-1.18,-1.18187,0.603312,0.216066,0,-9.75537e-09,0.0329687,2.86203e-06,0,-1598,-0,-0,-1548.99,-49.4487,2.124
-1.18,-1.18187,0.603444,0.216066,0,-6.50358e-09,0.0330594,1.90802e-06,0,-1599,-0,-0,-1549.51,-49.5862,2.128
-1.18,-1.18187,0.603576,0.216066,0,-4.33572e-09,0.0331501,1.27201e-06,0,-1599,-0,-0,-1550.04,-49.7232,2.132
-1.18,-1.18187,0.603709,0.216066,0,-2.89048e-09,0.0332407,8.48008e-07,0,-1600,-0,-0,-1550.57,-49.8598,2.136
-1.18,-1.18187,0.603842,0.216066,0,-1.92699e-09,0.0333314,5.65339e-07,0,-1601,-0,-0,-1551.11,-49.9963,2.14
-1.18,-1.18187,0.603976,0.216066,0,-1.28466e-09,0.0334221,3.76892e-07,0,-1601,-0,-0,-1551.64,-50.1326,2.144
-1.18,-1.18187,0.60411,0.216066,0,2.87901e-05,0.0335128,2.51262e-07,0,-1602,-0,0,-1552.18,-50.2688,2.148
-1.18,-1.18187,0.604244,0.216066,0,-9.59755e-06,0.0336034,1.67508e-07,0,-1603,-0,-0,-1552.71,-50.4049,2.152
-1.18,-1.18187,0.604379,0.216066,0,-6.39836e-06,0.0336941,1.11672e-07,0,-1603,-0,-0,-1553.25,-50.541,2.156
-1.18,-1.18187,0.604514,0.216066,0,-4.26558e-06,0.0337848,7.44479e-08,0,-1604,-0,-0,-1553.79,-50.677,2.16
-1.18,-1.18187,0.604649,0.216066,0,-2.84372e-06,0.0338754,4.96319e-08,0,-1605,-0,-0,-1554.33,-50.813,2.164
-1.18,-1.18187,0.604785,0.216066,0,-1.89581e-06,0.0339661,3.3088e-08,0,-1605,-0,-0,-1554.88,-50.949,2.168
-1.18,-1.18187,0.604921,0.216066,0,-1.26387e-06,0.0340567,2.20586e-08,0,-1606,-0,-0,-1555.42,-51.085,2.172
-1.18,-1.18187,0.605057,0.216066,0,-8.42583e-07,0.0341473,1.47058e-08,0,-1607,-0,-0,-1555.97,-51.221,2.176
-1.18,-1.18187,0.605194,0.216066,0,-5.61722e-07,0.0342379,5.75917e-05,0,-1607,-0,-0,-1556.51,-51.2705,2.18
-1.18,-1.18187,0.605331,0.216066,0,-3.74481e-07,0.0343286,9.60351e-06,0,-1608,-0,-0,-1557.06,-51.4784,2.184
-1.18,-1.18187,0.605468,0.216066,0,-2.49654e-07,0.0344192,3.51933e-05,0,-1609,-0,-0,-1557.61,-51.5759,2.188
-1.18,-1.18187,0.605606,0.216066,0,-1.66436e-07,0.0345098,-5.32875e-06,0,-1609,-0,-0,-1558.16,-51.7726,2.192
-1.18,-1.18187,0.605744,0.216066,0,-1.10957e-07,0.0346003,-3.5525e-06,0,-1610,-0,-0,-1558.71,-51.9058,2.196
-1.18,-1.18187,0.605883,0.216066,0,-7.39716e-08,0.0346909,-2.36833e-06,0,-1611,-0,-0,-1559.27,-52.0399,2.2
-1.18,-1.18187,0.606022,0.216066,0,-4.93144e-08,0.0347815,-1.57889e-06,0,-1611,-0,-0,-1559.82,-52.1746,2.204
-1.18,-1.18187,0.606161,0.216066,0,-3.28763e-08,0.034872,-1.05259e-06,0,-1612,-0,-0,-1560.38,-52.3096,2.208
-1.18,-1.18187,0.606301,0.216066,0,-2.19175e-08,0.0349626,-7.01728e-07,0,-1613,-0,-0,-1560.94,-52.4449,2.212
-1.18,-1.18187,0.606441,0.216066,0,-1.46117e-08,0.0350531,-4.67819e-07,0,-1614,-0,-0,-1561.5,-52.5803,2.216
-1.18,-1.18187,0.606581,0.216066,0,-9.74112e-09,0.0351436,-3.11879e-07,0,-1614,-0,-0,-1562.06,-52.7159,2.22
-1.18,-1.18187,0.606722,0.216066,0,-6.49408e-09,0.0352341,-2.07919e-07,0,-1615,-0,-0,-1562.62,-52.8515,2.224
-1.18,-1.18187,0.606863,0.216066,0,-4.32939e-09,0.0353246,-1.38613e-07,0,-1616,-0,-0,-1563.19,-52.9871,2.228
-1.18,-1.18187,0.607005,0.216066,0,-2.88626e-09,0.0354151,-9.24086e-08,0,-1616,-0,-0,-1563.76,-53.1227,2.232
-1.18,-1.18187,0.607147,0.216066,0,-1.92417e-09,0.0355055,-6.16058e-08,0,-1617,-0,-0,-1564.32,-53.2584,2.236
-1.18,-1.18187,0.607289,0.216066,0,-1.28278e-09,0.035596,-4.10705e-08,0,-1618,-0,-0,-1564.89,-53.394,2.24
-1.18,-1.18187,0.607431,0.216066,0,-8.55187e-10,0.0356864,-2.73803e-08,0,-1618,-0,-0,-1565.46,-53.5296,2.244
-1.18,-1.18187,0.607574,0.216066,0,-5.70125e-10,0.0357768,-2.88092e-05,0,-1619,-0,-0,-1566.03,-53.7084,2.248
-1.18,-1.18187,0.607718,0.216067,0,-3.80083e-10,0.0358672,6.71667e-05,0,-1620,-0,-0,-1566.6,-53.7,2.252
-1.18,-1.18187,0.607861,0.216067,0,-2.53389e-10,0.0359575,4.47778e-05,0,-1621,-0,-0,-1567.18,-53.8691,2.256
-1.18,-1.18187,0.608005,0.216066,0,-1.68926e-10,0.0360479,1.06092e-06,0,-1621,-0,-0,-1567.76,-54.0703,2.26
-1.18,-1.18187,0.60815,0.216066,0,-1.12617e-10,0.0361382,7.07281e-07,0,-1622,-0,-0,-1568.33,-54.2063,2.264
-1.18,-1.18187,0.608294,0.216066,0,-7.50782e-11,0.0362285,4.71521e-07,0,-1623,-0,-0,-1568.91,-54.3421,2.268
-1.18,-1.18187,0.608439,0.216066,0,-5.00521e-11,0.0363188,3.14347e-07,0,-1623,-0,-0,-1569.49,-54.4778,2.272
-1.18,-1.18187,0.608585,0.216066,0,-3.33681e-11,0.0364091,2.09565e-07,0,-1624,-0,-0,-1570.07,-54.6134,2.276
-1.18,-1.18187,0.608731,0.216066,0,-2.22454e-11,0.0364994,1.3971e-07,0,-1625,-0,-0,-1570.66,-54.7489,2.28
-1.18,-1.18187,0.608877,0.216066,0,-1.48303e-11,0.0365896,9.31399e-08,0,-1626,-0,-0,-1571.24,-54.8843,2.284
-1.18,-1.18187,0.609023,0.216066,0,-9.88684e-12,0.0366798,6.20933e-08,0,-1626,-0,-0,-1571.83,-55.0196,2.288
-1.18,-1.18187,0.60917,0.216066,0,-6.59122e-12,0.03677,4.13955e-08,0,-1627,-0,-0,-1572.42,-55.155,2.292
-1.18,-1.18187,0.609318,0.216066,0,-4.39415e-12,0.0368602,2.7597e-08,0,-1628,-0,-0,-1573.01,-55.2902,2.296
-1.18,-1.18187,0.609465,0.216066,0,-2.92943e-12,0.0369503,1.8398e-08,0,-1629,-0,-0,-1573.6,-55.4255,2.3
-1.18,-1.18187,0.609613,0.216067,0,-1.95296e-12,0.0370404,5.75941e-05,0,-1629,-0,-0,-1574.18,-55.4743,2.304
-1.18,-1.18187,0.609762,0.216066,0,-1.30197e-12,0.0371305,-1.91858e-05,0,-1630,-0,-0,-1574.78,-55.7246,2.308
-1.18,-1.18187,0.60991,0.216067,0,-8.6798e-13,0.0372206,4.47913e-05,0,-1631,-0,-0,-1575.37,-55.7637,2.312
-1.18,-1.18187,0.610059,0.216067,0,-5.78653e-13,0.0373107,1.06996e-06,0,-1631,-0,-0,-1575.97,-55.9644,2.316
-1.18,-1.18187,0.610209,0.216067,0,-3.85769e-13,0.0374007,7.1331e-07,0,-1632,-0,-0,-1576.57,-56.1,2.32
-1.18,-1.18187,0.610359,0.216067,0,-2.57179e-13,0.0374907,4.7554e-07,0,-1633,-0,-0,-1577.17,-56.2353,2.324
-1.18,-1.18187,0.610509,0.216067,0,-1.71453e-13,0.0375806,3.17027e-07,0,-1634,-0,-0,-1577.77,-56.3705,2.328
-1.18,-1.18187,0.610659,0.216067,0,-1.14302e-13,0.0376706,2.11351e-07,0,-1634,-0,-0,-1578.37,-56.5056,2.332
-1.18,-1.18187,0.61081,0.216067,0,-7.62013e-14,0.0377605,1.40901e-07,0,-1635,-0,-0,-1578.97,-56.6405,2.336
-1.18,-1.18187,0.610961,0.216067,0,-5.08009e-14,0.0378504,9.39338e-08,0,-1636,-0,-0,-1579.58,-56.7754,2.34
-1.18,-1.18187,0.611113,0.216067,0,-3.38672e-14,0.0379403,6.26225e-08,0,-1637,-0,-0,-1580.18,-56.9103,2.344
-1.18,-1.18187,0.611265,0.216067,0,-2.25782e-14,0.0380301,4.17484e-08,0,-1637,-0,-0,-1580.79,-57.0451,2.348
-1.18,-1.18187,0.611417,0.216067,0,-1.50521e-14,0.0381199,2.88188e-05,0,-1638,-0,-0,-1581.4,-57.1366,2.352
-1.18,-1.18187,0.61157,0.216067,0,2.87909e-05,0.0382097,1.92125e-05,0,-1639,-0,0,-1582.01,-57.2857,2.356
-1.18,-1.18187,0.611723,0.216067,0,-9.59697e-06,0.0382994,1.28083e-05,0,-1640,-0,-0,-1582.62,-57.4299,2.36
-1.18,-1.18187,0.611876,0.216067,0,-6.39798e-06,0.0383891,8.53889e-06,0,-1640,-0,-0,-1583.24,-57.5708,2.364
-1.18,-1.18187,0.61203,0.216067,0,-4.26532e-06,0.0384788,5.69259e-06,0,-1641,-0,-0,-1583.85,-57.7096,2.368
-1.18,-1.18187,0.612184,0.216068,0,-2.84355e-06,0.0385684,6.13769e-05,0,-1642,-0,-0,-1584.46,-57.7606,2.372
-1.18,-1.18187,0.612338,0.216067,0,-1.8957e-06,0.038658,-1.66639e-05,0,-1643,-0,-0,-1585.09,-58.0121,2.376
-1.18,-1.18187,0.612493,0.216067,0,-1.2638e-06,0.0387476,-1.11093e-05,0,-1643,-0,-0,-1585.7,-58.1381,2.38
-1.18,-1.18187,0.612648,0.216068,0,2.79484e-05,0.0388372,5.01757e-05,0,-1644,-0,0,-1586.32,-58.1805,2.384
-1.18,-1.18187,0.612804,0.216067,0,-1.01587e-05,0.0389267,4.65952e-06,0,-1645,-0,-0,-1586.95,-58.383,2.388
-1.18,-1.18187,0.61296,0.216067,0,-6.77244e-06,0.0390162,3.10635e-06,0,-1646,-0,-0,-1587.57,-58.5196,2.392
-1.18,-1.18187,0.613116,0.216067,0,-4.51496e-06,0.0391056,2.0709e-06,0,-1646,-0,-0,-1588.19,-58.6553,2.396
-1.18,-1.18187,0.613273,0.216067,0,-3.00997e-06,0.039195,1.3806e-06,0,-1647,-0,-0,-1588.82,-58.7904,2.4
-1.18,-1.18187,0.61343,0.216067,0,-2.00665e-06,0.0392844,9.20399e-07,0,-1648,-0,-0,-1589.45,-58.9252,2.404
-1.18,-1.18187,0.613587,0.216067,0,-1.33777e-06,0.0393737,6.13599e-07,0,-1649,-0,-0,-1590.08,-59.0597,2.408
-1.18,-1.18187,0.613745,0.216068,0,-8.91844e-07,0.039463,2.92e-05,0,-1649,-0,-0,-1590.71,-59.1507,2.412
-1.18,-1.18187,0.613903,0.216068,0,-5.94563e-07,0.0395523,1.94667e-05,0,-1650,-0,-0,-1591.34,-59.2992,2.416
-1.18,-1.18187,0.614061,0.216068,0,-3.96375e-07,0.0396415,1.29778e-05,0,-1651,-0,-0,-1591.97,-59.4428,2.42
-1.18,-1.18187,0.61422,0.216068,0,-2.6425e-07,0.0397307,8.65185e-06,0,-1652,-0,-0,-1592.61,-59.5831,2.424
-1.18,-1.18187,0.614379,0.216068,0,-1.76167e-07,0.0398199,5.7679e-06,0,-1652,-0,-0,-1593.24,-59.7211,2.428
-1.18,-1.18187,0.614538,0.216068,0,-1.17445e-07,0.039909,3.26362e-05,0,-1653,-0,-0,-1593.88,-59.8145,2.432
-1.18,-1.18187,0.614698,0.216068,0,-7.82963e-08,0.039998,2.17575e-05,0,-1654,-0,-0,-1594.52,-59.9644,2.436
-1.18,-1.18187,0.614858,0.216068,0,-5.21976e-08,0.0400871,1.4505e-05,0,-1655,-0,-0,-1595.16,-60.1089,2.44
-1.18,-1.18187,0.615019,0.216068,0,-3.47984e-08,0.0401761,-1.91209e-05,0,-1656,-0,-0,-1595.8,-60.2928,2.444
-1.18,-1.18187,0.61518,0.216068,0,2.87677e-05,0.040265,4.48346e-05,0,-1656,-0,0,-1596.45,-60.3303,2.448
-1.18,-1.18187,0.615341,0.216068,0,-9.61244e-06,0.0403539,2.98897e-05,0,-1657,-0,-0,-1597.09,-60.4861,2.452
-1.18,-1.18187,0.615503,0.216069,0,-6.40829e-06,0.0404428,4.87174e-05,0,-1658,-0,-0,-1597.74,-60.5911,2.456
-1.18,-1.18187,0.615664,0.216069,0,-4.2722e-06,0.0405316,6.12692e-05,0,-1659,-0,-0,-1598.38,-60.7055,2.46
-1.18,-1.18187,0.615827,0.21607,0,-2.84813e-06,0.0406204,9.8428e-05,0,-1659,-0,-0,-1599.03,-60.783,2.464
-1.18,-1.18187,0.615989,0.21607,0,-1.89875e-06,0.0407092,9.44096e-05,0,-1660,-0,-0,-1599.68,-60.9221,2.468
-1.18,-1.18187,0.616152,0.216072,0,-1.26584e-06,0.0407979,0.000178103,0,-1661,-0,-0,-1600.32,-60.9296,2.472
-1.18,-1.18187,0.616316,0.216076,0,-8.43891e-07,0.0408865,0.000464227,0,-1661,-0,-0,-1600.96,-60.6334,2.476
-1.18,-1.18187,0.61648,0.216084,0,2.82283e-05,0.0409751,0.00100047,0,-1661,-0,0,-1601.58,-59.962,2.48
-1.18,-1.18187,0.616644,0.216098,0,-9.97204e-06,0.0410637,0.00184741,0,-1661,-0,-0,-1602.18,-58.8244,2.484
-1.18,-1.18187,0.616808,0.216119,0,-6.64802e-06,0.0411522,0.00293027,0,-1660,-0,-0,-1602.76,-57.3329,2.488
-1.18,-1.18187,0.616973,0.216151,0,-4.43202e-06,0.0412407,0.00465986,0,-1658,-0,-0,-1603.29,-54.8712,2.492
-1.18,-1.18187,0.617138,0.216193,0,-2.95468e-06,0.0413291,0.00661907,0,-1655,-0,-0,-1603.78,-52.0651,2.496
-1.18,-1.18187,0.617303,0.216246,0,2.68211e-05,0.0414175,0.00884651,0,-1653,-0,0,-1604.23,-48.8565,2.5
-1.18,-1.18187,0.617469,0.216313,0,-1.09102e-05,0.0415058,0.0114255,0,-1649,-0,-0,-1604.63,-45.1204,2.504
-1.18,-1.18187,0.617636,0.216393,0,-7.27344e-06,0.0415941,0.0142965,0,-1645,-0,-0,-1604.97,-40.9464,2.508
-1.18,-1.18187,0.617802,0.216487,0,-4.84896e-06,0.0416823,0.0174197,0,-1641,-0,-0,-1605.26,-36.3939,2.512
-1.18,-1.18187,0.617969,0.216598,0,-3.23264e-06,0.0417705,0.0208262,0,-1636,-0,-0,-1605.48,-31.4164,2.516
-1.18,-1.18187,0.618136,0.216725,0,-2.15509e-06,0.0418587,0.0244792,0,-1631,-0,-0,-1605.64,-26.0692,2.52
-1.18,-1.18187,0.618304,0.216864,0,-1.43673e-06,0.0419468,0.0278646,0,-1626,-0,-0,-1605.76,-21.1232,2.524
-1.18,-1.18187,0.618472,0.217018,0,-9.5782e-07,0.0420348,0.031446,0,-1621,-0,-0,-1605.81,-15.8832,2.528
-1.18,-1.18187,0.61864,0.217185,0,-2.94295e-05,0.0421228,0.03487,0,-1616,-0,-0,-1605.82,-10.8792,2.532
-1.18,-1.18187,0.618809,0.217373,0,9.17128e-06,0.0422107,0.0388801,0,-1610,-0,0,-1605.74,-4.99589,2.536
-1.18,-1.18187,0.618978,0.217571,0,6.11418e-06,0.0422986,0.0424173,0,-1605,-0,0,-1605.63,0.178003,2.54
-1.18,-1.18187,0.619147,0.217783,0,4.07612e-06,0.0423865,0.0460134,0,-1600,-0,0,-1605.46,5.44042,2.544
-1.18,-1.18187,0.619317,0.218011,0,2.71742e-06,0.0424742,0.04962,0,-1594,-0,0,-1605.22,10.7187,2.548
-1.18,-1.18187,0.619487,0.218249,0,1.81161e-06,0.042562,0.0529745,0,-1589,-0,0,-1604.95,15.6189,2.552
-1.18,-1.18187,0.619657,0.218501,0,1.20774e-06,0.0426497,0.0562762,0,-1584,-0,0,-1604.63,20.4398,2.556
-1.18,-1.18187,0.619828,0.218761,0,8.0516e-07,0.0427373,0.059197,0,-1579,-0,0,-1604.27,24.6896,2.56
-1.18,-1.18187,0.619999,0.219031,0,5.36773e-07,0.0428249,0.0619792,0,-1575,-0,0,-1603.87,28.7315,2.564
-1.18,-1.18187,0.620171,0.219309,0,3.57849e-07,0.0429124,0.0644386,0,-1571,-0,0,-1603.45,32.2893,2.568
-1.18,-1.18187,0.620343,0.219594,0,2.38566e-07,0.0429998,0.0667116,0,-1567,-0,0,-1603,35.5676,2.572
-1.18,-1.18187,0.620515,0.219884,0,1.59044e-07,0.0430873,0.0686587,0,-1564,-0,0,-1602.52,38.3572,2.576
-1.18,-1.18187,0.620687,0.220179,0,1.06029e-07,0.0431746,0.0703887,0,-1561,-0,0,-1602.03,40.8212,2.58
-1.18,-1.18187,0.62086,0.22048,0,7.06862e-08,0.0432619,0.0719739,0,-1558,-0,0,-1601.52,43.068,2.584
-1.18,-1.18187,0.621033,0.220786,0,4.71241e-08,0.0433491,0.0734626,0,-1555,-0,0,-1600.99,45.1702,2.588
-1.18,-1.18187,0.621207,0.221093,0,3.14161e-08,0.0434363,0.0745414,0,-1553,-0,0,-1600.46,46.6576,2.592
-1.18,-1.18187,0.621381,0.221405,0,2.09441e-08,0.0435235,0.0757213,0,-1551,-0,0,-1599.9,48.2967,2.596
-1.18,-1.18187,0.621555,0.221714,0,1.39627e-08,0.0436105,0.0762487,0,-1550,-0,0,-1599.36,48.9573,2.6
-1.18,-1.18187,0.62173,0.222018,0,9.30847e-09,0.0436975,0.0761685,0,-1550,-0,0,-1598.85,48.7064,2.604
-1.18,-1.18187,0.621905,0.222322,0,6.20565e-09,0.0437845,0.076115,0,-1549,-0,0,-1598.33,48.4958,2.608
-1.18,-1.18187,0.62208,0.222627,0,4.1371e-09,0.0438714,0.0761081,0,-1549,-0,0,-1597.81,48.3552,2.612
-1.18,-1.18187,0.622256,0.222927,0,5.75846e-05,0.0439582,0.0758157,0,-1549,-0,0,-1597.31,47.7862,2.616
-1.18,-1.18187,0.622432,0.223233,0,-1.91921e-05,0.044045,0.0759949,0,-1548,-0,-0,-1596.8,47.9249,2.62
-1.18,-1.18187,0.622608,0.223532,0,-1.27947e-05,0.0441317,0.0755962,0,-1549,-0,-0,-1596.3,47.1968,2.624
-1.18,-1.18187,0.622785,0.223831,0,-8.52983e-06,0.0442183,0.0753016,0,-1549,-0,-0,-1595.82,46.6249,2.628
-1.18,-1.18187,0.622962,0.224127,0,-5.68655e-06,0.0443049,0.0748749,0,-1549,-0,-0,-1595.34,45.855,2.632
-1.18,-1.18187,0.623139,0.224418,0,-3.79103e-06,0.0443915,0.0741586,0,-1550,-0,-0,-1594.89,44.6507,2.636
-1.18,-1.18187,0.623317,0.224701,0,-2.52736e-06,0.0444779,0.0730476,0,-1551,-0,-0,-1594.46,42.8545,2.64
-1.18,-1.18187,0.623495,0.224977,0,-1.6849e-06,0.0445643,0.0717024,0,-1553,-0,-0,-1594.07,40.707,2.644
-1.18,-1.18187,0.623673,0.225248,0,-1.12327e-06,0.0446507,0.0703449,0,-1555,-0,-0,-1593.7,38.5413,2.648
-1.18,-1.18187,0.623852,0.225509,0,-7.48846e-07,0.044737,0.0686625,0,-1557,-0,-0,-1593.37,35.8883,2.652
-1.18,-1.18187,0.624031,0.22576,0,-4.99231e-07,0.0448232,0.0667348,0,-1560,-0,-0,-1593.08,32.8674,2.656
-1.18,-1.18187,0.624211,0.226009,0,-3.32821e-07,0.0449093,0.0651618,0,-1562,-0,-0,-1592.81,30.3786,2.66
-1.18,-1.18187,0.624391,0.226249,0,-2.90128e-05,0.0449954,0.0635084,0,-1564,-0,-0,-1592.57,27.7695,2.664
-1.18,-1.18187,0.624571,0.226487,0,9.44905e-06,0.0450814,0.0621183,0,-1566,-0,0,-1592.34,25.5553,2.668
-1.18,-1.18187,0.624751,0.226717,0,6.29937e-06,0.0451674,0.0606158,0,-1568,-0,0,-1592.14,23.1726,2.672
-1.18,-1.18187,0.624932,0.226948,0,4.19958e-06,0.0452533,0.0596141,0,-1570,-0,0,-1591.94,21.5412,2.676
-1.18,-1.18187,0.625113,0.227172,0,2.79972e-06,0.0453391,0.0584568,0,-1572,-0,0,-1591.76,19.6766,2.68
-1.18,-1.18187,0.625295,0.227396,0,1.86648e-06,0.0454249,0.0576565,0,-1573,-0,0,-1591.59,18.3475,2.684
-1.18,-1.18187,0.625477,0.22762,0,1.24432e-06,0.0455105,0.0570366,0,-1574,-0,0,-1591.43,17.2891,2.688
-1.18,-1.18187,0.625659,0.227839,0,8.29547e-07,0.0455962,0.0563354,0,-1575,-0,0,-1591.28,16.1089,2.692
-1.18,-1.18187,0.625841,0.228065,0,5.53031e-07,0.0456817,0.0563574,0,-1575,-0,0,-1591.11,16.0136,2.696
-1.18,-1.18187,0.626024,0.22828,0,3.68687e-07,0.0457672,0.0554796,0,-1576,-0,0,-1590.98,14.5686,2.7
-1.18,-1.18187,0.626208,0.228493,0,2.45792e-07,0.0458526,0.0547216,0,-1577,-0,0,-1590.86,13.3035,2.704
-1.18,-1.18187,0.626391,0.228705,0,1.63861e-07,0.045938,0.0541875,0,-1578,-0,0,-1590.74,12.3743,2.708
-1.18,-1.18187,0.626575,0.228926,0,1.09241e-07,0.0460232,0.0545512,0,-1577,-0,0,-1590.6,12.7919,2.712
-1.18,-1.18187,0.626759,0.229144,0,7.28271e-08,0.0461085,0.0545057,0,-1577,-0,0,-1590.46,12.5959,2.716
-1.18,-1.18187,0.626944,0.229371,0,4.85514e-08,0.0461936,0.0552528,0,-1576,-0,0,-1590.29,13.5888,2.72
-1.18,-1.18187,0.627129,0.229593,0,3.23676e-08,0.0462787,0.0553766,0,-1576,-0,0,-1590.14,13.6468,2.724
-1.18,-1.18187,0.627314,0.229834,0,2.15784e-08,0.0463636,0.056985,0,-1573,-0,0,-1589.92,15.932,2.728
-1.18,-1.18187,0.6275,0.230071,0,1.43856e-08,0.0464486,0.0577118,0,-1572,-0,0,-1589.72,16.8948,2.732
-1.18,-1.18187,0.627686,0.230311,0,9.59041e-09,0.0465334,0.058513,0,-1571,-0,0,-1589.5,17.9694,2.736
-1.18,-1.18187,0.627872,0.230543,0,6.3936e-09,0.0466182,0.0582986,0,-1571,-0,0,-1589.32,17.5206,2.74
-1.18,-1.18187,0.628059,0.230787,0,4.2624e-09,0.0467029,0.0592497,0,-1570,-0,0,-1589.09,18.8202,2.744
-1.18,-1.18187,0.628246,0.231028,0,2.8416e-09,0.0467875,0.0595671,0,-1569,-0,0,-1588.87,19.1693,2.748
-1.18,-1.18187,0.628433,0.231266,0,1.8944e-09,0.0468721,0.0594907,0,-1569,-0,0,-1588.67,18.928,2.752
-1.18,-1.18187,0.628621,0.231513,0,1.26293e-09,0.0469566,0.0603036,0,-1568,-0,0,-1588.43,20.0205,2.756
-1.18,-1.18187,0.628809,0.231762,0,8.41956e-10,0.047041,0.0609607,0,-1567,-0,0,-1588.19,20.8795,2.76
-1.18,-1.18187,0.628997,0.232012,0,5.61304e-10,0.0471253,0.0614851,0,-1566,-0,0,-1587.94,21.5396,2.764
-1.18,-1.18187,0.629186,0.23227,0,3.74203e-10,0.0472096,0.0624393,0,-1564,-0,0,-1587.66,22.8445,2.768
-1.18,-1.18187,0.629375,0.232528,0,2.49468e-10,0.0472938,0.0631042,0,-1563,-0,0,-1587.39,23.7157,2.772
-1.18,-1.18187,0.629564,0.232785,0,1.66312e-10,0.0473779,0.0635475,0,-1562,-0,0,-1587.11,24.2545,2.776
-1.18,-1.18187,0.629754,0.233045,0,-2.87908e-05,0.0474619,0.0640446,0,-1561,-0,-0,-1586.83,24.874,2.78
-1.18,-1.18187,0.629944,0.233303,0,9.59705e-06,0.0475459,0.0641168,0,-1561,-0,0,-1586.56,24.8565,2.784
-1.18,-1.18187,0.630134,0.23356,0,6.39803e-06,0.0476297,0.064165,0,-1561,-0,0,-1586.3,24.8029,2.788
-1.18,-1.18187,0.630325,0.233814,0,4.26536e-06,0.0477135,0.0639668,0,-1561,-0,0,-1586.04,24.3799,2.792
-1.18,-1.18187,0.630516,0.234068,0,2.84357e-06,0.0477972,0.0638634,0,-1561,-0,0,-1585.79,24.0993,2.796
-1.18,-1.18187,0.630707,0.234316,0,1.89571e-06,0.0478809,0.0631611,0,-1562,-0,0,-1585.57,22.9204,2.8
-1.18,-1.18187,0.630899,0.234563,0,1.26381e-06,0.0479644,0.0627217,0,-1563,-0,0,-1585.34,22.1359,2.804
-1.18,-1.18187,0.631091,0.234804,0,8.42539e-07,0.0480479,0.0619105,0,-1564,-0,0,-1585.15,20.7939,2.808
-1.18,-1.18187,0.631283,0.235046,0,5.61693e-07,0.0481313,0.0613986,0,-1565,-0,0,-1584.95,19.9008,2.812
-1.18,-1.18187,0.631476,0.235279,0,3.74462e-07,0.0482147,0.0604238,0,-1566,-0,0,-1584.79,18.3138,2.816
-1.18,-1.18187,0.631669,0.235507,0,2.49641e-07,0.0482979,0.0592846,0,-1568,-0,0,-1584.65,16.48,2.82
-1.18,-1.18187,0.631862,0.235732,0,1.66428e-07,0.0483811,0.0582659,0,-1569,-0,0,-1584.52,14.8273,2.824
-1.18,-1.18187,0.632056,0.23595,0,1.10952e-07,0.0484641,0.057011,0,-1571,-0,0,-1584.42,12.8203,2.828
-1.18,-1.18187,0.63225,0.236163,0,7.39678e-08,0.0485471,0.0557426,0,-1573,-0,0,-1584.35,10.7931,2.832
-1.18,-1.18187,0.632444,0.23637,0,4.93119e-08,0.0486301,0.0544075,0,-1575,-0,0,-1584.3,8.66613,2.836
-1.18,-1.18187,0.632639,0.236572,0,3.28746e-08,0.0487129,0.0530855,0,-1577,-0,0,-1584.27,6.55899,2.84
-1.18,-1.18187,0.632834,0.23677,0,2.19164e-08,0.0487956,0.0519164,0,-1579,-0,0,-1584.26,4.68108,2.844
-1.18,-1.18187,0.633029,0.236964,0,1.46109e-08,0.0488783,0.0507626,0,-1581,-0,0,-1584.26,2.82646,2.848
-1.18,-1.18187,0.633225,0.237157,0,9.74061e-09,0.0489609,0.0499071,0,-1582,-0,0,-1584.27,1.41929,2.852
-1.18,-1.18187,0.633421,0.237354,0,6.49374e-09,0.0490434,0.049711,0,-1583,-0,0,-1584.27,1.00143,2.856
-1.18,-1.18187,0.633617,0.237542,0,4.32916e-09,0.0491258,0.0487741,0,-1584,-0,0,-1584.3,-0.527488,2.86
-1.18,-1.18187,0.633814,0.237736,0,2.88611e-09,0.0492081,0.0486966,0,-1585,-0,0,-1584.31,-0.767303,2.864
-1.18,-1.18187,0.634011,0.237937,0,1.92407e-09,0.0492904,0.0492207,0,-1584,-0,0,-1584.3,-0.104488,2.868
-1.18,-1.18187,0.634208,0.238137,0,1.28271e-09,0.0493725,0.0494838,0,-1584,-0,0,-1584.29,0.166835,2.872
-1.18,-1.18187,0.634406,0.238343,0,8.55143e-10,0.0494546,0.0501774,0,-1583,-0,0,-1584.25,1.08412,2.876
-1.18,-1.18187,0.634604,0.238556,0,5.70095e-10,0.0495366,0.051158,0,-1581,-0,0,-1584.19,2.4321,2.88
-1.18,-1.18187,0.634802,0.238768,0,3.80064e-10,0.0496185,0.0517542,0,-1580,-0,0,-1584.14,3.20351,2.884
-1.18,-1.18187,0.635001,0.238983,0,2.53376e-10,0.0497003,0.0524971,0,-1579,-0,0,-1584.07,4.1952,2.888
-1.18,-1.18187,0.6352,0.2392,0,1.68917e-10,0.049782,0.0530212,0,-1579,-0,0,-1584,4.85874,2.892
-1.18,-1.18187,0.635399,0.239421,0,1.12611e-10,0.0498637,0.0537736,0,-1578,-0,0,-1583.91,5.86498,2.896
-1.18,-1.18187,0.635599,0.239648,0,7.50743e-11,0.0499452,0.0547935,0,-1576,-0,0,-1583.8,7.27248,2.9
-1.18,-1.18187,0.635799,0.23988,0,5.00495e-11,0.0500267,0.0558765,0,-1574,-0,0,-1583.67,8.77478,2.904
-1.18,-1.18187,0.635999,0.240123,0,3.33663e-11,0.050108,0.0574335,0,-1572,-0,0,-1583.51,10.9881,2.908
-1.18,-1.18187,0.6362,0.240375,0,2.22442e-11,0.0501893,0.0593063,0,-1569,-0,0,-1583.3,13.6755,2.912
-1.18,-1.18187,0.636401,0.240636,0,1.48295e-11,0.0502705,0.0613035,0,-1566,-0,0,-1583.06,16.5495,2.916
-1.18,-1.18187,0.636602,0.240904,0,9.88633e-12,0.0503516,0.0632108,0,-1563,-0,0,-1582.79,19.2887,2.92
-1.18,-1.18187,0.636803,0.241181,0,6.59088e-12,0.0504326,0.0652308,0,-1560,-0,0,-1582.49,22.1973,2.924
-1.18,-1.18187,0.637005,0.241464,0,4.39392e-12,0.0505135,0.067067,0,-1557,-0,0,-1582.17,24.8302,2.928
-1.18,-1.18187,0.637208,0.241753,0,2.92928e-12,0.0505944,0.0687517,0,-1554,-0,0,-1581.82,27.2361,2.932
-1.18,-1.18187,0.63741,0.242043,0,1.95285e-12,0.0506751,0.0700189,0,-1552,-0,0,-1581.47,29.0157,2.936
-1.18,-1.18187,0.637613,0.242335,0,1.3019e-12,0.0507557,0.0710364,0,-1550,-0,0,-1581.11,30.4209,2.94
-1.18,-1.18187,0.637816,0.242635,0,8.67935e-13,0.0508363,0.0723481,0,-1548,-0,0,-1580.72,32.2677,2.944
-1.18,-1.18187,0.63802,0.24294,0,5.78624e-13,0.0509168,0.0736545,0,-1546,-0,0,-1580.32,34.1066,2.948
-1.18,-1.18187,0.638223,0.243244,0,3.85749e-13,0.0509971,0.0744678,0,-1544,-0,0,-1579.92,35.206,2.952
-1.18,-1.18187,0.638428,0.243555,0,2.57166e-13,0.0510774,0.0755282,0,-1542,-0,0,-1579.49,36.6763,2.956
-1.18,-1.18187,0.638632,0.243866,0,1.71444e-13,0.0511576,0.0762352,0,-1541,-0,0,-1579.07,37.6164,2.96
-1.18,-1.18187,0.638837,0.244177,0,1.14296e-13,0.0512376,0.0767929,0,-1540,-0,0,-1578.64,38.3328,2.964
-1.18,-1.18187,0.639042,0.244492,0,7.61973e-14,0.0513176,0.077395,0,-1539,-0,0,-1578.2,39.116,2.968
-1.18,-1.18187,0.639247,0.244804,0,5.07982e-14,0.0513975,0.0776524,0,-1538,-0,0,-1577.77,39.3824,2.972
-1.18,-1.18187,0.639453,0.245123,0,3.38655e-14,0.0514773,0.0783423,0,-1537,-0,0,-1577.32,40.2975,2.976
-1.18,-1.18187,0.639659,0.245442,0,2.2577e-14,0.051557,0.078831,0,-1535,-0,0,-1576.87,40.911,2.98
-1.18,-1.18187,0.639866,0.245768,0,1.50513e-14,0.0516366,0.0796463,0,-1534,-0,0,-1576.39,42.0145,2.984
-1.18,-1.18187,0.640072,0.246094,0,-2.87909e-05,0.0517161,0.0803049,0,-1533,-0,-0,-1575.91,42.8832,2.988
-1.18,-1.18187,0.640279,0.246425,0,9.59697e-06,0.0517956,0.0810895,0,-1531,-0,0,-1575.42,43.941,2.992
-1.18,-1.18187,0.640487,0.246749,0,6.39798e-05,0.0518749,0.0810656,0,-1531,-0,0,-1574.95,43.7861,2.996
-1.18,-1.18187,0.640694,0.247072,0,-1.49286e-05,0.0519541,0.080992,0,-1530,-0,-0,-1574.49,43.5569,3
-1.18,-1.18187,0.640902,0.247392,0,-9.95242e-06,0.0520332,0.0806839,0,-1531,-0,-0,-1574.04,42.976,3.004
-1.18,-1.18187,0.641111,0.247706,0,-6.63495e-06,0.0521122,0.0799026,0,-1531,-0,-0,-1573.62,41.6856,3.008
-1.18,-1.18187,0.641319,0.248017,0,-4.4233e-06,0.0521912,0.079209,0,-1532,-0,-0,-1573.21,40.5268,3.012
-1.18,-1.18187,0.641528,0.248324,0,-2.94886e-06,0.05227,0.0784299,0,-1533,-0,-0,-1572.81,39.24,3.016
-1.18,-1.18187,0.641737,0.248623,0,-1.96591e-06,0.0523487,0.0771908,0,-1535,-0,-0,-1572.46,37.2631,3.02
-1.18,-1.18187,0.641947,0.248918,0,-1.31061e-06,0.0524273,0.0760192,0,-1536,-0,-0,-1572.12,35.3878,3.024
-1.18,-1.18187,0.642157,0.249203,0,-8.73738e-07,0.0525058,0.0744608,0,-1538,-0,-0,-1571.81,32.9324,3.028
-1.18,-1.18187,0.642367,0.249484,0,-5.82492e-07,0.0525843,0.0729899,0,-1540,-0,-0,-1571.53,30.6085,3.032
-1.18,-1.18187,0.642577,0.24975,0,-2.91793e-05,0.0526626,0.070829,0,-1544,-0,-0,-1571.31,27.2496,3.036
-1.18,-1.18187,0.642788,0.250007,0,9.33809e-06,0.0527408,0.0686973,0,-1547,-0,0,-1571.12,23.9348,3.04
-1.18,-1.18187,0.642999,0.250256,0,6.22539e-06,0.0528189,0.0665277,0,-1550,-0,0,-1570.97,20.5632,3.044
-1.18,-1.18187,0.643211,0.250498,0,4.15026e-06,0.0528969,0.0644767,0,-1553,-0,0,-1570.85,17.3696,3.048
-1.18,-1.18187,0.643423,0.250735,0,2.76684e-06,0.0529749,0.062735,0,-1556,-0,0,-1570.75,14.6402,3.052
-1.18,-1.18187,0.643635,0.25097,0,1.84456e-06,0.0530527,0.0614012,0,-1558,-0,0,-1570.66,12.5227,3.056
-1.18,-1.18187,0.643847,0.251201,0,1.22971e-06,0.0531304,0.0602528,0,-1559,-0,0,-1570.58,10.6837,3.06
-1.18,-1.18187,0.64406,0.251439,0,8.19805e-07,0.053208,0.0599479,0,-1560,-0,0,-1570.48,10.1099,3.064
-1.18,-1.18187,0.644273,0.251676,0,5.46537e-07,0.0532855,0.0597159,0,-1560,-0,0,-1570.39,9.64554,3.068
-1.18,-1.18187,0.644486,0.251916,0,3.64358e-07,0.0533629,0.0597915,0,-1560,-0,0,-1570.28,9.64287,3.072
-1.18,-1.18187,0.6447,0.252156,0,2.42905e-07,0.0534402,0.0598707,0,-1560,-0,0,-1570.18,9.64574,3.076
-1.18,-1.18187,0.644913,0.252399,0,1.61937e-07,0.0535174,0.0602114,0,-1560,-0,0,-1570.06,10.041,3.08
-1.18,-1.18187,0.645128,0.25264,0,5.76898e-05,0.0535945,0.060237,0,-1559,-0,0,-1569.95,9.9638,3.084
-1.18,-1.18187,0.645342,0.252888,0,-1.9122e-05,0.0536714,0.0607723,0,-1559,-0,-0,-1569.82,10.6513,3.088
-1.18,-1.18187,0.645557,0.253134,0,-1.2748e-05,0.0537483,0.0610716,0,-1558,-0,-0,-1569.69,10.9849,3.092
-1.18,-1.18187,0.645772,0.253384,0,-8.49866e-06,0.0538251,0.0614726,0,-1558,-0,-0,-1569.55,11.4714,3.096
-1.18,-1.18187,0.645988,0.253637,0,-5.66577e-06,0.0539017,0.0621143,0,-1557,-0,-0,-1569.4,12.3189,3.1
-1.18,-1.18187,0.646203,0.253897,0,-3.77718e-06,0.0539783,0.0630891,0,-1555,-0,-0,-1569.22,13.6662,3.104
-1.18,-1.18187,0.64642,0.254165,0,-2.51812e-06,0.0540547,0.0643436,0,-1553,-0,-0,-1569.02,15.4333,3.108
-1.18,-1.18187,0.646636,0.254437,0,2.71122e-05,0.0541311,0.0656118,0,-1551,-0,0,-1568.79,17.221,3.112
-1.18,-1.18187,0.646853,0.254713,0,-1.07161e-05,0.0542073,0.0666875,0,-1549,-0,-0,-1568.56,18.7204,3.116
-1.18,-1.18187,0.64707,0.254999,0,-7.14409e-06,0.0542834,0.068326,0,-1547,-0,-0,-1568.28,21.0639,3.12
-1.18,-1.18187,0.647287,0.255288,0,-4.76273e-06,0.0543594,0.0696199,0,-1545,-0,-0,-1568,22.8907,3.124
-1.18,-1.18187,0.647504,0.255583,0,-3.17515e-06,0.0544353,0.0709719,0,-1542,-0,-0,-1567.69,24.8049,3.128
-1.18,-1.18187,0.647722,0.255882,0,-2.11677e-06,0.0545111,0.0722764,0,-1540,-0,-0,-1567.36,26.6478,3.132
-1.18,-1.18187,0.647941,0.256188,0,-1.41118e-06,0.0545868,0.0736642,0,-1538,-0,-0,-1567.01,28.6161,3.136
-1.18,-1.18187,0.648159,0.256502,0,-9.40786e-07,0.0546624,0.0752516,0,-1535,-0,-0,-1566.63,30.8838,3.14
-1.18,-1.18187,0.648378,0.25682,0,5.69547e-05,0.0547379,0.0767418,0,-1533,-0,0,-1566.23,33.0059,3.144
-1.18,-1.18187,0.648597,0.257147,0,-1.96121e-05,0.0548132,0.0783398,0,-1530,-0,-0,-1565.8,35.2899,3.148
-1.18,-1.18187,0.648816,0.257474,0,-1.30747e-05,0.0548885,0.0795491,0,-1528,-0,-0,-1565.37,36.991,3.152
-1.18,-1.18187,0.649036,0.257804,0,-8.71648e-06,0.0549636,0.0804993,0,-1526,-0,-0,-1564.93,38.3036,3.156
-1.18,-1.18187,0.649256,0.258131,0,-5.81099e-06,0.0550386,0.0809312,0,-1525,-0,-0,-1564.5,38.8389,3.16
-1.18,-1.18187,0.649476,0.258454,0,-3.87399e-06,0.0551135,0.0808449,0,-1525,-0,-0,-1564.09,38.597,3.164
-1.18,-1.18187,0.649697,0.258779,0,-2.58266e-06,0.0551883,0.0809888,0,-1524,-0,-0,-1563.67,38.7008,3.168
-1.18,-1.18187,0.649918,0.2591,0,-1.72177e-06,0.055263,0.0807681,0,-1525,-0,-0,-1563.27,38.2577,3.172
-1.18,-1.18187,0.650139,0.259423,0,-1.14785e-06,0.0553376,0.0807073,0,-1524,-0,-0,-1562.87,38.0546,3.176
-1.18,-1.18187,0.650361,0.259741,0,-7.65233e-07,0.055412,0.0802925,0,-1525,-0,-0,-1562.48,37.3208,3.18
-1.18,-1.18187,0.650582,0.260062,0,-5.10155e-07,0.0554864,0.0802751,0,-1524,-0,-0,-1562.08,37.1831,3.184
-1.18,-1.18187,0.650804,0.260379,0,-3.40103e-07,0.0555606,0.0799468,0,-1525,-0,-0,-1561.7,36.5793,3.188
-1.18,-1.18187,0.651027,0.260691,0,-2.26736e-07,0.0556347,0.0793537,0,-1525,-0,-0,-1561.34,35.5784,3.192
-1.18,-1.18187,0.65125,0.260996,0,-1.51157e-07,0.0557087,0.0782673,0,-1527,-0,-0,-1561.02,33.8378,3.196
-1.18,-1.18187,0.651472,0.261294,0,2.86902e-05,0.0557826,0.0770535,0,-1528,-0,0,-1560.71,31.9064,3.2
-1.18,-1.18187,0.651696,0.26159,0,-9.66416e-06,0.0558564,0.0759853,0,-1530,-0,-0,-1560.42,30.1933,3.204
-1.18,-1.18187,0.651919,0.261885,0,-6.44277e-06,0.0559301,0.0752443,0,-1531,-0,-0,-1560.14,28.9714,3.208
-1.18,-1.18187,0.652143,0.262175,0,-4.29518e-06,0.0560036,0.0743472,0,-1532,-0,-0,-1559.87,27.5155,3.212
-1.18,-1.18187,0.652367,0.262463,0,-2.86345e-06,0.056077,0.0736052,0,-1533,-0,-0,-1559.62,26.2923,3.216
-1.18,-1.18187,0.652592,0.262749,0,-1.90897e-06,0.0561503,0.0728803,0,-1534,-0,-0,-1559.37,25.0949,3.22
-1.18,-1.18187,0.652817,0.263027,0,-1.27265e-06,0.0562235,0.0717347,0,-1535,-0,-0,-1559.16,23.2668,3.224
-1.18,-1.18187,0.653042,0.263296,0,-8.48431e-07,0.0562966,0.0702513,0,-1538,-0,-0,-1558.98,20.9321,3.228
-1.18,-1.18187,0.653267,0.263556,0,-5.6562e-07,0.0563695,0.068485,0,-1540,-0,-0,-1558.84,18.1731,3.232
-1.18,-1.18187,0.653493,0.263806,0,-3.7708e-07,0.0564424,0.0665013,0,-1543,-0,-0,-1558.75,15.0883,3.236
-1.18,-1.18187,0.653718,0.264048,0,-2.51387e-07,0.0565151,0.0644878,0,-1546,-0,-0,-1558.68,11.9591,3.24
-1.18,-1.18187,0.653945,0.264279,0,-1.67591e-07,0.0565877,0.062253,0,-1550,-0,-0,-1558.66,8.49796,3.244
-1.18,-1.18187,0.654171,0.264499,0,-1.11727e-07,0.0566602,0.0598706,0,-1553,-0,-0,-1558.69,4.81564,3.248
-1.18,-1.18187,0.654398,0.264716,0,-7.4485e-08,0.0567326,0.0579657,0,-1556,-0,-0,-1558.73,1.84965,3.252
-1.18,-1.18187,0.654625,0.264923,0,2.87413e-05,0.0568048,0.0558895,0,-1560,-0,0,-1558.81,-1.3729,3.256
-1.18,-1.18187,0.654852,0.265127,0,-9.63008e-06,0.0568769,0.0542751,0,-1562,-0,-0,-1558.9,-3.9027,3.26
-1.18,-1.18187,0.65508,0.265322,0,2.23709e-05,0.0569489,0.0524503,0,-1565,-0,0,-1559.03,-6.74797,3.264
-1.18,-1.18187,0.655308,0.265516,0,-1.3877e-05,0.0570208,0.0511474,0,-1567,-0,-0,-1559.17,-8.81019,3.268
-1.18,-1.18187,0.655536,0.265706,0,-9.25134e-06,0.0570926,0.0499332,0,-1570,-0,-0,-1559.32,-10.739,3.272
-1.18,-1.18187,0.655765,0.265892,0,2.26234e-05,0.0571642,0.0487496,0,-1572,-0,0,-1559.49,-12.622,3.276
-1.18,-1.18187,0.655994,0.266078,0,-1.37087e-05,0.0572357,0.0479604,0,-1573,-0,-0,-1559.66,-13.913,3.28
-1.18,-1.18187,0.656223,0.266258,0,-9.13912e-06,0.0573072,0.0469737,0,-1575,-0,-0,-1559.86,-15.5002,3.284
-1.18,-1.18187,0.656452,0.266439,0,-6.09275e-06,0.0573784,0.0464022,0,-1576,-0,-0,-1560.05,-16.4643,3.288
-1.18,-1.18187,0.656682,0.266619,0,-4.06183e-06,0.0574496,0.0459637,0,-1577,-0,-0,-1560.25,-17.2288,3.292
-1.18,-1.18187,0.656912,0.2668,0,-2.70789e-06,0.0575206,0.0457001,0,-1578,-0,-0,-1560.45,-17.7308,3.296
-1.18,-1.18187,0.657142,0.266983,0,-1.80526e-06,0.0575915,0.0457835,0,-1578,-0,-0,-1560.63,-17.712,3.3
-1.18,-1.18187,0.657372,0.267167,0,-1.20351e-06,0.0576623,0.0458391,0,-1578,-0,-0,-1560.82,-17.7348,3.304
-1.18,-1.18187,0.657603,0.26735,0,-8.02337e-07,0.057733,0.0458186,0,-1578,-0,-0,-1561.01,-17.8716,3.308
-1.18,-1.18187,0.657834,0.267536,0,-5.34891e-07,0.0578035,0.0460065,0,-1578,-0,-0,-1561.19,-17.6956,3.312
-1.18,-1.18187,0.658066,0.267718,0,2.84343e-05,0.0578739,0.0458438,0,-1579,-0,0,-1561.39,-18.0452,3.316
-1.18,-1.18187,0.658297,0.267898,0,-9.8347e-06,0.0579442,0.0455914,0,-1580,-0,-0,-1561.6,-18.5293,3.32
-1.18,-1.18187,0.658529,0.26808,0,2.22345e-05,0.0580144,0.0455383,0,-1580,-0,0,-1561.8,-18.7142,3.324
-1.18,-1.18187,0.658761,0.268265,0,-1.3968e-05,0.0580844,0.045762,0,-1580,-0,-0,-1561.99,-18.4837,3.328
-1.18,-1.18187,0.658994,0.268448,0,-9.31197e-06,0.0581544,0.045796,0,-1580,-0,-0,-1562.18,-18.5376,3.332
-1.18,-1.18187,0.659227,0.268634,0,-6.20798e-06,0.0582242,0.0459914,0,-1580,-0,-0,-1562.37,-18.3492,3.336
-1.18,-1.18187,0.65946,0.26882,0,-4.13865e-06,0.0582938,0.046208,0,-1580,-0,-0,-1562.56,-18.1287,3.34
-1.18,-1.18187,0.659693,0.269005,0,-2.7591e-06,0.0583634,0.0462085,0,-1580,-0,-0,-1562.75,-18.2323,3.344
-1.18,-1.18187,0.659926,0.269185,0,-1.8394e-06,0.0584328,0.0458057,0,-1581,-0,-0,-1562.96,-18.9406,3.348
-1.18,-1.18187,0.66016,0.269366,0,-1.22627e-06,0.0585021,0.0456236,0,-1582,-0,-0,-1563.18,-19.3177,3.352
-1.18,-1.18187,0.660394,0.269546,0,-8.17512e-07,0.0585712,0.0453582,0,-1583,-0,-0,-1563.4,-19.8195,3.356
-1.18,-1.18187,0.660629,0.269729,0,-5.45008e-07,0.0586403,0.0455268,0,-1583,-0,-0,-1563.6,-19.6702,3.36
-1.18,-1.18187,0.660864,0.269914,0,2.84276e-05,0.0587092,0.0457543,0,-1583,-0,0,-1563.8,-19.4322,3.364
-1.18,-1.18187,0.661099,0.270101,0,-9.8392e-06,0.0587779,0.0461076,0,-1582,-0,-0,-1563.99,-19.0055,3.368
-1.18,-1.18187,0.661334,0.270291,0,-6.55947e-06,0.0588466,0.0465734,0,-1582,-0,-0,-1564.17,-18.4098,3.372
-1.18,-1.18187,0.661569,0.270487,0,-4.37298e-06,0.0589151,0.0474022,0,-1581,-0,-0,-1564.33,-17.2694,3.376
-1.18,-1.18187,0.661805,0.270684,0,-2.91532e-06,0.0589835,0.0479835,0,-1580,-0,-0,-1564.48,-16.5,3.38
-1.18,-1.18187,0.662041,0.270882,0,-1.94355e-06,0.0590518,0.0484574,0,-1580,-0,-0,-1564.64,-15.8915,3.384
-1.18,-1.18187,0.662278,0.271083,0,-1.2957e-06,0.0591199,0.0491188,0,-1579,-0,-0,-1564.78,-15.0016,3.388
-1.18,-1.18187,0.662514,0.271282,0,-8.63798e-07,0.0591879,0.0492719,0,-1579,-0,-0,-1564.93,-14.874,3.392
-1.18,-1.18187,0.662751,0.271478,0,-5.75865e-07,0.0592558,0.0491724,0,-1580,-0,-0,-1565.09,-15.1251,3.396
-1.18,-1.18187,0.662988,0.271669,0,-3.8391e-07,0.0593235,0.0487605,0,-1581,-0,-0,-1565.28,-15.8444,3.4
-1.18,-1.18187,0.663226,0.271857,0,-2.5594e-07,0.0593911,0.0481405,0,-1582,-0,-0,-1565.47,-16.8759,3.404
-1.18,-1.18187,0.663463,0.272033,0,-1.70627e-07,0.0594586,0.0467482,0,-1584,-0,-0,-1565.72,-19.0655,3.408
-1.18,-1.18187,0.663701,0.272207,0,-1.13751e-07,0.059526,0.0456761,0,-1586,-0,-0,-1565.98,-20.7747,3.412
-1.18,-1.18187,0.66394,0.272369,0,-7.58341e-08,0.0595932,0.0439249,0,-1589,-0,-0,-1566.28,-23.5024,3.416
-1.18,-1.18187,0.664178,0.272524,0,-5.05561e-08,0.0596603,0.0422392,0,-1592,-0,-0,-1566.62,-26.1316,3.42
-1.18,-1.18187,0.664417,0.272672,0,-3.37041e-08,0.0597272,0.040482,0,-1595,-0,-0,-1566.98,-28.8679,3.424
-1.18,-1.18187,0.664656,0.272814,0,-2.24694e-08,0.059794,0.0388211,0,-1598,-0,-0,-1567.37,-31.4595,3.428
-1.18,-1.18187,0.664895,0.272948,0,-1.49796e-08,0.0598607,0.0370516,0,-1602,-0,-0,-1567.79,-34.2137,3.432
-1.18,-1.18187,0.665135,0.273075,0,2.87809e-05,0.0599273,0.0353249,0,-1605,-0,0,-1568.24,-36.9036,3.436
-1.18,-1.18187,0.665375,0.273201,0,-9.60363e-06,0.0599937,0.0340298,0,-1607,-0,-0,-1568.69,-38.9458,3.44
-1.18,-1.18187,0.665615,0.273325,0,-6.40242e-06,0.06006,0.0329937,0,-1609,-0,-0,-1569.16,-40.5994,3.444
-1.18,-1.18187,0.665855,0.273445,0,-4.26828e-06,0.0601262,0.032015,0,-1611,-0,-0,-1569.64,-42.1667,3.448
-1.18,-1.18187,0.666096,0.273563,0,-2.84552e-06,0.0601922,0.0311899,0,-1613,-0,-0,-1570.13,-43.5035,3.452
-1.18,-1.18187,0.666337,0.273679,0,-1.89701e-06,0.0602581,0.0304382,0,-1615,-0,-0,-1570.63,-44.7298,3.456
-1.18,-1.18187,0.666578,0.273793,0,-1.26468e-06,0.0603238,0.0297931,0,-1616,-0,-0,-1571.14,-45.796,3.46
-1.18,-1.18187,0.666819,0.273909,0,-8.43117e-07,0.0603894,0.0295646,0,-1617,-0,-0,-1571.64,-46.2372,3.464
-1.18,-1.18187,0.667061,0.274026,0,-5.62078e-07,0.0604549,0.0293835,0,-1618,-0,-0,-1572.14,-46.6071,3.468
-1.18,-1.18187,0.667303,0.274138,0,-3.74719e-07,0.0605203,0.0289748,0,-1619,-0,-0,-1572.66,-47.3181,3.472
-1.18,-1.18187,0.667545,0.27425,0,-2.49813e-07,0.0605855,0.0286448,0,-1621,-0,-0,-1573.18,-47.911,3.476
-1.18,-1.18187,0.667788,0.274365,0,-1.66542e-07,0.0606506,0.0286839,0,-1621,-0,-0,-1573.69,-47.95,3.48
-1.18,-1.18187,0.66803,0.274476,0,2.86799e-05,0.0607155,0.0283357,0,-1622,-0,0,-1574.22,-48.5697,3.484
-1.18,-1.18187,0.668273,0.274588,0,-9.67099e-06,0.0607803,0.0282475,0,-1623,-0,-0,-1574.74,-48.7992,3.488
-1.18,-1.18187,0.668517,0.274694,0,2.23436e-05,0.060845,0.0276705,0,-1625,-0,0,-1575.29,-49.7617,3.492
-1.18,-1.18187,0.66876,0.274803,0,-1.38952e-05,0.0609095,0.0274873,0,-1625,-0,-0,-1575.83,-50.1332,3.496
-1.18,-1.18187,0.669004,0.274914,0,-9.26346e-06,0.0609739,0.0275956,0,-1626,-0,-0,-1576.36,-50.0675,3.5
-1.18,-1.18187,0.669248,0.275031,0,2.26153e-05,0.0610382,0.0281284,0,-1626,-0,0,-1576.87,-49.3647,3.504
-1.18,-1.18187,0.669492,0.275148,0,-1.37141e-05,0.0611023,0.02857,0,-1626,-0,-0,-1577.37,-48.7985,3.508
-1.18,-1.18187,0.669737,0.275268,0,1.96482e-05,0.0611662,0.0290083,0,-1626,-0,0,-1577.87,-48.2369,3.512
-1.18,-1.18187,0.669981,0.275394,0,-1.56921e-05,0.0612301,0.0298476,0,-1625,-0,-0,-1578.35,-47.0738,3.516
-1.18,-1.18187,0.670226,0.275524,0,-1.04614e-05,0.0612938,0.0307238,0,-1624,-0,-0,-1578.81,-45.855,3.52
-1.18,-1.18187,0.670472,0.27566,0,2.18167e-05,0.0613574,0.0318261,0,-1623,-0,0,-1579.25,-44.2968,3.524
-1.18,-1.18187,0.670717,0.275798,0,-1.42465e-05,0.0614208,0.0327338,0,-1622,-0,-0,-1579.68,-43.0305,3.528
-1.18,-1.18187,0.670963,0.275942,0,1.92933e-05,0.0614841,0.0337708,0,-1621,-0,0,-1580.09,-41.57,3.532
-1.18,-1.18187,0.671209,0.276095,0,-1.59287e-05,0.0615472,0.035297,0,-1619,-0,-0,-1580.46,-39.3753,3.536
-1.18,-1.18187,0.671456,0.27625,0,-1.06192e-05,0.0616102,0.0364297,0,-1618,-0,-0,-1580.82,-37.7708,3.54
-1.18,-1.18187,0.671702,0.276409,0,-7.07944e-06,0.0616731,0.0375591,0,-1617,-0,-0,-1581.17,-36.171,3.544
-1.18,-1.18187,0.671949,0.27657,0,-4.71963e-06,0.0617358,0.0384559,0,-1616,-0,-0,-1581.52,-34.9198,3.548
-1.18,-1.18187,0.672196,0.276738,0,-3.14642e-06,0.0617984,0.0396009,0,-1615,-0,-0,-1581.83,-33.2962,3.552
-1.18,-1.18187,0.672443,0.276906,0,-2.09761e-06,0.0618608,0.0404218,0,-1614,-0,-0,-1582.15,-32.1586,3.556
-1.18,-1.18187,0.672691,0.277077,0,-1.39841e-06,0.0619231,0.0411994,0,-1613,-0,-0,-1582.46,-31.0856,3.56
-1.18,-1.18187,0.672939,0.277249,0,-9.32272e-07,0.0619853,0.0417753,0,-1613,-0,-0,-1582.76,-30.3149,3.564
-1.18,-1.18187,0.673187,0.277423,0,-6.21515e-07,0.0620473,0.0424184,0,-1612,-0,-0,-1583.05,-29.4433,3.568
-1.18,-1.18187,0.673435,0.277596,0,-4.14343e-07,0.0621092,0.0426744,0,-1612,-0,-0,-1583.36,-29.1521,3.572
-1.18,-1.18187,0.673684,0.277768,0,2.85147e-05,0.0621709,0.0427875,0,-1612,-0,0,-1583.66,-29.0751,3.576
-1.18,-1.18187,0.673932,0.277945,0,1.90098e-05,0.0622325,0.0432372,0,-1612,-0,0,-1583.95,-28.493,3.58
-1.18,-1.18187,0.674181,0.278122,0,1.26732e-05,0.0622939,0.0435945,0,-1612,-0,0,-1584.24,-28.0491,3.584
-1.18,-1.18187,0.674431,0.278306,0,-2.03421e-05,0.0623553,0.044351,0,-1611,-0,-0,-1584.5,-27.0064,3.588
-1.18,-1.18187,0.67468,0.278493,0,-1.35614e-05,0.0624164,0.045172,0,-1610,-0,-0,-1584.75,-25.8666,3.592
-1.18,-1.18187,0.67493,0.278682,0,-9.04094e-06,0.0624774,0.0459209,0,-1609,-0,-0,-1584.99,-24.8348,3.596
-1.18,-1.18187,0.67518,0.27888,0,2.27636e-05,0.0625383,0.0470535,0,-1608,-0,0,-1585.2,-23.2271,3.6
-1.18,-1.18187,0.67543,0.279079,0,-1.36152e-05,0.062599,0.0479526,0,-1607,-0,-0,-1585.41,-21.9696,3.604
-1.18,-1.18187,0.675681,0.279284,0,-9.07678e-06,0.0626596,0.049099,0,-1605,-0,-0,-1585.59,-20.3409,3.608
-1.18,-1.18187,0.675932,0.279491,0,-6.05119e-06,0.0627201,0.0499784,0,-1604,-0,-0,-1585.76,-19.1124,3.612
-1.18,-1.18187,0.676183,0.279702,0,-4.03413e-06,0.0627804,0.0508814,0,-1603,-0,-0,-1585.92,-17.8484,3.616
-1.18,-1.18187,0.676434,0.27991,0,2.61015e-05,0.0628405,0.0512243,0,-1603,-0,0,-1586.1,-17.4243,3.62
-1.18,-1.18187,0.676685,0.280118,0,1.7401e-05,0.0629005,0.0515105,0,-1603,-0,0,-1586.27,-17.0851,3.624
-1.18,-1.18187,0.676937,0.28033,0,-1.71903e-05,0.0629604,0.0519891,0,-1602,-0,-0,-1586.43,-16.4568,3.628
-1.18,-1.18187,0.677189,0.280538,0,-1.14602e-05,0.0630201,0.0519916,0,-1603,-0,-0,-1586.61,-16.5428,3.632
-1.18,-1.18187,0.677441,0.280748,0,-7.64011e-06,0.0630796,0.0522235,0,-1603,-0,-0,-1586.77,-16.2842,3.636
-1.18,-1.18187,0.677694,0.280959,0,-5.09341e-06,0.0631391,0.0523493,0,-1603,-0,-0,-1586.94,-16.1846,3.64
-1.18,-1.18187,0.677946,0.281169,0,2.53953e-05,0.0631983,0.0524044,0,-1603,-0,0,-1587.11,-16.1908,3.644
-1.18,-1.18187,0.678199,0.281383,0,-1.18607e-05,0.0632575,0.0528155,0,-1602,-0,-0,-1587.26,-15.663,3.648
-1.18,-1.18187,0.678452,0.281594,0,-7.90714e-06,0.0633164,0.052744,0,-1603,-0,-0,-1587.43,-15.8587,3.652
-1.18,-1.18187,0.678706,0.281808,0,2.35195e-05,0.0633753,0.0530418,0,-1603,-0,0,-1587.59,-15.5002,3.656
-1.18,-1.18187,0.678959,0.282025,0,-1.31113e-05,0.063434,0.0534419,0,-1602,-0,-0,-1587.74,-14.9881,3.66
-1.18,-1.18187,0.679213,0.282238,0,-8.74084e-06,0.0634925,0.0533632,0,-1603,-0,-0,-1587.9,-15.194,3.664
-1.18,-1.18187,0.679467,0.282453,0,2.29637e-05,0.0635509,0.0535122,0,-1603,-0,0,-1588.06,-15.0581,3.668
-1.18,-1.18187,0.679722,0.28267,0,-1.34818e-05,0.0636091,0.0537555,0,-1602,-0,-0,-1588.21,-14.7805,3.672
-1.18,-1.18187,0.679976,0.282884,0,-8.98786e-06,0.0636672,0.0536586,0,-1603,-0,-0,-1588.37,-15.013,3.676
-1.18,-1.18187,0.680231,0.283101,0,-5.99191e-06,0.0637252,0.0537955,0,-1603,-0,-0,-1588.52,-14.8945,3.68
-1.18,-1.18187,0.680486,0.283318,0,-3.99461e-06,0.063783,0.0539444,0,-1603,-0,-0,-1588.67,-14.7579,3.684
-1.18,-1.18187,0.680741,0.283536,0,-2.66307e-06,0.0638406,0.05413,0,-1603,-0,-0,-1588.82,-14.5659,3.688
-1.18,-1.18187,0.680997,0.283753,0,-1.77538e-06,0.0638981,0.0541961,0,-1603,-0,-0,-1588.98,-14.5529,3.692
-1.18,-1.18187,0.681253,0.283974,0,2.76073e-05,0.0639554,0.054557,0,-1603,-0,0,-1589.11,-14.0977,3.696
-1.18,-1.18187,0.681508,0.284195,0,-1.0386e-05,0.0640126,0.0547975,0,-1603,-0,-0,-1589.25,-13.8227,3.7
-1.18,-1.18187,0.681765,0.284419,0,2.18669e-05,0.0640697,0.055217,0,-1602,-0,0,-1589.38,-13.2791,3.704
-1.18,-1.18187,0.682021,0.284646,0,-1.4213e-05,0.0641266,0.0556982,0,-1602,-0,-0,-1589.5,-12.6426,3.708
-1.18,-1.18187,0.682278,0.284872,0,-9.47533e-06,0.0641833,0.0559902,0,-1601,-0,-0,-1589.62,-12.2897,3.712
-1.18,-1.18187,0.682534,0.285095,0,2.2474e-05,0.0642399,0.0559257,0,-1602,-0,0,-1589.76,-12.4713,3.716
-1.18,-1.18187,0.682792,0.285319,0,1.49827e-05,0.0642963,0.0559115,0,-1602,-0,0,-1589.89,-12.5772,3.72
-1.18,-1.18187,0.683049,0.28554,0,-1.88025e-05,0.0643526,0.0556718,0,-1603,-0,-0,-1590.04,-13.0213,3.724
-1.18,-1.18187,0.683306,0.285757,0,1.62559e-05,0.0644088,0.055224,0,-1603,-0,0,-1590.2,-13.7772,3.728
-1.18,-1.18187,0.683564,0.285977,0,-1.79536e-05,0.0644648,0.0551846,0,-1604,-0,-0,-1590.35,-13.9202,3.732
-1.18,-1.18187,0.683822,0.286197,0,-1.19691e-05,0.0645206,0.055072,0,-1604,-0,-0,-1590.5,-14.1729,3.736
-1.18,-1.18187,0.68408,0.286417,0,-7.97939e-06,0.0645763,0.0550833,0,-1604,-0,-0,-1590.65,-14.2395,3.74
-1.18,-1.18187,0.684339,0.28664,0,-5.31959e-06,0.0646318,0.0552923,0,-1604,-0,-0,-1590.79,-14.0092,3.744
-1.18,-1.18187,0.684597,0.286868,0,-3.5464e-06,0.0646872,0.0558348,0,-1604,-0,-0,-1590.92,-13.2786,3.748
-1.18,-1.18187,0.684856,0.287098,0,2.64267e-05,0.0647424,0.0564267,0,-1603,-0,0,-1591.03,-12.4735,3.752
-1.18,-1.18187,0.685115,0.28733,0,-1.11732e-05,0.0647975,0.0569653,0,-1602,-0,-0,-1591.14,-11.7482,3.756
-1.18,-1.18187,0.685375,0.287565,0,-7.44877e-06,0.0648524,0.0575259,0,-1602,-0,-0,-1591.24,-10.9897,3.76
-1.18,-1.18187,0.685634,0.287801,0,-4.96584e-06,0.0649072,0.0580436,0,-1601,-0,-0,-1591.33,-10.2953,3.764
-1.18,-1.18187,0.685894,0.288035,0,-3.31056e-06,0.0649618,0.0581872,0,-1601,-0,-0,-1591.43,-10.1619,3.768
-1.18,-1.18187,0.686154,0.28827,0,-2.20704e-06,0.0650162,0.0583693,0,-1601,-0,-0,-1591.53,-9.9704,3.772
-1.18,-1.18187,0.686414,0.288504,0,-1.47136e-06,0.0650705,0.0584331,0,-1601,-0,-0,-1591.64,-9.95612,3.776
-1.18,-1.18187,0.686674,0.288738,0,-9.80908e-07,0.0651247,0.0584469,0,-1601,-0,-0,-1591.74,-10.0167,3.78
