peachynonah/Fire_monitor_KIRO_CDSL/csv_datas/trial10/cdsl_data_t10_5.csv
joint1_pos_desired, joint1_pos, joint2_pos_desired, joint2_pos, joint1_vel_desired, joint1_vel_filtered, joint2_vel_desired, joint2_vel_filtered, target_torque_joint1, target_torque_joint2, propo_term_torque_joint1, deriv_term_torque_joint1, propo_term_torque_joint2, deriv_term_torque_joint2, current_time
-0.5036,-0.503696,0.224,0.222179,-0,0,2.51126e-07,0,0,-10,-0,0,-10.0168,-0.00037669,0.004
-0.5036,-0.503697,0.224,0.222056,-0,-2.87909e-05,1.0037e-06,-0.0102208,0,-26,-0,-0,-10.6914,-15.3327,0.008
-0.5036,-0.503697,0.224,0.221977,-0,-1.91939e-05,2.25652e-06,-0.0133782,0,-31,-0,-0,-11.1247,-20.0707,0.012
-0.5036,-0.503696,0.224,0.221914,-0,1.5995e-05,4.00838e-06,-0.0141587,0,-32,-0,0,-11.4706,-21.2441,0.016
-0.5036,-0.503697,0.224,0.221869,-0,-1.81276e-05,6.25808e-06,-0.0132396,0,-31,-0,-0,-11.7215,-19.8687,0.02
-0.5036,-0.503696,0.224,0.221839,-0,1.67058e-05,9.00441e-06,-0.0113024,0,-28,-0,0,-11.8851,-16.9671,0.024
-0.5036,-0.503696,0.224,0.221827,-0,1.11372e-05,1.22462e-05,-0.00854261,0,-24,-0,0,-11.9519,-12.8323,0.028
-0.5036,-0.503697,0.224,0.221829,-0,-5.0157e-05,1.59822e-05,-0.00549354,0,-20,-0,-0,-11.9389,-8.26428,0.032
-0.5036,-0.503697,0.224,0.221835,-0,-4.64709e-06,2.02112e-05,-0.00317291,0,-16,-0,-0,-11.907,-4.78969,0.036
-0.5036,-0.503697,0.224,0.221845,-0,-3.09806e-06,2.49321e-05,-0.00130913,0,-13,-0,-0,-11.8542,-2.00109,0.04
-0.5036,-0.503697,0.224,0.221857,-0,-5.96472e-05,3.01436e-05,0.000106139,0,-11,-0,-0,-11.7902,0.113993,0.044
-0.5036,-0.503697,0.224001,0.221871,-0,1.7817e-05,3.58445e-05,0.0012224,0,-9,-0,0,-11.715,1.77983,0.048
-0.5036,-0.503697,0.224001,0.221886,-0,-4.57038e-05,4.20337e-05,0.00211052,0,-8,-0,-0,-11.6303,3.10273,0.052
-0.5036,-0.503697,0.224001,0.221902,-0,-1.67829e-06,4.871e-05,0.0027314,0,-7,-0,-0,-11.5439,4.02403,0.056
-0.5036,-0.503697,0.224001,0.221917,-0,2.76721e-05,5.58721e-05,0.00308773,0,-6,-0,0,-11.4614,4.54779,0.06
-0.5036,-0.503697,0.224001,0.221931,-0,-3.91338e-05,6.35189e-05,0.00321013,0,-6,-0,-0,-11.3867,4.71991,0.064
-0.5036,-0.503696,0.224002,0.221943,-0,6.02836e-05,7.16492e-05,0.00317656,0,-6,-0,0,-11.3198,4.65736,0.068
-0.5036,-0.503697,0.224002,0.221955,-0,1.13981e-05,8.02617e-05,0.00303901,0,-6,-0,0,-11.2607,4.43813,0.072
-0.5036,-0.503697,0.224002,0.221964,-0,-2.11922e-05,8.93554e-05,0.00277457,0,-7,-0,-0,-11.2131,4.02783,0.076
-0.5036,-0.503697,0.224003,0.221971,-0,1.46628e-05,9.89289e-05,0.00248312,0,-7,-0,0,-11.1734,3.57628,0.08
-0.5036,-0.503697,0.224003,0.221977,-0,9.7752e-06,0.000108981,0.00217365,0,-8,-0,0,-11.1415,3.097,0.084
-0.5036,-0.503697,0.224004,0.221983,-0,-5.1065e-05,0.000119511,0.00188096,0,-8,-0,-0,-11.1155,2.64218,0.088
-0.5036,-0.503697,0.224004,0.221987,-0,-5.25244e-06,0.000130517,0.00159947,0,-8,-0,-0,-11.0954,2.20342,0.092
-0.5036,-0.503697,0.224005,0.22199,-0,-3.50163e-06,0.000141998,0.00132543,0,-9,-0,-0,-11.0813,1.77515,0.096
-0.5036,-0.503697,0.224005,0.221992,-0,-2.33442e-06,0.000153954,0.00108516,0,-9,-0,-0,-11.0713,1.3968,0.1
-0.5036,-0.503697,0.224006,0.221994,-0,-1.55628e-06,0.000166382,0.000867392,0,-10,-0,-0,-11.0653,1.05151,0.104
-0.5036,-0.503697,0.224006,0.221994,-0,-2.98284e-05,0.000179282,0.000607052,0,-10,-0,-0,-11.0672,0.641656,0.108
-0.5036,-0.503697,0.224007,0.221994,-0,3.76962e-05,0.000192652,0.000404701,0,-10,-0,0,-11.0713,0.318075,0.112
-0.5036,-0.503697,0.224008,0.221994,-0,2.51308e-05,0.000206491,0.00024101,0,-11,-0,0,-11.0776,0.0517784,0.116
-0.5036,-0.503697,0.224009,0.221994,-0,-1.2037e-05,0.000220799,0.000131882,0,-11,-0,-0,-11.0842,-0.133374,0.12
-0.5036,-0.503696,0.22401,0.221994,-0,4.95572e-05,0.000235573,0.000116713,0,-11,-0,0,-11.0873,-0.178291,0.124
-0.5036,-0.503697,0.224011,0.221994,-0,-2.45437e-05,0.000250813,0.000106599,0,-11,-0,-0,-11.0908,-0.216321,0.128
-0.5036,-0.503696,0.224012,0.221994,-0,4.12193e-05,0.000266518,4.22753e-05,0,-11,-0,0,-11.0984,-0.336364,0.132
-0.5036,-0.503697,0.224013,0.221994,-0,-3.01023e-05,0.000282686,2.81835e-05,0,-11,-0,-0,-11.1044,-0.381753,0.136
-0.5036,-0.503696,0.224014,0.221994,-0,3.75137e-05,0.000299316,4.75799e-05,0,-11,-0,0,-11.1089,-0.377604,0.14
-0.5036,-0.503697,0.224015,0.221994,-0,-3.78182e-06,0.000316407,3.172e-05,0,-11,-0,-0,-11.1157,-0.427031,0.144
-0.5036,-0.503697,0.224017,0.221994,-0,-6.01031e-05,0.000333958,2.11466e-05,0,-11,-0,-0,-11.1228,-0.469217,0.148
-0.5036,-0.503697,0.224018,0.221994,-0,-4.00687e-05,0.000351968,-1.46932e-05,0,-11,-0,-0,-11.1323,-0.549992,0.152
-0.5036,-0.503697,0.224019,0.221994,-0,2.07845e-06,0.000370435,-9.79545e-06,0,-11,-0,0,-11.1402,-0.570346,0.156
-0.5036,-0.503697,0.224021,0.221994,-0,1.38564e-06,0.000389359,2.22606e-05,0,-11,-0,0,-11.1467,-0.550647,0.16
-0.5036,-0.503696,0.224023,0.221994,-0,5.85056e-05,0.000408738,-1.39505e-05,0,-11,-0,0,-11.1573,-0.634032,0.164
-0.5036,-0.503697,0.224024,0.221994,-0,-4.7369e-05,0.00042857,-9.30034e-06,0,-11,-0,-0,-11.1666,-0.656806,0.168
-0.5036,-0.503697,0.224026,0.221994,-0,-2.78843e-06,0.000448856,-6.20022e-06,0,-11,-0,-0,-11.1762,-0.682584,0.172
-0.5036,-0.503697,0.224028,0.221994,-0,-1.85896e-06,0.000469593,-4.13348e-06,0,-11,-0,-0,-11.1863,-0.71059,0.176
-0.5036,-0.503697,0.22403,0.221994,-0,-1.2393e-06,0.000490781,2.60353e-05,0,-11,-0,-0,-11.195,-0.697119,0.18
-0.5036,-0.503696,0.224032,0.221994,-0,5.67556e-05,0.000512418,-1.14341e-05,0,-11,-0,0,-11.2079,-0.785779,0.184
-0.5036,-0.503697,0.224034,0.221994,-0,-4.85357e-05,0.000534504,-7.62272e-06,0,-12,-0,-0,-11.2194,-0.81319,0.188
-0.5036,-0.503697,0.224036,0.221994,-0,-3.56619e-06,0.000557036,-5.08181e-06,0,-12,-0,-0,-11.2314,-0.843177,0.192
-0.5036,-0.503696,0.224038,0.221994,-0,5.52044e-05,0.000580014,2.5403e-05,0,-12,-0,0,-11.242,-0.831917,0.196
-0.5036,-0.503697,0.224041,0.221994,-0,-2.07789e-05,0.000603437,1.69354e-05,0,-12,-0,-0,-11.2551,-0.879753,0.2
-0.5036,-0.503697,0.224043,0.221994,-0,-4.26435e-05,0.000627304,1.12902e-05,0,-12,-0,-0,-11.2686,-0.92402,0.204
-0.5036,-0.503697,0.224046,0.221994,-0,-2.8429e-05,0.000651612,7.52683e-06,0,-12,-0,-0,-11.2827,-0.966128,0.208
-0.5036,-0.503696,0.224048,0.221994,-0,6.74201e-05,0.000676362,5.01789e-06,0,-12,-0,0,-11.2973,-1.00702,0.212
-0.5036,-0.503697,0.224051,0.221994,-0,-1.26351e-05,0.000701553,3.34526e-06,0,-12,-0,-0,-11.3124,-1.04731,0.216
-0.5036,-0.503697,0.224054,0.221994,-0,2.03675e-05,0.000727182,2.23017e-06,0,-12,-0,0,-11.3281,-1.08743,0.22
-0.5036,-0.503697,0.224057,0.221994,-0,1.35783e-05,0.000753249,1.48678e-06,0,-12,-0,0,-11.3444,-1.12764,0.224
-0.5036,-0.503697,0.22406,0.221994,-0,9.05223e-06,0.000779752,9.91187e-07,0,-12,-0,0,-11.3613,-1.16814,0.228
-0.5036,-0.503696,0.224063,0.221994,-0,3.48257e-05,0.000806691,6.60792e-07,0,-12,-0,0,-11.3787,-1.20905,0.232
-0.5036,-0.503696,0.224066,0.221994,-0,2.32172e-05,0.000834064,4.40528e-07,0,-12,-0,0,-11.3968,-1.25044,0.236
-0.5036,-0.503697,0.22407,0.221994,-0,-7.08947e-05,0.00086187,-2.84972e-05,0,-12,-0,-0,-11.4173,-1.33555,0.24
-0.5036,-0.503697,0.224073,0.221994,-0,1.03187e-05,0.000890109,-1.89982e-05,0,-12,-0,0,-11.4366,-1.36366,0.244
-0.5036,-0.503697,0.224077,0.221994,-0,-2.19118e-05,0.000918778,-1.26654e-05,0,-12,-0,-0,-11.4565,-1.39717,0.248
-0.5036,-0.503697,0.224081,0.221994,-0,-4.33988e-05,0.000947877,2.03473e-05,0,-12,-0,-0,-11.4751,-1.39129,0.252
-0.5036,-0.503697,0.224085,0.221994,-0,2.86493e-05,0.000977405,1.35649e-05,0,-12,-0,0,-11.4963,-1.44576,0.256
-0.5036,-0.503697,0.224088,0.221994,-0,-9.69137e-06,0.00100736,9.04324e-06,0,-13,-0,-0,-11.5181,-1.49747,0.26
-0.5036,-0.503697,0.224093,0.221994,-0,2.233e-05,0.00103774,6.02883e-06,0,-13,-0,0,-11.5406,-1.54757,0.264
-0.5036,-0.503696,0.224097,0.221994,-0,4.36776e-05,0.00106855,4.01922e-06,0,-13,-0,0,-11.5638,-1.59679,0.268
-0.5036,-0.503697,0.224101,0.221994,-0,-2.84634e-05,0.00109978,2.67948e-06,0,-13,-0,-0,-11.5877,-1.64565,0.272
-0.5036,-0.503697,0.224106,0.221994,-0,-1.89756e-05,0.00113143,1.78632e-06,0,-13,-0,-0,-11.6122,-1.69447,0.276
-0.5036,-0.503697,0.22411,0.221994,-0,-4.14413e-05,0.00116351,1.19088e-06,0,-13,-0,-0,-11.6374,-1.74347,0.28
-0.5036,-0.503697,0.224115,0.221994,-0,1.16336e-06,0.001196,7.9392e-07,0,-13,-0,0,-11.6634,-1.79281,0.284
-0.5036,-0.503697,0.22412,0.221994,-0,7.75574e-07,0.00122892,5.2928e-07,0,-13,-0,0,-11.6901,-1.84258,0.288
-0.5036,-0.503697,0.224125,0.221994,-0,5.17049e-07,0.00126225,3.52853e-07,0,-13,-0,0,-11.7175,-1.89284,0.292
-0.5036,-0.503697,0.22413,0.221994,-0,-2.84462e-05,0.001296,-2.85557e-05,0,-13,-0,-0,-11.7475,-1.98683,0.296
-0.5036,-0.503697,0.224135,0.221994,-0,9.82677e-06,0.00133017,-1.90371e-05,0,-13,-0,0,-11.7764,-2.0238,0.3
-0.5036,-0.503697,0.22414,0.221994,-0,-2.22397e-05,0.00136475,1.60995e-05,0,-13,-0,-0,-11.8041,-2.02297,0.304
-0.5036,-0.503697,0.224146,0.221994,-0,-1.48265e-05,0.00139974,1.0733e-05,0,-13,-0,-0,-11.8346,-2.08351,0.308
-0.5036,-0.503697,0.224152,0.221994,-0,1.89066e-05,0.00143515,7.15534e-06,0,-14,-0,0,-11.8657,-2.14199,0.312
-0.5036,-0.503697,0.224157,0.221994,-0,1.26044e-05,0.00147097,4.77022e-06,0,-14,-0,0,-11.8977,-2.1993,0.316
-0.5036,-0.503696,0.224163,0.221994,-0,6.59848e-05,0.0015072,3.18015e-06,0,-14,-0,0,-11.9305,-2.25603,0.32
-0.5036,-0.503697,0.22417,0.221994,-0,1.51989e-05,0.00154384,2.1201e-06,0,-14,-0,0,-11.964,-2.31258,0.324
-0.5036,-0.503697,0.224176,0.221994,-0,-1.86583e-05,0.00158088,1.4134e-06,0,-14,-0,-0,-11.9984,-2.36921,0.328
-0.5036,-0.503697,0.224182,0.221994,-0,-4.12298e-05,0.00161834,9.42267e-07,0,-14,-0,-0,-12.0336,-2.42609,0.332
-0.5036,-0.503696,0.224189,0.221994,-0,5.88862e-05,0.0016562,6.28178e-07,0,-14,-0,0,-12.0696,-2.48335,0.336
-0.5036,-0.503697,0.224195,0.221994,-0,-1.83244e-05,0.00169446,4.18785e-07,0,-14,-0,-0,-12.1065,-2.54107,0.34
-0.5036,-0.503697,0.224202,0.221994,-0,-1.22162e-05,0.00173313,2.7919e-07,0,-14,-0,-0,-12.1442,-2.59928,0.344
-0.5036,-0.503696,0.224209,0.221994,-0,4.94377e-05,0.0017722,1.86127e-07,0,-14,-0,0,-12.1827,-2.65802,0.348
-0.5036,-0.503697,0.224216,0.221994,-0,-2.46234e-05,0.00181167,1.24084e-07,0,-14,-0,-0,-12.2221,-2.71732,0.352
-0.5036,-0.503697,0.224224,0.221994,-0,-1.64156e-05,0.00185155,8.2723e-08,0,-15,-0,-0,-12.2624,-2.77719,0.356
-0.5036,-0.503697,0.224231,0.221994,-0,-3.97347e-05,0.00189182,5.51487e-08,0,-15,-0,-0,-12.3036,-2.83764,0.36
-0.5036,-0.503696,0.224239,0.221994,-0,5.9883e-05,0.00193249,3.67658e-08,0,-15,-0,0,-12.3457,-2.89867,0.364
-0.5036,-0.503697,0.224247,0.221994,-0,-4.64508e-05,0.00197355,2.45105e-08,0,-15,-0,-0,-12.3886,-2.96029,0.368
-0.5036,-0.503697,0.224255,0.221994,-0,-3.09672e-05,0.00201501,1.63403e-08,0,-15,-0,-0,-12.4325,-3.0225,0.372
-0.5036,-0.503696,0.224263,0.221994,-0,6.5728e-05,0.00205687,1.08936e-08,0,-15,-0,0,-12.4773,-3.08529,0.376
-0.5036,-0.503697,0.224271,0.221994,-0,1.50277e-05,0.00209912,7.26237e-09,0,-15,-0,0,-12.523,-3.14867,0.38
-0.5036,-0.503697,0.22428,0.221994,-0,-1.87724e-05,0.00214176,4.84158e-09,0,-15,-0,-0,-12.5697,-3.21264,0.384
-0.5036,-0.503697,0.224288,0.221994,-0,-4.13059e-05,0.0021848,3.22772e-09,0,-15,-0,-0,-12.6173,-3.27719,0.388
-0.5036,-0.503696,0.224297,0.221994,-0,5.88355e-05,0.00222822,2.15181e-09,0,-16,-0,0,-12.6658,-3.34233,0.392
-0.5036,-0.503696,0.224306,0.221994,-0,3.92237e-05,0.00227203,1.43454e-09,0,-16,-0,0,-12.7153,-3.40805,0.396
-0.5036,-0.503697,0.224315,0.221995,-0,-3.14327e-05,0.00231623,2.87919e-05,0,-16,-0,-0,-12.7639,-3.43116,0.4
-0.5036,-0.503697,0.224325,0.221995,-0,-2.09552e-05,0.00236082,1.91946e-05,0,-16,-0,-0,-12.8153,-3.51244,0.404
-0.5036,-0.503697,0.224334,0.221995,-0,-4.2761e-05,0.00240579,1.27964e-05,0,-16,-0,-0,-12.8678,-3.5895,0.408
-0.5036,-0.503697,0.224344,0.221994,-0,2.83574e-07,0.00245115,-2.026e-05,0,-16,-0,0,-12.9231,-3.70712,0.412
-0.5036,-0.503696,0.224354,0.221995,-0,5.77709e-05,0.00249689,1.52843e-05,0,-16,-0,0,-12.9756,-3.72241,0.416
-0.5036,-0.503697,0.224364,0.221995,-0,9.72301e-06,0.00254302,1.01895e-05,0,-16,-0,0,-13.0311,-3.79924,0.42
-0.5036,-0.503697,0.224374,0.221995,-0,-2.23089e-05,0.00258952,6.793e-06,0,-16,-0,-0,-13.0875,-3.8741,0.424
-0.5036,-0.503697,0.224385,0.221995,-0,-1.48726e-05,0.00263641,4.52867e-06,0,-17,-0,-0,-13.145,-3.94782,0.428
-0.5036,-0.503697,0.224395,0.221995,-0,1.88758e-05,0.00268367,3.01911e-06,0,-17,-0,0,-13.2035,-4.02098,0.432
-0.5036,-0.503696,0.224406,0.221995,-0,4.13748e-05,0.00273132,3.08037e-05,0,-17,-0,0,-13.2612,-4.05077,0.436
-0.5036,-0.503696,0.224417,0.221995,-0,2.75832e-05,0.00277934,2.05358e-05,0,-17,-0,0,-13.3218,-4.1382,0.44
-0.5036,-0.503697,0.224428,0.221995,-0,-3.9193e-05,0.00282773,1.36905e-05,0,-17,-0,-0,-13.3835,-4.22106,0.444
-0.5036,-0.503697,0.22444,0.221995,-0,-2.61287e-05,0.0028765,3.79179e-05,0,-17,-0,-0,-13.4443,-4.25787,0.448
-0.5036,-0.503697,0.224451,0.221995,-0,-1.74191e-05,0.00292564,2.52786e-05,0,-17,-0,-0,-13.5081,-4.35055,0.452
-0.5036,-0.503697,0.224463,0.221995,-0,-1.16128e-05,0.00297516,1.68524e-05,0,-18,-0,-0,-13.573,-4.43746,0.456
-0.5036,-0.503696,0.224475,0.221996,-0,4.984e-05,0.00302505,4.00259e-05,0,-18,-0,0,-13.6371,-4.47753,0.46
-0.5036,-0.503697,0.224487,0.221996,-0,-2.43552e-05,0.00307531,5.54748e-05,0,-18,-0,-0,-13.7024,-4.52975,0.464
-0.5036,-0.503697,0.2245,0.221996,-0,-4.50277e-05,0.00312593,6.57741e-05,0,-18,-0,-0,-13.7687,-4.59024,0.468
-0.5036,-0.503696,0.224512,0.221996,-0,5.63543e-05,0.00317693,4.38494e-05,0,-18,-0,0,-13.838,-4.69962,0.472
-0.5036,-0.503697,0.224525,0.221996,-0,-2.00123e-05,0.00322829,2.9233e-05,0,-18,-0,-0,-13.9085,-4.79859,0.476
-0.5036,-0.503697,0.224538,0.221997,-0,-1.33415e-05,0.00328002,4.82796e-05,0,-18,-0,-0,-13.9781,-4.84761,0.48
-0.5036,-0.503697,0.224551,0.221997,-0,-8.89436e-06,0.00333211,3.21864e-05,0,-19,-0,-0,-14.0509,-4.94989,0.484
-0.5036,-0.503697,0.224565,0.221997,-0,-5.92957e-06,0.00338457,2.14576e-05,0,-19,-0,-0,-14.1248,-5.04467,0.488
-0.5036,-0.503696,0.224578,0.221997,-0,5.36288e-05,0.00343739,4.3096e-05,0,-19,-0,0,-14.1979,-5.09144,0.492
-0.5036,-0.503697,0.224592,0.221997,-0,-2.18293e-05,0.00349057,2.87307e-05,0,-19,-0,-0,-14.2741,-5.19276,0.496
-0.5036,-0.503697,0.224606,0.221997,-0,-1.45529e-05,0.00354411,4.79447e-05,0,-19,-0,-0,-14.3496,-5.24425,0.5
-0.5036,-0.503697,0.224621,0.221997,-0,1.9089e-05,0.00359801,3.19631e-05,0,-19,-0,0,-14.4281,-5.34907,0.504
-0.5036,-0.503696,0.224635,0.221998,-0,4.15169e-05,0.00365227,5.00997e-05,0,-19,-0,0,-14.506,-5.40325,0.508
-0.5036,-0.503696,0.22465,0.221998,-0,2.7678e-05,0.00370689,6.21907e-05,0,-20,-0,0,-14.5851,-5.46704,0.512
-0.5036,-0.503697,0.224665,0.221998,-0,-3.91299e-05,0.00376186,7.02514e-05,0,-20,-0,-0,-14.6653,-5.53741,0.516
-0.5036,-0.503697,0.22468,0.221999,-0,-5.48775e-05,0.00381719,7.56252e-05,0,-20,-0,-0,-14.7468,-5.61234,0.52
-0.5036,-0.503696,0.224695,0.221999,-0,4.97878e-05,0.00387287,7.92077e-05,0,-20,-0,0,-14.8295,-5.69049,0.524
-0.5036,-0.503697,0.224711,0.221999,-0,-2.439e-05,0.0039289,8.15961e-05,0,-20,-0,-0,-14.9134,-5.77096,0.528
-0.5036,-0.503697,0.224727,0.221999,-0,-4.50509e-05,0.00398529,5.43974e-05,0,-20,-0,-0,-15.0004,-5.89633,0.532
-0.5036,-0.503697,0.224743,0.222,-0,-1.24303e-06,0.00404202,6.50558e-05,0,-21,-0,-0,-15.0868,-5.96545,0.536
-0.5036,-0.503697,0.224759,0.222,-0,-2.96196e-05,0.00409911,4.33706e-05,0,-21,-0,-0,-15.1764,-6.08361,0.54
-0.5036,-0.503697,0.224776,0.222,-0,9.04452e-06,0.00415655,2.89137e-05,0,-21,-0,0,-15.2672,-6.19145,0.544
-0.5036,-0.503697,0.224792,0.222,-0,3.48206e-05,0.00421433,4.80667e-05,0,-21,-0,0,-15.3574,-6.24939,0.548
-0.5036,-0.503697,0.224809,0.222,-0,-3.43681e-05,0.00427246,6.08354e-05,0,-21,-0,-0,-15.4488,-6.31743,0.552
-0.5036,-0.503696,0.224827,0.222001,-0,6.34607e-05,0.00433093,9.81388e-05,0,-21,-0,0,-15.5397,-6.34919,0.556
-0.5036,-0.503697,0.224844,0.222002,-0,-1.52747e-05,0.00438975,9.42168e-05,0,-22,-0,-0,-15.6337,-6.4433,0.56
-0.5036,-0.503697,0.224862,0.222002,-0,1.86078e-05,0.00444891,0.000120393,0,-22,-0,0,-15.7271,-6.49278,0.564
-0.5036,-0.503697,0.22488,0.222003,-0,-1.63857e-05,0.00450842,0.000137844,0,-22,-0,-0,-15.8219,-6.55586,0.568
-0.5036,-0.503697,0.224898,0.222004,-0,-1.09238e-05,0.00456826,0.000178269,0,-22,-0,-0,-15.916,-6.58499,0.572
-0.5036,-0.503697,0.224916,0.222005,-0,2.15084e-05,0.00462845,0.000176428,0,-22,-0,0,-16.0134,-6.67803,0.576
-0.5036,-0.503696,0.224935,0.222006,-0,4.31298e-05,0.00468897,0.000203991,0,-22,-0,0,-16.1101,-6.72747,0.58
-0.5036,-0.503697,0.224954,0.222006,-0,-2.88286e-05,0.00474983,0.000193576,0,-23,-0,-0,-16.2102,-6.83439,0.584
-0.5036,-0.503696,0.224973,0.222007,-0,3.83628e-05,0.00481103,0.000186633,0,-23,-0,0,-16.3115,-6.9366,0.588
-0.5036,-0.503696,0.224992,0.222007,-0,2.55752e-05,0.00487257,0.000153213,0,-23,-0,0,-16.4162,-7.07903,0.592
-0.5036,-0.503696,0.225012,0.222008,-0,1.70501e-05,0.00493444,0.000159724,0,-23,-0,0,-16.5202,-7.16207,0.596
-0.5036,-0.503697,0.225032,0.222008,-0,-4.62151e-05,0.00499664,0.000135273,0,-23,-0,-0,-16.6276,-7.29205,0.6
-0.5036,-0.503697,0.225052,0.222008,-0,-2.01914e-06,0.00505918,9.01822e-05,0,-24,-0,-0,-16.7382,-7.45349,0.604
-0.5036,-0.503697,0.225072,0.222008,-0,-3.0137e-05,0.00512204,6.01215e-05,0,-24,-0,-0,-16.8502,-7.59288,0.608
-0.5036,-0.503697,0.225093,0.222008,-0,-2.00913e-05,0.00518524,4.0081e-05,0,-24,-0,-0,-16.9636,-7.71774,0.612
-0.5036,-0.503697,0.225114,0.222008,-0,-1.33942e-05,0.00524877,2.67207e-05,0,-24,-0,-0,-17.0783,-7.83307,0.616
-0.5036,-0.503697,0.225135,0.222009,-0,-8.92949e-06,0.00531262,4.66047e-05,0,-25,-0,-0,-17.1926,-7.89903,0.62
-0.5036,-0.503697,0.225156,0.222009,-0,-5.95299e-06,0.0053768,3.10698e-05,0,-25,-0,-0,-17.3102,-8.0186,0.624
-0.5036,-0.503697,0.225178,0.222009,-0,-3.27596e-05,0.00544131,4.95041e-05,0,-25,-0,-0,-17.4273,-8.08771,0.628
-0.5036,-0.503697,0.2252,0.222009,-0,6.9512e-06,0.00550615,6.17937e-05,0,-25,-0,0,-17.5458,-8.16653,0.632
-0.5036,-0.503697,0.225222,0.22201,-0,4.63413e-06,0.0055713,9.87776e-05,0,-25,-0,0,-17.6639,-8.20879,0.636
-0.5036,-0.503697,0.225244,0.222011,-0,3.08942e-06,0.00563679,0.000152225,0,-26,-0,0,-17.7815,-8.22684,0.64
-0.5036,-0.503697,0.225267,0.222012,-0,3.08505e-05,0.00570259,0.000187856,0,-26,-0,0,-17.9005,-8.2721,0.644
-0.5036,-0.503697,0.22529,0.222014,-0,-8.2239e-06,0.00576871,0.000240401,0,-26,-0,-0,-18.0191,-8.29247,0.648
-0.5036,-0.503697,0.225313,0.222015,-0,2.33083e-05,0.00583516,0.000275431,0,-26,-0,0,-18.1391,-8.33959,0.652
-0.5036,-0.503697,0.225336,0.222016,-0,-1.3252e-05,0.00590192,0.000298784,0,-26,-0,-0,-18.2606,-8.4047,0.656
-0.5036,-0.503697,0.22536,0.222017,-0,-8.83469e-06,0.005969,0.000285562,0,-26,-0,-0,-18.3855,-8.52515,0.66
-0.5036,-0.503697,0.225384,0.222019,-0,-5.8898e-06,0.0060364,0.000305539,0,-27,-0,-0,-18.51,-8.59629,0.664
-0.5036,-0.503697,0.225409,0.22202,-0,-3.92653e-06,0.00610411,0.000290065,0,-27,-0,-0,-18.6378,-8.72107,0.668
-0.5036,-0.503697,0.225433,0.222021,-0,-2.61769e-06,0.00617214,0.00030854,0,-27,-0,-0,-18.7652,-8.79539,0.672
-0.5036,-0.503697,0.225458,0.222022,-0,2.70458e-05,0.00624048,0.000292066,0,-27,-0,0,-18.8961,-8.92262,0.676
-0.5036,-0.503697,0.225483,0.222023,-0,-1.07604e-05,0.00630913,0.000252293,0,-28,-0,-0,-19.0303,-9.08526,0.68
-0.5036,-0.503697,0.225508,0.222024,-0,-7.17359e-06,0.0063781,0.000283359,0,-28,-0,-0,-19.1623,-9.14211,0.684
-0.5036,-0.503697,0.225534,0.222025,-0,2.40085e-05,0.00644737,0.000275279,0,-28,-0,0,-19.2977,-9.25814,0.688
-0.5036,-0.503697,0.22556,0.222026,-0,-1.27852e-05,0.00651696,0.000269892,0,-28,-0,-0,-19.4346,-9.3706,0.692
-0.5036,-0.503697,0.225586,0.222027,-0,2.02674e-05,0.00658685,0.00023751,0,-29,-0,0,-19.5749,-9.52401,0.696
-0.5036,-0.503697,0.225613,0.222028,-0,1.35116e-05,0.00665705,0.000215922,0,-29,-0,0,-19.7168,-9.66169,0.7
-0.5036,-0.503697,0.225639,0.222028,-0,9.00775e-06,0.00672756,0.00020153,0,-29,-0,0,-19.8602,-9.78904,0.704
-0.5036,-0.503697,0.225666,0.222029,-0,-2.27858e-05,0.00679837,0.000191935,0,-29,-0,-0,-20.0052,-9.90965,0.708
-0.5036,-0.503697,0.225694,0.22203,-0,1.36004e-05,0.00686949,0.000214329,0,-30,-0,0,-20.1498,-9.98274,0.712
-0.5036,-0.503697,0.225721,0.222031,-0,9.06695e-06,0.00694091,0.000171677,0,-30,-0,0,-20.2999,-10.1538,0.716
-0.5036,-0.503697,0.225749,0.222031,-0,6.04463e-06,0.00701263,0.000172033,0,-30,-0,0,-20.4495,-10.2609,0.72
-0.5036,-0.503697,0.225778,0.222032,-0,-2.47612e-05,0.00708465,0.000201062,0,-30,-0,-0,-20.5989,-10.3254,0.724
-0.5036,-0.503697,0.225806,0.222033,-0,-1.65074e-05,0.00715697,0.000191623,0,-31,-0,-0,-20.7518,-10.448,0.728
-0.5036,-0.503697,0.225835,0.222034,-0,1.7786e-05,0.0072296,0.000242912,0,-31,-0,0,-20.9024,-10.48,0.732
-0.5036,-0.503697,0.225864,0.222035,-0,1.18573e-05,0.00730252,0.000248314,0,-31,-0,0,-21.0566,-10.5813,0.736
-0.5036,-0.503697,0.225893,0.222037,-0,7.90487e-06,0.00737573,0.000309498,0,-31,-0,0,-21.2085,-10.5994,0.74
-0.5036,-0.503697,0.225923,0.222038,-0,-2.3521e-05,0.00744925,0.000321495,0,-32,-0,-0,-21.364,-10.6916,0.744
-0.5036,-0.503697,0.225953,0.222041,-0,1.31103e-05,0.00752306,0.000387076,0,-32,-0,0,-21.5173,-10.704,0.748
-0.5036,-0.503697,0.225983,0.222043,-0,8.74017e-06,0.00759716,0.000430796,0,-32,-0,0,-21.6722,-10.7495,0.752
-0.5036,-0.503697,0.226014,0.222045,-0,5.82678e-06,0.00767155,0.000488734,0,-32,-0,0,-21.8269,-10.7742,0.756
-0.5036,-0.503697,0.226044,0.222047,-0,3.88452e-06,0.00774624,0.000527359,0,-32,-0,0,-21.9832,-10.8283,0.76
-0.5036,-0.503697,0.226076,0.222051,-0,-2.62012e-05,0.00782122,0.000639482,0,-32,-0,-0,-22.1354,-10.7726,0.764
-0.5036,-0.503697,0.226107,0.222054,-0,-1.74675e-05,0.00789649,0.000656649,0,-33,-0,-0,-22.2931,-10.8598,0.768
-0.5036,-0.503697,0.226139,0.222057,-0,-1.1645e-05,0.00797204,0.000754466,0,-33,-0,-0,-22.4467,-10.8264,0.772
-0.5036,-0.503697,0.226171,0.222062,-0,-7.76333e-06,0.00804789,0.000848468,0,-33,-0,-0,-22.6002,-10.7991,0.776
-0.5036,-0.503697,0.226203,0.222067,-0,2.36154e-05,0.00812402,0.000997509,0,-33,-0,0,-22.7496,-10.6898,0.78
-0.5036,-0.503697,0.226236,0.222072,-0,1.57436e-05,0.00820044,0.00112566,0,-33,-0,0,-22.8987,-10.6122,0.784
-0.5036,-0.503697,0.226269,0.222079,-0,-1.82952e-05,0.00827714,0.00126868,0,-33,-0,-0,-23.0458,-10.5127,0.788
-0.5036,-0.503697,0.226302,0.222085,-0,1.65941e-05,0.00835412,0.00136402,0,-33,-0,0,-23.1945,-10.4852,0.792
-0.5036,-0.503697,0.226336,0.222091,-0,-1.77282e-05,0.00843139,0.00145638,0,-33,-0,-0,-23.343,-10.4625,0.796
-0.5036,-0.503697,0.226369,0.222099,-0,-1.18188e-05,0.00850894,0.00157553,0,-33,-0,-0,-23.4895,-10.4001,0.8
-0.5036,-0.503697,0.226404,0.222107,-0,2.09117e-05,0.00858677,0.00171254,0,-33,-0,0,-23.6338,-10.3113,0.804
-0.5036,-0.503697,0.226438,0.222114,-0,-1.48498e-05,0.00866488,0.0017751,0,-34,-0,-0,-23.7818,-10.3347,0.808
-0.5036,-0.503697,0.226473,0.222123,-0,1.88911e-05,0.00874327,0.00190317,0,-34,-0,0,-23.9258,-10.2602,0.812
-0.5036,-0.503697,0.226508,0.222132,-0,1.25941e-05,0.00882194,0.00207493,0,-34,-0,0,-24.0658,-10.1205,0.816
-0.5036,-0.503697,0.226544,0.222142,-0,8.39604e-06,0.00890088,0.00221822,0,-34,-0,0,-24.2056,-10.024,0.82
-0.5036,-0.503697,0.226579,0.222153,-0,5.59736e-06,0.0089801,0.00237133,0,-34,-0,0,-24.3434,-9.91315,0.824
-0.5036,-0.503697,0.226615,0.222164,-0,3.73157e-06,0.00905959,0.00247341,0,-34,-0,0,-24.4829,-9.87928,0.828
-0.5036,-0.503697,0.226652,0.222175,-0,-2.63032e-05,0.00913936,0.00257025,0,-34,-0,-0,-24.6223,-9.85367,0.832
-0.5036,-0.503697,0.226688,0.222187,-0,1.12555e-05,0.0092194,0.00269239,0,-34,-0,0,-24.7597,-9.79051,0.836
-0.5036,-0.503697,0.226726,0.222198,-0,-2.12873e-05,0.00929971,0.00277382,0,-34,-0,-0,-24.8988,-9.78884,0.84
-0.5036,-0.503697,0.226763,0.22221,-0,-1.41915e-05,0.00938029,0.0028281,0,-34,-0,-0,-25.0396,-9.82828,0.844
-0.5036,-0.503697,0.226801,0.222223,-0,1.93299e-05,0.00946114,0.00295067,0,-34,-0,0,-25.1766,-9.76571,0.848
-0.5036,-0.503697,0.226839,0.222235,-0,-1.59043e-05,0.00954226,0.002946,0,-35,-0,-0,-25.321,-9.89439,0.852
-0.5036,-0.503697,0.226877,0.222247,-0,-1.06029e-05,0.00962365,0.00300047,0,-35,-0,-0,-25.4634,-9.93476,0.856
-0.5036,-0.503697,0.226916,0.222259,-0,2.17223e-05,0.0097053,0.00295042,0,-35,-0,0,-25.6134,-10.1323,0.86
-0.5036,-0.503697,0.226955,0.222271,-0,-1.43094e-05,0.00978722,0.00300342,0,-35,-0,-0,-25.7594,-10.1757,0.864
-0.5036,-0.503697,0.226994,0.222284,-0,-9.53958e-06,0.00986941,0.00309633,0,-36,-0,-0,-25.9034,-10.1596,0.868
-0.5036,-0.503697,0.227033,0.222296,-0,2.24312e-05,0.00995186,0.0030719,0,-36,-0,0,-26.0549,-10.3199,0.872
-0.5036,-0.503697,0.227073,0.222308,-0,-1.38368e-05,0.0100346,0.00305562,0,-36,-0,-0,-26.2082,-10.4684,0.876
-0.5036,-0.503697,0.227114,0.222319,-0,-9.22452e-06,0.0101175,0.0029296,0,-37,-0,-0,-26.371,-10.7819,0.88
-0.5036,-0.503697,0.227154,0.22233,-0,-6.14968e-06,0.0102008,0.00284558,0,-37,-0,-0,-26.5356,-11.0328,0.884
-0.5036,-0.503697,0.227195,0.22234,-0,-4.09979e-06,0.0102843,0.00278957,0,-37,-0,-0,-26.702,-11.242,0.888
-0.5036,-0.503697,0.227237,0.222352,-0,2.60577e-05,0.010368,0.00278103,0,-38,-0,0,-26.8684,-11.3805,0.892
-0.5036,-0.503697,0.227278,0.222363,-0,1.73718e-05,0.010452,0.00277533,0,-38,-0,0,-27.0366,-11.515,0.896
-0.5036,-0.503697,0.22732,0.222374,-0,-1.72097e-05,0.0105363,0.00277153,0,-38,-0,-0,-27.2067,-11.6471,0.9
-0.5036,-0.503697,0.227363,0.222385,-0,1.73178e-05,0.0106208,0.00282658,0,-39,-0,0,-27.3748,-11.6914,0.904
-0.5036,-0.503697,0.227405,0.222397,-0,1.15452e-05,0.0107056,0.00286328,0,-39,-0,0,-27.5448,-11.7635,0.908
-0.5036,-0.503697,0.227448,0.222408,-0,7.69679e-06,0.0107906,0.00283016,0,-39,-0,0,-27.7204,-11.9407,0.912
-0.5036,-0.503697,0.227492,0.22242,-0,-2.36597e-05,0.0108759,0.00283687,0,-39,-0,-0,-27.8961,-12.0585,0.916
-0.5036,-0.503697,0.227535,0.22243,-0,1.30178e-05,0.0109614,0.00278377,0,-40,-0,0,-28.0774,-12.2665,0.92
-0.5036,-0.503697,0.227579,0.222441,-0,-2.01124e-05,0.0110472,0.00274836,0,-40,-0,-0,-28.2606,-12.4483,0.924
-0.5036,-0.503697,0.227624,0.222451,-0,-1.34083e-05,0.0111332,0.00269597,0,-41,-0,-0,-28.4475,-12.6559,0.928
-0.5036,-0.503697,0.227668,0.222462,-0,-8.93885e-06,0.0112195,0.00266104,0,-41,-0,-0,-28.6364,-12.8377,0.932
-0.5036,-0.503697,0.227713,0.222474,-0,-5.95923e-06,0.0113061,0.0028105,0,-41,-0,-0,-28.8158,-12.7433,0.936
-0.5036,-0.503697,0.227759,0.222487,-0,2.48181e-05,0.0113928,0.00296772,0,-41,-0,0,-28.9933,-12.6377,0.94
-0.5036,-0.503697,0.227805,0.222501,-0,-1.22455e-05,0.0114799,0.00313012,0,-41,-0,-0,-29.1689,-12.5246,0.944
-0.5036,-0.503697,0.227851,0.222515,-0,2.06272e-05,0.0115671,0.00323838,0,-41,-0,0,-29.3464,-12.4931,0.948
-0.5036,-0.503697,0.227897,0.222528,-0,1.37515e-05,0.0116546,0.00328177,0,-42,-0,0,-29.5277,-12.5593,0.952
-0.5036,-0.503697,0.227944,0.222542,-0,-1.96233e-05,0.0117424,0.00331069,0,-42,-0,-0,-29.7109,-12.6476,0.956
-0.5036,-0.503697,0.227991,0.222555,-0,1.57088e-05,0.0118304,0.00332997,0,-42,-0,0,-29.8961,-12.7506,0.96
-0.5036,-0.503697,0.228039,0.222569,-0,-1.83184e-05,0.0119186,0.00337162,0,-42,-0,-0,-30.0814,-12.8205,0.964
-0.5036,-0.503697,0.228086,0.222584,-0,1.65786e-05,0.0120071,0.00348576,0,-43,-0,0,-30.2628,-12.782,0.968
-0.5036,-0.503697,0.228135,0.2226,-0,1.10524e-05,0.0120958,0.00364822,0,-43,-0,0,-30.4406,-12.6714,0.972
-0.5036,-0.503697,0.228183,0.222618,-0,-2.14226e-05,0.0121848,0.00390048,0,-43,-0,-0,-30.6107,-12.4264,0.976
-0.5036,-0.503697,0.228232,0.222634,-0,-1.42818e-05,0.012274,0.00401108,0,-43,-0,-0,-30.7867,-12.3943,0.98
-0.5036,-0.503697,0.228281,0.222651,-0,1.92698e-05,0.0123634,0.00405602,0,-43,-0,0,-30.9665,-12.4611,0.984
-0.5036,-0.503697,0.228331,0.222667,-0,1.28465e-05,0.0124531,0.00405718,0,-43,-0,0,-31.1502,-12.5938,0.988
-0.5036,-0.503697,0.228381,0.222684,-0,8.56433e-06,0.012543,0.00408675,0,-44,-0,0,-31.3339,-12.6843,0.992
-0.5036,-0.503697,0.228431,0.222701,-0,-2.30814e-05,0.0126331,0.00413526,0,-44,-0,-0,-31.5177,-12.7467,0.996
-0.5036,-0.503697,0.228482,0.222718,-0,-1.53876e-05,0.0127235,0.00422518,0,-44,-0,-0,-31.6997,-12.7474,1
-0.5036,-0.503697,0.228533,0.222736,-0,-1.02584e-05,0.012814,0.00431391,0,-44,-0,-0,-31.8818,-12.7502,1.004
-0.5036,-0.503697,0.228585,0.222755,-0,-6.83892e-06,0.0129049,0.00440186,0,-44,-0,-0,-32.064,-12.7545,1.008
-0.5036,-0.503697,0.228636,0.222773,-0,2.42316e-05,0.0129959,0.00448928,0,-45,-0,0,-32.2463,-12.76,1.012
-0.5036,-0.503697,0.228688,0.222793,-0,1.61544e-05,0.0130872,0.00460515,0,-45,-0,0,-32.4268,-12.7231,1.016
-0.5036,-0.503697,0.228741,0.222813,-0,1.07696e-05,0.0131787,0.00476876,0,-45,-0,0,-32.6036,-12.6149,1.02
-0.5036,-0.503697,0.228794,0.222835,-0,-2.16112e-05,0.0132704,0.00502179,0,-45,-0,-0,-32.773,-12.373,1.024
-0.5036,-0.503697,0.228847,0.222857,-0,1.43835e-05,0.0133624,0.00519048,0,-45,-0,0,-32.9443,-12.2579,1.028
-0.5036,-0.503697,0.228901,0.22288,-0,-1.92019e-05,0.0134546,0.00533173,0,-45,-0,-0,-33.1158,-12.1843,1.032
-0.5036,-0.503697,0.228955,0.222902,-0,-1.28013e-05,0.013547,0.0054259,0,-45,-0,-0,-33.2893,-12.1817,1.036
-0.5036,-0.503697,0.229009,0.222926,-0,-8.5342e-06,0.0136396,0.00557505,0,-45,-0,-0,-33.4591,-12.0969,1.04
-0.5036,-0.503697,0.229064,0.222948,-0,2.31015e-05,0.0137325,0.00555932,0,-45,-0,0,-33.6386,-12.2597,1.044
-0.5036,-0.503697,0.229119,0.222969,-0,-1.339e-05,0.0138256,0.00546246,0,-46,-0,-0,-33.8258,-12.5446,1.048
-0.5036,-0.503697,0.229175,0.222989,-0,1.98643e-05,0.0139188,0.00531151,0,-46,-0,0,-34.0208,-12.911,1.052
-0.5036,-0.503697,0.22923,0.223006,-0,-1.55481e-05,0.0140124,0.00495176,0,-47,-0,-0,-34.235,-13.5909,1.056
-0.5036,-0.503697,0.229287,0.22302,-0,1.84255e-05,0.0141061,0.0044816,0,-48,-0,0,-34.4663,-14.4367,1.06
-0.5036,-0.503697,0.229343,0.22303,-0,-1.65072e-05,0.0142,0.00382267,0,-50,-0,-0,-34.7226,-15.566,1.064
-0.5036,-0.503697,0.2294,0.223037,-0,1.77861e-05,0.0142942,0.00312427,0,-51,-0,0,-34.998,-16.7549,1.068
-0.5036,-0.503697,0.229458,0.22304,-0,1.18574e-05,0.0143886,0.00237075,0,-53,-0,0,-35.2946,-18.0267,1.072
-0.5036,-0.503697,0.229515,0.223039,-0,-4.96769e-05,0.0144832,0.00149413,0,-55,-0,-0,-35.6178,-19.4836,1.076
-0.5036,-0.503697,0.229573,0.223039,-0,-3.31179e-05,0.014578,0.000996087,0,-56,-0,-0,-35.9375,-20.3728,1.08
-0.5036,-0.503697,0.229632,0.223039,-0,6.7123e-06,0.014673,0.000664058,0,-57,-0,0,-36.2593,-21.0134,1.084
-0.5036,-0.503697,0.229691,0.223039,-0,3.32658e-05,0.0147682,0.000442705,0,-58,-0,0,-36.5831,-21.4883,1.088
-0.5036,-0.503697,0.22975,0.223039,-0,2.21772e-05,0.0148637,0.000295137,0,-58,-0,0,-36.9091,-21.8528,1.092
-0.5036,-0.503697,0.22981,0.22304,-0,1.47848e-05,0.0149593,0.000225549,0,-59,-0,0,-37.2352,-22.1006,1.096
-0.5036,-0.503697,0.22987,0.223039,-0,9.85653e-06,0.0150552,9.2784e-05,0,-60,-0,0,-37.5692,-22.4436,1.1
-0.5036,-0.503697,0.22993,0.223039,-0,6.57102e-06,0.0151512,6.1856e-05,0,-60,-0,0,-37.9015,-22.634,1.104
-0.5036,-0.503697,0.229991,0.22304,-0,-2.44102e-05,0.0152475,0.00012761,0,-60,-0,-0,-38.2301,-22.6798,1.108
-0.5036,-0.503697,0.230052,0.22304,-0,1.25174e-05,0.015344,5.62825e-05,0,-61,-0,0,-38.5685,-22.9315,1.112
-0.5036,-0.503697,0.230114,0.22304,-0,-2.0446e-05,0.0154406,3.75217e-05,0,-62,-0,-0,-38.9072,-23.1047,1.116
-0.5036,-0.503697,0.230176,0.22304,-0,1.51603e-05,0.0155375,2.50144e-05,0,-62,-0,0,-39.2479,-23.2688,1.12
-0.5036,-0.503697,0.230238,0.22304,-0,-1.86841e-05,0.0156346,1.66763e-05,0,-63,-0,-0,-39.5908,-23.4269,1.124
-0.5036,-0.503697,0.230301,0.22304,-0,-1.2456e-05,0.0157319,1.11175e-05,0,-63,-0,-0,-39.9359,-23.5812,1.128
-0.5036,-0.503697,0.230364,0.22304,-0,-8.30403e-06,0.0158294,7.41168e-06,0,-64,-0,-0,-40.283,-23.733,1.132
-0.5036,-0.503697,0.230427,0.22304,-0,2.32549e-05,0.0159271,4.94112e-06,0,-64,-0,0,-40.6324,-23.8832,1.136
-0.5036,-0.503697,0.230491,0.22304,-0,-1.32877e-05,0.016025,3.29408e-06,0,-65,-0,-0,-40.9838,-24.0325,1.14
-0.5036,-0.503697,0.230556,0.22304,-0,1.99325e-05,0.016123,2.19605e-06,0,-65,-0,0,-41.3375,-24.1813,1.144
-0.5036,-0.503697,0.23062,0.22304,-0,1.32883e-05,0.0162213,1.46404e-06,0,-66,-0,0,-41.6932,-24.3298,1.148
-0.5036,-0.503697,0.230685,0.223039,-0,-1.9932e-05,0.0163198,-2.78149e-05,0,-66,-0,-0,-42.0531,-24.5214,1.152
-0.5036,-0.503697,0.230751,0.22304,-0,1.55029e-05,0.0164185,3.90386e-05,0,-66,-0,0,-42.4094,-24.5692,1.156
-0.5036,-0.503697,0.230817,0.22304,-0,1.03353e-05,0.0165174,2.60257e-05,0,-67,-0,0,-42.7717,-24.737,1.16
-0.5036,-0.503697,0.230883,0.22304,-0,6.89018e-06,0.0166164,1.73505e-05,0,-68,-0,0,-43.1362,-24.8986,1.164
-0.5036,-0.503697,0.23095,0.22304,-0,4.59345e-06,0.0167157,1.1567e-05,0,-68,-0,0,-43.5028,-25.0561,1.168
-0.5036,-0.503697,0.231017,0.22304,-0,3.0623e-06,0.0168151,7.71132e-06,0,-69,-0,0,-43.8717,-25.2111,1.172
-0.5036,-0.503697,0.231084,0.22304,-0,-2.67494e-05,0.0169147,5.14088e-06,0,-69,-0,-0,-44.2427,-25.3644,1.176
-0.5036,-0.503697,0.231152,0.22304,-0,1.0958e-05,0.0170146,3.42726e-06,0,-70,-0,0,-44.6159,-25.5167,1.18
-0.5036,-0.503697,0.23122,0.22304,-0,7.30533e-06,0.0171146,2.28484e-06,0,-70,-0,0,-44.9913,-25.6685,1.184
-0.5036,-0.503697,0.231289,0.22304,-0,-2.39207e-05,0.0172148,1.52322e-06,0,-71,-0,-0,-45.369,-25.8199,1.188
-0.5036,-0.503697,0.231358,0.22304,-0,1.28438e-05,0.0173152,1.01548e-06,0,-71,-0,0,-45.7488,-25.9712,1.192
-0.5036,-0.503697,0.231427,0.223041,-0,8.56253e-06,0.0174158,5.82588e-05,0,-72,-0,0,-46.127,-26.0362,1.196
-0.5036,-0.503697,0.231497,0.22304,-0,5.70835e-06,0.0175165,-1.87426e-05,0,-72,-0,0,-46.5151,-26.3029,1.2
-0.5036,-0.503697,0.231568,0.22304,-0,-2.49854e-05,0.0176175,-1.24951e-05,0,-73,-0,-0,-46.9016,-26.4449,1.204
-0.5036,-0.503697,0.231638,0.22304,-0,1.2134e-05,0.0177186,2.04609e-05,0,-73,-0,0,-47.2884,-26.5472,1.208
-0.5036,-0.503697,0.231709,0.22304,-0,8.08935e-06,0.0178199,1.36406e-05,0,-74,-0,0,-47.6793,-26.7094,1.212
-0.5036,-0.503697,0.231781,0.22304,-0,5.3929e-06,0.0179214,9.09372e-06,0,-74,-0,0,-48.0724,-26.8684,1.216
-0.5036,-0.503697,0.231853,0.22304,-0,3.59527e-06,0.0180231,6.06248e-06,0,-75,-0,0,-48.4678,-27.0255,1.22
-0.5036,-0.503697,0.231925,0.22304,-0,2.39684e-06,0.0181249,4.04165e-06,0,-76,-0,0,-48.8655,-27.1813,1.224
-0.5036,-0.503697,0.231998,0.22304,-0,1.5979e-06,0.0182269,2.69444e-06,0,-76,-0,0,-49.2653,-27.3364,1.228
-0.5036,-0.503697,0.232071,0.22304,-0,1.06526e-06,0.0183292,1.79629e-06,0,-77,-0,0,-49.6674,-27.491,1.232
-0.5036,-0.503697,0.232144,0.22304,-0,-2.80807e-05,0.0184315,1.19753e-06,0,-77,-0,-0,-50.0718,-27.6455,1.236
-0.5036,-0.503697,0.232218,0.22304,-0,-1.87205e-05,0.0185341,7.98351e-07,0,-78,-0,-0,-50.4784,-27.7999,1.24
-0.5036,-0.503697,0.232293,0.22304,-0,1.63106e-05,0.0186368,5.32234e-07,0,-78,-0,0,-50.8873,-27.9545,1.244
-0.5036,-0.503697,0.232367,0.22304,-0,1.08737e-05,0.0187397,3.54823e-07,0,-79,-0,0,-51.2984,-28.1091,1.248
-0.5036,-0.503697,0.232443,0.22304,-0,7.24915e-06,0.0188428,2.36549e-07,0,-79,-0,0,-51.7119,-28.2639,1.252
-0.5036,-0.503697,0.232518,0.223041,-0,-2.39582e-05,0.0189461,2.89486e-05,0,-80,-0,-0,-52.1256,-28.3757,1.256
-0.5036,-0.503697,0.232594,0.22304,-0,1.28188e-05,0.0190495,-3.82828e-05,0,-81,-0,0,-52.5474,-28.6317,1.26
-0.5036,-0.503697,0.232671,0.223041,-0,8.54588e-06,0.0191531,3.206e-05,0,-81,-0,0,-52.9638,-28.6816,1.264
-0.5036,-0.503697,0.232747,0.223041,-0,-2.30937e-05,0.0192569,2.13733e-05,0,-82,-0,-0,-53.3863,-28.8533,1.268
-0.5036,-0.503697,0.232825,0.223041,-0,1.33951e-05,0.0193608,1.42489e-05,0,-82,-0,0,-53.8111,-29.0198,1.272
-0.5036,-0.503697,0.232902,0.223041,-0,8.9301e-06,0.0194649,9.49926e-06,0,-83,-0,0,-54.2382,-29.1831,1.276
-0.5036,-0.503697,0.23298,0.223041,-0,-2.28375e-05,0.0195692,6.33284e-06,0,-84,-0,-0,-54.6676,-29.3443,1.28
-0.5036,-0.503697,0.233059,0.223041,-0,1.35659e-05,0.0196736,3.30128e-05,0,-84,-0,0,-55.0973,-29.4609,1.284
-0.5036,-0.503697,0.233138,0.223041,-0,9.04394e-06,0.0197782,2.20085e-05,0,-85,-0,0,-55.5313,-29.6343,1.288
-0.5036,-0.503697,0.233217,0.223041,-0,6.02929e-06,0.019883,1.46724e-05,0,-85,-0,0,-55.9676,-29.8025,1.292
-0.5036,-0.503697,0.233297,0.223041,-0,4.01953e-06,0.0199879,9.78158e-06,0,-86,-0,0,-56.4062,-29.9672,1.296
-0.5036,-0.503697,0.233377,0.223042,-0,-2.61112e-05,0.020093,6.41029e-05,0,-86,-0,-0,-56.8433,-30.0434,1.3
-0.5036,-0.503697,0.233458,0.223041,-0,-1.74075e-05,0.0201983,1.39443e-05,0,-87,-0,-0,-57.2884,-30.2765,1.304
-0.5036,-0.503697,0.233539,0.223041,-0,1.71859e-05,0.0203037,9.29623e-06,0,-88,-0,0,-57.7339,-30.4416,1.308
-0.5036,-0.503697,0.23362,0.223041,-0,1.14573e-05,0.0204093,-2.25934e-05,0,-88,-0,0,-58.1836,-30.6478,1.312
-0.5036,-0.503697,0.233702,0.223042,-0,-2.11527e-05,0.020515,4.25196e-05,0,-89,-0,-0,-58.63,-30.7087,1.316
-0.5036,-0.503697,0.233784,0.223042,-0,1.46891e-05,0.0206209,2.83464e-05,0,-89,-0,0,-59.0825,-30.8888,1.32
-0.5036,-0.503697,0.233867,0.223041,-0,9.79273e-06,0.0207269,-9.89334e-06,0,-90,-0,0,-59.5392,-31.1052,1.324
-0.5036,-0.503697,0.23395,0.223042,-0,-2.22624e-05,0.0208331,5.09863e-05,0,-91,-0,-0,-59.9926,-31.1732,1.328
-0.5036,-0.503697,0.234033,0.223042,-0,1.39493e-05,0.0209395,3.39909e-05,0,-91,-0,0,-60.4521,-31.3583,1.332
-0.5036,-0.503697,0.234117,0.223042,-0,-1.94914e-05,0.021046,5.14515e-05,0,-92,-0,-0,-60.912,-31.4918,1.336
-0.5036,-0.503697,0.234202,0.223043,-0,-1.29943e-05,0.0211527,6.30919e-05,0,-93,-0,-0,-61.3743,-31.6344,1.34
-0.5036,-0.503697,0.234287,0.223043,-0,-8.66284e-06,0.0212595,4.20613e-05,0,-93,-0,-0,-61.8408,-31.8261,1.344
-0.5036,-0.503697,0.234372,0.223043,-0,2.30157e-05,0.0213665,5.68318e-05,0,-94,-0,0,-62.3078,-31.9645,1.348
-0.5036,-0.503697,0.234458,0.223044,-0,-1.34471e-05,0.0214736,6.66788e-05,0,-94,-0,-0,-62.7772,-32.1104,1.352
-0.5036,-0.503697,0.234544,0.223044,-0,1.98262e-05,0.0215809,4.44525e-05,0,-95,-0,0,-63.2508,-32.3046,1.356
-0.5036,-0.503697,0.23463,0.223044,-0,1.32174e-05,0.0216883,5.84259e-05,0,-96,-0,0,-63.7248,-32.4448,1.36
-0.5036,-0.503697,0.234717,0.223044,-0,8.81163e-06,0.0217959,6.77415e-05,0,-96,-0,0,-64.2012,-32.5922,1.364
-0.5036,-0.503697,0.234805,0.223045,-0,-2.29165e-05,0.0219036,7.3952e-05,0,-97,-0,-0,-64.68,-32.7444,1.368
-0.5036,-0.503697,0.234892,0.223045,-0,1.35133e-05,0.0220114,7.80922e-05,0,-98,-0,0,-65.1612,-32.9,1.372
-0.5036,-0.503697,0.234981,0.223045,-0,9.00884e-06,0.0221194,8.08524e-05,0,-98,-0,0,-65.6447,-33.0579,1.376
-0.5036,-0.503697,0.235069,0.223046,-0,-2.2785e-05,0.0222276,8.26925e-05,0,-99,-0,-0,-66.1307,-33.2174,1.38
-0.5036,-0.503697,0.235158,0.223046,-0,-1.519e-05,0.0223359,8.39193e-05,0,-99,-0,-0,-66.619,-33.378,1.384
-0.5036,-0.503697,0.235248,0.223047,-0,1.86642e-05,0.0224443,0.000113528,0,-100,-0,0,-67.1077,-33.4962,1.388
-0.5036,-0.503697,0.235338,0.223047,-0,1.24428e-05,0.0225529,0.000133267,0,-101,-0,0,-67.5989,-33.6295,1.392
-0.5036,-0.503697,0.235428,0.223048,-0,-2.04957e-05,0.0226616,0.000175218,0,-101,-0,-0,-68.0906,-33.7296,1.396
-0.5036,-0.503697,0.235519,0.223049,-0,-1.36638e-05,0.0227705,0.000203184,0,-102,-0,-0,-68.5846,-33.851,1.4
-0.5036,-0.503697,0.235611,0.223051,-0,-9.1092e-06,0.0228795,0.00025062,0,-103,-0,-0,-69.0792,-33.9433,1.404
-0.5036,-0.503697,0.235702,0.223052,-0,-6.0728e-06,0.0229887,0.000282244,0,-103,-0,-0,-69.5761,-34.0596,1.408
-0.5036,-0.503697,0.235795,0.223054,-0,2.47424e-05,0.0230979,0.000303326,0,-104,-0,0,-70.0755,-34.1919,1.412
-0.5036,-0.503697,0.235887,0.223055,-0,-1.2296e-05,0.0232074,0.000317381,0,-104,-0,-0,-70.5772,-34.335,1.416
-0.5036,-0.503697,0.23598,0.223057,-0,2.05936e-05,0.0233169,0.000355542,0,-105,-0,0,-71.0795,-34.4421,1.42
-0.5036,-0.503697,0.236074,0.223058,-0,1.37291e-05,0.0234266,0.000323401,0,-106,-0,0,-71.588,-34.6548,1.424
-0.5036,-0.503697,0.236168,0.223058,-0,-1.96382e-05,0.0235364,0.000273182,0,-106,-0,-0,-72.1008,-34.8949,1.428
-0.5036,-0.503697,0.236262,0.223059,-0,-1.30921e-05,0.0236464,0.000239703,0,-107,-0,-0,-72.616,-35.11,1.432
-0.5036,-0.503697,0.236357,0.223059,-0,-3.7519e-05,0.0237565,0.000131011,0,-108,-0,-0,-73.1393,-35.4382,1.436
-0.5036,-0.503697,0.236452,0.223059,-0,3.77824e-06,0.0238667,0.000116132,0,-109,-0,0,-73.6613,-35.6259,1.44
-0.5036,-0.503696,0.236548,0.22306,-0,6.01007e-05,0.0239771,0.000135003,0,-109,-0,0,-74.1837,-35.7631,1.444
-0.5036,-0.503697,0.236644,0.223059,-0,-1.75147e-05,0.0240875,6.12111e-05,0,-110,-0,-0,-74.7143,-36.0395,1.448
-0.5036,-0.503697,0.23674,0.22306,-0,-4.04674e-05,0.0241981,9.83893e-05,0,-111,-0,-0,-75.2417,-36.1496,1.452
-0.5036,-0.503696,0.236837,0.22306,-0,5.93945e-05,0.0243089,3.68019e-05,0,-112,-0,0,-75.7772,-36.4081,1.456
-0.5036,-0.503697,0.236935,0.223059,-0,1.08054e-05,0.0244198,-4.25631e-06,0,-112,-0,0,-76.3151,-36.636,1.46
-0.5036,-0.503697,0.237033,0.22306,-0,7.20361e-06,0.0245308,5.47443e-05,0,-113,-0,0,-76.8497,-36.714,1.464
-0.5036,-0.503697,0.237131,0.22306,-0,4.8024e-06,0.0246419,6.52871e-05,0,-114,-0,0,-77.3887,-36.8649,1.468
-0.5036,-0.503697,0.23723,0.223061,-0,-2.55893e-05,0.0247531,7.23157e-05,0,-114,-0,-0,-77.9302,-37.0212,1.472
-0.5036,-0.503696,0.237329,0.223062,-0,4.05223e-05,0.0248645,0.000134583,0,-115,-0,0,-78.4703,-37.0949,1.476
-0.5036,-0.503697,0.237429,0.223062,-0,-3.0567e-05,0.024976,8.97222e-05,0,-116,-0,-0,-79.0185,-37.3294,1.48
-0.5036,-0.503697,0.237529,0.223062,-0,-2.0378e-05,0.0250876,5.98148e-05,0,-117,-0,-0,-79.5692,-37.5417,1.484
-0.5036,-0.503697,0.23763,0.223063,-0,-1.35853e-05,0.0251993,0.00015504,0,-117,-0,-0,-80.1148,-37.5664,1.488
-0.5036,-0.503696,0.237731,0.223065,-0,4.8525e-05,0.0253112,0.000218524,0,-118,-0,0,-80.6628,-37.639,1.492
-0.5036,-0.503697,0.237832,0.223065,-0,-2.52319e-05,0.0254232,0.000174473,0,-119,-0,-0,-81.219,-37.873,1.496
-0.5036,-0.503697,0.237934,0.223066,-0,-4.56122e-05,0.0255353,0.000202688,0,-119,-0,-0,-81.7738,-37.9989,1.5
-0.5036,-0.503697,0.238036,0.223067,-0,-1.61719e-06,0.0256475,0.000221498,0,-120,-0,-0,-82.3311,-38.139,1.504
-0.5036,-0.503697,0.238139,0.223068,-0,-2.98691e-05,0.0257598,0.000262829,0,-121,-0,-0,-82.889,-38.2455,1.508
-0.5036,-0.503697,0.238242,0.22307,-0,8.87822e-06,0.0258723,0.000347965,0,-121,-0,0,-83.4455,-38.2864,1.512
-0.5036,-0.503697,0.238346,0.223072,-0,5.91882e-06,0.0259848,0.000318349,0,-122,-0,0,-84.0103,-38.4997,1.516
-0.5036,-0.503697,0.23845,0.223073,-0,3.94588e-06,0.0260975,0.000356188,0,-123,-0,0,-84.5737,-38.612,1.52
-0.5036,-0.503697,0.238555,0.223076,-0,2.63058e-06,0.0262103,0.000438995,0,-123,-0,0,-85.1358,-38.6569,1.524
-0.5036,-0.503696,0.23866,0.223077,-0,5.93356e-05,0.0263232,0.000407827,0,-124,-0,0,-85.706,-38.873,1.528
-0.5036,-0.503696,0.238765,0.223079,-0,3.9557e-05,0.0264362,0.000473421,0,-125,-0,0,-86.2731,-38.9442,1.532
-0.5036,-0.503696,0.238871,0.223081,-0,2.63714e-05,0.0265493,0.000430778,0,-126,-0,0,-86.8483,-39.1778,1.536
-0.5036,-0.503697,0.238978,0.223082,-0,-4.00009e-05,0.0266626,0.000373558,0,-126,-0,-0,-87.4279,-39.4335,1.54
-0.5036,-0.503697,0.239085,0.223083,-0,2.12363e-06,0.0267759,0.000335411,0,-127,-0,0,-88.0101,-39.6608,1.544
-0.5036,-0.503697,0.239192,0.223084,-0,-2.73752e-05,0.0268894,0.000281189,0,-128,-0,-0,-88.5966,-39.9123,1.548
-0.5036,-0.503696,0.2393,0.223084,-0,3.93317e-05,0.0270029,0.00018746,0,-129,-0,0,-89.1894,-40.2232,1.552
-0.5036,-0.503697,0.239408,0.223085,-0,-3.13607e-05,0.0271166,0.000240137,0,-130,-0,-0,-89.7771,-40.3147,1.556
-0.5036,-0.503697,0.239517,0.223085,-0,7.8838e-06,0.0272304,0.0001313,0,-131,-0,0,-90.3768,-40.6486,1.56
-0.5036,-0.503697,0.239626,0.223085,-0,-2.35351e-05,0.0273443,0.000145115,0,-131,-0,-0,-90.9734,-40.7987,1.564
-0.5036,-0.503697,0.239736,0.223085,-0,1.31009e-05,0.0274583,6.79527e-05,0,-132,-0,0,-91.5781,-41.0855,1.568
-0.5036,-0.503697,0.239846,0.223086,-0,-2.0057e-05,0.0275724,0.000102884,0,-133,-0,-0,-92.1796,-41.2042,1.572
-0.5036,-0.503697,0.239956,0.223086,-0,-1.33713e-05,0.0276866,6.85891e-05,0,-134,-0,-0,-92.7875,-41.427,1.576
-0.5036,-0.503697,0.240067,0.223086,-0,1.98767e-05,0.0278009,7.4517e-05,0,-134,-0,0,-93.3959,-41.5895,1.58
-0.5036,-0.503697,0.240179,0.223086,-0,-1.55398e-05,0.0279153,7.84689e-05,0,-135,-0,-0,-94.0069,-41.7552,1.584
-0.5036,-0.503697,0.24029,0.223086,-0,-1.03599e-05,0.0280298,5.23126e-05,0,-136,-0,-0,-94.6223,-41.9662,1.588
-0.5036,-0.503697,0.240403,0.223087,-0,-6.90657e-06,0.0281444,6.3666e-05,0,-137,-0,-0,-95.2383,-42.121,1.592
-0.5036,-0.503696,0.240516,0.223087,-0,5.29775e-05,0.0282591,7.12349e-05,0,-138,-0,0,-95.8569,-42.2817,1.596
-0.5036,-0.503697,0.240629,0.223087,-0,-5.10545e-05,0.0283739,7.62809e-05,0,-138,-0,-0,-96.4779,-42.4464,1.6
-0.5036,-0.503696,0.240743,0.223088,-0,5.23365e-05,0.0284888,7.96448e-05,0,-139,-0,0,-97.1015,-42.6137,1.604
-0.5036,-0.503696,0.240857,0.223088,-0,3.4891e-05,0.0286037,0.000110678,0,-140,-0,0,-97.7257,-42.7396,1.608
-0.5036,-0.503696,0.240971,0.223089,-0,2.32607e-05,0.0287188,0.000131367,0,-141,-0,0,-98.3525,-42.8812,1.612
-0.5036,-0.503697,0.241087,0.22309,-0,-4.20747e-05,0.028834,0.00014516,0,-142,-0,-0,-98.9817,-43.0333,1.616
-0.5036,-0.503697,0.241202,0.223091,-0,7.41092e-07,0.0289493,0.000154355,0,-142,-0,0,-99.6136,-43.1924,1.62
-0.5036,-0.503696,0.241318,0.223092,-0,2.9285e-05,0.0290647,0.000218067,0,-143,-0,0,-100.244,-43.2699,1.624
-0.5036,-0.503697,0.241435,0.223093,-0,-9.2676e-06,0.0291801,0.000260542,0,-144,-0,-0,-100.877,-43.3794,1.628
-0.5036,-0.503697,0.241552,0.223095,-0,-6.37602e-05,0.0292957,0.00034644,0,-144,-0,-0,-101.509,-43.4239,1.632
-0.5036,-0.503697,0.241669,0.223097,-0,-1.37159e-05,0.0294113,0.000346124,0,-145,-0,-0,-102.147,-43.5978,1.636
-0.5036,-0.503697,0.241787,0.223098,-0,-3.79349e-05,0.0295271,0.000374704,0,-146,-0,-0,-102.786,-43.7285,1.64
-0.5036,-0.503697,0.241905,0.223099,-0,3.50102e-06,0.0296429,0.000336175,0,-147,-0,0,-103.431,-43.9601,1.644
-0.5036,-0.503697,0.242024,0.223101,-0,2.33401e-06,0.0297588,0.000339281,0,-148,-0,0,-104.077,-44.1293,1.648
-0.5036,-0.503697,0.242143,0.223103,-0,1.55601e-06,0.0298748,0.000398933,0,-148,-0,0,-104.722,-44.2138,1.652
-0.5036,-0.503696,0.242263,0.223104,-0,5.86192e-05,0.0299909,0.000381119,0,-149,-0,0,-105.373,-44.4146,1.656
-0.5036,-0.503697,0.242383,0.223105,-0,1.02885e-05,0.030107,0.000340452,0,-150,-0,0,-106.028,-44.6499,1.66
-0.5036,-0.503697,0.242504,0.223107,-0,-2.19319e-05,0.0302233,0.000370923,0,-151,-0,-0,-106.682,-44.7786,1.664
-0.5036,-0.503697,0.242625,0.223108,-0,-4.34122e-05,0.0303396,0.000333655,0,-152,-0,-0,-107.343,-45.009,1.668
-0.5036,-0.503697,0.242747,0.223109,-0,-1.50537e-07,0.0304561,0.000308809,0,-153,-0,-0,-108.006,-45.2209,1.672
-0.5036,-0.503697,0.242869,0.223111,-0,-1.00358e-07,0.0305726,0.000321036,0,-154,-0,-0,-108.669,-45.3773,1.676
-0.5036,-0.503697,0.242991,0.223112,-0,-6.69054e-08,0.0306892,0.000300397,0,-154,-0,-0,-109.337,-45.5832,1.68
-0.5036,-0.503697,0.243114,0.223112,-0,-4.46036e-08,0.0308058,0.000257847,0,-155,-0,-0,-110.01,-45.822,1.684
-0.5036,-0.503697,0.243238,0.223113,-0,-2.88207e-05,0.0309226,0.00025827,0,-156,-0,-0,-110.683,-45.9965,1.688
-0.5036,-0.503697,0.243361,0.223114,-0,3.83681e-05,0.0310394,0.000200971,0,-157,-0,0,-111.363,-46.2577,1.692
-0.5036,-0.503697,0.243486,0.223114,-0,2.55787e-05,0.0311563,0.000162772,0,-158,-0,0,-112.045,-46.4903,1.696
-0.5036,-0.503697,0.243611,0.223115,-0,-4.05294e-05,0.0312733,0.000166096,0,-159,-0,-0,-112.728,-46.6608,1.7
-0.5036,-0.503696,0.243736,0.223115,-0,5.93532e-05,0.0313904,0.000139522,0,-160,-0,0,-113.416,-46.8763,1.704
-0.5036,-0.503696,0.243862,0.223115,-0,3.95688e-05,0.0315075,0.000121805,0,-161,-0,0,-114.106,-47.0786,1.708
-0.5036,-0.503696,0.243988,0.223116,-0,2.63792e-05,0.0316247,0.000109995,0,-162,-0,0,-114.798,-47.2721,1.712
-0.5036,-0.503697,0.244115,0.223116,-0,-6.87866e-05,0.031742,0.000102121,0,-162,-0,-0,-115.493,-47.4599,1.716
-0.5036,-0.503697,0.244242,0.223117,-0,-1.70668e-05,0.0318594,0.000125662,0,-163,-0,-0,-116.189,-47.6006,1.72
-0.5036,-0.503696,0.24437,0.223117,-0,4.6204e-05,0.0319768,0.000141357,0,-164,-0,0,-116.888,-47.7532,1.724
-0.5036,-0.503696,0.244498,0.223118,-0,3.08026e-05,0.0320943,0.00015182,0,-165,-0,0,-117.589,-47.9138,1.728
-0.5036,-0.503697,0.244626,0.223119,-0,-8.25583e-06,0.0322119,0.000187586,0,-166,-0,-0,-118.29,-48.0365,1.732
-0.5036,-0.503697,0.244756,0.223121,-0,-3.42948e-05,0.0323296,0.000240221,0,-167,-0,-0,-118.993,-48.134,1.736
-0.5036,-0.503697,0.244885,0.223122,-0,-5.16541e-05,0.0324473,0.00024652,0,-168,-0,-0,-119.699,-48.3012,1.74
-0.5036,-0.503697,0.245015,0.223123,-0,2.31458e-05,0.0325651,0.000308301,0,-168,-0,0,-120.405,-48.3852,1.744
-0.5036,-0.503696,0.245146,0.223125,-0,4.42214e-05,0.0326829,0.00037828,0,-169,-0,0,-121.111,-48.457,1.748
-0.5036,-0.503697,0.245277,0.223127,-0,6.9003e-07,0.0328009,0.000396141,0,-170,-0,0,-121.822,-48.6071,1.752
-0.5036,-0.503697,0.245408,0.22313,-0,-5.71218e-05,0.0329189,0.000465631,0,-171,-0,-0,-122.532,-48.6799,1.756
-0.5036,-0.503697,0.24554,0.223132,-0,-9.29029e-06,0.0330369,0.000511957,0,-172,-0,-0,-123.244,-48.7875,1.76
-0.5036,-0.503697,0.245672,0.223134,-0,-3.49845e-05,0.0331551,0.000542841,0,-172,-0,-0,-123.959,-48.9183,1.764
-0.5036,-0.503697,0.245805,0.223137,-0,3.42589e-05,0.0332732,0.00056343,0,-173,-0,0,-124.676,-49.0647,1.768
-0.5036,-0.503697,0.245939,0.22314,-0,-5.95167e-06,0.0333915,0.000605948,0,-174,-0,-0,-125.394,-49.1783,1.772
-0.5036,-0.503697,0.246072,0.223142,-0,2.48231e-05,0.0335098,0.000634293,0,-175,-0,0,-126.115,-49.3133,1.776
-0.5036,-0.503696,0.246207,0.223145,-0,4.53397e-05,0.0336282,0.00068198,0,-176,-0,0,-126.836,-49.4193,1.78
-0.5036,-0.503697,0.246341,0.223148,-0,-2.73554e-05,0.0337466,0.000684981,0,-177,-0,-0,-127.562,-49.5925,1.784
-0.5036,-0.503697,0.246477,0.223151,-0,-1.82369e-05,0.0338651,0.000686981,0,-178,-0,-0,-128.291,-49.7672,1.788
-0.5036,-0.503696,0.246612,0.223153,-0,4.54239e-05,0.0339837,0.000659524,0,-179,-0,0,-129.024,-49.9863,1.792
-0.5036,-0.503697,0.246748,0.223156,-0,-2.72993e-05,0.0341023,0.000641219,0,-179,-0,-0,-129.76,-50.1916,1.796
-0.5036,-0.503697,0.246885,0.223159,-0,-4.69904e-05,0.034221,0.000657807,0,-180,-0,-0,-130.496,-50.3448,1.8
-0.5036,-0.503697,0.247022,0.223161,-0,-2.53603e-06,0.0343397,0.000640074,0,-181,-0,-0,-131.237,-50.5495,1.804
-0.5036,-0.503697,0.24716,0.223163,-0,-3.04816e-05,0.0344585,0.000570671,0,-182,-0,-0,-131.984,-50.8318,1.808
-0.5036,-0.503697,0.247298,0.223164,-0,8.46985e-06,0.0345774,0.000524402,0,-183,-0,0,-132.734,-51.0794,1.812
-0.5036,-0.503697,0.247436,0.223166,-0,3.44375e-05,0.0346963,0.000464765,0,-184,-0,0,-133.488,-51.3473,1.816
-0.5036,-0.503696,0.247575,0.223167,-0,5.17493e-05,0.0348152,0.000425007,0,-185,-0,0,-134.245,-51.5853,1.82
-0.5036,-0.503697,0.247715,0.223169,-0,-2.30823e-05,0.0349342,0.000398502,0,-186,-0,-0,-135.005,-51.8036,1.824
-0.5036,-0.503697,0.247855,0.22317,-0,1.34027e-05,0.0350533,0.000380831,0,-187,-0,0,-135.767,-52.0087,1.828
-0.5036,-0.503697,0.247995,0.223171,-0,-1.98558e-05,0.0351724,0.000369051,0,-188,-0,-0,-136.532,-52.2051,1.832
-0.5036,-0.503697,0.248136,0.223173,-0,-4.20281e-05,0.0352916,0.000389989,0,-189,-0,-0,-137.298,-52.3524,1.836
-0.5036,-0.503696,0.248278,0.223174,-0,5.8354e-05,0.0354108,0.000375156,0,-190,-0,0,-138.068,-52.5535,1.84
-0.5036,-0.503697,0.24842,0.223176,-0,-1.86792e-05,0.0355301,0.000365268,0,-191,-0,-0,-138.841,-52.7472,1.844
-0.5036,-0.503697,0.248562,0.223177,-0,1.63381e-05,0.0356494,0.000301094,0,-192,-0,0,-139.62,-53.0225,1.848
-0.5036,-0.503696,0.248705,0.223177,-0,3.9683e-05,0.0357688,0.000258311,0,-193,-0,0,-140.402,-53.2657,1.852
-0.5036,-0.503697,0.248848,0.223178,-0,-3.11265e-05,0.0358882,0.000229789,0,-194,-0,-0,-141.186,-53.4876,1.856
-0.5036,-0.503697,0.248992,0.223178,-0,-2.0751e-05,0.0360076,0.000181984,0,-195,-0,-0,-141.975,-53.7385,1.86
-0.5036,-0.503696,0.249136,0.223179,-0,4.37478e-05,0.0361271,0.000150113,0,-196,-0,0,-142.767,-53.9655,1.864
-0.5036,-0.503697,0.249281,0.223179,-0,-2.84166e-05,0.0362467,0.000128867,0,-197,-0,-0,-143.561,-54.1767,1.868
-0.5036,-0.503696,0.249426,0.22318,-0,3.86374e-05,0.0363663,0.000143493,0,-198,-0,0,-144.356,-54.3342,1.872
-0.5036,-0.503697,0.249572,0.22318,-0,-3.03263e-06,0.0364859,9.56619e-05,0,-199,-0,-0,-145.157,-54.5854,1.876
-0.5036,-0.503697,0.249718,0.22318,-0,-5.96036e-05,0.0366056,9.25655e-05,0,-200,-0,-0,-145.959,-54.7696,1.88
-0.5036,-0.503697,0.249865,0.223181,-0,-1.09448e-05,0.0367253,0.000119292,0,-201,-0,-0,-146.762,-54.9091,1.884
-0.5036,-0.503697,0.250012,0.223181,-0,2.14944e-05,0.0368451,0.00013711,0,-202,-0,0,-147.568,-55.062,1.888
-0.5036,-0.503697,0.250159,0.223182,-0,-4.32523e-05,0.0369649,0.000148989,0,-203,-0,-0,-148.376,-55.2239,1.892
-0.5036,-0.503696,0.250308,0.223183,-0,5.75379e-05,0.0370848,0.000214489,0,-204,-0,0,-149.183,-55.3054,1.896
-0.5036,-0.503697,0.250456,0.223185,-0,-4.80142e-05,0.0372046,0.000258157,0,-205,-0,-0,-149.992,-55.4197,1.9
-0.5036,-0.503697,0.250605,0.223187,-0,-3.21851e-06,0.0373246,0.000316059,0,-206,-0,-0,-150.803,-55.5128,1.904
-0.5036,-0.503697,0.250755,0.223188,-0,-2.14567e-06,0.0374445,0.000354661,0,-207,-0,-0,-151.615,-55.6348,1.908
-0.5036,-0.503697,0.250905,0.22319,-0,-1.43045e-06,0.0375645,0.000409186,0,-208,-0,-0,-152.429,-55.733,1.912
-0.5036,-0.503696,0.251055,0.223193,-0,5.66282e-05,0.0376846,0.000474327,0,-209,-0,0,-153.244,-55.8154,1.916
-0.5036,-0.503697,0.251206,0.223195,-0,-1.98297e-05,0.0378046,0.000517755,0,-209,-0,-0,-154.061,-55.9303,1.92
-0.5036,-0.503697,0.251358,0.223198,-0,-1.32198e-05,0.0379247,0.000604288,0,-210,-0,-0,-154.877,-55.9807,1.924
-0.5036,-0.503697,0.25151,0.223201,-0,-8.8132e-06,0.0380449,0.000604395,0,-211,-0,-0,-155.699,-56.1607,1.928
-0.5036,-0.503697,0.251662,0.223203,-0,-5.87547e-06,0.0381651,0.000633258,0,-212,-0,-0,-156.522,-56.2977,1.932
-0.5036,-0.503697,0.251815,0.223206,-0,2.48739e-05,0.0382853,0.000594917,0,-213,-0,0,-157.352,-56.5355,1.936
-0.5036,-0.503697,0.251968,0.223208,-0,-1.22083e-05,0.0384055,0.000598148,0,-214,-0,-0,-158.182,-56.711,1.94
-0.5036,-0.503697,0.252122,0.22321,-0,-8.13886e-06,0.0385258,0.00054272,0,-215,-0,-0,-159.019,-56.9746,1.944
-0.5036,-0.503697,0.252277,0.223211,-0,-5.42591e-06,0.0386461,0.000476977,0,-217,-0,-0,-159.86,-57.2536,1.948
-0.5036,-0.503697,0.252431,0.223212,-0,2.51737e-05,0.0387664,0.000404357,0,-218,-0,0,-160.706,-57.5431,1.952
-0.5036,-0.503697,0.252587,0.223214,-0,-4.07994e-05,0.0388868,0.000384735,0,-219,-0,-0,-161.552,-57.753,1.956
-0.5036,-0.503697,0.252742,0.223215,-0,1.59132e-06,0.0390071,0.000342863,0,-220,-0,0,-162.404,-57.9964,1.96
-0.5036,-0.503697,0.252899,0.223216,-0,1.06088e-06,0.0391276,0.000314948,0,-221,-0,0,-163.257,-58.2189,1.964
-0.5036,-0.503696,0.253055,0.223217,-0,5.82891e-05,0.039248,0.000296338,0,-222,-0,0,-164.114,-58.4275,1.968
-0.5036,-0.503697,0.253213,0.223218,-0,-1.87224e-05,0.0393685,0.000312722,0,-223,-0,-0,-164.971,-58.5836,1.972
-0.5036,-0.503697,0.25337,0.223219,-0,-4.12726e-05,0.039489,0.000323645,0,-224,-0,-0,-165.831,-58.748,1.976
-0.5036,-0.503697,0.253529,0.223221,-0,-2.7515e-05,0.0396095,0.000359718,0,-225,-0,-0,-166.691,-58.8746,1.98
-0.5036,-0.503696,0.253687,0.223223,-0,6.80294e-05,0.03973,0.000383767,0,-226,-0,0,-167.555,-59.0194,1.984
-0.5036,-0.503697,0.253846,0.223225,-0,-1.22289e-05,0.0398506,0.000399799,0,-227,-0,-0,-168.42,-59.1762,1.988
-0.5036,-0.503696,0.254006,0.223226,-0,4.94292e-05,0.0399712,0.000410487,0,-228,-0,0,-169.289,-59.341,1.992
-0.5036,-0.503697,0.254166,0.223228,-0,-5.34199e-05,0.0400918,0.000417613,0,-229,-0,-0,-170.16,-59.5112,1.996
-0.5036,-0.503697,0.254327,0.223229,-0,-6.82237e-06,0.0402124,0.000364781,0,-230,-0,-0,-171.038,-59.7714,2
-0.5036,-0.503696,0.254488,0.22323,-0,5.30336e-05,0.040333,0.00032956,0,-231,-0,0,-171.918,-60.0052,2.004
-0.5036,-0.503697,0.25465,0.223231,-0,6.56481e-06,0.0404537,0.000277289,0,-233,-0,0,-172.803,-60.2646,2.008
-0.5036,-0.503696,0.254812,0.223231,-0,3.31675e-05,0.0405744,0.000242441,0,-234,-0,0,-173.69,-60.4979,2.012
-0.5036,-0.503697,0.254974,0.223232,-0,-3.54702e-05,0.0406951,0.000190418,0,-235,-0,-0,-174.583,-60.757,2.016
-0.5036,-0.503696,0.255137,0.223233,-0,3.3935e-05,0.0408158,0.000184527,0,-236,-0,0,-175.475,-60.9469,2.02
-0.5036,-0.503696,0.255301,0.223233,-0,2.26234e-05,0.0409365,0.0001806,0,-237,-0,0,-176.371,-61.1339,2.024
-0.5036,-0.503697,0.255465,0.223234,-0,-1.37087e-05,0.0410573,0.000206773,0,-238,-0,-0,-177.267,-61.2758,2.028
-0.5036,-0.503697,0.255629,0.223236,-0,-9.13912e-06,0.0411781,0.000253012,0,-239,-0,-0,-178.164,-61.3876,2.032
-0.5036,-0.503697,0.255794,0.223237,-0,-6.09275e-06,0.0412988,0.000283839,0,-240,-0,-0,-179.064,-61.5225,2.036
-0.5036,-0.503697,0.255959,0.223239,-0,-4.06183e-06,0.0414196,0.00033318,0,-241,-0,-0,-179.964,-61.6297,2.04
-0.5036,-0.503696,0.256125,0.223241,-0,2.6083e-05,0.0415405,0.000423657,0,-242,-0,0,-180.863,-61.6752,2.044
-0.5036,-0.503697,0.256292,0.223244,-0,-6.89841e-05,0.0416613,0.000512765,0,-243,-0,-0,-181.763,-61.7228,2.048
-0.5036,-0.503697,0.256459,0.223247,-0,-1.71985e-05,0.0417821,0.000629753,0,-244,-0,-0,-182.662,-61.7285,2.052
-0.5036,-0.503697,0.256626,0.223252,-0,-4.02566e-05,0.0419029,0.000765326,0,-245,-0,-0,-183.56,-61.7064,2.056
-0.5036,-0.503696,0.256794,0.223257,-0,5.95351e-05,0.0420238,0.000942081,0,-246,-0,0,-184.455,-61.6226,2.06
-0.5036,-0.503696,0.256962,0.223263,-0,3.969e-05,0.0421447,0.0011175,0,-246,-0,0,-185.348,-61.5407,2.064
-0.5036,-0.503697,0.257131,0.223269,-0,-5.99127e-05,0.0422655,0.00129203,0,-247,-0,-0,-186.241,-61.4603,2.068
-0.5036,-0.503697,0.2573,0.223277,-0,-1.11509e-05,0.0423864,0.00149475,0,-248,-0,-0,-187.13,-61.3375,2.072
-0.5036,-0.503697,0.25747,0.223284,-0,-7.43394e-06,0.0425073,0.0016299,0,-249,-0,-0,-188.022,-61.3161,2.076
-0.5036,-0.503697,0.25764,0.223293,-0,-4.95596e-06,0.0426282,0.00183517,0,-250,-0,-0,-188.909,-61.1895,2.08
-0.5036,-0.503697,0.257811,0.223303,-0,-3.20949e-05,0.0427491,0.0020008,0,-250,-0,-0,-189.797,-61.1224,2.084
-0.5036,-0.503697,0.257982,0.223311,-0,-2.13966e-05,0.04287,0.00205364,0,-251,-0,-0,-190.691,-61.2245,2.088
-0.5036,-0.503697,0.258154,0.223319,-0,1.45265e-05,0.0429909,0.00200249,0,-253,-0,0,-191.594,-61.4826,2.092
-0.5036,-0.503697,0.258326,0.223326,-0,9.68435e-06,0.0431118,0.00191081,0,-254,-0,0,-192.503,-61.8015,2.096
-0.5036,-0.503697,0.258499,0.223331,-0,-2.23347e-05,0.0432327,0.00173453,0,-255,-0,-0,-193.422,-62.2473,2.1
-0.5036,-0.503697,0.258672,0.223336,-0,1.39011e-05,0.0433536,0.00153064,0,-257,-0,0,-194.35,-62.7345,2.104
-0.5036,-0.503697,0.258846,0.22334,-0,-1.95235e-05,0.0434746,0.00133712,0,-258,-0,-0,-195.284,-63.2062,2.108
-0.5036,-0.503697,0.25902,0.223343,-0,4.45662e-05,0.0435955,0.00115053,0,-259,-0,0,-196.225,-63.6674,2.112
-0.5036,-0.503697,0.259195,0.223345,-0,2.97108e-05,0.0437164,0.000968559,0,-261,-0,0,-197.172,-64.1218,2.116
-0.5036,-0.503697,0.25937,0.223347,-0,1.98072e-05,0.0438373,0.000818452,0,-262,-0,0,-198.124,-64.5283,2.12
-0.5036,-0.503697,0.259545,0.223349,-0,-4.43771e-05,0.0439582,0.000689589,0,-263,-0,-0,-199.08,-64.903,2.124
-0.5036,-0.503697,0.259721,0.22335,-0,-2.95847e-05,0.0440792,0.00057489,0,-265,-0,-0,-200.041,-65.2564,2.128
-0.5036,-0.503697,0.259898,0.223352,-0,9.06779e-06,0.0442001,0.000527214,0,-266,-0,0,-201.003,-65.5093,2.132
-0.5036,-0.503697,0.260075,0.223353,-0,3.48361e-05,0.044321,0.00046664,0,-267,-0,0,-201.969,-65.7815,2.136
-0.5036,-0.503697,0.260253,0.223356,-0,-5.56685e-06,0.0444419,0.000483839,0,-268,-0,-0,-202.934,-65.9371,2.14
-0.5036,-0.503697,0.260431,0.223358,-0,2.50797e-05,0.0445628,0.000495305,0,-270,-0,0,-203.901,-66.1012,2.144
-0.5036,-0.503697,0.260609,0.223361,-0,-1.20711e-05,0.0446837,0.000589322,0,-271,-0,-0,-204.866,-66.1416,2.148
-0.5036,-0.503697,0.260788,0.223364,-0,2.07435e-05,0.0448046,0.000709581,0,-271,-0,0,-205.829,-66.1425,2.152
-0.5036,-0.503697,0.260967,0.22337,-0,1.3829e-05,0.0449255,0.000904918,0,-272,-0,0,-206.788,-66.0308,2.156
-0.5036,-0.503697,0.261147,0.223376,-0,-1.95716e-05,0.0450463,0.00109272,0,-273,-0,-0,-207.745,-65.9304,2.16
-0.5036,-0.503697,0.261328,0.223385,-0,1.57432e-05,0.0451672,0.00147705,0,-274,-0,0,-208.688,-65.5352,2.164
-0.5036,-0.503697,0.261509,0.223395,-0,1.04955e-05,0.0452881,0.00181963,0,-274,-0,0,-209.628,-65.2026,2.168
-0.5036,-0.503697,0.26169,0.223406,-0,6.99698e-06,0.0454089,0.00216319,0,-275,-0,0,-210.563,-64.8686,2.172
-0.5036,-0.503697,0.261872,0.223418,-0,-2.41263e-05,0.0455298,0.0024786,0,-276,-0,-0,-211.495,-64.5767,2.176
-0.5036,-0.503697,0.262054,0.223431,-0,-1.60842e-05,0.0456506,0.00268887,0,-276,-0,-0,-212.43,-64.4426,2.18
-0.5036,-0.503697,0.262237,0.223443,-0,-1.07228e-05,0.0457714,0.00280026,0,-277,-0,-0,-213.369,-64.4567,2.184
-0.5036,-0.503697,0.262421,0.223455,-0,-7.14853e-06,0.0458922,0.00284573,0,-278,-0,-0,-214.312,-64.5697,2.188
-0.5036,-0.503697,0.262604,0.223466,-0,-4.76568e-06,0.046013,0.00284726,0,-280,-0,-0,-215.261,-64.7486,2.192
-0.5036,-0.503697,0.262789,0.223477,-0,-3.17712e-06,0.0461338,0.00281948,0,-281,-0,-0,-216.213,-64.9715,2.196
-0.5036,-0.503697,0.262973,0.223488,-0,-2.11808e-06,0.0462545,0.00277217,0,-282,-0,-0,-217.171,-65.2236,2.2
-0.5036,-0.503697,0.263159,0.223499,-0,-1.41205e-06,0.0463753,0.00276942,0,-283,-0,-0,-218.129,-65.4088,2.204
-0.5036,-0.503697,0.263344,0.22351,-0,-9.4137e-07,0.046496,0.00276759,0,-284,-0,-0,-219.09,-65.5927,2.208
-0.5036,-0.503697,0.263531,0.223521,-0,2.81633e-05,0.0466168,0.00279516,0,-285,-0,0,-220.051,-65.7324,2.212
-0.5036,-0.503697,0.263717,0.223532,-0,-3.88063e-05,0.0467375,0.00278475,0,-286,-0,-0,-221.017,-65.9291,2.216
-0.5036,-0.503697,0.263905,0.223543,-0,3.1711e-05,0.0468581,0.00272023,0,-288,-0,0,-221.99,-66.2069,2.22
-0.5036,-0.503697,0.264092,0.223552,-0,2.11407e-05,0.0469788,0.00256205,0,-289,-0,0,-222.973,-66.6251,2.224
-0.5036,-0.503697,0.26428,0.223559,-0,-1.46972e-05,0.0470994,0.00234143,0,-291,-0,-0,-223.966,-67.137,2.228
-0.5036,-0.503697,0.264469,0.223567,-0,-9.7981e-06,0.0472201,0.00216557,0,-292,-0,-0,-224.963,-67.5818,2.232
-0.5036,-0.503697,0.264658,0.223574,-0,-6.53207e-06,0.0473407,0.00201953,0,-293,-0,-0,-225.966,-67.9817,2.236
-0.5036,-0.503697,0.264848,0.223581,-0,-4.35471e-06,0.0474613,0.00200854,0,-295,-0,-0,-226.965,-68.1791,2.24
-0.5036,-0.503697,0.265038,0.22359,-0,2.58878e-05,0.0475818,0.00203001,0,-296,-0,0,-227.965,-68.3277,2.244
-0.5036,-0.503697,0.265228,0.223598,-0,-1.15324e-05,0.0477024,0.00207311,0,-297,-0,-0,-228.965,-68.4439,2.248
-0.5036,-0.503697,0.265419,0.223608,-0,-7.68827e-06,0.0478229,0.00218822,0,-298,-0,-0,-229.963,-68.452,2.252
-0.5036,-0.503697,0.265611,0.223618,-0,2.36654e-05,0.0479434,0.00226496,0,-299,-0,0,-230.963,-68.5176,2.256
-0.5036,-0.503697,0.265803,0.223628,-0,1.57769e-05,0.0480639,0.00234491,0,-300,-0,0,-231.964,-68.5784,2.26
-0.5036,-0.503697,0.265996,0.223638,-0,-1.8273e-05,0.0481843,0.00239821,0,-301,-0,-0,-232.968,-68.6791,2.264
-0.5036,-0.503697,0.266188,0.223647,-0,-1.2182e-05,0.0483047,0.00240495,0,-302,-0,-0,-233.976,-68.8497,2.268
-0.5036,-0.503697,0.266382,0.223657,-0,2.06696e-05,0.0484251,0.00243824,0,-303,-0,0,-234.985,-68.9803,2.272
-0.5036,-0.503697,0.266576,0.223666,-0,-1.50112e-05,0.0485455,0.00237406,0,-305,-0,-0,-236.002,-69.2572,2.276
-0.5036,-0.503697,0.26677,0.223676,-0,-1.00075e-05,0.0486658,0.00236006,0,-306,-0,-0,-237.02,-69.4587,2.28
-0.5036,-0.503697,0.266965,0.223685,-0,2.21193e-05,0.0487861,0.00235073,0,-307,-0,0,-238.041,-69.6531,2.284
-0.5036,-0.503697,0.267161,0.223694,-0,-1.40447e-05,0.0489064,0.00231572,0,-308,-0,-0,-239.066,-69.8861,2.288
-0.5036,-0.503697,0.267356,0.223703,-0,-9.36316e-06,0.0490267,0.00229237,0,-310,-0,-0,-240.094,-70.1015,2.292
-0.5036,-0.503697,0.267553,0.223713,-0,-6.2421e-06,0.0491469,0.0023344,0,-311,-0,-0,-241.12,-70.2188,2.296
-0.5036,-0.503697,0.26775,0.223723,-0,-4.1614e-06,0.0492671,0.0023912,0,-312,-0,-0,-242.148,-70.3138,2.3
-0.5036,-0.503697,0.267947,0.223734,-0,2.60167e-05,0.0493873,0.00251544,0,-313,-0,0,-243.172,-70.3077,2.304
-0.5036,-0.503697,0.268145,0.223746,-0,1.73444e-05,0.0495074,0.00268464,0,-314,-0,0,-244.194,-70.2341,2.308
-0.5036,-0.503697,0.268343,0.223758,-0,-1.7228e-05,0.0496275,0.00279745,0,-315,-0,-0,-245.218,-70.2451,2.312
-0.5036,-0.503697,0.268542,0.22377,-0,-1.14853e-05,0.0497476,0.00290144,0,-316,-0,-0,-246.242,-70.2692,2.316
-0.5036,-0.503697,0.268741,0.223782,-0,2.11341e-05,0.0498676,0.00291318,0,-317,-0,0,-247.273,-70.4316,2.32
-0.5036,-0.503697,0.268941,0.223792,-0,-1.47016e-05,0.0499876,0.00271948,0,-319,-0,-0,-248.321,-70.9021,2.324
-0.5036,-0.503697,0.269141,0.223798,-0,-9.80104e-06,0.0501075,0.00233122,0,-321,-0,-0,-249.387,-71.6645,2.328
-0.5036,-0.503697,0.269342,0.223802,-0,-6.53403e-06,0.0502275,0.00187085,0,-323,-0,-0,-250.47,-72.5349,2.332
-0.5036,-0.503697,0.269543,0.223802,-0,-4.35602e-06,0.0503473,0.00127602,0,-325,-0,-0,-251.575,-73.607,2.336
-0.5036,-0.503697,0.269744,0.223802,-0,2.58869e-05,0.0504672,0.000850682,0,-327,-0,0,-252.684,-74.4248,2.34
-0.5036,-0.503697,0.269946,0.223802,-0,-1.1533e-05,0.050587,0.000567121,0,-328,-0,-0,-253.795,-75.0298,2.344
-0.5036,-0.503697,0.270149,0.223802,-0,2.11023e-05,0.0507068,0.000378081,0,-330,-0,0,-254.909,-75.493,2.348
-0.5036,-0.503697,0.270352,0.223802,-0,-1.47227e-05,0.0508265,0.000252054,0,-331,-0,-0,-256.026,-75.8617,2.352
-0.5036,-0.503697,0.270556,0.223802,-0,1.89758e-05,0.0509462,0.000168036,0,-333,-0,0,-257.146,-76.1672,2.356
-0.5036,-0.503697,0.27076,0.223802,-0,-1.61404e-05,0.0510659,0.000112024,0,-334,-0,-0,-258.268,-76.4307,2.36
-0.5036,-0.503697,0.270964,0.223802,-0,-1.07603e-05,0.0511855,7.46826e-05,0,-336,-0,-0,-259.393,-76.6662,2.364
-0.5036,-0.503697,0.271169,0.223802,-0,-7.17352e-06,0.051305,4.97884e-05,0,-337,-0,-0,-260.52,-76.8829,2.368
-0.5036,-0.503697,0.271375,0.223802,-0,2.40086e-05,0.0514246,3.31923e-05,0,-338,-0,0,-261.65,-77.0871,2.372
-0.5036,-0.503697,0.271581,0.223802,-0,-1.27852e-05,0.051544,2.21282e-05,0,-340,-0,-0,-262.783,-77.2829,2.376
-0.5036,-0.503697,0.271787,0.223802,-0,-8.52347e-06,0.0516635,1.47521e-05,0,-341,-0,-0,-263.918,-77.4731,2.38
-0.5036,-0.503697,0.271994,0.223802,-0,2.31086e-05,0.0517829,9.83475e-06,0,-342,-0,0,-265.056,-77.6596,2.384
-0.5036,-0.503697,0.272201,0.223802,-0,-1.33852e-05,0.0519022,3.53474e-05,0,-343,-0,-0,-266.195,-77.8003,2.388
-0.5036,-0.503697,0.272409,0.223802,-0,-8.92346e-06,0.0520215,-5.22598e-06,0,-345,-0,-0,-267.34,-78.0402,2.392
-0.5036,-0.503697,0.272617,0.223802,-0,-5.94897e-06,0.0521408,2.53069e-05,0,-346,-0,-0,-268.483,-78.1732,2.396
-0.5036,-0.503697,0.272826,0.223802,-0,2.48249e-05,0.05226,1.68713e-05,0,-347,-0,0,-269.632,-78.3647,2.4
-0.5036,-0.503697,0.273035,0.223802,-0,-1.2241e-05,0.0523792,1.12475e-05,0,-349,-0,-0,-270.783,-78.5519,2.404
-0.5036,-0.503697,0.273245,0.223802,-0,-8.16064e-06,0.0524983,7.49835e-06,0,-350,-0,-0,-271.937,-78.7362,2.408
-0.5036,-0.503697,0.273455,0.223803,-0,-5.44043e-06,0.0526174,3.37898e-05,0,-351,-0,-0,-273.091,-78.8754,2.412
-0.5036,-0.503697,0.273666,0.223803,-0,-3.62695e-06,0.0527364,2.25266e-05,0,-353,-0,-0,-274.25,-79.0708,2.416
-0.5036,-0.503697,0.273877,0.223803,-0,-2.41797e-06,0.0528554,1.50177e-05,0,-354,-0,-0,-275.411,-79.2605,2.42
-0.5036,-0.503697,0.274089,0.223803,-0,-1.61198e-06,0.0529743,3.88027e-05,0,-355,-0,-0,-276.574,-79.4032,2.424
-0.5036,-0.503697,0.274301,0.223803,-0,2.77163e-05,0.0530931,2.58685e-05,0,-357,-0,0,-277.74,-79.6009,2.428
-0.5036,-0.503697,0.274514,0.223803,-0,1.84775e-05,0.053212,1.72457e-05,0,-358,-0,0,-278.91,-79.7921,2.432
-0.5036,-0.503697,0.274727,0.223803,-0,-1.64726e-05,0.0533307,4.0288e-05,0,-360,-0,-0,-280.08,-79.9357,2.436
-0.5036,-0.503697,0.27494,0.223803,-0,1.78092e-05,0.0534494,2.68587e-05,0,-361,-0,0,-281.254,-80.1339,2.44
-0.5036,-0.503697,0.275154,0.223804,-0,-1.69181e-05,0.0535681,4.66967e-05,0,-362,-0,-0,-282.43,-80.2821,2.444
-0.5036,-0.503697,0.275369,0.223804,-0,-1.12787e-05,0.0536867,3.11311e-05,0,-364,-0,-0,-283.609,-80.4833,2.448
-0.5036,-0.503697,0.275584,0.223804,-0,-7.51917e-06,0.0538052,2.07541e-05,0,-365,-0,-0,-284.792,-80.6767,2.452
-0.5036,-0.503697,0.275799,0.223804,-0,-5.01278e-06,0.0539237,4.2627e-05,0,-366,-0,-0,-285.975,-80.8217,2.456
-0.5036,-0.503697,0.276015,0.223804,-0,-3.34185e-06,0.0540422,5.72089e-05,0,-368,-0,-0,-287.161,-80.9774,2.46
-0.5036,-0.503697,0.276232,0.223805,-0,-2.2279e-06,0.0541605,6.69302e-05,0,-369,-0,-0,-288.349,-81.1404,2.464
-0.5036,-0.503697,0.276449,0.223805,-0,-1.48527e-06,0.0542789,7.34111e-05,0,-370,-0,-0,-289.54,-81.3082,2.468
-0.5036,-0.503697,0.276666,0.223806,-0,-9.90178e-07,0.0543971,0.000106523,0,-372,-0,-0,-290.732,-81.4359,2.472
-0.5036,-0.503697,0.276884,0.223806,-0,-6.60119e-07,0.0545153,0.000128597,0,-373,-0,-0,-291.926,-81.5801,2.476
-0.5036,-0.503697,0.277102,0.223807,-0,-4.40079e-07,0.0546335,0.000143313,0,-374,-0,-0,-293.123,-81.7353,2.48
-0.5036,-0.503697,0.277321,0.223808,-0,-2.93386e-07,0.0547516,0.000153124,0,-376,-0,-0,-294.322,-81.8977,2.484
-0.5036,-0.503697,0.27754,0.223808,-0,2.85953e-05,0.0548696,0.000159664,0,-377,-0,0,-295.524,-82.0649,2.488
-0.5036,-0.503697,0.27776,0.223809,-0,1.90636e-05,0.0549876,0.000192816,0,-378,-0,0,-296.727,-82.1921,2.492
-0.5036,-0.503697,0.27798,0.223811,-0,1.2709e-05,0.0551055,0.000272498,0,-380,-0,0,-297.928,-82.2495,2.496
-0.5036,-0.503697,0.278201,0.223812,-0,8.47269e-06,0.0552233,0.000268038,0,-381,-0,0,-299.136,-82.4329,2.5
-0.5036,-0.503697,0.278422,0.223813,-0,5.64846e-06,0.0553411,0.000265065,0,-382,-0,0,-300.347,-82.614,2.504
-0.5036,-0.503697,0.278643,0.223815,-0,-2.50253e-05,0.0554588,0.000291874,0,-384,-0,-0,-301.558,-82.7504,2.508
-0.5036,-0.503697,0.278865,0.223816,-0,-1.66835e-05,0.0555765,0.000309746,0,-385,-0,-0,-302.772,-82.9001,2.512
-0.5036,-0.503697,0.279088,0.223817,-0,-1.11223e-05,0.055694,0.000321661,0,-387,-0,-0,-303.988,-83.0586,2.516
-0.5036,-0.503697,0.279311,0.223818,-0,2.1376e-05,0.0558116,0.000300814,0,-388,-0,0,-305.209,-83.2661,2.52
-0.5036,-0.503697,0.279534,0.22382,-0,-1.45402e-05,0.055929,0.000315706,0,-389,-0,-0,-306.431,-83.42,2.524
-0.5036,-0.503697,0.279758,0.223821,-0,-9.69349e-06,0.0560464,0.000296843,0,-391,-0,-0,-307.657,-83.6243,2.528
-0.5036,-0.503697,0.279983,0.223822,-0,-6.46233e-06,0.0561637,0.000255478,0,-392,-0,-0,-308.887,-83.8624,2.532
-0.5036,-0.503697,0.280208,0.223823,-0,-4.30822e-06,0.056281,0.000256691,0,-394,-0,-0,-310.118,-84.0364,2.536
-0.5036,-0.503697,0.280433,0.223823,-0,-2.87215e-06,0.0563982,0.000171127,0,-395,-0,-0,-311.358,-84.3406,2.54
-0.5036,-0.503697,0.280659,0.223823,-0,2.68762e-05,0.0565153,0.000142876,0,-397,-0,0,-312.598,-84.5586,2.544
-0.5036,-0.503697,0.280885,0.223823,-0,-1.08735e-05,0.0566323,0.000124041,0,-398,-0,-0,-313.841,-84.7624,2.548
-0.5036,-0.503697,0.281112,0.223824,-0,-7.24899e-06,0.0567493,0.000111485,0,-400,-0,-0,-315.086,-84.9567,2.552
-0.5036,-0.503697,0.281339,0.223824,-0,-4.83266e-06,0.0568662,0.000103114,0,-401,-0,-0,-316.334,-85.1446,2.556
-0.5036,-0.503697,0.281567,0.223824,-0,-3.22177e-06,0.056983,6.8743e-05,0,-402,-0,-0,-317.586,-85.3715,2.56
-0.5036,-0.503697,0.281795,0.223826,-0,-2.14785e-06,0.0570998,0.000189783,0,-404,-0,-0,-318.832,-85.365,2.564
-0.5036,-0.503697,0.282024,0.223826,-0,2.7359e-05,0.0572165,0.000155313,0,-405,-0,0,-320.087,-85.5918,2.568
-0.5036,-0.503697,0.282253,0.223827,-0,-1.05516e-05,0.0573331,0.000189915,0,-407,-0,-0,-321.341,-85.7148,2.572
-0.5036,-0.503697,0.282482,0.223828,-0,-7.03438e-06,0.0574497,0.000241774,0,-408,-0,-0,-322.596,-85.8118,2.576
-0.5036,-0.503697,0.282712,0.22383,-0,2.41013e-05,0.0575661,0.000305137,0,-409,-0,0,-323.852,-85.8915,2.58
-0.5036,-0.503697,0.282943,0.223833,-0,-1.27234e-05,0.0576825,0.000462543,0,-410,-0,-0,-325.103,-85.83,2.584
-0.5036,-0.503697,0.283174,0.223836,-0,-8.48224e-06,0.0577989,0.000538689,0,-412,-0,-0,-326.358,-85.8902,2.588
-0.5036,-0.503697,0.283405,0.22384,-0,-5.65483e-06,0.0579151,0.000675826,0,-413,-0,-0,-327.61,-85.8589,2.592
-0.5036,-0.503697,0.283637,0.223844,-0,-3.76989e-06,0.0580313,0.000796042,0,-414,-0,-0,-328.862,-85.8528,2.596
-0.5036,-0.503697,0.28387,0.223849,-0,-2.51326e-06,0.0581474,0.000962559,0,-415,-0,-0,-330.112,-85.7772,2.6
-0.5036,-0.503697,0.284102,0.223855,-0,-1.67551e-06,0.0582634,0.00113115,0,-417,-0,-0,-331.36,-85.6983,2.604
-0.5036,-0.503697,0.284336,0.22386,-0,-1.117e-06,0.0583793,0.00118596,0,-418,-0,-0,-332.615,-85.79,2.608
-0.5036,-0.503697,0.284569,0.223866,-0,-7.44669e-07,0.0584952,0.0012513,0,-419,-0,-0,-333.87,-85.8658,2.612
-0.5036,-0.503697,0.284804,0.223871,-0,-4.96446e-07,0.0586109,0.00123727,0,-421,-0,-0,-335.131,-86.0605,2.616
-0.5036,-0.503697,0.285038,0.223875,-0,-3.30964e-07,0.0587266,0.00119913,0,-422,-0,-0,-336.397,-86.2913,2.62
-0.5036,-0.503697,0.285273,0.223878,-0,-2.20643e-07,0.0588423,0.00105854,0,-424,-0,-0,-337.674,-86.6756,2.624
-0.5036,-0.503697,0.285509,0.22388,-0,-1.47095e-07,0.0589578,0.000878438,0,-426,-0,-0,-338.958,-87.119,2.628
-0.5036,-0.503697,0.285745,0.223881,-0,-9.80634e-08,0.0590733,0.000614416,0,-427,-0,-0,-340.254,-87.6883,2.632
-0.5036,-0.503697,0.285982,0.223881,-0,-6.53756e-08,0.0591886,0.000409611,0,-429,-0,-0,-341.555,-88.1685,2.636
-0.5036,-0.503697,0.286219,0.223881,-0,-4.35837e-08,0.0593039,0.000273074,0,-431,-0,-0,-342.859,-88.5463,2.64
-0.5036,-0.503697,0.286456,0.223881,-0,-2.90558e-08,0.0594191,0.000182049,0,-433,-0,-0,-344.165,-88.8556,2.644
-0.5036,-0.503697,0.286694,0.223881,-0,-1.93705e-08,0.0595342,0.000121366,0,-434,-0,-0,-345.473,-89.1193,2.648
-0.5036,-0.503697,0.286932,0.223881,-0,-1.29137e-08,0.0596493,0.000109702,0,-436,-0,-0,-346.782,-89.3094,2.652
-0.5036,-0.503697,0.287171,0.223881,-0,-8.60913e-09,0.0597642,0.000101925,0,-437,-0,-0,-348.094,-89.4935,2.656
-0.5036,-0.503697,0.28741,0.223881,-0,-5.73942e-09,0.0598791,6.79503e-05,0,-439,-0,-0,-349.41,-89.7167,2.66
-0.5036,-0.503697,0.28765,0.223882,-0,-3.82628e-09,0.0599939,7.40911e-05,0,-440,-0,-0,-350.727,-89.8797,2.664
-0.5036,-0.503697,0.28789,0.223882,-0,-2.55085e-09,0.0601086,7.8185e-05,0,-442,-0,-0,-352.046,-90.0456,2.668
-0.5036,-0.503697,0.288131,0.223883,-0,2.87892e-05,0.0602232,0.000109705,0,-443,-0,0,-353.366,-90.1702,2.672
-0.5036,-0.503697,0.288372,0.223883,-0,-9.59811e-06,0.0603377,0.000101928,0,-445,-0,-0,-354.69,-90.3537,2.676
-0.5036,-0.503697,0.288614,0.223883,-0,-6.39874e-06,0.0604521,6.79518e-05,0,-446,-0,-0,-356.019,-90.5763,2.68
-0.5036,-0.503697,0.288856,0.223883,-0,-4.26583e-06,0.0605665,7.40921e-05,0,-448,-0,-0,-357.348,-90.7386,2.684
-0.5036,-0.503697,0.289098,0.223884,-0,-2.84388e-06,0.0606807,0.000106977,0,-449,-0,-0,-358.678,-90.8606,2.688
-0.5036,-0.503697,0.289341,0.223885,-0,-1.89592e-06,0.0607949,0.000157691,0,-450,-0,-0,-360.009,-90.9558,2.692
-0.5036,-0.503697,0.289585,0.223885,-0,-1.26395e-06,0.060909,0.000133918,0,-452,-0,-0,-361.345,-91.1626,2.696
-0.5036,-0.503697,0.289829,0.223887,-0,2.79483e-05,0.0610229,0.000175651,0,-453,-0,0,-362.681,-91.2709,2.7
-0.5036,-0.503697,0.290073,0.223887,-0,-1.01587e-05,0.0611368,0.000174683,0,-455,-0,-0,-364.021,-91.4432,2.704
-0.5036,-0.503697,0.290318,0.223888,-0,-6.77249e-06,0.0612506,0.000202828,0,-456,-0,-0,-365.361,-91.5717,2.708
-0.5036,-0.503697,0.290563,0.223889,-0,-4.51499e-06,0.0613643,0.0001928,0,-458,-0,-0,-366.706,-91.7573,2.712
-0.5036,-0.503697,0.290809,0.223889,-0,-3.18009e-05,0.0614779,0.000128534,0,-460,-0,-0,-368.058,-92.0241,2.716
-0.5036,-0.503696,0.291055,0.22389,-0,6.51722e-05,0.0615915,0.000143271,0,-461,-0,0,-369.408,-92.1723,2.72
-0.5036,-0.503697,0.291301,0.223891,-0,-1.41337e-05,0.0617049,0.000181887,0,-463,-0,-0,-370.758,-92.2845,2.724
-0.5036,-0.503697,0.291548,0.223891,-0,1.93684e-05,0.0618182,0.000150049,0,-464,-0,0,-372.115,-92.5022,2.728
-0.5036,-0.503697,0.291796,0.223892,-0,1.29123e-05,0.0619314,0.000157614,0,-466,-0,0,-373.473,-92.6607,2.732
-0.5036,-0.503697,0.292044,0.223893,-0,-2.01827e-05,0.0620446,0.00022024,0,-467,-0,-0,-374.829,-92.7365,2.736
-0.5036,-0.503697,0.292292,0.223894,-0,1.53358e-05,0.0621576,0.000204408,0,-469,-0,0,-376.191,-92.9298,2.74
-0.5036,-0.503697,0.292541,0.223894,-0,-1.85671e-05,0.0622705,0.000165063,0,-470,-0,-0,-377.558,-93.1582,2.744
-0.5036,-0.503697,0.29279,0.223894,-0,-1.23781e-05,0.0623834,0.000138833,0,-472,-0,-0,-378.927,-93.3668,2.748
-0.5036,-0.503697,0.29304,0.223895,-0,2.05389e-05,0.0624961,0.000150137,0,-473,-0,0,-380.297,-93.519,2.752
-0.5036,-0.503697,0.29329,0.223896,-0,-1.50983e-05,0.0626088,0.000128882,0,-475,-0,-0,-381.671,-93.7198,2.756
-0.5036,-0.503697,0.293541,0.223896,-0,-1.00656e-05,0.0627213,8.59216e-05,0,-477,-0,-0,-383.05,-93.9531,2.76
-0.5036,-0.503697,0.293792,0.223896,-0,-6.71037e-06,0.0628338,8.6072e-05,0,-478,-0,-0,-384.429,-94.1215,2.764
-0.5036,-0.503697,0.294044,0.223896,-0,-4.47358e-06,0.0629461,8.61723e-05,0,-480,-0,-0,-385.811,-94.2899,2.768
-0.5036,-0.503697,0.294296,0.223897,-0,2.58085e-05,0.0630584,0.00011503,0,-481,-0,0,-387.193,-94.415,2.772
-0.5036,-0.503697,0.294548,0.223897,-0,-1.15852e-05,0.0631705,0.000105478,0,-483,-0,-0,-388.58,-94.5975,2.776
-0.5036,-0.503697,0.294801,0.223898,-0,-7.72349e-06,0.0632825,0.0001279,0,-484,-0,-0,-389.967,-94.732,2.78
-0.5036,-0.503697,0.295054,0.223899,-0,-5.14899e-06,0.0633945,0.000200431,0,-486,-0,-0,-391.353,-94.7911,2.784
-0.5036,-0.503697,0.295308,0.2239,-0,2.53583e-05,0.0635063,0.000191202,0,-487,-0,0,-392.745,-94.9727,2.788
-0.5036,-0.503697,0.295562,0.223902,-0,-1.18854e-05,0.063618,0.000329005,0,-489,-0,-0,-394.13,-94.9335,2.792
-0.5036,-0.503697,0.295817,0.223905,-0,-7.92361e-06,0.0637297,0.000449664,0,-490,-0,-0,-395.516,-94.92,2.796
-0.5036,-0.503697,0.296072,0.223909,-0,-5.28241e-06,0.0638412,0.000616476,0,-491,-0,-0,-396.898,-94.8371,2.8
-0.5036,-0.503697,0.296328,0.223913,-0,-3.5216e-06,0.0639526,0.000785266,0,-493,-0,-0,-398.279,-94.751,2.804
-0.5036,-0.503697,0.296584,0.223918,-0,2.64432e-05,0.0640639,0.000869002,0,-494,-0,0,-399.664,-94.7924,2.808
-0.5036,-0.503697,0.29684,0.22392,-0,1.76288e-05,0.0641751,0.000809662,0,-496,-0,0,-401.06,-95.0482,2.812
-0.5036,-0.503697,0.297097,0.223922,-0,-1.70384e-05,0.0642862,0.000654938,0,-497,-0,-0,-402.465,-95.4469,2.816
-0.5036,-0.503697,0.297355,0.223921,-0,-1.13589e-05,0.0643972,0.000407835,0,-499,-0,-0,-403.883,-95.984,2.82
-0.5036,-0.503697,0.297612,0.223921,-0,-7.57262e-06,0.0645081,0.00027189,0,-501,-0,-0,-405.301,-96.3543,2.824
-0.5036,-0.503697,0.297871,0.223921,-0,2.37425e-05,0.0646189,0.00018126,0,-503,-0,0,-406.721,-96.6564,2.828
-0.5036,-0.503697,0.298129,0.223922,-0,-1.29626e-05,0.0647295,0.000149631,0,-505,-0,-0,-408.142,-96.8698,2.832
-0.5036,-0.503697,0.298389,0.223922,-0,-8.64172e-06,0.0648401,9.97539e-05,0,-506,-0,-0,-409.567,-97.1105,2.836
-0.5036,-0.503697,0.298648,0.223922,-0,-5.76115e-06,0.0649505,6.65026e-05,0,-508,-0,-0,-410.995,-97.326,2.84
-0.5036,-0.503697,0.298908,0.223922,-0,-3.84077e-06,0.0650608,4.43351e-05,0,-509,-0,-0,-412.425,-97.5248,2.844
-0.5036,-0.503697,0.299169,0.223922,-0,-2.56051e-06,0.0651711,5.83476e-05,0,-511,-0,-0,-413.856,-97.6691,2.848
-0.5036,-0.503697,0.299429,0.223922,-0,-1.70701e-06,0.0652812,3.88984e-05,0,-513,-0,-0,-415.291,-97.8634,2.852
-0.5036,-0.503697,0.299691,0.223922,-0,-1.138e-06,0.0653912,-2.85865e-06,0,-514,-0,-0,-416.73,-98.0911,2.856
-0.5036,-0.503697,0.299953,0.223922,-0,2.80323e-05,0.0655011,5.56761e-05,0,-516,-0,0,-418.166,-98.1681,2.86
-0.5036,-0.503697,0.300215,0.223923,-0,-1.01028e-05,0.0656108,6.59083e-05,0,-517,-0,-0,-419.606,-98.3174,2.864
-0.5036,-0.503697,0.300478,0.223923,-0,-6.73517e-06,0.0657205,4.39389e-05,0,-519,-0,-0,-421.051,-98.5148,2.868
-0.5036,-0.503697,0.300741,0.223923,-0,-4.49011e-06,0.06583,8.68744e-05,0,-521,-0,-0,-422.494,-98.6148,2.872
-0.5036,-0.503697,0.301004,0.223924,-0,-2.99341e-06,0.0659395,8.67072e-05,0,-522,-0,-0,-423.942,-98.7791,2.876
-0.5036,-0.503697,0.301268,0.223925,-0,-1.99561e-06,0.0660488,0.000115387,0,-524,-0,-0,-425.39,-98.9001,2.88
-0.5036,-0.503697,0.301533,0.223926,-0,-1.3304e-06,0.066158,0.000192088,0,-525,-0,-0,-426.836,-98.9488,2.884
-0.5036,-0.503697,0.301797,0.223927,-0,2.7904e-05,0.0662671,0.000185641,0,-527,-0,0,-428.289,-99.1221,2.888
-0.5036,-0.503697,0.302063,0.223929,-0,1.86027e-05,0.066376,0.000325297,0,-528,-0,0,-429.735,-99.0761,2.892
-0.5036,-0.503697,0.302328,0.223932,-0,-1.63892e-05,0.0664849,0.000475983,0,-530,-0,-0,-431.179,-99.0133,2.896
-0.5036,-0.503697,0.302595,0.223936,-0,-1.09261e-05,0.0665936,0.000634022,0,-531,-0,-0,-432.622,-98.9394,2.9
-0.5036,-0.503697,0.302861,0.223941,-0,-7.28407e-06,0.0667022,0.000883336,0,-532,-0,-0,-434.058,-98.7283,2.904
-0.5036,-0.503697,0.303128,0.223947,-0,2.39349e-05,0.0668107,0.00107834,0,-534,-0,0,-435.495,-98.5986,2.908
-0.5036,-0.503697,0.303396,0.223953,-0,-1.28343e-05,0.0669191,0.00120834,0,-535,-0,-0,-436.933,-98.5661,2.912
-0.5036,-0.503697,0.303664,0.223959,-0,2.02347e-05,0.0670273,0.00126621,0,-537,-0,0,-438.376,-98.6417,2.916
-0.5036,-0.503697,0.303932,0.223964,-0,1.34898e-05,0.0671355,0.0013048,0,-538,-0,0,-439.822,-98.746,2.92
-0.5036,-0.503697,0.304201,0.223969,-0,8.9932e-06,0.0672435,0.00127294,0,-540,-0,0,-441.273,-98.9558,2.924
-0.5036,-0.503697,0.30447,0.223974,-0,5.99547e-06,0.0673514,0.00128049,0,-541,-0,0,-442.725,-99.1063,2.928
-0.5036,-0.503697,0.304739,0.223979,-0,-2.47939e-05,0.0674592,0.00122794,0,-543,-0,-0,-444.184,-99.3468,2.932
-0.5036,-0.503697,0.305009,0.223982,-0,1.22616e-05,0.0675668,0.00107775,0,-545,-0,0,-445.652,-99.7336,2.936
-0.5036,-0.503697,0.30528,0.223984,-0,-2.06165e-05,0.0676743,0.000891243,0,-547,-0,-0,-447.128,-100.175,2.94
-0.5036,-0.503697,0.305551,0.223985,-0,1.50466e-05,0.0677817,0.000651744,0,-549,-0,0,-448.614,-100.695,2.944
-0.5036,-0.503697,0.305822,0.223985,-0,1.00311e-05,0.067889,0.000434496,0,-551,-0,0,-450.107,-101.182,2.948
-0.5036,-0.503697,0.306094,0.223985,-0,-2.21036e-05,0.0679962,0.000289664,0,-553,-0,-0,-451.601,-101.56,2.952
-0.5036,-0.503697,0.306366,0.223985,-0,-1.47357e-05,0.0681032,0.000193109,0,-554,-0,-0,-453.098,-101.865,2.956
-0.5036,-0.503697,0.306639,0.223985,-0,-9.8238e-06,0.0682101,0.00015753,0,-556,-0,-0,-454.596,-102.079,2.96
-0.5036,-0.503697,0.306912,0.223985,-0,2.22417e-05,0.0683169,0.00010502,0,-558,-0,0,-456.098,-102.318,2.964
-0.5036,-0.503697,0.307185,0.223985,-0,-1.39631e-05,0.0684235,7.00135e-05,0,-560,-0,-0,-457.602,-102.53,2.968
-0.5036,-0.503697,0.307459,0.223985,-0,1.94822e-05,0.06853,7.54666e-05,0,-561,-0,0,-459.107,-102.682,2.972
-0.5036,-0.503697,0.307734,0.223986,-0,-1.58028e-05,0.0686364,7.9102e-05,0,-563,-0,-0,-460.613,-102.836,2.976
-0.5036,-0.503697,0.308008,0.223986,-0,-1.05352e-05,0.0687427,5.27347e-05,0,-565,-0,-0,-462.125,-103.035,2.98
-0.5036,-0.503697,0.308284,0.223986,-0,2.17675e-05,0.0688488,6.39474e-05,0,-566,-0,0,-463.636,-103.177,2.984
-0.5036,-0.503697,0.308559,0.223987,-0,-1.42793e-05,0.0689549,0.000129004,0,-568,-0,-0,-465.146,-103.239,2.988
-0.5036,-0.503697,0.308835,0.223987,-0,-9.51952e-06,0.0690607,8.60029e-05,0,-570,-0,-0,-466.665,-103.462,2.992
-0.5036,-0.503697,0.309112,0.223988,-0,-6.34635e-06,0.0691665,0.000143708,0,-571,-0,-0,-468.179,-103.534,2.996
-0.5036,-0.503697,0.309388,0.223989,-0,-4.2309e-06,0.0692721,0.000153387,0,-573,-0,-0,-469.698,-103.678,3
-0.5036,-0.503697,0.309666,0.223989,-0,-2.8206e-06,0.0693776,0.000131049,0,-575,-0,-0,-471.222,-103.87,3.004
-0.5036,-0.503697,0.309944,0.223989,-0,-1.8804e-06,0.069483,0.000116157,0,-576,-0,-0,-472.747,-104.05,3.008
-0.5036,-0.503697,0.310222,0.223991,-0,2.75373e-05,0.0695882,0.000163811,0,-578,-0,0,-474.271,-104.137,3.012
-0.5036,-0.503697,0.3105,0.223992,-0,-1.04327e-05,0.0696933,0.000224371,0,-579,-0,-0,-475.796,-104.203,3.016
-0.5036,-0.503697,0.310779,0.223992,-0,-6.95514e-06,0.0697983,0.000178372,0,-581,-0,-0,-477.328,-104.43,3.02
-0.5036,-0.503697,0.311059,0.223993,-0,-4.63676e-06,0.0699031,0.000176496,0,-583,-0,-0,-478.861,-104.59,3.024
-0.5036,-0.503697,0.311338,0.223994,-0,-3.18821e-05,0.0700078,0.000232828,0,-585,-0,-0,-480.393,-104.662,3.028
-0.5036,-0.503697,0.311619,0.223995,-0,7.53619e-06,0.0701124,0.000184009,0,-586,-0,0,-481.932,-104.893,3.032
-0.5036,-0.503697,0.311899,0.223996,-0,5.02413e-06,0.0702168,0.000209046,0,-588,-0,0,-483.47,-105.012,3.036
-0.5036,-0.503697,0.31218,0.223996,-0,3.34942e-06,0.0703211,0.000168155,0,-590,-0,0,-485.014,-105.229,3.04
-0.5036,-0.503697,0.312462,0.223997,-0,2.23295e-06,0.0704252,0.000169685,0,-591,-0,0,-486.558,-105.383,3.044
-0.5036,-0.503697,0.312744,0.223997,-0,1.48863e-06,0.0705293,0.000170705,0,-593,-0,0,-488.105,-105.538,3.048
-0.5036,-0.503697,0.313026,0.223998,-0,9.9242e-07,0.0706331,0.000171385,0,-595,-0,0,-489.654,-105.693,3.052
-0.5036,-0.503696,0.313309,0.223999,-0,5.82435e-05,0.0707369,0.000171839,0,-597,-0,0,-491.205,-105.848,3.056
-0.5036,-0.503697,0.313592,0.223999,-0,-1.87529e-05,0.0708405,0.000172141,0,-598,-0,-0,-492.759,-106.003,3.06
-0.5036,-0.503697,0.313876,0.224,-0,-1.25019e-05,0.070944,0.000172343,0,-600,-0,-0,-494.315,-106.157,3.064
-0.5036,-0.503697,0.31416,0.224001,-0,2.04563e-05,0.0710473,0.000143686,0,-602,-0,0,-495.875,-106.355,3.068
-0.5036,-0.503697,0.314444,0.224001,-0,-1.51534e-05,0.0711505,0.000153372,0,-603,-0,-0,-497.435,-106.496,3.072
-0.5036,-0.503697,0.314729,0.224002,-0,1.86887e-05,0.0712536,0.00015983,0,-605,-0,0,-498.998,-106.641,3.076
-0.5036,-0.503696,0.315014,0.224003,-0,4.125e-05,0.0713565,0.000164135,0,-607,-0,0,-500.563,-106.789,3.08
-0.5036,-0.503697,0.3153,0.224003,-0,-5.88727e-05,0.0714593,0.000167005,0,-609,-0,-0,-502.13,-106.938,3.084
-0.5036,-0.503697,0.315586,0.224004,-0,1.83334e-05,0.0715619,0.000168919,0,-610,-0,0,-503.699,-107.089,3.088
-0.5036,-0.503697,0.315872,0.224005,-0,-1.65687e-05,0.0716644,0.000170194,0,-612,-0,-0,-505.271,-107.241,3.092
-0.5036,-0.503697,0.316159,0.224005,-0,-1.10458e-05,0.0717668,0.000171045,0,-614,-0,-0,-506.845,-107.394,3.096
-0.5036,-0.503697,0.316446,0.224006,-0,-3.61548e-05,0.071869,0.000171612,0,-615,-0,-0,-508.421,-107.546,3.1
-0.5036,-0.503696,0.316734,0.224007,-0,6.22696e-05,0.071971,0.000200781,0,-617,-0,0,-509.998,-107.655,3.104
-0.5036,-0.503697,0.317022,0.224009,-0,-4.48597e-05,0.072073,0.000277808,0,-619,-0,-0,-511.573,-107.693,3.108
-0.5036,-0.503697,0.317311,0.22401,-0,-1.11555e-06,0.0721748,0.000271578,0,-621,-0,-0,-513.154,-107.855,3.112
-0.5036,-0.503697,0.317599,0.22401,-0,-2.95346e-05,0.0722764,0.000209843,0,-622,-0,-0,-514.741,-108.1,3.116
-0.5036,-0.503697,0.317889,0.224012,-0,-1.96898e-05,0.0723779,0.000255059,0,-624,-0,-0,-516.324,-108.184,3.12
-0.5036,-0.503696,0.318178,0.224012,-0,7.32463e-05,0.0724792,0.000170039,0,-626,-0,0,-517.918,-108.464,3.124
-0.5036,-0.503697,0.318469,0.224012,-0,-8.751e-06,0.0725805,0.00011336,0,-628,-0,-0,-519.513,-108.701,3.128
-0.5036,-0.503697,0.318759,0.224012,-0,-3.46249e-05,0.0726815,0.000104364,0,-629,-0,-0,-521.109,-108.866,3.132
-0.5036,-0.503697,0.31905,0.224012,-0,-2.30833e-05,0.0727824,6.9576e-05,0,-631,-0,-0,-522.709,-109.069,3.136
-0.5036,-0.503697,0.319341,0.224012,-0,1.34021e-05,0.0728832,7.51749e-05,0,-633,-0,0,-524.31,-109.212,3.14
-0.5036,-0.503697,0.319633,0.224012,-0,-1.98562e-05,0.0729838,5.01166e-05,0,-635,-0,-0,-525.914,-109.401,3.144
-0.5036,-0.503697,0.319925,0.224013,-0,-1.32375e-05,0.0730843,6.2202e-05,0,-637,-0,-0,-527.519,-109.533,3.148
-0.5036,-0.503697,0.320218,0.224013,-0,-8.82498e-06,0.0731846,7.02589e-05,0,-638,-0,-0,-529.126,-109.672,3.152
-0.5036,-0.503697,0.320511,0.224013,-0,-5.88332e-06,0.0732848,7.56302e-05,0,-640,-0,-0,-530.736,-109.814,3.156
-0.5036,-0.503697,0.320804,0.224014,-0,2.48687e-05,0.0733848,7.92111e-05,0,-642,-0,0,-532.347,-109.958,3.16
-0.5036,-0.503697,0.321098,0.224014,-0,4.53701e-05,0.0734847,5.28074e-05,0,-644,-0,0,-533.963,-110.148,3.164
-0.5036,-0.503697,0.321392,0.224015,-0,1.45579e-06,0.0735844,0.000150369,0,-645,-0,0,-535.573,-110.151,3.168
-0.5036,-0.503697,0.321686,0.224016,-0,9.70523e-07,0.073684,0.000157828,0,-647,-0,0,-537.189,-110.289,3.172
-0.5036,-0.503697,0.321981,0.224017,-0,6.47016e-07,0.0737834,0.000191591,0,-649,-0,0,-538.805,-110.388,3.176
-0.5036,-0.503696,0.322277,0.224018,-0,5.80132e-05,0.0738827,0.000242891,0,-650,-0,0,-540.422,-110.46,3.18
-0.5036,-0.503697,0.322572,0.22402,-0,-1.89064e-05,0.0739818,0.000334673,0,-652,-0,-0,-542.037,-110.471,3.184
-0.5036,-0.503696,0.322869,0.224023,-0,4.49776e-05,0.0740808,0.000424652,0,-654,-0,0,-543.653,-110.484,3.188
-0.5036,-0.503697,0.323165,0.224025,-0,-2.75968e-05,0.0741796,0.000484638,0,-655,-0,-0,-545.27,-110.543,3.192
-0.5036,-0.503696,0.323462,0.224028,-0,3.9184e-05,0.0742783,0.000553419,0,-657,-0,0,-546.888,-110.587,3.196
-0.5036,-0.503697,0.323759,0.224031,-0,-3.14592e-05,0.0743768,0.000599274,0,-659,-0,-0,-548.508,-110.666,3.2
-0.5036,-0.503697,0.324057,0.224034,-0,-2.09728e-05,0.0744752,0.000658634,0,-660,-0,-0,-550.128,-110.725,3.204
-0.5036,-0.503696,0.324355,0.224035,-0,4.36e-05,0.0745734,0.000554253,0,-662,-0,0,-551.76,-111.029,3.208
-0.5036,-0.503697,0.324654,0.224036,-0,2.75734e-07,0.0746715,0.000455875,0,-664,-0,0,-553.396,-111.323,3.212
-0.5036,-0.503697,0.324952,0.224037,-0,-2.86071e-05,0.0747694,0.000361498,0,-666,-0,-0,-555.036,-111.612,3.216
-0.5036,-0.503697,0.325252,0.224037,-0,9.71952e-06,0.0748671,0.00026979,0,-668,-0,0,-556.68,-111.896,3.22
-0.5036,-0.503697,0.325551,0.224037,-0,-2.23112e-05,0.0749647,0.000151069,0,-670,-0,-0,-558.33,-112.22,3.224
-0.5036,-0.503697,0.325851,0.224037,-0,-1.48742e-05,0.0750621,0.000129504,0,-672,-0,-0,-559.979,-112.399,3.228
-0.5036,-0.503697,0.326152,0.224037,-0,-9.91611e-06,0.0751594,8.63357e-05,0,-674,-0,-0,-561.631,-112.61,3.232
-0.5036,-0.503697,0.326453,0.224038,-0,-6.61074e-06,0.0752565,8.63481e-05,0,-676,-0,-0,-563.284,-112.755,3.236
-0.5036,-0.503697,0.326754,0.224038,-0,-3.31981e-05,0.0753535,8.63563e-05,0,-677,-0,-0,-564.939,-112.901,3.24
-0.5036,-0.503697,0.327056,0.224038,-0,6.65887e-06,0.0754503,8.63618e-05,0,-679,-0,0,-566.596,-113.046,3.244
-0.5036,-0.503697,0.327358,0.224039,-0,-2.43517e-05,0.0755469,8.63655e-05,0,-681,-0,-0,-568.255,-113.191,3.248
-0.5036,-0.503697,0.32766,0.224039,-0,1.25565e-05,0.0756434,8.63679e-05,0,-683,-0,0,-569.916,-113.336,3.252
-0.5036,-0.503696,0.327963,0.224039,-0,6.59528e-05,0.0757397,5.75786e-05,0,-685,-0,0,-571.581,-113.523,3.256
-0.5036,-0.503697,0.328266,0.224039,-0,-4.24042e-05,0.0758359,6.71767e-05,0,-686,-0,-0,-573.247,-113.653,3.26
-0.5036,-0.503696,0.328569,0.22404,-0,5.81033e-05,0.0759319,7.35754e-05,0,-688,-0,0,-574.914,-113.788,3.264
-0.5036,-0.503697,0.328873,0.22404,-0,-4.76372e-05,0.0760278,0.000106632,0,-690,-0,-0,-576.582,-113.882,3.268
-0.5036,-0.503697,0.329178,0.224041,-0,-2.96724e-06,0.0761234,9.9879e-05,0,-692,-0,-0,-578.254,-114.035,3.272
-0.5036,-0.503697,0.329482,0.224042,-0,2.68128e-05,0.076219,0.000210541,0,-693,-0,0,-579.92,-114.013,3.276
-0.5036,-0.503697,0.329787,0.224044,-0,-1.09157e-05,0.0763143,0.000255524,0,-695,-0,-0,-581.59,-114.088,3.28
-0.5036,-0.503697,0.330093,0.224046,-0,2.15138e-05,0.0764095,0.000400677,0,-697,-0,0,-583.255,-114.013,3.284
-0.5036,-0.503697,0.330399,0.22405,-0,-1.44484e-05,0.0765046,0.000583818,0,-698,-0,-0,-584.916,-113.881,3.288
-0.5036,-0.503697,0.330705,0.224055,-0,1.91586e-05,0.0765994,0.000821076,0,-700,-0,0,-586.572,-113.668,3.292
-0.5036,-0.503697,0.331011,0.224062,-0,-1.60185e-05,0.0766942,0.00106562,0,-701,-0,-0,-588.224,-113.443,3.296
-0.5036,-0.503696,0.331318,0.224069,-0,4.69029e-05,0.0767887,0.00134381,0,-703,-0,0,-589.87,-113.167,3.3
-0.5036,-0.503697,0.331626,0.224078,-0,-5.51042e-05,0.0768831,0.00158686,0,-704,-0,-0,-591.515,-112.944,3.304
-0.5036,-0.503697,0.331933,0.224086,-0,-3.67361e-05,0.0769773,0.00177768,0,-705,-0,-0,-593.16,-112.799,3.308
-0.5036,-0.503696,0.332242,0.224095,-0,6.1882e-05,0.0770714,0.00193368,0,-707,-0,0,-594.805,-112.707,3.312
-0.5036,-0.503697,0.33255,0.224103,-0,1.24638e-05,0.0771653,0.00192252,0,-709,-0,0,-596.46,-112.864,3.316
-0.5036,-0.503696,0.332859,0.224108,-0,3.71001e-05,0.077259,0.00171355,0,-711,-0,0,-598.13,-113.318,3.32
-0.5036,-0.503696,0.333168,0.224111,-0,2.47334e-05,0.0773525,0.00140148,0,-713,-0,0,-599.814,-113.927,3.324
-0.5036,-0.503697,0.333478,0.224111,-0,-1.2302e-05,0.0774459,0.000934321,0,-716,-0,-0,-601.516,-114.767,3.328
-0.5036,-0.503696,0.333788,0.224111,-0,2.05896e-05,0.0775392,0.000622881,0,-718,-0,0,-603.221,-115.374,3.332
-0.5036,-0.503697,0.334098,0.224111,-0,-4.38555e-05,0.0776322,0.000415254,0,-720,-0,-0,-604.928,-115.825,3.336
-0.5036,-0.503696,0.334409,0.224111,-0,2.83449e-05,0.0777251,0.000276836,0,-722,-0,0,-606.637,-116.172,3.34
-0.5036,-0.503697,0.33472,0.224111,-0,-3.86853e-05,0.0778178,0.000184557,0,-724,-0,-0,-608.348,-116.45,3.344
-0.5036,-0.503697,0.335031,0.224111,-0,-2.57902e-05,0.0779104,0.000151829,0,-726,-0,-0,-610.059,-116.638,3.348
-0.5036,-0.503697,0.335343,0.224111,-0,-4.59844e-05,0.0780028,0.000101219,0,-728,-0,-0,-611.774,-116.852,3.352
-0.5036,-0.503697,0.335655,0.224111,-0,-3.06562e-05,0.078095,6.74796e-05,0,-730,-0,-0,-613.491,-117.041,3.356
-0.5036,-0.503697,0.335968,0.224111,-0,8.35342e-06,0.078187,4.49864e-05,0,-732,-0,0,-615.21,-117.213,3.36
-0.5036,-0.503696,0.336281,0.224111,-0,6.31508e-05,0.0782789,2.99909e-05,0,-734,-0,0,-616.932,-117.373,3.364
-0.5036,-0.503697,0.336594,0.224111,-0,-4.42722e-05,0.0783706,1.9994e-05,0,-736,-0,-0,-618.655,-117.526,3.368
-0.5036,-0.503696,0.336908,0.224111,-0,5.68579e-05,0.0784621,1.33293e-05,0,-738,-0,0,-620.38,-117.673,3.372
-0.5036,-0.503697,0.337222,0.224112,-0,-4.84675e-05,0.0785535,3.76771e-05,0,-739,-0,-0,-622.105,-117.774,3.376
-0.5036,-0.503696,0.337536,0.224112,-0,5.40611e-05,0.0786447,2.51181e-05,0,-741,-0,0,-623.834,-117.929,3.38
-0.5036,-0.503696,0.337851,0.224112,-0,3.60407e-05,0.0787357,1.67454e-05,0,-743,-0,0,-625.566,-118.078,3.384
-0.5036,-0.503697,0.338166,0.224112,-0,-4.76376e-06,0.0788265,1.11636e-05,0,-745,-0,-0,-627.299,-118.223,3.388
-0.5036,-0.503697,0.338482,0.224112,-0,-6.07577e-05,0.0789172,3.62333e-05,0,-747,-0,-0,-629.032,-118.321,3.392
-0.5036,-0.503696,0.338797,0.224112,-0,4.58676e-05,0.0790077,2.41555e-05,0,-749,-0,0,-630.769,-118.475,3.396
-0.5036,-0.503697,0.339114,0.224112,-0,-2.70034e-05,0.079098,4.48946e-05,0,-751,-0,-0,-632.506,-118.58,3.4
-0.5036,-0.503697,0.33943,0.224112,-0,-1.80023e-05,0.0791882,2.99297e-05,0,-752,-0,-0,-634.248,-118.737,3.404
-0.5036,-0.503697,0.339747,0.224113,-0,-4.07924e-05,0.0792781,4.87441e-05,0,-754,-0,-0,-635.989,-118.844,3.408
-0.5036,-0.503697,0.340064,0.224113,-0,1.59596e-06,0.0793679,3.24961e-05,0,-756,-0,0,-637.734,-119.003,3.412
-0.5036,-0.503697,0.340382,0.224113,-0,2.98549e-05,0.0794576,5.0455e-05,0,-758,-0,0,-639.479,-119.111,3.416
-0.5036,-0.503697,0.3407,0.224114,-0,-8.88766e-06,0.079547,6.24276e-05,0,-760,-0,-0,-641.226,-119.227,3.42
-0.5036,-0.503696,0.341018,0.224114,-0,5.16567e-05,0.0796363,4.16184e-05,0,-762,-0,0,-642.977,-119.392,3.424
-0.5036,-0.503697,0.341337,0.224114,-0,5.6469e-06,0.0797254,5.65365e-05,0,-764,-0,0,-644.728,-119.503,3.428
-0.5036,-0.503697,0.341656,0.224114,-0,-5.38172e-05,0.0798143,6.64819e-05,0,-766,-0,-0,-646.481,-119.622,3.432
-0.5036,-0.503697,0.341976,0.224115,-0,-7.08724e-06,0.079903,7.31122e-05,0,-767,-0,-0,-648.236,-119.745,3.436
-0.5036,-0.503697,0.342295,0.224115,-0,2.40661e-05,0.0799916,7.75324e-05,0,-769,-0,0,-649.993,-119.871,3.44
-0.5036,-0.503697,0.342616,0.224115,-0,-1.27469e-05,0.08008,8.04792e-05,0,-771,-0,-0,-651.752,-119.999,3.444
-0.5036,-0.503696,0.342936,0.224116,-0,4.90839e-05,0.0801682,0.000111235,0,-773,-0,0,-653.511,-120.085,3.448
-0.5036,-0.503697,0.343257,0.224116,-0,-5.36501e-05,0.0802562,0.000102947,0,-775,-0,-0,-655.274,-120.23,3.452
-0.5036,-0.503697,0.343578,0.224117,-0,-6.97584e-06,0.0803441,9.74225e-05,0,-777,-0,-0,-657.039,-120.37,3.456
-0.5036,-0.503697,0.3439,0.224117,-0,-4.65056e-06,0.0804318,9.37393e-05,0,-779,-0,-0,-658.805,-120.507,3.46
-0.5036,-0.503697,0.344222,0.224117,-0,-3.10037e-06,0.0805193,9.12838e-05,0,-781,-0,-0,-660.574,-120.642,3.464
-0.5036,-0.503697,0.344544,0.224118,-0,-2.06692e-06,0.0806066,8.96468e-05,0,-783,-0,-0,-662.344,-120.775,3.468
-0.5036,-0.503697,0.344866,0.224118,-0,-1.37794e-06,0.0806937,8.85554e-05,0,-785,-0,-0,-664.117,-120.908,3.472
-0.5036,-0.503697,0.345189,0.224118,-0,2.78723e-05,0.0807806,8.78279e-05,0,-786,-0,0,-665.891,-121.039,3.476
-0.5036,-0.503697,0.345513,0.224119,-0,-1.02094e-05,0.0808674,8.73428e-05,0,-788,-0,-0,-667.667,-121.17,3.48
-0.5036,-0.503697,0.345836,0.224119,-0,-6.80626e-06,0.080954,8.70195e-05,0,-790,-0,-0,-669.445,-121.3,3.484
-0.5036,-0.503697,0.34616,0.224119,-0,-4.53751e-06,0.0810404,5.8013e-05,0,-792,-0,-0,-671.227,-121.474,3.488
-0.5036,-0.503697,0.346485,0.224119,-0,-3.02501e-06,0.0811266,3.86753e-05,0,-794,-0,-0,-673.011,-121.632,3.492
-0.5036,-0.503697,0.346809,0.224119,-0,-3.08076e-05,0.0812127,5.45745e-05,0,-796,-0,-0,-674.795,-121.737,3.496
-0.5036,-0.503697,0.347134,0.22412,-0,-2.05384e-05,0.0812985,6.51739e-05,0,-798,-0,-0,-676.581,-121.85,3.5
-0.5036,-0.503697,0.34746,0.22412,-0,1.50987e-05,0.0813842,7.22402e-05,0,-800,-0,0,-678.368,-121.968,3.504
-0.5036,-0.503697,0.347785,0.22412,-0,3.88567e-05,0.0814697,7.69511e-05,0,-802,-0,0,-680.158,-122.089,3.508
-0.5036,-0.503697,0.348112,0.224121,-0,-3.16774e-05,0.081555,0.000108883,0,-804,-0,-0,-681.947,-122.169,3.512
-0.5036,-0.503696,0.348438,0.224122,-0,6.52545e-05,0.0816401,0.00013017,0,-806,-0,0,-683.739,-122.265,3.516
-0.5036,-0.503697,0.348765,0.224123,-0,-4.28698e-05,0.0817251,0.000173153,0,-807,-0,-0,-685.53,-122.328,3.52
-0.5036,-0.503697,0.349092,0.224125,-0,2.11083e-07,0.0818098,0.00025939,0,-809,-0,0,-687.319,-122.326,3.524
-0.5036,-0.503697,0.349419,0.224127,-0,1.40722e-07,0.0818944,0.000345672,0,-811,-0,0,-689.109,-122.323,3.528
-0.5036,-0.503697,0.349747,0.224129,-0,9.38148e-08,0.0819787,0.000403194,0,-813,-0,0,-690.9,-122.363,3.532
-0.5036,-0.503696,0.350075,0.224131,-0,5.76444e-05,0.0820629,0.000441541,0,-815,-0,0,-692.693,-122.432,3.536
-0.5036,-0.503696,0.350403,0.224133,-0,3.84296e-05,0.0821469,0.000467106,0,-817,-0,0,-694.488,-122.52,3.54
-0.5036,-0.503697,0.350732,0.224134,-0,-6.0753e-05,0.0822308,0.000426568,0,-818,-0,-0,-696.288,-122.706,3.544
-0.5036,-0.503696,0.351061,0.224135,-0,4.58707e-05,0.0823144,0.000370751,0,-821,-0,0,-698.093,-122.915,3.548
-0.5036,-0.503697,0.351391,0.224136,-0,1.78957e-06,0.0823978,0.000304749,0,-823,-0,0,-699.901,-123.14,3.552
-0.5036,-0.503697,0.35172,0.224136,-0,-2.75979e-05,0.0824811,0.000203166,0,-825,-0,-0,-701.714,-123.417,3.556
-0.5036,-0.503697,0.35205,0.224136,-0,1.03923e-05,0.0825642,0.000135444,0,-827,-0,0,-703.53,-123.643,3.56
-0.5036,-0.503697,0.352381,0.224136,-0,-2.18627e-05,0.082647,9.02961e-05,0,-829,-0,-0,-705.347,-123.835,3.564
-0.5036,-0.503697,0.352712,0.224136,-0,-4.33661e-05,0.0827297,6.01974e-05,0,-831,-0,-0,-707.166,-124.004,3.568
-0.5036,-0.503696,0.353043,0.224136,-0,5.74621e-05,0.0828122,6.89225e-05,0,-833,-0,0,-708.985,-124.115,3.572
-0.5036,-0.503696,0.353374,0.224136,-0,3.8308e-05,0.0828945,4.59484e-05,0,-835,-0,0,-710.808,-124.273,3.576
-0.5036,-0.503697,0.353706,0.224136,-0,-6.08341e-05,0.0829767,3.06322e-05,0,-837,-0,-0,-712.633,-124.419,3.58
-0.5036,-0.503696,0.354038,0.224137,-0,4.58167e-05,0.0830586,4.92124e-05,0,-838,-0,0,-714.457,-124.514,3.584
-0.5036,-0.503697,0.35437,0.224137,-0,-5.58283e-05,0.0831403,3.28083e-05,0,-840,-0,-0,-716.285,-124.661,3.588
-0.5036,-0.503697,0.354703,0.224137,-0,-3.72189e-05,0.0832219,5.06631e-05,0,-842,-0,-0,-718.114,-124.757,3.592
-0.5036,-0.503697,0.355036,0.224137,-0,3.97835e-06,0.0833032,3.37754e-05,0,-844,-0,0,-719.945,-124.904,3.596
-0.5036,-0.503696,0.35537,0.224137,-0,6.02341e-05,0.0833844,5.13079e-05,0,-846,-0,0,-721.777,-125,3.6
-0.5036,-0.503697,0.355703,0.224138,-0,-4.62167e-05,0.0834654,6.29962e-05,0,-848,-0,-0,-723.61,-125.104,3.604
-0.5036,-0.503697,0.356037,0.224138,-0,-3.08111e-05,0.0835462,7.07884e-05,0,-850,-0,-0,-725.446,-125.213,3.608
-0.5036,-0.503696,0.356372,0.224138,-0,6.5832e-05,0.0836267,7.59832e-05,0,-852,-0,0,-727.283,-125.326,3.612
-0.5036,-0.503697,0.356706,0.224139,-0,-1.36938e-05,0.0837071,0.000108237,0,-854,-0,-0,-729.12,-125.398,3.616
-0.5036,-0.503697,0.357041,0.22414,-0,-9.12923e-06,0.0837873,0.000187322,0,-856,-0,-0,-730.954,-125.4,3.62
-0.5036,-0.503696,0.357377,0.224143,-0,5.14957e-05,0.0838673,0.000326418,0,-858,-0,0,-732.785,-125.311,3.624
-0.5036,-0.503697,0.357712,0.224146,-0,-2.32514e-05,0.0839472,0.00047673,0,-859,-0,-0,-734.614,-125.206,3.628
-0.5036,-0.503697,0.358048,0.22415,-0,-1.55009e-05,0.0840268,0.000692102,0,-861,-0,-0,-736.437,-125.002,3.632
-0.5036,-0.503697,0.358384,0.224155,-0,-1.03339e-05,0.0841062,0.000835683,0,-863,-0,-0,-738.262,-124.906,3.636
-0.5036,-0.503697,0.358721,0.224159,-0,-6.8893e-06,0.0841854,0.000873822,0,-865,-0,-0,-740.092,-124.967,3.64
-0.5036,-0.503697,0.359058,0.224162,-0,-3.33838e-05,0.0842645,0.000841667,0,-867,-0,-0,-741.928,-125.134,3.644
-0.5036,-0.503697,0.359395,0.224164,-0,3.5326e-05,0.0843433,0.000762648,0,-869,-0,0,-743.769,-125.371,3.648
-0.5036,-0.503697,0.359733,0.224166,-0,-5.24027e-06,0.0844219,0.000652386,0,-871,-0,-0,-745.616,-125.654,3.652
-0.5036,-0.503697,0.36007,0.224167,-0,-3.49351e-06,0.0845004,0.000550088,0,-873,-0,-0,-747.467,-125.925,3.656
-0.5036,-0.503697,0.360409,0.224169,-0,-2.32901e-06,0.0845786,0.000481889,0,-875,-0,-0,-749.319,-126.145,3.66
-0.5036,-0.503697,0.360747,0.224171,-0,2.72383e-05,0.0846567,0.000465214,0,-877,-0,0,-751.171,-126.287,3.664
