peachynonah/Fire_monitor_KIRO_CDSL/csv_datas/trial10/cdsl_data_t10_6.csv
joint1_pos_desired, joint1_pos, joint2_pos_desired, joint2_pos, joint1_vel_desired, joint1_vel_filtered, joint2_vel_desired, joint2_vel_filtered, target_torque_joint1, target_torque_joint2, propo_term_torque_joint1, deriv_term_torque_joint1, propo_term_torque_joint2, deriv_term_torque_joint2, current_time
-1.18,-1.18187,0.394023,0.00141962,0,0,1.7696e-08,0,0,-1570,-0,-0,-1570.41,-2.6544e-05,0.004
-1.18,-1.18187,0.394023,0.00141962,0,0,7.07583e-08,0,0,-1570,-0,-0,-1570.41,-0.000106137,0.008
-1.18,-1.18187,0.394023,0.00142791,0,0,1.59148e-07,0.000690982,0,-1569,-0,-0,-1570.38,1.03623,0.012
-1.18,-1.18187,0.394023,0.00153571,0,0,2.82827e-07,0.00944342,0,-1555,-0,-0,-1569.95,14.1647,0.016
-1.18,-1.18187,0.394023,0.00176235,0,0,4.41757e-07,0.0251825,0,-1531,-0,-0,-1569.04,37.773,0.02
-1.18,-1.18187,0.394023,0.00208815,0,0,6.35898e-07,0.0439382,0,-1501,-0,-0,-1567.74,65.9063,0.024
-1.18,-1.18187,0.394023,0.0025017,0,0,8.65213e-07,0.0637548,0,-1470,-0,-0,-1566.09,95.631,0.028
-1.18,-1.18187,0.394023,0.00300992,0,0,1.12966e-06,0.0848547,0,-1436,-0,-0,-1564.05,127.28,0.032
-1.18,-1.18187,0.394023,0.00357825,0,0,1.42921e-06,0.103931,0,-1405,-0,-0,-1561.78,155.894,0.036
-1.18,-1.18187,0.394023,0.00420739,0,0,1.76381e-06,0.121716,0,-1376,-0,-0,-1559.26,182.571,0.04
-1.18,-1.18187,0.394023,0.00486797,0,0,2.13344e-06,0.136192,0,-1352,-0,-0,-1556.62,204.285,0.044
-1.18,-1.18187,0.394023,0.00558314,0,0,2.53804e-06,0.150392,0,-1328,-0,-0,-1553.76,225.584,0.048
-1.18,-1.18187,0.394023,0.00629968,0,0,2.97759e-06,0.159974,0,-1310,-0,-0,-1550.89,239.956,0.052
-1.18,-1.18187,0.394023,0.0070038,0,0,3.45204e-06,0.165325,0,-1300,-0,-0,-1548.08,247.982,0.056
-1.18,-1.18187,0.394023,0.00773209,0,0,3.96135e-06,0.170908,0,-1288,-0,-0,-1545.16,256.356,0.06
-1.18,-1.18187,0.394023,0.00841064,0,0,4.5055e-06,0.170484,0,-1286,-0,-0,-1542.45,255.719,0.064
-1.18,-1.18187,0.394023,0.00912062,0,0,5.08443e-06,0.172821,0,-1280,-0,-0,-1539.61,259.224,0.068
-1.18,-1.18187,0.394023,0.00980573,0,0,5.69811e-06,0.172307,0,-1278,-0,-0,-1536.87,258.451,0.072
-1.18,-1.18187,0.394023,0.0104746,0,0,6.3465e-06,0.17061,0,-1278,-0,-0,-1534.19,255.906,0.076
-1.18,-1.18187,0.394023,0.0111614,0,0,7.02957e-06,0.170977,0,-1274,-0,-0,-1531.45,256.454,0.08
-1.18,-1.18187,0.394023,0.0118486,0,0,7.74727e-06,0.17125,0,-1271,-0,-0,-1528.7,256.863,0.084
-1.18,-1.18187,0.394023,0.0125299,0,0,8.49957e-06,0.170942,0,-1269,-0,-0,-1525.97,256.4,0.088
-1.18,-1.18187,0.394023,0.0132061,0,0,9.28643e-06,0.170305,0,-1267,-0,-0,-1523.27,255.444,0.092
-1.18,-1.18187,0.394023,0.0138725,0,0,1.01078e-05,0.169075,0,-1267,-0,-0,-1520.6,253.597,0.096
-1.18,-1.18187,0.394023,0.0145296,0,0,1.09637e-05,0.167477,0,-1266,-0,-0,-1517.97,251.199,0.1
-1.18,-1.18187,0.394023,0.0151771,0,0,1.1854e-05,0.165605,0,-1266,-0,-0,-1515.39,248.39,0.104
-1.18,-1.18187,0.394023,0.0158176,0,0,1.27787e-05,0.163782,0,-1267,-0,-0,-1512.82,245.654,0.108
-1.18,-1.18187,0.394024,0.0164481,0,0,1.37378e-05,0.161731,0,-1267,-0,-0,-1510.3,242.576,0.112
-1.18,-1.18187,0.394024,0.0170697,0,0,1.47312e-05,0.159616,0,-1268,-0,-0,-1507.82,239.402,0.116
-1.18,-1.18187,0.394024,0.0176795,0,0,1.57589e-05,0.157227,0,-1269,-0,-0,-1505.38,235.816,0.12
-1.18,-1.18187,0.394024,0.0182879,0,0,1.68208e-05,0.155518,0,-1269,-0,-0,-1502.94,233.253,0.124
-1.18,-1.18187,0.394024,0.0188918,0,0,1.7917e-05,0.154006,0,-1269,-0,-0,-1500.53,230.981,0.128
-1.18,-1.18187,0.394024,0.0194892,0,0,1.90473e-05,0.15245,0,-1269,-0,-0,-1498.14,228.646,0.132
-1.18,-1.18187,0.394024,0.0200751,0,0,2.02118e-05,0.150463,0,-1270,-0,-0,-1495.8,225.664,0.136
-1.18,-1.18187,0.394024,0.0206569,0,0,2.14104e-05,0.148792,0,-1270,-0,-0,-1493.47,223.156,0.14
-1.18,-1.18187,0.394024,0.0212332,0,0,2.2643e-05,0.147218,0,-1270,-0,-0,-1491.16,220.793,0.144
-1.18,-1.18187,0.394024,0.0218019,0,0,2.39097e-05,0.145535,0,-1270,-0,-0,-1488.89,218.267,0.148
-1.18,-1.18187,0.394024,0.0223605,0,0,2.52103e-05,0.143578,0,-1271,-0,-0,-1486.66,215.33,0.152
-1.18,-1.18187,0.394024,0.0229116,0,0,2.65449e-05,0.14164,0,-1272,-0,-0,-1484.45,212.421,0.156
-1.18,-1.18187,0.394024,0.0234609,0,0,2.79134e-05,0.140205,0,-1271,-0,-0,-1482.25,210.265,0.16
-1.18,-1.18187,0.394025,0.0239933,0,0,2.93158e-05,0.137837,0,-1273,-0,-0,-1480.13,206.711,0.164
-1.18,-1.18187,0.394025,0.0245195,0,0,3.0752e-05,0.13574,0,-1274,-0,-0,-1478.02,203.563,0.168
-1.18,-1.18187,0.394025,0.0250298,0,0,3.2222e-05,0.133017,0,-1276,-0,-0,-1475.98,199.478,0.172
-1.18,-1.18187,0.394025,0.0255256,0,0,3.37258e-05,0.129993,0,-1279,-0,-0,-1474,194.939,0.176
-1.18,-1.18187,0.394025,0.026002,0,0,3.52632e-05,0.126365,0,-1282,-0,-0,-1472.09,189.494,0.18
-1.18,-1.18187,0.394025,0.0264622,0,0,3.68344e-05,0.122593,0,-1286,-0,-0,-1470.25,183.834,0.184
-1.18,-1.18187,0.394025,0.0269024,0,0,3.84392e-05,0.118408,0,-1290,-0,-0,-1468.49,177.555,0.188
-1.18,-1.18187,0.394026,0.0273287,0,0,4.00776e-05,0.114467,0,-1295,-0,-0,-1466.79,171.64,0.192
-1.18,-1.18187,0.394026,0.0277402,0,0,4.17496e-05,0.110601,0,-1299,-0,-0,-1465.14,165.839,0.196
-1.18,-1.18187,0.394026,0.0281399,0,0,4.34551e-05,0.107045,0,-1303,-0,-0,-1463.54,160.503,0.2
-1.18,-1.18187,0.394026,0.02853,0,0,4.51941e-05,0.103868,0,-1306,-0,-0,-1461.98,155.735,0.204
-1.18,-1.18187,0.394026,0.0289107,0,0,4.69665e-05,0.100973,0,-1309,-0,-0,-1460.46,151.389,0.208
-1.18,-1.18187,0.394026,0.0292811,0,0,4.87724e-05,0.0981793,0,-1311,-0,-0,-1458.98,147.196,0.212
-1.18,-1.18187,0.394027,0.0296386,0,0,5.06116e-05,0.0952515,0,-1314,-0,-0,-1457.55,142.801,0.216
-1.18,-1.18187,0.394027,0.0299855,0,0,5.24842e-05,0.0924071,0,-1317,-0,-0,-1456.17,138.532,0.22
-1.18,-1.18187,0.394027,0.030321,0,0,5.43901e-05,0.0895607,0,-1320,-0,-0,-1454.82,134.259,0.224
-1.18,-1.18187,0.394027,0.0306406,0,0,5.63293e-05,0.0863387,0,-1324,-0,-0,-1453.55,129.424,0.228
-1.18,-1.18187,0.394028,0.0309477,0,0,5.83016e-05,0.0831543,0,-1327,-0,-0,-1452.32,124.644,0.232
-1.18,-1.18187,0.394028,0.0312365,0,0,6.03072e-05,0.0795054,0,-1331,-0,-0,-1451.16,119.168,0.236
-1.18,-1.18187,0.394028,0.0315112,0,0,6.23459e-05,0.0758924,0,-1336,-0,-0,-1450.07,113.745,0.24
-1.18,-1.18187,0.394028,0.0317724,0,0,6.44177e-05,0.0723609,0,-1340,-0,-0,-1449.02,108.445,0.244
-1.18,-1.18187,0.394029,0.0320232,0,0,6.65226e-05,0.0691428,0,-1344,-0,-0,-1448.02,103.614,0.248
-1.18,-1.18187,0.394029,0.0322592,0,0,6.86606e-05,0.0657594,0,-1348,-0,-0,-1447.08,98.5361,0.252
-1.18,-1.18187,0.394029,0.0324834,0,0,7.08315e-05,0.0625249,0,-1352,-0,-0,-1446.18,93.6811,0.256
-1.18,-1.18187,0.394029,0.0327007,0,0,7.30354e-05,0.0597928,0,-1355,-0,-0,-1445.31,89.5796,0.26
-1.18,-1.18187,0.39403,0.0329022,0,0,7.52722e-05,0.056647,0,-1359,-0,-0,-1444.51,84.8575,0.264
-1.18,-1.18187,0.39403,0.0330929,0,0,7.75419e-05,0.0536572,0,-1363,-0,-0,-1443.75,80.3695,0.268
-1.18,-1.18187,0.39403,0.0332673,0,0,7.98445e-05,0.0503109,0,-1367,-0,-0,-1443.05,75.3466,0.272
-1.18,-1.18187,0.394031,0.0334321,0,0,8.21799e-05,0.0472739,0,-1371,-0,-0,-1442.39,70.7875,0.276
-1.18,-1.18187,0.394031,0.0335845,0,0,8.4548e-05,0.0442127,0,-1375,-0,-0,-1441.79,66.1922,0.28
-1.18,-1.18187,0.394031,0.0337282,0,0,8.69489e-05,0.0414522,0,-1379,-0,-0,-1441.21,62.0478,0.284
-1.18,-1.18187,0.394032,0.0338602,0,0,8.93825e-05,0.0386329,0,-1382,-0,-0,-1440.69,57.8153,0.288
-1.18,-1.18187,0.394032,0.0339825,0,0,9.18487e-05,0.0359473,0,-1386,-0,-0,-1440.2,53.7831,0.292
-1.18,-1.18187,0.394032,0.0340965,0,0,9.43476e-05,0.0334658,0,-1389,-0,-0,-1439.74,50.0572,0.296
-1.18,-1.18187,0.394033,0.0341998,0,0,9.6879e-05,0.0309191,0,-1393,-0,-0,-1439.33,46.2333,0.3
-1.18,-1.18187,0.394033,0.0342955,0,0,9.9443e-05,0.0285878,0,-1396,-0,-0,-1438.95,42.7325,0.304
-1.18,-1.18187,0.394034,0.0343843,0,0,0.00010204,0.0264578,0,-1399,-0,-0,-1438.6,39.5336,0.308
-1.18,-1.18187,0.394034,0.0344662,0,0,0.000104668,0.024462,0,-1401,-0,-0,-1438.27,36.536,0.312
-1.18,-1.18187,0.394034,0.0345419,0,0,0.00010733,0.0226132,0,-1404,-0,-0,-1437.97,33.7588,0.316
-1.18,-1.18187,0.394035,0.0346103,0,0,0.000110024,0.0207761,0,-1406,-0,-0,-1437.7,30.9991,0.32
-1.18,-1.18187,0.394035,0.0346745,0,0,0.00011275,0.0192058,0,-1408,-0,-0,-1437.44,28.6396,0.324
-1.18,-1.18187,0.394036,0.034735,0,0,0.000115508,0.0178423,0,-1410,-0,-0,-1437.2,26.5902,0.328
-1.18,-1.18187,0.394036,0.034792,0,0,0.000118299,0.0166454,0,-1412,-0,-0,-1436.98,24.7906,0.332
-1.18,-1.18187,0.394037,0.03484,0,0,0.000121122,0.0150988,0,-1414,-0,-0,-1436.79,22.4666,0.336
-1.18,-1.18187,0.394037,0.0348808,0,0,0.000123977,0.0134632,0,-1416,-0,-0,-1436.63,20.0089,0.34
-1.18,-1.18187,0.394038,0.0349136,0,0,0.000126865,0.0117106,0,-1419,-0,-0,-1436.5,17.3756,0.344
-1.18,-1.18187,0.394038,0.0349326,0,0,0.000129784,0.00939058,0,-1422,-0,-0,-1436.42,13.8912,0.348
-1.18,-1.18187,0.394039,0.0349406,0,0,0.000132736,0.00692258,0,-1426,-0,-0,-1436.39,10.1848,0.352
-1.18,-1.18187,0.394039,0.0349409,0,0,0.00013572,0.00464384,0,-1429,-0,-0,-1436.39,6.76219,0.356
-1.18,-1.18187,0.39404,0.0349409,0,0,0.000138735,0.0030959,0,-1431,-0,-0,-1436.4,4.43574,0.36
-1.18,-1.18187,0.39404,0.0349409,0,0,0.000141783,0.00206393,0,-1433,-0,-0,-1436.4,2.88322,0.364
-1.18,-1.18187,0.394041,0.0349409,0,0,0.000144863,0.00137595,0,-1434,-0,-0,-1436.4,1.84664,0.368
-1.18,-1.18187,0.394042,0.0349412,0,0,0.000147974,0.000946093,0,-1435,-0,-0,-1436.4,1.19718,0.372
-1.18,-1.18187,0.394042,0.0349412,0,0,0.000151118,0.000630729,0,-1435,-0,-0,-1436.4,0.719417,0.376
-1.18,-1.18187,0.394043,0.0349412,0,0,0.000154293,0.000420486,0,-1436,-0,-0,-1436.41,0.399289,0.38
-1.18,-1.18187,0.394043,0.0349412,0,0,0.0001575,0.000280324,0,-1436,-0,-0,-1436.41,0.184236,0.384
-1.18,-1.18187,0.394044,0.0349412,0,0,0.000160739,0.000186883,0,-1436,-0,-0,-1436.41,0.0392156,0.388
-1.18,-1.18187,0.394045,0.0349412,0,0,0.00016401,0.000124588,0,-1436,-0,-0,-1436.41,-0.0591316,0.392
-1.18,-1.18187,0.394045,0.0349412,0,0,0.000167312,8.3059e-05,0,-1436,-0,-0,-1436.42,-0.126379,0.396
-1.18,-1.18187,0.394046,0.0349416,0,0,0.000170646,8.41636e-05,0,-1436,-0,-0,-1436.42,-0.129723,0.4
-1.18,-1.18187,0.394047,0.0349416,0,0,0.000174011,5.6109e-05,0,-1436,-0,-0,-1436.42,-0.176853,0.404
-1.18,-1.18187,0.394047,0.0349416,0,0,0.000177408,3.7406e-05,0,-1436,-0,-0,-1436.42,-0.210003,0.408
-1.18,-1.18187,0.394048,0.0349416,0,0,0.000180837,2.49374e-05,0,-1436,-0,-0,-1436.43,-0.233849,0.412
-1.18,-1.18187,0.394049,0.0349416,0,0,0.000184297,1.66249e-05,0,-1436,-0,-0,-1436.43,-0.251508,0.416
-1.18,-1.18187,0.39405,0.0349416,0,0,0.000187789,1.10833e-05,0,-1436,-0,-0,-1436.43,-0.265058,0.42
-1.18,-1.18187,0.39405,0.0349416,0,0,0.000191312,7.38885e-06,0,-1436,-0,-0,-1436.43,-0.275884,0.424
-1.18,-1.18187,0.394051,0.0349416,0,0,0.000194866,4.9259e-06,0,-1436,-0,-0,-1436.44,-0.28491,0.428
-1.18,-1.18187,0.394052,0.0349416,0,0,0.000198452,3.28393e-06,0,-1436,-0,-0,-1436.44,-0.292752,0.432
-1.18,-1.18187,0.394053,0.0349419,0,0,0.000202069,3.09802e-05,0,-1436,-0,-0,-1436.44,-0.256633,0.436
-1.18,-1.18187,0.394053,0.0349419,0,0,0.000205717,2.06535e-05,0,-1436,-0,-0,-1436.45,-0.277596,0.44
-1.18,-1.18187,0.394054,0.0349419,0,0,0.000209397,1.3769e-05,0,-1436,-0,-0,-1436.45,-0.293442,0.444
-1.18,-1.18187,0.394055,0.0349419,0,0,0.000213108,9.17932e-06,0,-1436,-0,-0,-1436.45,-0.305892,0.448
-1.18,-1.18187,0.394056,0.0349419,0,0,0.00021685,6.11955e-06,0,-1436,-0,-0,-1436.46,-0.316095,0.452
-1.18,-1.18187,0.394057,0.0349419,0,0,0.000220623,4.0797e-06,0,-1436,-0,-0,-1436.46,-0.324814,0.456
-1.18,-1.18187,0.394058,0.0349419,0,0,0.000224427,2.7198e-06,0,-1436,-0,-0,-1436.46,-0.332561,0.46
-1.18,-1.18187,0.394059,0.0349419,0,0,0.000228262,1.8132e-06,0,-1436,-0,-0,-1436.47,-0.339673,0.464
-1.18,-1.18187,0.39406,0.0349416,0,0,0.000232128,-2.75821e-05,0,-1436,-0,-0,-1436.47,-0.389566,0.468
-1.18,-1.18187,0.394061,0.0349423,0,0,0.000236026,3.91938e-05,0,-1436,-0,-0,-1436.47,-0.295248,0.472
-1.18,-1.18187,0.394061,0.0349423,0,0,0.000239954,2.61292e-05,0,-1436,-0,-0,-1436.48,-0.320737,0.476
-1.18,-1.18187,0.394062,0.0349423,0,0,0.000243913,1.74195e-05,0,-1436,-0,-0,-1436.48,-0.33974,0.48
-1.18,-1.18187,0.394063,0.0349423,0,0,0.000247903,1.1613e-05,0,-1436,-0,-0,-1436.48,-0.354435,0.484
-1.18,-1.18187,0.394064,0.0349423,0,0,0.000251924,7.74198e-06,0,-1436,-0,-0,-1436.49,-0.366273,0.488
-1.18,-1.18187,0.394065,0.0349426,0,0,0.000255975,3.39522e-05,0,-1436,-0,-0,-1436.49,-0.333035,0.492
-1.18,-1.18187,0.394066,0.0349426,0,0,0.000260058,2.26348e-05,0,-1436,-0,-0,-1436.5,-0.356134,0.496
-1.18,-1.18187,0.394068,0.0349426,0,0,0.000264171,1.50899e-05,0,-1436,-0,-0,-1436.5,-0.373621,0.5
-1.18,-1.18187,0.394069,0.0349426,0,0,0.000268314,1.00599e-05,0,-1436,-0,-0,-1436.5,-0.387382,0.504
-1.18,-1.18187,0.39407,0.034943,0,0,0.000272489,3.54975e-05,0,-1436,-0,-0,-1436.51,-0.355487,0.508
-1.18,-1.18187,0.394071,0.0349437,0,0,0.000276694,8.12469e-05,0,-1436,-0,-0,-1436.51,-0.293171,0.512
-1.18,-1.18187,0.394072,0.0349433,0,0,0.00028093,2.53737e-05,0,-1436,-0,-0,-1436.51,-0.383334,0.516
-1.18,-1.18187,0.394073,0.0349437,0,0,0.000285196,4.57067e-05,0,-1436,-0,-0,-1436.52,-0.359234,0.52
-1.18,-1.18187,0.394074,0.0349437,0,0,0.000289492,3.04711e-05,0,-1436,-0,-0,-1436.52,-0.388532,0.524
-1.18,-1.18187,0.394075,0.034944,0,0,0.000293819,4.9105e-05,0,-1436,-0,-0,-1436.53,-0.367072,0.528
-1.18,-1.18187,0.394077,0.0349444,0,0,0.000298177,6.15276e-05,0,-1436,-0,-0,-1436.53,-0.354974,0.532
-1.18,-1.18187,0.394078,0.034945,0,0,0.000302565,9.86002e-05,0,-1436,-0,-0,-1436.53,-0.305947,0.536
-1.18,-1.18187,0.394079,0.0349464,0,0,0.000306983,0.000180897,0,-1436,-0,-0,-1436.53,-0.189129,0.54
-1.18,-1.18187,0.39408,0.0349471,0,0,0.000311432,0.00017818,0,-1436,-0,-0,-1436.53,-0.199878,0.544
-1.18,-1.18187,0.394081,0.0349499,0,0,0.000315911,0.000349114,0,-1436,-0,-0,-1436.53,0.0498049,0.548
-1.18,-1.18187,0.394083,0.0349533,0,0,0.00032042,0.000520652,0,-1436,-0,-0,-1436.52,0.300348,0.552
-1.18,-1.18187,0.394084,0.0349592,0,0,0.000324959,0.000836547,0,-1435,-0,-0,-1436.5,0.767382,0.556
-1.18,-1.18187,0.394085,0.0349668,0,0,0.000329529,0.0011911,0,-1435,-0,-0,-1436.47,1.29235,0.56
-1.18,-1.18187,0.394087,0.0349761,0,0,0.000334128,0.00157142,0,-1434,-0,-0,-1436.44,1.85594,0.564
-1.18,-1.18187,0.394088,0.0349889,0,0,0.000338758,0.00211288,0,-1433,-0,-0,-1436.4,2.66118,0.568
-1.18,-1.18187,0.394089,0.0350038,0,0,0.000343418,0.0026466,0,-1432,-0,-0,-1436.34,3.45477,0.572
-1.18,-1.18187,0.394091,0.035019,0,0,0.000348108,0.0030312,0,-1432,-0,-0,-1436.29,4.02463,0.576
-1.18,-1.18187,0.394092,0.0350325,0,0,0.000352828,0.00314364,0,-1432,-0,-0,-1436.24,4.18622,0.58
-1.18,-1.18187,0.394094,0.0350439,0,0,0.000357577,0.00304586,0,-1432,-0,-0,-1436.2,4.03243,0.584
-1.18,-1.18187,0.394095,0.0350546,0,5.75818e-05,0.000362357,0.00292309,0,-1432,-0,0,-1436.16,3.84111,0.588
-1.18,-1.18187,0.394096,0.0350646,0,-1.91939e-05,0.000367167,0.00278367,0,-1432,-0,-0,-1436.13,3.62475,0.592
-1.18,-1.18187,0.394098,0.0350756,0,-1.2796e-05,0.000372006,0.00277709,0,-1432,-0,-0,-1436.09,3.60762,0.596
-1.18,-1.18187,0.394099,0.0350891,0,-8.53064e-06,0.000376875,0.00297424,0,-1432,-0,-0,-1436.04,3.89604,0.6
-1.18,-1.18187,0.394101,0.0351054,0,-5.6871e-06,0.000381774,0.003336,0,-1431,-0,-0,-1435.98,4.43134,0.604
-1.18,-1.18187,0.394102,0.035124,0,-3.7914e-06,0.000386703,0.00377871,0,-1430,-0,-0,-1435.91,5.08801,0.608
-1.18,-1.18187,0.394104,0.0351413,0,-2.5276e-06,0.000391662,0.00395869,0,-1430,-0,-0,-1435.85,5.35054,0.612
-1.18,-1.18187,0.394106,0.0351551,0,-1.68507e-06,0.00039665,0.00379076,0,-1430,-0,-0,-1435.8,5.09117,0.616
-1.18,-1.18187,0.394107,0.035171,0,-1.12338e-06,0.000401667,0.00385156,0,-1430,-0,-0,-1435.74,5.17483,0.62
-1.18,-1.18187,0.394109,0.0351883,0,-7.48918e-07,0.000406715,0.00400725,0,-1430,-0,-0,-1435.68,5.4008,0.624
-1.18,-1.18187,0.39411,0.03521,0,-4.99279e-07,0.000411791,0.00448533,0,-1429,-0,-0,-1435.6,6.11031,0.628
-1.18,-1.18187,0.394112,0.0352359,0,-3.32852e-07,0.000416898,0.00514954,0,-1428,-0,-0,-1435.5,7.09896,0.632
-1.18,-1.18187,0.394114,0.035266,0,-2.21902e-07,0.000422034,0.00593784,0,-1427,-0,-0,-1435.39,8.2737,0.636
-1.18,-1.18187,0.394116,0.0352978,0,-1.47934e-07,0.000427199,0.00660732,0,-1426,-0,-0,-1435.27,9.27019,0.64
-1.18,-1.18187,0.394117,0.0353289,0,-9.86229e-08,0.000432394,0.00699606,0,-1425,-0,-0,-1435.15,9.84551,0.644
-1.18,-1.18187,0.394119,0.0353638,0,-6.57486e-08,0.000437618,0.00757193,0,-1424,-0,-0,-1435.02,10.7015,0.648
-1.18,-1.18187,0.394121,0.0354014,0,-4.38324e-08,0.000442871,0.00818616,0,-1423,-0,-0,-1434.88,11.6149,0.652
-1.18,-1.18187,0.394123,0.035437,0,-2.92216e-08,0.000448154,0.00842291,0,-1422,-0,-0,-1434.74,11.9621,0.656
-1.18,-1.18187,0.394124,0.0354747,0,-1.94811e-08,0.000453466,0.00875348,0,-1422,-0,-0,-1434.6,12.45,0.66
-1.18,-1.18187,0.394126,0.0355127,0,-1.29874e-08,0.000458807,0.00900266,0,-1421,-0,-0,-1434.45,12.8158,0.664
-1.18,-1.18187,0.394128,0.035549,0,-8.65826e-09,0.000464177,0.00902482,0,-1421,-0,-0,-1434.32,12.841,0.668
-1.18,-1.18187,0.39413,0.0355866,0,-5.77217e-09,0.000469577,0.00915476,0,-1421,-0,-0,-1434.17,13.0278,0.672
-1.18,-1.18187,0.394132,0.0356288,0,-3.84811e-09,0.000475005,0.00961566,0,-1420,-0,-0,-1434.01,13.711,0.676
-1.18,-1.18187,0.394134,0.035673,0,-2.56541e-09,0.000480463,0.0100957,0,-1419,-0,-0,-1433.84,14.4228,0.68
-1.18,-1.18187,0.394136,0.0357207,0,-1.71027e-09,0.00048595,0.0107036,0,-1418,-0,-0,-1433.66,15.3265,0.684
-1.18,-1.18187,0.394138,0.0357732,0,-1.14018e-09,0.000491465,0.011512,0,-1416,-0,-0,-1433.46,16.5307,0.688
-1.18,-1.18187,0.39414,0.0358305,0,-7.60121e-10,0.00049701,0.0124539,0,-1415,-0,-0,-1433.24,17.9354,0.692
-1.18,-1.18187,0.394142,0.0358931,0,-5.06748e-10,0.000502584,0.0135138,0,-1413,-0,-0,-1432.99,19.5168,0.696
-1.18,-1.18187,0.394144,0.0359594,0,-3.37832e-10,0.000508186,0.014537,0,-1411,-0,-0,-1432.74,21.0433,0.7
-1.18,-1.18187,0.394146,0.0360299,0,-2.25221e-10,0.000513818,0.0155647,0,-1409,-0,-0,-1432.46,22.5763,0.704
-1.18,-1.18187,0.394148,0.0361055,0,-1.50147e-10,0.000519478,0.0166817,0,-1407,-0,-0,-1432.17,24.2433,0.708
-1.18,-1.18187,0.39415,0.0361912,0,-1.00098e-10,0.000525167,0.0182613,0,-1405,-0,-0,-1431.83,26.6042,0.712
-1.18,-1.18187,0.394152,0.0362786,0,-6.67322e-11,0.000530885,0.0194583,0,-1403,-0,-0,-1431.49,28.3911,0.716
-1.18,-1.18187,0.394154,0.0363674,0,-4.44881e-11,0.000536631,0.0203715,0,-1401,-0,-0,-1431.15,29.7522,0.72
-1.18,-1.18187,0.394156,0.0364649,0,-2.96587e-11,0.000542406,0.0217,0,-1399,-0,-0,-1430.77,31.7364,0.724
-1.18,-1.18187,0.394158,0.0365671,0,-1.97725e-11,0.00054821,0.0229888,0,-1396,-0,-0,-1430.36,33.6609,0.728
-1.18,-1.18187,0.394161,0.0366704,0,-1.31817e-11,0.000554043,0.0239343,0,-1394,-0,-0,-1429.96,35.0705,0.732
-1.18,-1.18187,0.394163,0.0367755,0,-8.78778e-12,0.000559904,0.0247087,0,-1393,-0,-0,-1429.55,36.2232,0.736
-1.18,-1.18187,0.394165,0.0368812,0,-5.85852e-12,0.000565793,0.0252825,0,-1392,-0,-0,-1429.14,37.075,0.74
-1.18,-1.18187,0.394167,0.0369827,0,-3.90568e-12,0.000571711,0.0253195,0,-1391,-0,-0,-1428.74,37.1217,0.744
-1.18,-1.18187,0.39417,0.0370826,0,-2.60379e-12,0.000577658,0.0252003,0,-1391,-0,-0,-1428.35,36.9339,0.748
-1.18,-1.18187,0.394172,0.0371804,0,-1.73586e-12,0.000583633,0.024948,0,-1391,-0,-0,-1427.97,36.5466,0.752
-1.18,-1.18187,0.394174,0.0372747,0,-1.15724e-12,0.000589636,0.0244919,0,-1391,-0,-0,-1427.6,35.8534,0.756
-1.18,-1.18187,0.394177,0.0373649,0,-7.71492e-13,0.000595668,0.0238424,0,-1392,-0,-0,-1427.25,34.8701,0.76
-1.18,-1.18187,0.394179,0.037453,0,-5.14328e-13,0.000601728,0.0232366,0,-1392,-0,-0,-1426.9,33.9523,0.764
-1.18,-1.18187,0.394181,0.0375445,0,-3.42885e-13,0.000607816,0.0231207,0,-1392,-0,-0,-1426.55,33.7693,0.768
-1.18,-1.18187,0.394184,0.037633,0,-2.2859e-13,0.000613932,0.0227843,0,-1392,-0,-0,-1426.2,33.2555,0.772
-1.18,-1.18187,0.394186,0.0377197,0,-1.52393e-13,0.000620077,0.022416,0,-1393,-0,-0,-1425.87,32.6939,0.776
-1.18,-1.18187,0.394189,0.0378026,0,-1.01596e-13,0.00062625,0.0218538,0,-1393,-0,-0,-1425.54,31.8414,0.78
-1.18,-1.18187,0.394191,0.0378817,0,-6.77304e-14,0.000632451,0.0211623,0,-1394,-0,-0,-1425.24,30.7948,0.784
-1.18,-1.18187,0.394194,0.0379557,0,-4.51536e-14,0.00063868,0.0202695,0,-1395,-0,-0,-1424.95,29.4462,0.788
-1.18,-1.18187,0.394196,0.0380272,0,-3.01024e-14,0.000644937,0.0194727,0,-1396,-0,-0,-1424.68,28.2417,0.792
-1.18,-1.18187,0.394199,0.0380956,0,-2.00683e-14,0.000651223,0.0186824,0,-1397,-0,-0,-1424.41,27.0468,0.796
-1.18,-1.18187,0.394202,0.0381636,0,-1.33789e-14,0.000657536,0.0181268,0,-1397,-0,-0,-1424.15,26.2038,0.8
-1.18,-1.18187,0.394204,0.0382286,0,-8.91924e-15,0.000663877,0.0174972,0,-1398,-0,-0,-1423.9,25.25,0.804
-1.18,-1.18187,0.394207,0.0382908,0,-5.94616e-15,0.000670246,0.0168472,0,-1399,-0,-0,-1423.66,24.2654,0.808
-1.18,-1.18187,0.39421,0.0383481,0,-3.9641e-15,0.000676643,0.0160107,0,-1400,-0,-0,-1423.45,23.0011,0.812
-1.18,-1.18187,0.394212,0.0383986,0,-2.64274e-15,0.000683068,0.0148773,0,-1401,-0,-0,-1423.26,21.2913,0.816
-1.18,-1.18187,0.394215,0.0384428,0,-1.76182e-15,0.000689521,0.0136034,0,-1403,-0,-0,-1423.09,19.3709,0.82
-1.18,-1.18187,0.394218,0.0384849,0,-1.17455e-15,0.000696001,0.0125815,0,-1405,-0,-0,-1422.93,17.8282,0.824
-1.18,-1.18187,0.394221,0.0385226,0,-7.83033e-16,0.000702509,0.0115258,0,-1406,-0,-0,-1422.79,16.235,0.828
-1.18,-1.18187,0.394224,0.0385568,0,-5.22022e-16,0.000709045,0.0105342,0,-1407,-0,-0,-1422.67,14.7377,0.832
-1.18,-1.18187,0.394226,0.0385886,0,-3.48015e-16,0.000715609,0.00967156,0,-1409,-0,-0,-1422.55,13.4339,0.836
-1.18,-1.18187,0.394229,0.0386183,0,-2.3201e-16,0.0007222,0.00892373,0,-1410,-0,-0,-1422.44,12.3023,0.84
-1.18,-1.18187,0.394232,0.0386456,0,-1.54673e-16,0.000728819,0.00822364,0,-1411,-0,-0,-1422.35,11.2422,0.844
-1.18,-1.18187,0.394235,0.0386694,0,-1.03115e-16,0.000735466,0.007469,0,-1412,-0,-0,-1422.26,10.1003,0.848
-1.18,-1.18187,0.394238,0.0386936,0,-6.87436e-17,0.000742139,0.0069947,0,-1412,-0,-0,-1422.18,9.37884,0.852
-1.18,-1.18187,0.394241,0.0387182,0,-4.58291e-17,0.000748841,0.00670729,0,-1413,-0,-0,-1422.09,8.93767,0.856
-1.18,-1.18187,0.394244,0.0387399,0,-3.05527e-17,0.00075557,0.00628535,0,-1413,-0,-0,-1422.02,8.29467,0.86
-1.18,-1.18187,0.394247,0.0387582,0,-2.03685e-17,0.000762326,0.00571615,0,-1414,-0,-0,-1421.96,7.43074,0.864
-1.18,-1.18187,0.39425,0.038772,0,-1.3579e-17,0.00076911,0.00496241,0,-1415,-0,-0,-1421.91,6.28994,0.868
-1.18,-1.18187,0.394253,0.0387824,0,-9.05266e-18,0.000775921,0.004172,0,-1416,-0,-0,-1421.88,5.09412,0.872
-1.18,-1.18187,0.394256,0.0387914,0,-6.03511e-18,0.000782759,0.0035299,0,-1417,-0,-0,-1421.86,4.12071,0.876
-1.18,-1.18187,0.394259,0.0388007,0,-4.0234e-18,0.000789625,0.00313062,0,-1418,-0,-0,-1421.84,3.51149,0.88
-1.18,-1.18187,0.394263,0.0388094,0,-2.68227e-18,0.000796518,0.00280685,0,-1418,-0,-0,-1421.81,3.0155,0.884
-1.18,-1.18187,0.394266,0.0388159,0,-1.78818e-18,0.000803438,0.00241826,0,-1419,-0,-0,-1421.8,2.42224,0.888
-1.18,-1.18187,0.394269,0.0388215,0,-1.19212e-18,0.000810385,0.00207283,0,-1419,-0,-0,-1421.79,1.89367,0.892
-1.18,-1.18187,0.394272,0.0388246,0,-7.94747e-19,0.00081736,0.001641,0,-1420,-0,-0,-1421.79,1.23547,0.896
-1.18,-1.18187,0.394276,0.0388256,0,-5.29831e-19,0.000824361,0.00118038,0,-1421,-0,-0,-1421.8,0.534022,0.9
-1.18,-1.18187,0.394279,0.0388259,0,-3.53221e-19,0.00083139,0.000815708,0,-1421,-0,-0,-1421.81,-0.0235227,0.904
-1.18,-1.18187,0.394282,0.0388259,0,-2.3548e-19,0.000838446,0.000543806,0,-1422,-0,-0,-1421.83,-0.44196,0.908
-1.18,-1.18187,0.394286,0.0388263,0,-1.56987e-19,0.000845528,0.000391328,0,-1422,-0,-0,-1421.84,-0.681301,0.912
-1.18,-1.18187,0.394289,0.0388263,0,-1.04658e-19,0.000852638,0.000260885,0,-1422,-0,-0,-1421.85,-0.887629,0.916
-1.18,-1.18187,0.394292,0.0388263,0,-6.9772e-20,0.000859775,0.000173924,0,-1422,-0,-0,-1421.86,-1.02878,0.92
-1.18,-1.18187,0.394296,0.0388266,0,-4.65147e-20,0.000866938,0.00014474,0,-1422,-0,-0,-1421.88,-1.0833,0.924
-1.18,-1.18187,0.394299,0.0388266,0,-3.10098e-20,0.000874128,9.64933e-05,0,-1423,-0,-0,-1421.89,-1.16645,0.928
-1.18,-1.18187,0.394303,0.0388266,0,-2.06732e-20,0.000881345,6.43289e-05,0,-1423,-0,-0,-1421.91,-1.22552,0.932
-1.18,-1.18187,0.394306,0.0388266,0,-1.37821e-20,0.000888589,4.28859e-05,0,-1423,-0,-0,-1421.92,-1.26856,0.936
-1.18,-1.18187,0.39431,0.0388266,0,-9.18808e-21,0.00089586,2.85906e-05,0,-1423,-0,-0,-1421.93,-1.3009,0.94
-1.18,-1.18187,0.394314,0.0388266,0,-6.12539e-21,0.000903157,1.90604e-05,0,-1423,-0,-0,-1421.95,-1.32615,0.944
-1.18,-1.18187,0.394317,0.0388263,0,-4.08359e-21,0.000910482,-1.6084e-05,0,-1423,-0,-0,-1421.96,-1.38985,0.948
-1.18,-1.18187,0.394321,0.0388266,0,-2.72239e-21,0.000917832,1.80683e-05,0,-1423,-0,-0,-1421.98,-1.34965,0.952
-1.18,-1.18187,0.394325,0.038827,0,-1.81493e-21,0.00092521,4.08364e-05,0,-1423,-0,-0,-1421.99,-1.32656,0.956
-1.18,-1.18187,0.394328,0.038827,0,-1.20995e-21,0.000932613,2.72243e-05,0,-1423,-0,-0,-1422.01,-1.35808,0.96
-1.18,-1.18187,0.394332,0.038827,0,-8.06635e-22,0.000940044,1.81495e-05,0,-1423,-0,-0,-1422.02,-1.38284,0.964
-1.18,-1.18187,0.394336,0.038827,0,-5.37757e-22,0.000947501,1.20997e-05,0,-1423,-0,-0,-1422.04,-1.4031,0.968
-1.18,-1.18187,0.39434,0.038827,0,-3.58505e-22,0.000954984,8.06646e-06,0,-1423,-0,-0,-1422.05,-1.42038,0.972
-1.18,-1.18187,0.394343,0.038827,0,-2.39003e-22,0.000962494,5.37764e-06,0,-1423,-0,-0,-1422.07,-1.43567,0.976
-1.18,-1.18187,0.394347,0.038827,0,-1.59335e-22,0.00097003,3.58509e-06,0,-1423,-0,-0,-1422.08,-1.44967,0.98
-1.18,-1.18187,0.394351,0.038827,0,-1.06224e-22,0.000977593,2.39006e-06,0,-1423,-0,-0,-1422.1,-1.4628,0.984
-1.18,-1.18187,0.394355,0.038827,0,-7.08157e-23,0.000985182,1.59337e-06,0,-1423,-0,-0,-1422.11,-1.47538,0.988
-1.18,-1.18187,0.394359,0.038827,0,-4.72105e-23,0.000992797,1.06225e-06,0,-1423,-0,-0,-1422.13,-1.4876,0.992
-1.18,-1.18187,0.394363,0.038827,0,-3.14737e-23,0.00100044,7.08166e-07,0,-1423,-0,-0,-1422.14,-1.4996,0.996
-1.18,-1.18187,0.394367,0.038827,0,-2.09824e-23,0.00100811,4.72111e-07,0,-1423,-0,-0,-1422.16,-1.51145,1
-1.18,-1.18187,0.394371,0.0388273,0,-1.39883e-23,0.0010158,2.91057e-05,0,-1423,-0,-0,-1422.18,-1.48004,1.004
-1.18,-1.18187,0.394375,0.0388273,0,-9.32553e-24,0.00102352,1.94038e-05,0,-1423,-0,-0,-1422.19,-1.50617,1.008
-1.18,-1.18187,0.394379,0.0388273,0,-6.21702e-24,0.00103127,1.29359e-05,0,-1423,-0,-0,-1422.21,-1.5275,1.012
-1.18,-1.18187,0.394383,0.0388273,0,-4.14468e-24,0.00103904,8.6239e-06,0,-1423,-0,-0,-1422.22,-1.54562,1.016
-1.18,-1.18187,0.394388,0.0388273,0,-2.76312e-24,0.00104684,5.74927e-06,0,-1423,-0,-0,-1422.24,-1.56163,1.02
-1.18,-1.18187,0.394392,0.0388273,0,-1.84208e-24,0.00105466,3.83284e-06,0,-1423,-0,-0,-1422.26,-1.57624,1.024
-1.18,-1.18187,0.394396,0.0388273,0,-1.22805e-24,0.00106251,2.55523e-06,0,-1423,-0,-0,-1422.28,-1.58993,1.028
-1.18,-1.18187,0.3944,0.0388273,0,-8.18702e-25,0.00107039,1.70349e-06,0,-1423,-0,-0,-1422.29,-1.60303,1.032
-1.18,-1.18187,0.394405,0.0388273,0,-5.45801e-25,0.00107829,1.13566e-06,0,-1423,-0,-0,-1422.31,-1.61573,1.036
-1.18,-1.18187,0.394409,0.0388273,0,-3.63868e-25,0.00108622,7.57105e-07,0,-1423,-0,-0,-1422.33,-1.62819,1.04
-1.18,-1.18187,0.394413,0.0388273,0,-2.42578e-25,0.00109417,5.04737e-07,0,-1423,-0,-0,-1422.34,-1.6405,1.044
-1.18,-1.18187,0.394418,0.0388273,0,-1.61719e-25,0.00110215,3.36491e-07,0,-1424,-0,-0,-1422.36,-1.65272,1.048
-1.18,-1.18187,0.394422,0.0388273,0,-1.07813e-25,0.00111016,2.24327e-07,0,-1424,-0,-0,-1422.38,-1.6649,1.052
-1.18,-1.18187,0.394427,0.0388273,0,-7.18751e-26,0.00111819,1.49552e-07,0,-1424,-0,-0,-1422.4,-1.67706,1.056
-1.18,-1.18187,0.394431,0.0388273,0,-4.79167e-26,0.00112624,9.97011e-08,0,-1424,-0,-0,-1422.42,-1.68922,1.06
-1.18,-1.18187,0.394436,0.0388273,0,-3.19445e-26,0.00113433,6.64674e-08,0,-1424,-0,-0,-1422.43,-1.70139,1.064
-1.18,-1.18187,0.39444,0.0388273,0,-2.12963e-26,0.00114244,4.43116e-08,0,-1424,-0,-0,-1422.45,-1.71359,1.068
-1.18,-1.18187,0.394445,0.0388273,0,-1.41975e-26,0.00115057,2.95411e-08,0,-1424,-0,-0,-1422.47,-1.72581,1.072
-1.18,-1.18187,0.394449,0.0388273,0,-9.46503e-27,0.00115873,1.9694e-08,0,-1424,-0,-0,-1422.49,-1.73806,1.076
-1.18,-1.18187,0.394454,0.0388273,0,-6.31002e-27,0.00116691,1.31294e-08,0,-1424,-0,-0,-1422.51,-1.75035,1.08
-1.18,-1.18187,0.394459,0.0388273,0,-4.20668e-27,0.00117512,8.75291e-09,0,-1424,-0,-0,-1422.53,-1.76267,1.084
-1.18,-1.18187,0.394463,0.0388273,0,-2.80445e-27,0.00118336,5.83527e-09,0,-1424,-0,-0,-1422.54,-1.77503,1.088
-1.18,-1.18187,0.394468,0.0388273,0,-1.86964e-27,0.00119162,3.89018e-09,0,-1424,-0,-0,-1422.56,-1.78743,1.092
-1.18,-1.18187,0.394473,0.0388273,0,-1.24642e-27,0.00119991,2.59345e-09,0,-1424,-0,-0,-1422.58,-1.79986,1.096
-1.18,-1.18187,0.394478,0.0388273,0,-8.30949e-28,0.00120822,1.72897e-09,0,-1424,-0,-0,-1422.6,-1.81233,1.1
-1.18,-1.18187,0.394483,0.0388273,0,-5.53966e-28,0.00121656,1.15265e-09,0,-1424,-0,-0,-1422.62,-1.82483,1.104
-1.18,-1.18187,0.394488,0.0388273,0,-3.69311e-28,0.00122492,7.68431e-10,0,-1424,-0,-0,-1422.64,-1.83738,1.108
-1.18,-1.18187,0.394492,0.0388277,0,-2.46207e-28,0.00123331,2.87914e-05,0,-1424,-0,-0,-1422.66,-1.80677,1.112
-1.18,-1.18187,0.394497,0.0388277,0,-1.64138e-28,0.00124172,1.91943e-05,0,-1424,-0,-0,-1422.68,-1.83379,1.116
-1.18,-1.18187,0.394502,0.0388273,0,-1.09425e-28,0.00125016,-1.59947e-05,0,-1424,-0,-0,-1422.7,-1.89923,1.12
-1.18,-1.18187,0.394507,0.0388277,0,-7.29503e-29,0.00125862,1.81278e-05,0,-1424,-0,-0,-1422.72,-1.86074,1.124
-1.18,-1.18187,0.394512,0.0388277,0,-4.86335e-29,0.00126711,1.20852e-05,0,-1424,-0,-0,-1422.74,-1.88254,1.128
-1.18,-1.18187,0.394518,0.0388273,0,-3.24223e-29,0.00127562,-2.07341e-05,0,-1424,-0,-0,-1422.76,-1.94454,1.132
-1.18,-1.18187,0.394523,0.0388277,0,-2.16149e-29,0.00128416,1.49682e-05,0,-1424,-0,-0,-1422.78,-1.90379,1.136
-1.18,-1.18187,0.394528,0.0388277,0,-1.44099e-29,0.00129272,9.97878e-06,0,-1424,-0,-0,-1422.8,-1.92412,1.14
-1.18,-1.18187,0.394533,0.0388277,0,-9.60662e-30,0.00130131,6.65252e-06,0,-1424,-0,-0,-1422.82,-1.94199,1.144
-1.18,-1.18187,0.394538,0.0388277,0,-6.40441e-30,0.00130993,4.43501e-06,0,-1424,-0,-0,-1422.84,-1.95824,1.148
-1.18,-1.18187,0.394543,0.0388277,0,-4.26961e-30,0.00131856,2.95667e-06,0,-1424,-0,-0,-1422.86,-1.97341,1.152
-1.18,-1.18187,0.394549,0.0388277,0,-2.84641e-30,0.00132723,1.97112e-06,0,-1424,-0,-0,-1422.88,-1.98789,1.156
-1.18,-1.18187,0.394554,0.0388277,0,-1.8976e-30,0.00133592,1.31408e-06,0,-1424,-0,-0,-1422.91,-2.0019,1.16
-1.18,-1.18187,0.394559,0.0388277,0,-1.26507e-30,0.00134463,8.76052e-07,0,-1424,-0,-0,-1422.93,-2.01563,1.164
-1.18,-1.18187,0.394565,0.0388277,0,-8.4338e-31,0.00135337,5.84035e-07,0,-1424,-0,-0,-1422.95,-2.02917,1.168
-1.18,-1.18187,0.39457,0.0388277,0,-5.62253e-31,0.00136213,3.89356e-07,0,-1425,-0,-0,-1422.97,-2.04261,1.172
-1.18,-1.18187,0.394576,0.0388277,0,-3.74835e-31,0.00137092,2.59571e-07,0,-1425,-0,-0,-1422.99,-2.05598,1.176
-1.18,-1.18187,0.394581,0.0388277,0,-2.4989e-31,0.00137973,1.73047e-07,0,-1425,-0,-0,-1423.01,-2.06933,1.18
-1.18,-1.18187,0.394587,0.0388277,0,-1.66593e-31,0.00138856,1.15365e-07,0,-1425,-0,-0,-1423.04,-2.08267,1.184
-1.18,-1.18187,0.394592,0.0388277,0,-1.11062e-31,0.00139742,7.69099e-08,0,-1425,-0,-0,-1423.06,-2.09602,1.188
-1.18,-1.18187,0.394598,0.0388277,0,-7.40415e-32,0.00140631,5.12733e-08,0,-1425,-0,-0,-1423.08,-2.10939,1.192
-1.18,-1.18187,0.394604,0.0388277,0,-4.9361e-32,0.00141522,3.41822e-08,0,-1425,-0,-0,-1423.1,-2.12278,1.196
-1.18,-1.18187,0.394609,0.0388277,0,-3.29074e-32,0.00142415,2.27881e-08,0,-1425,-0,-0,-1423.13,-2.1362,1.2
-1.18,-1.18187,0.394615,0.0388277,0,-2.19382e-32,0.00143311,1.51921e-08,0,-1425,-0,-0,-1423.15,-2.14965,1.204
-1.18,-1.18187,0.394621,0.0388277,0,-1.46255e-32,0.0014421,1.01281e-08,0,-1425,-0,-0,-1423.17,-2.16313,1.208
-1.18,-1.18187,0.394627,0.0388277,0,-9.75033e-33,0.0014511,6.75203e-09,0,-1425,-0,-0,-1423.2,-2.17665,1.212
-1.18,-1.18187,0.394632,0.0388277,0,-6.50022e-33,0.00146014,4.50136e-09,0,-1425,-0,-0,-1423.22,-2.1902,1.216
-1.18,-1.18187,0.394638,0.0388277,0,-4.33348e-33,0.00146919,3.0009e-09,0,-1425,-0,-0,-1423.24,-2.20378,1.22
-1.18,-1.18187,0.394644,0.038828,0,-2.88899e-33,0.00147827,2.87929e-05,0,-1425,-0,-0,-1423.26,-2.17422,1.224
-1.18,-1.18187,0.39465,0.0388277,0,-1.92599e-33,0.00148738,-9.59564e-06,0,-1425,-0,-0,-1423.29,-2.24546,1.228
-1.18,-1.18187,0.394656,0.0388277,0,-1.28399e-33,0.00149651,-6.39709e-06,0,-1425,-0,-0,-1423.31,-2.25435,1.232
-1.18,-1.18187,0.394662,0.038828,0,-8.55996e-34,0.00150566,2.45262e-05,0,-1425,-0,-0,-1423.34,-2.2217,1.236
-1.18,-1.18187,0.394668,0.038828,0,-5.70664e-34,0.00151484,1.63508e-05,0,-1425,-0,-0,-1423.36,-2.24773,1.24
-1.18,-1.18187,0.394674,0.038828,0,-3.80443e-34,0.00152404,1.09005e-05,0,-1425,-0,-0,-1423.38,-2.26971,1.244
-1.18,-1.18187,0.39468,0.038828,0,-2.53628e-34,0.00153326,7.26702e-06,0,-1425,-0,-0,-1423.41,-2.28899,1.248
-1.18,-1.18187,0.394686,0.038828,0,-1.69086e-34,0.00154251,4.84468e-06,0,-1425,-0,-0,-1423.43,-2.3065,1.252
-1.18,-1.18187,0.394693,0.038828,0,-1.12724e-34,0.00155179,3.22979e-06,0,-1425,-0,-0,-1423.46,-2.32284,1.256
-1.18,-1.18187,0.394699,0.038828,0,-7.51492e-35,0.00156108,2.15319e-06,0,-1425,-0,-0,-1423.48,-2.3384,1.26
-1.18,-1.18187,0.394705,0.038828,0,-5.00994e-35,0.00157041,1.43546e-06,0,-1425,-0,-0,-1423.51,-2.35346,1.264
-1.18,-1.18187,0.394711,0.038828,0,-3.33996e-35,0.00157975,9.56974e-07,0,-1425,-0,-0,-1423.53,-2.36819,1.268
-1.18,-1.18187,0.394718,0.038828,0,-2.22664e-35,0.00158912,6.37983e-07,0,-1425,-0,-0,-1423.56,-2.38272,1.272
-1.18,-1.18187,0.394724,0.038828,0,-1.48443e-35,0.00159851,4.25322e-07,0,-1425,-0,-0,-1423.58,-2.39713,1.276
-1.18,-1.18187,0.394731,0.038828,0,-9.89618e-36,0.00160793,2.83548e-07,0,-1426,-0,-0,-1423.61,-2.41147,1.28
-1.18,-1.18187,0.394737,0.038828,0,-6.59746e-36,0.00161737,1.89032e-07,0,-1426,-0,-0,-1423.64,-2.42577,1.284
-1.18,-1.18187,0.394743,0.038828,0,-4.3983e-36,0.00162684,1.26021e-07,0,-1426,-0,-0,-1423.66,-2.44006,1.288
-1.18,-1.18187,0.39475,0.038828,0,-2.9322e-36,0.00163632,8.40142e-08,0,-1426,-0,-0,-1423.69,-2.45436,1.292
-1.18,-1.18187,0.394757,0.038828,0,-1.9548e-36,0.00164583,5.60094e-08,0,-1426,-0,-0,-1423.71,-2.46867,1.296
-1.18,-1.18187,0.394763,0.0388284,0,-1.3032e-36,0.00165537,2.88283e-05,0,-1426,-0,-0,-1423.74,-2.43981,1.3
-1.18,-1.18187,0.39477,0.0388284,0,-8.68801e-37,0.00166493,1.92188e-05,0,-1426,-0,-0,-1423.77,-2.46857,1.304
-1.18,-1.18187,0.394776,0.0388284,0,-5.79201e-37,0.00167451,1.28126e-05,0,-1426,-0,-0,-1423.79,-2.49255,1.308
-1.18,-1.18187,0.394783,0.0388284,0,-3.86134e-37,0.00168412,8.54171e-06,0,-1426,-0,-0,-1423.82,-2.51336,1.312
-1.18,-1.18187,0.39479,0.0388284,0,-2.57422e-37,0.00169375,5.69447e-06,0,-1426,-0,-0,-1423.85,-2.53208,1.316
-1.18,-1.18187,0.394797,0.0388284,0,-1.71615e-37,0.0017034,3.79631e-06,0,-1426,-0,-0,-1423.87,-2.54941,1.32
-1.18,-1.18187,0.394804,0.0388284,0,-1.1441e-37,0.00171308,2.53088e-06,0,-1426,-0,-0,-1423.9,-2.56582,1.324
-1.18,-1.18187,0.39481,0.0388284,0,-7.62733e-38,0.00172278,1.68725e-06,0,-1426,-0,-0,-1423.93,-2.58163,1.328
-1.18,-1.18187,0.394817,0.0388287,0,-5.08489e-38,0.0017325,2.99158e-05,0,-1426,-0,-0,-1423.95,-2.55388,1.332
-1.18,-1.18187,0.394824,0.0388287,0,-3.38993e-38,0.00174225,1.99438e-05,0,-1426,-0,-0,-1423.98,-2.58345,1.336
-1.18,-1.18187,0.394831,0.0388287,0,-2.25995e-38,0.00175202,1.32959e-05,0,-1426,-0,-0,-1424.01,-2.60808,1.34
-1.18,-1.18187,0.394838,0.0388287,0,-1.50663e-38,0.00176181,8.86393e-06,0,-1426,-0,-0,-1424.04,-2.62942,1.344
-1.18,-1.18187,0.394845,0.0388291,0,-1.00442e-38,0.00177162,3.47002e-05,0,-1426,-0,-0,-1424.07,-2.60539,1.348
-1.18,-1.18187,0.394852,0.0388291,0,-6.69615e-39,0.00178146,2.31335e-05,0,-1426,-0,-0,-1424.09,-2.6375,1.352
-1.18,-1.18187,0.39486,0.0388297,0,-4.4641e-39,0.00179133,7.30042e-05,0,-1426,-0,-0,-1424.12,-2.57748,1.356
-1.18,-1.18187,0.394867,0.0388294,0,-2.97607e-39,0.00180121,1.98785e-05,0,-1426,-0,-0,-1424.15,-2.672,1.36
-1.18,-1.18187,0.394874,0.0388297,0,-1.98404e-39,0.00181112,4.20433e-05,0,-1426,-0,-0,-1424.18,-2.65362,1.364
-1.18,-1.18187,0.394881,0.0388304,0,-2.87909e-05,0.00182105,8.56107e-05,0,-1426,-0,-0,-1424.2,-2.60316,1.368
-1.18,-1.18187,0.394889,0.0388325,0,9.59697e-06,0.00183101,0.000229819,0,-1426,-0,0,-1424.22,-2.40178,1.372
-1.18,-1.18187,0.394896,0.038837,0,6.39798e-06,0.00184099,0.000527495,0,-1426,-0,0,-1424.24,-1.97024,1.376
-1.18,-1.18187,0.394903,0.0388432,0,4.26532e-06,0.00185099,0.0008699,0,-1425,-0,0,-1424.24,-1.47163,1.38
-1.18,-1.18187,0.394911,0.0388505,0,2.84355e-06,0.00186101,0.00118454,0,-1425,-0,0,-1424.24,-1.0147,1.384
-1.18,-1.18187,0.394918,0.0388584,0,1.8957e-06,0.00187106,0.00145189,0,-1424,-0,0,-1424.24,-0.628755,1.388
-1.18,-1.18187,0.394926,0.0388636,0,1.2638e-06,0.00188113,0.00139979,0,-1424,-0,0,-1424.25,-0.722007,1.392
-1.18,-1.18187,0.394933,0.0388653,0,8.42533e-07,0.00189122,0.00107715,0,-1425,-0,0,-1424.27,-1.22111,1.396
-1.18,-1.18187,0.394941,0.038865,0,5.61689e-07,0.00190133,0.000689307,0,-1426,-0,0,-1424.3,-1.81804,1.4
-1.18,-1.18187,0.394948,0.038865,0,3.74459e-07,0.00191147,0.000459538,0,-1426,-0,0,-1424.33,-2.1779,1.404
-1.18,-1.18187,0.394956,0.0388653,0,2.49639e-07,0.00192163,0.00033515,0,-1426,-0,0,-1424.36,-2.37972,1.408
-1.18,-1.18187,0.394964,0.0388653,0,1.66426e-07,0.00193181,0.000223433,0,-1426,-0,0,-1424.39,-2.56257,1.412
-1.18,-1.18187,0.394972,0.0388657,0,1.10951e-07,0.00194202,0.000177746,0,-1427,-0,0,-1424.42,-2.64641,1.416
-1.18,-1.18187,0.394979,0.0388657,0,7.39672e-08,0.00195225,0.000118498,0,-1427,-0,0,-1424.45,-2.75063,1.42
-1.18,-1.18187,0.394987,0.0388657,0,4.93115e-08,0.0019625,7.89983e-05,0,-1427,-0,0,-1424.49,-2.82525,1.424
-1.18,-1.18187,0.394995,0.0388657,0,3.28743e-08,0.00197277,5.26656e-05,0,-1427,-0,0,-1424.52,-2.88016,1.428
-1.18,-1.18187,0.395003,0.038866,0,2.19162e-08,0.00198307,6.39013e-05,0,-1427,-0,0,-1424.55,-2.87875,1.432
-1.18,-1.18187,0.395011,0.038866,0,1.46108e-08,0.00199339,4.26009e-05,0,-1427,-0,0,-1424.58,-2.92618,1.436
-1.18,-1.18187,0.395019,0.038866,0,9.74054e-09,0.00200373,2.84006e-05,0,-1427,-0,0,-1424.61,-2.96299,1.44
-1.18,-1.18187,0.395027,0.038866,0,6.49369e-09,0.00201409,1.89337e-05,0,-1427,-0,0,-1424.64,-2.99274,1.444
-1.18,-1.18187,0.395035,0.0388664,0,4.32913e-09,0.00202448,4.14134e-05,0,-1427,-0,0,-1424.67,-2.9746,1.448
-1.18,-1.18187,0.395043,0.0388664,0,2.88609e-09,0.00203489,2.76089e-05,0,-1427,-0,0,-1424.71,-3.01092,1.452
-1.18,-1.18187,0.395051,0.0388664,0,1.92406e-09,0.00204532,1.8406e-05,0,-1427,-0,0,-1424.74,-3.04037,1.456
-1.18,-1.18187,0.39506,0.0388664,0,1.2827e-09,0.00205577,1.22706e-05,0,-1427,-0,0,-1424.77,-3.06525,1.46
-1.18,-1.18187,0.395068,0.0388664,0,8.55136e-10,0.00206624,8.18043e-06,0,-1427,-0,0,-1424.81,-3.0871,1.464
-1.18,-1.18187,0.395076,0.0388664,0,5.70091e-10,0.00207674,5.45362e-06,0,-1427,-0,0,-1424.84,-3.10693,1.468
-1.18,-1.18187,0.395084,0.0388664,0,3.80061e-10,0.00208726,3.63574e-06,0,-1427,-0,0,-1424.87,-3.12544,1.472
-1.18,-1.18187,0.395093,0.0388667,0,2.53374e-10,0.0020978,3.12148e-05,0,-1428,-0,0,-1424.9,-3.09988,1.476
-1.18,-1.18187,0.395101,0.0388667,0,1.68916e-10,0.00210837,2.08098e-05,0,-1428,-0,0,-1424.94,-3.13133,1.48
-1.18,-1.18187,0.39511,0.0388667,0,1.12611e-10,0.00211895,1.38732e-05,0,-1428,-0,0,-1424.97,-3.15762,1.484
-1.18,-1.18187,0.395118,0.0388667,0,7.50737e-11,0.00212956,9.24882e-06,0,-1428,-0,0,-1425.01,-3.18046,1.488
-1.18,-1.18187,0.395127,0.0388667,0,5.00491e-11,0.00214019,6.16588e-06,0,-1428,-0,0,-1425.04,-3.20103,1.492
-1.18,-1.18187,0.395135,0.0388667,0,3.33661e-11,0.00215084,4.11058e-06,0,-1428,-0,0,-1425.07,-3.22009,1.496
-1.18,-1.18187,0.395144,0.0388667,0,2.22441e-11,0.00216151,2.74039e-06,0,-1428,-0,0,-1425.11,-3.23816,1.5
-1.18,-1.18187,0.395153,0.0388667,0,1.48294e-11,0.00217221,1.82693e-06,0,-1428,-0,0,-1425.14,-3.25557,1.504
-1.18,-1.18187,0.395161,0.0388667,0,9.88625e-12,0.00218293,1.21795e-06,0,-1428,-0,0,-1425.18,-3.27256,1.508
-1.18,-1.18187,0.39517,0.0388667,0,6.59083e-12,0.00219367,8.11967e-07,0,-1428,-0,0,-1425.21,-3.28928,1.512
-1.18,-1.18187,0.395179,0.0388667,0,4.39389e-12,0.00220443,5.41312e-07,0,-1428,-0,0,-1425.25,-3.30583,1.516
-1.18,-1.18187,0.395188,0.0388667,0,2.92926e-12,0.00221521,3.60874e-07,0,-1428,-0,0,-1425.28,-3.32227,1.52
-1.18,-1.18187,0.395197,0.0388667,0,1.95284e-12,0.00222601,2.40583e-07,0,-1428,-0,0,-1425.32,-3.33866,1.524
-1.18,-1.18187,0.395205,0.0388667,0,1.30189e-12,0.00223684,1.60389e-07,0,-1428,-0,0,-1425.35,-3.35502,1.528
-1.18,-1.18187,0.395214,0.0388667,0,8.67929e-13,0.00224769,1.06926e-07,0,-1428,-0,0,-1425.39,-3.37137,1.532
-1.18,-1.18187,0.395223,0.0388667,0,5.78619e-13,0.00225856,7.12838e-08,0,-1428,-0,0,-1425.43,-3.38773,1.536
-1.18,-1.18187,0.395232,0.0388667,0,3.85746e-13,0.00226945,4.75226e-08,0,-1428,-0,0,-1425.46,-3.4041,1.54
-1.18,-1.18187,0.395242,0.0388667,0,2.57164e-13,0.00228036,3.16817e-08,0,-1428,-0,0,-1425.5,-3.4205,1.544
-1.18,-1.18187,0.395251,0.0388671,0,1.71443e-13,0.0022913,2.8812e-05,0,-1428,-0,0,-1425.53,-3.39373,1.548
-1.18,-1.18187,0.39526,0.0388667,0,1.14295e-13,0.00230225,-9.58289e-06,0,-1429,-0,0,-1425.57,-3.46775,1.552
-1.18,-1.18187,0.395269,0.0388664,0,7.61967e-14,0.00231323,-3.51795e-05,0,-1429,-0,0,-1425.61,-3.52261,1.556
-1.18,-1.18187,0.395278,0.0388674,0,5.07978e-14,0.00232423,6.29198e-05,0,-1429,-0,0,-1425.64,-3.39196,1.56
-1.18,-1.18187,0.395288,0.0388671,0,3.38652e-14,0.00233525,1.31556e-05,0,-1429,-0,0,-1425.68,-3.48314,1.564
-1.18,-1.18187,0.395297,0.0388671,0,2.25768e-14,0.00234629,8.77039e-06,0,-1429,-0,0,-1425.72,-3.50628,1.568
-1.18,-1.18187,0.395307,0.0388667,0,1.50512e-14,0.00235735,-2.2944e-05,0,-1429,-0,0,-1425.76,-3.57044,1.572
-1.18,-1.18187,0.395316,0.0388671,0,1.00341e-14,0.00236844,1.34949e-05,0,-1429,-0,0,-1425.8,-3.53241,1.576
-1.18,-1.18187,0.395325,0.0388671,0,6.68943e-15,0.00237954,8.99662e-06,0,-1429,-0,0,-1425.83,-3.55582,1.58
-1.18,-1.18187,0.395335,0.0388671,0,4.45962e-15,0.00239067,5.99774e-06,0,-1429,-0,0,-1425.87,-3.57701,1.584
-1.18,-1.18187,0.395345,0.0388671,0,2.97308e-15,0.00240182,3.9985e-06,0,-1429,-0,0,-1425.91,-3.59673,1.588
-1.18,-1.18187,0.395354,0.0388671,0,1.98205e-15,0.00241299,2.66566e-06,0,-1429,-0,0,-1425.95,-3.61548,1.592
-1.18,-1.18187,0.395364,0.0388671,0,1.32137e-15,0.00242418,1.77711e-06,0,-1429,-0,0,-1425.99,-3.6336,1.596
-1.18,-1.18187,0.395374,0.0388671,0,8.80912e-16,0.00243539,1.18474e-06,0,-1429,-0,0,-1426.03,-3.6513,1.6
-1.18,-1.18187,0.395383,0.0388671,0,5.87275e-16,0.00244662,7.89826e-07,0,-1429,-0,0,-1426.07,-3.66874,1.604
-1.18,-1.18187,0.395393,0.0388671,0,3.91517e-16,0.00245787,5.26551e-07,0,-1429,-0,0,-1426.1,-3.68602,1.608
-1.18,-1.18187,0.395403,0.0388671,0,2.61011e-16,0.00246915,3.51034e-07,0,-1429,-0,0,-1426.14,-3.70319,1.612
-1.18,-1.18187,0.395413,0.0388671,0,1.74007e-16,0.00248044,2.34023e-07,0,-1429,-0,0,-1426.18,-3.72031,1.616
-1.18,-1.18187,0.395423,0.0388671,0,1.16005e-16,0.00249176,1.56015e-07,0,-1429,-0,0,-1426.22,-3.73741,1.62
-1.18,-1.18187,0.395433,0.0388671,0,7.73366e-17,0.0025031,1.0401e-07,0,-1430,-0,0,-1426.26,-3.75449,1.624
-1.18,-1.18187,0.395443,0.0388671,0,5.15577e-17,0.00251446,6.934e-08,0,-1430,-0,0,-1426.3,-3.77158,1.628
-1.18,-1.18187,0.395453,0.0388671,0,3.43718e-17,0.00252583,4.62267e-08,0,-1430,-0,0,-1426.34,-3.78868,1.632
-1.18,-1.18187,0.395463,0.0388671,0,2.29145e-17,0.00253723,3.08178e-08,0,-1430,-0,0,-1426.38,-3.8058,1.636
-1.18,-1.18187,0.395473,0.0388671,0,1.52764e-17,0.00254865,2.05452e-08,0,-1430,-0,0,-1426.42,-3.82295,1.64
-1.18,-1.18187,0.395483,0.0388671,0,1.01842e-17,0.0025601,1.36968e-08,0,-1430,-0,0,-1426.47,-3.84012,1.644
-1.18,-1.18187,0.395494,0.0388671,0,6.7895e-18,0.00257156,9.1312e-09,0,-1430,-0,0,-1426.51,-3.85732,1.648
-1.18,-1.18187,0.395504,0.0388671,0,4.52633e-18,0.00258304,6.08747e-09,0,-1430,-0,0,-1426.55,-3.87455,1.652
-1.18,-1.18187,0.395514,0.0388671,0,3.01755e-18,0.00259454,4.05831e-09,0,-1430,-0,0,-1426.59,-3.89181,1.656
-1.18,-1.18187,0.395525,0.0388671,0,2.0117e-18,0.00260607,2.70554e-09,0,-1430,-0,0,-1426.63,-3.9091,1.66
-1.18,-1.18187,0.395535,0.0388671,0,1.34113e-18,0.00261761,1.80369e-09,0,-1430,-0,0,-1426.67,-3.92642,1.664
-1.18,-1.18187,0.395546,0.0388671,0,8.9409e-19,0.00262918,1.20246e-09,0,-1430,-0,0,-1426.71,-3.94377,1.668
-1.18,-1.18187,0.395556,0.0388671,0,5.9606e-19,0.00264076,8.01642e-10,0,-1430,-0,0,-1426.76,-3.96114,1.672
-1.18,-1.18187,0.395567,0.0388671,0,3.97373e-19,0.00265237,5.34428e-10,0,-1430,-0,0,-1426.8,-3.97855,1.676
-1.18,-1.18187,0.395578,0.0388671,0,2.64916e-19,0.002664,3.56285e-10,0,-1430,-0,0,-1426.84,-3.99599,1.68
-1.18,-1.18187,0.395588,0.0388671,0,1.7661e-19,0.00267564,2.37523e-10,0,-1430,-0,0,-1426.88,-4.01347,1.684
-1.18,-1.18187,0.395599,0.0388671,0,1.1774e-19,0.00268731,1.58349e-10,0,-1430,-0,0,-1426.93,-4.03097,1.688
-1.18,-1.18187,0.39561,0.0388671,0,7.84935e-20,0.002699,1.05566e-10,0,-1431,-0,0,-1426.97,-4.0485,1.692
-1.18,-1.18187,0.395621,0.0388671,0,5.2329e-20,0.00271071,7.03773e-11,0,-1431,-0,0,-1427.01,-4.06606,1.696
-1.18,-1.18187,0.395631,0.0388671,0,3.4886e-20,0.00272244,4.69182e-11,0,-1431,-0,0,-1427.06,-4.08365,1.7
-1.18,-1.18187,0.395642,0.0388671,0,2.32573e-20,0.00273418,3.12788e-11,0,-1431,-0,0,-1427.1,-4.10128,1.704
-1.18,-1.18187,0.395653,0.0388671,0,1.55049e-20,0.00274595,2.08525e-11,0,-1431,-0,0,-1427.14,-4.11893,1.708
-1.18,-1.18187,0.395664,0.0388671,0,1.03366e-20,0.00275774,1.39017e-11,0,-1431,-0,0,-1427.19,-4.13661,1.712
-1.18,-1.18187,0.395675,0.0388671,0,6.89106e-21,0.00276955,9.26779e-12,0,-1431,-0,0,-1427.23,-4.15433,1.716
-1.18,-1.18187,0.395686,0.0388671,0,4.59404e-21,0.00278138,6.17853e-12,0,-1431,-0,0,-1427.28,-4.17207,1.72
-1.18,-1.18187,0.395698,0.0388671,0,3.06269e-21,0.00279323,4.11902e-12,0,-1431,-0,0,-1427.32,-4.18985,1.724
-1.18,-1.18187,0.395709,0.0388671,0,2.0418e-21,0.0028051,2.74601e-12,0,-1431,-0,0,-1427.37,-4.20765,1.728
-1.18,-1.18187,0.39572,0.0388671,0,1.3612e-21,0.00281699,1.83068e-12,0,-1431,-0,0,-1427.41,-4.22548,1.732
-1.18,-1.18187,0.395731,0.0388671,0,9.07465e-22,0.0028289,1.22045e-12,0,-1431,-0,0,-1427.46,-4.24335,1.736
-1.18,-1.18187,0.395743,0.0388671,0,6.04977e-22,0.00284083,8.13634e-13,0,-1431,-0,0,-1427.5,-4.26124,1.74
-1.18,-1.18187,0.395754,0.0388671,0,4.03318e-22,0.00285278,5.42422e-13,0,-1431,-0,0,-1427.55,-4.27917,1.744
-1.18,-1.18187,0.395765,0.0388671,0,2.68878e-22,0.00286475,3.61615e-13,0,-1431,-0,0,-1427.59,-4.29712,1.748
-1.18,-1.18187,0.395777,0.0388671,0,1.79252e-22,0.00287674,2.41077e-13,0,-1431,-0,0,-1427.64,-4.31511,1.752
-1.18,-1.18187,0.395788,0.0388671,0,1.19502e-22,0.00288875,1.60718e-13,0,-1432,-0,0,-1427.69,-4.33312,1.756
-1.18,-1.18187,0.3958,0.0388671,0,7.96677e-23,0.00290078,1.07145e-13,0,-1432,-0,0,-1427.73,-4.35116,1.76
-1.18,-1.18187,0.395812,0.0388671,0,5.31118e-23,0.00291282,7.14301e-14,0,-1432,-0,0,-1427.78,-4.36924,1.764
-1.18,-1.18187,0.395823,0.0388671,0,3.54079e-23,0.00292489,4.76201e-14,0,-1432,-0,0,-1427.83,-4.38734,1.768
-1.18,-1.18187,0.395835,0.0388671,0,2.36052e-23,0.00293698,3.17467e-14,0,-1432,-0,0,-1427.87,-4.40547,1.772
-1.18,-1.18187,0.395847,0.0388671,0,1.57368e-23,0.00294909,2.11645e-14,0,-1432,-0,0,-1427.92,-4.42363,1.776
-1.18,-1.18187,0.395859,0.0388671,0,1.04912e-23,0.00296122,1.41097e-14,0,-1432,-0,0,-1427.97,-4.44182,1.78
-1.18,-1.18187,0.395871,0.0388674,0,6.99415e-24,0.00297336,2.87909e-05,0,-1432,-0,0,-1428.01,-4.41686,1.784
-1.18,-1.18187,0.395882,0.0388671,0,4.66276e-24,0.00298553,-9.59697e-06,0,-1432,-0,0,-1428.06,-4.49269,1.788
-1.18,-1.18187,0.395894,0.0388671,0,3.10851e-24,0.00299772,-6.39798e-06,0,-1432,-0,0,-1428.11,-4.50617,1.792
-1.18,-1.18187,0.395906,0.0388671,0,2.07234e-24,0.00300992,-4.26532e-06,0,-1432,-0,0,-1428.16,-4.52128,1.796
-1.18,-1.18187,0.395919,0.0388671,0,1.38156e-24,0.00302215,-2.84355e-06,0,-1432,-0,0,-1428.21,-4.53748,1.8
-1.18,-1.18187,0.395931,0.0388674,0,9.2104e-25,0.00303439,2.68952e-05,0,-1432,-0,0,-1428.25,-4.51124,1.804
-1.18,-1.18187,0.395943,0.0388671,0,6.14027e-25,0.00304665,-1.08608e-05,0,-1432,-0,0,-1428.3,-4.58627,1.808
-1.18,-1.18187,0.395955,0.0388674,0,4.09351e-25,0.00305894,2.15504e-05,0,-1432,-0,0,-1428.35,-4.55608,1.812
-1.18,-1.18187,0.395967,0.0388674,0,2.72901e-25,0.00307124,1.43669e-05,0,-1432,-0,0,-1428.4,-4.58531,1.816
-1.18,-1.18187,0.39598,0.0388674,0,2.87909e-05,0.00308356,9.57796e-06,0,-1433,-0,0,-1428.45,-4.61098,1.82
-1.18,-1.18187,0.395992,0.0388674,0,-9.59697e-06,0.0030959,6.38531e-06,0,-1433,-0,-0,-1428.5,-4.63428,1.824
-1.18,-1.18187,0.396004,0.0388674,0,-6.39798e-06,0.00310826,4.25687e-06,0,-1433,-0,-0,-1428.55,-4.65601,1.828
-1.18,-1.18187,0.396017,0.0388674,0,-4.26532e-06,0.00312064,2.83791e-06,0,-1433,-0,-0,-1428.6,-4.67671,1.832
-1.18,-1.18187,0.396029,0.0388674,0,-2.84355e-06,0.00313304,1.89194e-06,0,-1433,-0,-0,-1428.65,-4.69673,1.836
-1.18,-1.18187,0.396042,0.0388674,0,-1.8957e-06,0.00314546,1.2613e-06,0,-1433,-0,-0,-1428.7,-4.7163,1.84
-1.18,-1.18187,0.396054,0.0388674,0,-1.2638e-06,0.0031579,8.40863e-07,0,-1433,-0,-0,-1428.75,-4.73559,1.844
-1.18,-1.18187,0.396067,0.0388674,0,-8.42533e-07,0.00317036,5.60576e-07,0,-1433,-0,-0,-1428.8,-4.75469,1.848
-1.18,-1.18187,0.39608,0.0388674,0,-5.61689e-07,0.00318283,3.73717e-07,0,-1433,-0,-0,-1428.85,-4.77369,1.852
-1.18,-1.18187,0.396093,0.0388674,0,-3.74459e-07,0.00319533,2.49145e-07,0,-1433,-0,-0,-1428.9,-4.79261,1.856
-1.18,-1.18187,0.396105,0.0388674,0,-2.49639e-07,0.00320784,1.66096e-07,0,-1433,-0,-0,-1428.95,-4.81151,1.86
-1.18,-1.18187,0.396118,0.0388674,0,-1.66426e-07,0.00322037,1.10731e-07,0,-1433,-0,-0,-1429,-4.83039,1.864
-1.18,-1.18187,0.396131,0.0388674,0,-1.10951e-07,0.00323292,7.38207e-08,0,-1433,-0,-0,-1429.06,-4.84927,1.868
-1.18,-1.18187,0.396144,0.0388674,0,-7.39672e-08,0.00324549,4.92138e-08,0,-1433,-0,-0,-1429.11,-4.86817,1.872
-1.18,-1.18187,0.396157,0.0388674,0,-4.93115e-08,0.00325808,3.28092e-08,0,-1434,-0,-0,-1429.16,-4.88707,1.876
-1.18,-1.18187,0.39617,0.0388674,0,-3.28743e-08,0.00327069,2.18728e-08,0,-1434,-0,-0,-1429.21,-4.906,1.88
-1.18,-1.18187,0.396183,0.0388674,0,-2.88128e-05,0.00328332,1.45819e-08,0,-1434,-0,-0,-1429.26,-4.92495,1.884
-1.18,-1.18187,0.396196,0.0388674,0,9.58236e-06,0.00329596,9.72124e-09,0,-1434,-0,0,-1429.32,-4.94393,1.888
-1.18,-1.18187,0.39621,0.0388674,0,6.38824e-06,0.00330863,6.48083e-09,0,-1434,-0,0,-1429.37,-4.96293,1.892
-1.18,-1.18187,0.396223,0.0388674,0,4.25883e-06,0.00332131,4.32055e-09,0,-1434,-0,0,-1429.42,-4.98196,1.896
-1.18,-1.18187,0.396236,0.0388674,0,-2.59517e-05,0.00333401,2.88037e-09,0,-1434,-0,-0,-1429.48,-5.00101,1.9
-1.18,-1.18187,0.39625,0.0388674,0,1.14898e-05,0.00334673,1.92024e-09,0,-1434,-0,0,-1429.53,-5.02009,1.904
-1.18,-1.18187,0.396263,0.0388674,0,7.65986e-06,0.00335947,1.28016e-09,0,-1434,-0,0,-1429.58,-5.0392,1.908
-1.18,-1.18187,0.396276,0.0388674,0,5.10657e-06,0.00337223,8.53442e-10,0,-1434,-0,0,-1429.64,-5.05834,1.912
-1.18,-1.18187,0.39629,0.0388674,0,3.40438e-06,0.003385,5.68961e-10,0,-1434,-0,0,-1429.69,-5.0775,1.916
-1.18,-1.18187,0.396304,0.0388674,0,2.26959e-06,0.0033978,3.79308e-10,0,-1434,-0,0,-1429.74,-5.0967,1.92
-1.18,-1.18187,0.396317,0.0388674,0,1.51306e-06,0.00341061,2.52872e-10,0,-1434,-0,0,-1429.8,-5.11592,1.924
-1.18,-1.18187,0.396331,0.0388674,0,1.00871e-06,0.00342344,1.68581e-10,0,-1434,-0,0,-1429.85,-5.13516,1.928
-1.18,-1.18187,0.396345,0.0388674,0,6.7247e-07,0.00343629,1.12387e-10,0,-1435,-0,0,-1429.91,-5.15444,1.932
-1.18,-1.18187,0.396358,0.0388674,0,4.48314e-07,0.00344916,7.4925e-11,0,-1435,-0,0,-1429.96,-5.17374,1.936
-1.18,-1.18187,0.396372,0.0388674,0,2.98876e-07,0.00346205,4.995e-11,0,-1435,-0,0,-1430.02,-5.19307,1.94
-1.18,-1.18187,0.396386,0.0388674,0,1.9925e-07,0.00347495,3.33e-11,0,-1435,-0,0,-1430.07,-5.21243,1.944
-1.18,-1.18187,0.3964,0.0388674,0,1.32834e-07,0.00348788,2.22e-11,0,-1435,-0,0,-1430.13,-5.23181,1.948
-1.18,-1.18187,0.396414,0.0388674,0,8.85558e-08,0.00350082,1.48e-11,0,-1435,-0,0,-1430.19,-5.25123,1.952
-1.18,-1.18187,0.396428,0.0388674,0,5.90372e-08,0.00351378,9.86666e-12,0,-1435,-0,0,-1430.24,-5.27067,1.956
-1.18,-1.18187,0.396442,0.0388674,0,3.93581e-08,0.00352676,6.57777e-12,0,-1435,-0,0,-1430.3,-5.29013,1.96
-1.18,-1.18187,0.396456,0.0388674,0,2.62387e-08,0.00353975,4.38518e-12,0,-1435,-0,0,-1430.36,-5.30963,1.964
-1.18,-1.18187,0.39647,0.0388674,0,1.74925e-08,0.00355277,2.92345e-12,0,-1435,-0,0,-1430.41,-5.32915,1.968
-1.18,-1.18187,0.396485,0.0388674,0,1.16617e-08,0.0035658,1.94897e-12,0,-1435,-0,0,-1430.47,-5.3487,1.972
-1.18,-1.18187,0.396499,0.0388674,0,7.77444e-09,0.00357885,1.29931e-12,0,-1435,-0,0,-1430.53,-5.36827,1.976
-1.18,-1.18187,0.396513,0.0388674,0,5.18296e-09,0.00359192,8.66209e-13,0,-1435,-0,0,-1430.58,-5.38788,1.98
-1.18,-1.18187,0.396528,0.0388674,0,3.45531e-09,0.003605,5.77473e-13,0,-1436,-0,0,-1430.64,-5.4075,1.984
-1.18,-1.18187,0.396542,0.0388674,0,2.30354e-09,0.00361811,3.84982e-13,0,-1436,-0,0,-1430.7,-5.42716,1.988
-1.18,-1.18187,0.396557,0.0388674,0,1.53569e-09,0.00363123,2.56654e-13,0,-1436,-0,0,-1430.76,-5.44685,1.992
-1.18,-1.18187,0.396571,0.0388674,0,1.0238e-09,0.00364437,1.71103e-13,0,-1436,-0,0,-1430.81,-5.46656,1.996
-1.18,-1.18187,0.396586,0.0388674,0,6.8253e-10,0.00365753,1.14069e-13,0,-1436,-0,0,-1430.87,-5.48629,2
-1.18,-1.18187,0.3966,0.0388674,0,-2.87905e-05,0.0036707,7.60458e-14,0,-1436,-0,-0,-1430.93,-5.50606,2.004
-1.18,-1.18187,0.396615,0.0388674,0,9.59728e-06,0.0036839,5.06972e-14,0,-1436,-0,0,-1430.99,-5.52585,2.008
-1.18,-1.18187,0.39663,0.0388674,0,6.39819e-06,0.00369711,3.37981e-14,0,-1436,-0,0,-1431.05,-5.54566,2.012
-1.18,-1.18187,0.396645,0.0388674,0,4.26546e-06,0.00371034,2.25321e-14,0,-1436,-0,0,-1431.11,-5.56551,2.016
-1.18,-1.18187,0.39666,0.0388674,0,2.84364e-06,0.00372359,1.50214e-14,0,-1436,-0,0,-1431.17,-5.58538,2.02
-1.18,-1.18187,0.396674,0.0388671,0,1.89576e-06,0.00373685,-2.87909e-05,0,-1436,-0,0,-1431.23,-5.64846,2.024
-1.18,-1.18187,0.396689,0.0388674,0,1.26384e-06,0.00375013,9.59697e-06,0,-1436,-0,0,-1431.29,-5.61081,2.028
-1.18,-1.18187,0.396704,0.0388674,0,8.42559e-07,0.00376343,6.39798e-06,0,-1436,-0,0,-1431.35,-5.63555,2.032
-1.18,-1.18187,0.39672,0.0388674,0,5.61706e-07,0.00377675,4.26532e-06,0,-1437,-0,0,-1431.41,-5.65873,2.036
-1.18,-1.18187,0.396735,0.0388674,0,3.74471e-07,0.00379009,2.84355e-06,0,-1437,-0,0,-1431.47,-5.68086,2.04
-1.18,-1.18187,0.39675,0.0388674,0,2.49647e-07,0.00380344,1.8957e-06,0,-1437,-0,0,-1431.53,-5.70232,2.044
-1.18,-1.18187,0.396765,0.0388674,0,1.66431e-07,0.00381681,1.2638e-06,0,-1437,-0,0,-1431.59,-5.72332,2.048
-1.18,-1.18187,0.39678,0.0388674,0,1.10954e-07,0.0038302,8.42533e-07,0,-1437,-0,0,-1431.65,-5.74403,2.052
-1.18,-1.18187,0.396796,0.0388671,0,7.39696e-08,0.0038436,-2.82292e-05,0,-1437,-0,0,-1431.71,-5.80775,2.056
-1.18,-1.18187,0.396811,0.0388674,0,4.9313e-08,0.00385703,9.97143e-06,0,-1437,-0,0,-1431.77,-5.77058,2.06
-1.18,-1.18187,0.396827,0.0388677,0,3.28754e-08,0.00387047,3.54385e-05,0,-1437,-0,0,-1431.84,-5.75254,2.064
-1.18,-1.18187,0.396842,0.0388681,0,2.19169e-08,0.00388392,5.24166e-05,0,-1437,-0,0,-1431.9,-5.74726,2.068
-1.18,-1.18187,0.396858,0.0388671,0,1.46113e-08,0.0038974,-5.14284e-05,0,-1437,-0,0,-1431.96,-5.92324,2.072
-1.18,-1.18187,0.396873,0.0388671,0,9.74085e-09,0.00391089,-3.42856e-05,0,-1437,-0,0,-1432.02,-5.91776,2.076
-1.18,-1.18187,0.396889,0.0388681,0,6.4939e-09,0.0039244,6.35157e-05,0,-1437,-0,0,-1432.08,-5.79132,2.08
-1.18,-1.18187,0.396905,0.0388674,0,4.32926e-09,0.00393792,-1.5238e-05,0,-1438,-0,0,-1432.15,-5.92974,2.084
-1.18,-1.18187,0.39692,0.0388674,0,2.88618e-09,0.00395147,-1.01587e-05,0,-1438,-0,0,-1432.21,-5.94244,2.088
-1.18,-1.18187,0.396936,0.0388671,0,1.92412e-09,0.00396503,-3.55634e-05,0,-1438,-0,0,-1432.28,-6.00089,2.092
-1.18,-1.18187,0.396952,0.0388671,0,1.28275e-09,0.00397861,-2.37089e-05,0,-1438,-0,0,-1432.34,-6.00347,2.096
-1.18,-1.18187,0.396968,0.0388671,0,8.55163e-10,0.0039922,-1.58059e-05,0,-1438,-0,0,-1432.4,-6.01201,2.1
-1.18,-1.18187,0.396984,0.0388681,0,5.70109e-10,0.00400581,7.58355e-05,0,-1438,-0,0,-1432.46,-5.89497,2.104
-1.18,-1.18187,0.397,0.0388677,0,3.80073e-10,0.00401944,2.17661e-05,0,-1438,-0,0,-1432.53,-5.99652,2.108
-1.18,-1.18187,0.397016,0.0388681,0,2.53382e-10,0.00403309,4.33016e-05,0,-1438,-0,0,-1432.59,-5.98468,2.112
-1.18,-1.18187,0.397032,0.0388671,0,1.68921e-10,0.00404675,-5.7505e-05,0,-1438,-0,0,-1432.66,-6.15639,2.116
-1.18,-1.18187,0.397049,0.0388671,0,1.12614e-10,0.00406043,-3.83367e-05,0,-1438,-0,0,-1432.73,-6.14815,2.12
-1.18,-1.18187,0.397065,0.0388681,0,7.50761e-11,0.00407413,6.0815e-05,0,-1438,-0,0,-1432.79,-6.01997,2.124
-1.18,-1.18187,0.397081,0.0388671,0,5.00507e-11,0.00408784,-4.58294e-05,0,-1439,-0,0,-1432.86,-6.20051,2.128
-1.18,-1.18187,0.397098,0.0388677,0,3.33671e-11,0.00410157,2.70289e-05,0,-1439,-0,0,-1432.92,-6.11182,2.132
-1.18,-1.18187,0.397114,0.0388681,0,2.22448e-11,0.00411532,4.68102e-05,0,-1439,-0,0,-1432.98,-6.10277,2.136
-1.18,-1.18187,0.397131,0.0388671,0,1.48298e-11,0.00412908,-5.5166e-05,0,-1439,-0,0,-1433.05,-6.27638,2.14
-1.18,-1.18187,0.397147,0.0388681,0,9.88656e-12,0.00414287,4.95954e-05,0,-1439,-0,0,-1433.12,-6.1399,2.144
-1.18,-1.18187,0.397164,0.0388681,0,6.59104e-12,0.00415666,3.30636e-05,0,-1439,-0,0,-1433.18,-6.1854,2.148
-1.18,-1.18187,0.39718,0.0388681,0,4.39403e-12,0.00417048,2.20424e-05,0,-1439,-0,0,-1433.25,-6.22265,2.152
-1.18,-1.18187,0.397197,0.0388677,0,2.92935e-12,0.00418431,-1.4096e-05,0,-1439,-0,0,-1433.32,-6.29761,2.156
-1.18,-1.18187,0.397214,0.0388671,0,1.9529e-12,0.00419816,-6.69792e-05,0,-1439,-0,0,-1433.39,-6.3977,2.16
-1.18,-1.18187,0.397231,0.0388677,0,1.30193e-12,0.00421202,1.29291e-05,0,-1439,-0,0,-1433.45,-6.29864,2.164
-1.18,-1.18187,0.397247,0.0388677,0,8.67956e-13,0.0042259,8.61938e-06,0,-1439,-0,0,-1433.52,-6.32592,2.168
-1.18,-1.18187,0.397264,0.0388677,0,5.78637e-13,0.0042398,5.74625e-06,0,-1439,-0,0,-1433.59,-6.35108,2.172
-1.18,-1.18187,0.397281,0.0388677,0,3.85758e-13,0.00425371,3.83084e-06,0,-1440,-0,0,-1433.65,-6.37482,2.176
-1.18,-1.18187,0.397298,0.0388681,0,2.57172e-13,0.00426764,3.13448e-05,0,-1440,-0,0,-1433.72,-6.35445,2.18
-1.18,-1.18187,0.397316,0.0388677,0,1.71448e-13,0.00428159,-7.89438e-06,0,-1440,-0,0,-1433.79,-6.43423,2.184
-1.18,-1.18187,0.397333,0.0388677,0,1.14299e-13,0.00429555,-5.26292e-06,0,-1440,-0,0,-1433.86,-6.45122,2.188
-1.18,-1.18187,0.39735,0.0388677,0,7.61992e-14,0.00430953,-3.50861e-06,0,-1440,-0,0,-1433.93,-6.46956,2.192
-1.18,-1.18187,0.397367,0.0388677,0,5.07994e-14,0.00432353,-2.33908e-06,0,-1440,-0,0,-1434,-6.4888,2.196
-1.18,-1.18187,0.397385,0.0388677,0,3.38663e-14,0.00433754,-1.55938e-06,0,-1440,-0,0,-1434.07,-6.50865,2.2
-1.18,-1.18187,0.397402,0.0388677,0,2.25775e-14,0.00435157,-1.03959e-06,0,-1440,-0,0,-1434.14,-6.52891,2.204
-1.18,-1.18187,0.397419,0.0388677,0,1.50517e-14,0.00436561,-6.9306e-07,0,-1440,-0,0,-1434.21,-6.54946,2.208
-1.18,-1.18187,0.397437,0.0388677,0,1.00345e-14,0.00437967,-4.6204e-07,0,-1440,-0,0,-1434.28,-6.5702,2.212
-1.18,-1.18187,0.397454,0.0388677,0,6.68964e-15,0.00439375,-3.08026e-07,0,-1440,-0,0,-1434.35,-6.59109,2.216
-1.18,-1.18187,0.397472,0.0388677,0,4.45976e-15,0.00440784,-2.05351e-07,0,-1441,-0,0,-1434.42,-6.61207,2.22
-1.18,-1.18187,0.39749,0.0388677,0,2.97317e-15,0.00442195,-1.36901e-07,0,-1441,-0,0,-1434.49,-6.63314,2.224
-1.18,-1.18187,0.397507,0.0388677,0,1.98211e-15,0.00443608,-9.12671e-08,0,-1441,-0,0,-1434.56,-6.65426,2.228
-1.18,-1.18187,0.397525,0.0388677,0,1.32141e-15,0.00445022,-6.08447e-08,0,-1441,-0,0,-1434.63,-6.67542,2.232
-1.18,-1.18187,0.397543,0.0388677,0,8.8094e-16,0.00446438,-4.05632e-08,0,-1441,-0,0,-1434.7,-6.69663,2.236
-1.18,-1.18187,0.397561,0.0388677,0,5.87293e-16,0.00447855,-2.70421e-08,0,-1441,-0,0,-1434.77,-6.71787,2.24
-1.18,-1.18187,0.397579,0.0388677,0,3.91529e-16,0.00449274,-1.80281e-08,0,-1441,-0,0,-1434.84,-6.73914,2.244
-1.18,-1.18187,0.397597,0.0388677,0,2.61019e-16,0.00450695,-1.20187e-08,0,-1441,-0,0,-1434.92,-6.76044,2.248
-1.18,-1.18187,0.397615,0.0388677,0,1.74013e-16,0.00452117,-8.01248e-09,0,-1441,-0,0,-1434.99,-6.78177,2.252
-1.18,-1.18187,0.397633,0.0388677,0,1.16009e-16,0.00453541,-5.34165e-09,0,-1441,-0,0,-1435.06,-6.80312,2.256
-1.18,-1.18187,0.397651,0.0388677,0,7.7339e-17,0.00454966,-3.5611e-09,0,-1441,-0,0,-1435.13,-6.82449,2.26
-1.18,-1.18187,0.397669,0.0388677,0,5.15594e-17,0.00456393,-2.37407e-09,0,-1442,-0,0,-1435.21,-6.8459,2.264
-1.18,-1.18187,0.397688,0.0388677,0,3.43729e-17,0.00457821,-1.58271e-09,0,-1442,-0,0,-1435.28,-6.86732,2.268
-1.18,-1.18187,0.397706,0.0388677,0,2.29153e-17,0.00459251,-1.05514e-09,0,-1442,-0,0,-1435.35,-6.88877,2.272
-1.18,-1.18187,0.397724,0.0388677,0,1.52768e-17,0.00460683,-7.03427e-10,0,-1442,-0,0,-1435.43,-6.91025,2.276
-1.18,-1.18187,0.397743,0.0388677,0,1.01846e-17,0.00462116,-4.68951e-10,0,-1442,-0,0,-1435.5,-6.93174,2.28
-1.18,-1.18187,0.397761,0.0388677,0,6.78971e-18,0.00463551,-3.12634e-10,0,-1442,-0,0,-1435.57,-6.95327,2.284
-1.18,-1.18187,0.39778,0.0388677,0,4.52647e-18,0.00464987,-2.08423e-10,0,-1442,-0,0,-1435.65,-6.97481,2.288
-1.18,-1.18187,0.397799,0.0388677,0,3.01765e-18,0.00466425,-1.38949e-10,0,-1442,-0,0,-1435.72,-6.99638,2.292
-1.18,-1.18187,0.397817,0.0388677,0,2.01177e-18,0.00467865,-9.26324e-11,0,-1442,-0,0,-1435.8,-7.01797,2.296
-1.18,-1.18187,0.397836,0.0388677,0,1.34118e-18,0.00469306,-6.17549e-11,0,-1442,-0,0,-1435.87,-7.03959,2.3
-1.18,-1.18187,0.397855,0.0388677,0,8.94118e-19,0.00470748,-4.11699e-11,0,-1443,-0,0,-1435.95,-7.06122,2.304
-1.18,-1.18187,0.397874,0.0388677,0,5.96079e-19,0.00472192,-2.74466e-11,0,-1443,-0,0,-1436.02,-7.08289,2.308
-1.18,-1.18187,0.397893,0.0388677,0,3.97386e-19,0.00473638,-1.82978e-11,0,-1443,-0,0,-1436.1,-7.10457,2.312
-1.18,-1.18187,0.397912,0.0388677,0,2.64924e-19,0.00475085,-1.21985e-11,0,-1443,-0,0,-1436.18,-7.12628,2.316
-1.18,-1.18187,0.397931,0.0388677,0,1.76616e-19,0.00476534,-8.13234e-12,0,-1443,-0,0,-1436.25,-7.14801,2.32
-1.18,-1.18187,0.39795,0.0388677,0,1.17744e-19,0.00477984,-5.42156e-12,0,-1443,-0,0,-1436.33,-7.16976,2.324
-1.18,-1.18187,0.397969,0.0388677,0,7.8496e-20,0.00479436,-3.61437e-12,0,-1443,-0,0,-1436.4,-7.19154,2.328
-1.18,-1.18187,0.397988,0.0388677,0,5.23306e-20,0.00480889,-2.40958e-12,0,-1443,-0,0,-1436.48,-7.21334,2.332
-1.18,-1.18187,0.398007,0.0388677,0,3.48871e-20,0.00482344,-1.60639e-12,0,-1443,-0,0,-1436.56,-7.23516,2.336
-1.18,-1.18187,0.398027,0.0388677,0,2.32581e-20,0.00483801,-1.07092e-12,0,-1443,-0,0,-1436.64,-7.25701,2.34
-1.18,-1.18187,0.398046,0.0388677,0,1.55054e-20,0.00485259,-7.1395e-13,0,-1443,-0,0,-1436.71,-7.27888,2.344
-1.18,-1.18187,0.398065,0.0388677,0,1.03369e-20,0.00486718,-4.75967e-13,0,-1444,-0,0,-1436.79,-7.30077,2.348
-1.18,-1.18187,0.398085,0.0388677,0,6.89128e-21,0.00488179,-3.17311e-13,0,-1444,-0,0,-1436.87,-7.32268,2.352
-1.18,-1.18187,0.398104,0.0388677,0,4.59419e-21,0.00489641,-2.11541e-13,0,-1444,-0,0,-1436.95,-7.34462,2.356
-1.18,-1.18187,0.398124,0.0388677,0,3.06279e-21,0.00491105,-1.41027e-13,0,-1444,-0,0,-1437.03,-7.36658,2.36
-1.18,-1.18187,0.398144,0.0388677,0,2.04186e-21,0.00492571,-9.40181e-14,0,-1444,-0,0,-1437.1,-7.38856,2.364
-1.18,-1.18187,0.398163,0.0388674,0,1.36124e-21,0.00494038,-2.87909e-05,0,-1444,-0,0,-1437.18,-7.45375,2.368
-1.18,-1.18187,0.398183,0.0388677,0,9.07493e-22,0.00495506,9.59697e-06,0,-1444,-0,0,-1437.26,-7.4182,2.372
-1.18,-1.18187,0.398203,0.0388677,0,6.04996e-22,0.00496976,6.39798e-06,0,-1444,-0,0,-1437.34,-7.44505,2.376
-1.18,-1.18187,0.398223,0.0388677,0,4.0333e-22,0.00498448,4.26532e-06,0,-1444,-0,0,-1437.42,-7.47032,2.38
-1.18,-1.18187,0.398243,0.0388677,0,2.68887e-22,0.00499921,2.84355e-06,0,-1444,-0,0,-1437.5,-7.49455,2.384
-1.18,-1.18187,0.398263,0.0388677,0,1.79258e-22,0.00501395,1.8957e-06,0,-1445,-0,0,-1437.58,-7.51808,2.388
-1.18,-1.18187,0.398283,0.0388677,0,1.19505e-22,0.00502871,1.2638e-06,0,-1445,-0,0,-1437.66,-7.54117,2.392
-1.18,-1.18187,0.398303,0.0388677,0,7.96702e-23,0.00504349,8.42533e-07,0,-1445,-0,0,-1437.74,-7.56396,2.396
-1.18,-1.18187,0.398323,0.0388677,0,5.31135e-23,0.00505827,5.61689e-07,0,-1445,-0,0,-1437.82,-7.58657,2.4
-1.18,-1.18187,0.398344,0.0388677,0,3.5409e-23,0.00507308,3.74459e-07,0,-1445,-0,0,-1437.9,-7.60906,2.404
-1.18,-1.18187,0.398364,0.0388677,0,2.3606e-23,0.0050879,2.49639e-07,0,-1445,-0,0,-1437.99,-7.63147,2.408
-1.18,-1.18187,0.398384,0.0388677,0,1.57373e-23,0.00510273,1.66426e-07,0,-1445,-0,0,-1438.07,-7.65384,2.412
-1.18,-1.18187,0.398405,0.0388677,0,1.04916e-23,0.00511758,1.10951e-07,0,-1445,-0,0,-1438.15,-7.6762,2.416
-1.18,-1.18187,0.398425,0.0388677,0,6.99437e-24,0.00513244,7.39672e-08,0,-1445,-0,0,-1438.23,-7.69855,2.42
-1.18,-1.18187,0.398446,0.0388674,0,4.66291e-24,0.00514732,-2.87416e-05,0,-1446,-0,0,-1438.31,-7.76409,2.424
-1.18,-1.18187,0.398467,0.0388677,0,3.10861e-24,0.00516221,9.62985e-06,0,-1446,-0,0,-1438.4,-7.72887,2.428
-1.18,-1.18187,0.398487,0.0388677,0,2.0724e-24,0.00517711,6.4199e-06,0,-1446,-0,0,-1438.48,-7.75604,2.432
-1.18,-1.18187,0.398508,0.0388677,0,1.3816e-24,0.00519204,4.27993e-06,0,-1446,-0,0,-1438.56,-7.78163,2.436
-1.18,-1.18187,0.398529,0.0388677,0,9.21069e-25,0.00520697,2.85329e-06,0,-1446,-0,0,-1438.64,-7.80618,2.44
-1.18,-1.18187,0.39855,0.0388677,0,6.14046e-25,0.00522192,1.90219e-06,0,-1446,-0,0,-1438.73,-7.83003,2.444
-1.18,-1.18187,0.398571,0.0388677,0,4.09364e-25,0.00523688,1.26813e-06,0,-1446,-0,0,-1438.81,-7.85342,2.448
-1.18,-1.18187,0.398591,0.0388677,0,2.72909e-25,0.00525186,8.45419e-07,0,-1446,-0,0,-1438.89,-7.87653,2.452
-1.18,-1.18187,0.398613,0.0388681,0,1.8194e-25,0.00526686,2.93545e-05,0,-1446,-0,0,-1438.98,-7.85625,2.456
-1.18,-1.18187,0.398634,0.0388674,0,1.21293e-25,0.00528186,-3.80122e-05,0,-1447,-0,0,-1439.06,-7.97981,2.46
-1.18,-1.18187,0.398655,0.0388677,0,8.0862e-26,0.00529688,3.44949e-06,0,-1447,-0,0,-1439.15,-7.94015,2.464
-1.18,-1.18187,0.398676,0.0388681,0,5.3908e-26,0.00531192,3.10906e-05,0,-1447,-0,0,-1439.23,-7.92124,2.468
-1.18,-1.18187,0.398697,0.0388677,0,3.59387e-26,0.00532697,-8.06387e-06,0,-1447,-0,0,-1439.32,-8.00255,2.472
-1.18,-1.18187,0.398719,0.0388681,0,2.39591e-26,0.00534203,2.3415e-05,0,-1447,-0,0,-1439.4,-7.97793,2.476
-1.18,-1.18187,0.39874,0.0388674,0,1.59727e-26,0.00535711,-4.19718e-05,0,-1447,-0,0,-1439.49,-8.09863,2.48
-1.18,-1.18187,0.398761,0.0388681,0,1.06485e-26,0.0053722,2.96006e-05,0,-1447,-0,0,-1439.57,-8.01391,2.484
-1.18,-1.18187,0.398783,0.0388677,0,7.099e-27,0.00538731,-9.05718e-06,0,-1447,-0,0,-1439.66,-8.09455,2.488
-1.18,-1.18187,0.398805,0.0388684,0,4.73266e-27,0.00540243,5.15437e-05,0,-1447,-0,0,-1439.74,-8.02633,2.492
-1.18,-1.18187,0.398826,0.0388681,0,3.15511e-27,0.00541757,5.57156e-06,0,-1447,-0,0,-1439.83,-8.11799,2.496
-1.18,-1.18187,0.398848,0.0388677,0,2.10341e-27,0.00543272,-2.50765e-05,0,-1448,-0,0,-1439.92,-8.18669,2.5
-1.18,-1.18187,0.39887,0.0388681,0,1.40227e-27,0.00544788,1.20732e-05,0,-1448,-0,0,-1440.01,-8.15371,2.504
-1.18,-1.18187,0.398891,0.0388684,0,9.34847e-28,0.00546306,3.68397e-05,0,-1448,-0,0,-1440.09,-8.13932,2.508
-1.18,-1.18187,0.398913,0.0388674,0,6.23232e-28,0.00547825,-6.18129e-05,0,-1448,-0,0,-1440.18,-8.31009,2.512
-1.18,-1.18187,0.398935,0.0388674,0,4.15488e-28,0.00549345,-4.12086e-05,0,-1448,-0,0,-1440.27,-8.30199,2.516
-1.18,-1.18187,0.398957,0.0388677,0,2.76992e-28,0.00550867,1.3185e-06,0,-1448,-0,0,-1440.36,-8.26103,2.52
-1.18,-1.18187,0.398979,0.0388681,0,1.84661e-28,0.0055239,2.96699e-05,0,-1448,-0,0,-1440.45,-8.24135,2.524
-1.18,-1.18187,0.399002,0.0388681,0,1.23107e-28,0.00553915,1.978e-05,0,-1448,-0,0,-1440.53,-8.27905,2.528
-1.18,-1.18187,0.399024,0.0388681,0,8.20716e-29,0.00555441,1.31866e-05,0,-1448,-0,0,-1440.62,-8.31183,2.532
-1.18,-1.18187,0.399046,0.0388681,0,5.47144e-29,0.00556968,8.79109e-06,0,-1449,-0,0,-1440.71,-8.34134,2.536
-1.18,-1.18187,0.399068,0.0388681,0,3.64763e-29,0.00558497,5.86073e-06,0,-1449,-0,0,-1440.8,-8.36866,2.54
-1.18,-1.18187,0.399091,0.0388681,0,2.43175e-29,0.00560027,3.90715e-06,0,-1449,-0,0,-1440.89,-8.39455,2.544
-1.18,-1.18187,0.399113,0.0388681,0,1.62117e-29,0.00561559,2.60477e-06,0,-1449,-0,0,-1440.98,-8.41947,2.548
-1.18,-1.18187,0.399136,0.0388681,0,1.08078e-29,0.00563091,1.73651e-06,0,-1449,-0,0,-1441.07,-8.44377,2.552
-1.18,-1.18187,0.399158,0.0388684,0,7.20519e-30,0.00564626,2.99486e-05,0,-1449,-0,0,-1441.16,-8.42446,2.556
-1.18,-1.18187,0.399181,0.0388681,0,4.80346e-30,0.00566161,-8.82519e-06,0,-1449,-0,0,-1441.25,-8.50566,2.56
-1.18,-1.18187,0.399203,0.0388681,0,3.20231e-30,0.00567698,-5.88346e-06,0,-1449,-0,0,-1441.34,-8.5243,2.564
-1.18,-1.18187,0.399226,0.0388681,0,2.13487e-30,0.00569237,-3.92231e-06,0,-1449,-0,0,-1441.43,-8.54443,2.568
-1.18,-1.18187,0.399249,0.0388681,0,1.42325e-30,0.00570776,-2.61487e-06,0,-1450,-0,0,-1441.52,-8.56557,2.572
-1.18,-1.18187,0.399272,0.0388681,0,9.48832e-31,0.00572317,-1.74325e-06,0,-1450,-0,0,-1441.61,-8.58737,2.576
-1.18,-1.18187,0.399295,0.0388681,0,6.32555e-31,0.0057386,-1.16217e-06,0,-1450,-0,0,-1441.71,-8.60964,2.58
-1.18,-1.18187,0.399318,0.0388681,0,4.21703e-31,0.00575403,-7.74777e-07,0,-1450,-0,0,-1441.8,-8.63221,2.584
-1.18,-1.18187,0.399341,0.0388681,0,2.81135e-31,0.00576948,-5.16518e-07,0,-1450,-0,0,-1441.89,-8.655,2.588
-1.18,-1.18187,0.399364,0.0388681,0,1.87424e-31,0.00578495,-3.44345e-07,0,-1450,-0,0,-1441.98,-8.67794,2.592
-1.18,-1.18187,0.399387,0.0388681,0,1.24949e-31,0.00580042,-2.29563e-07,0,-1450,-0,0,-1442.08,-8.70098,2.596
-1.18,-1.18187,0.39941,0.0388681,0,8.32994e-32,0.00581591,-1.53042e-07,0,-1450,-0,0,-1442.17,-8.7241,2.6
-1.18,-1.18187,0.399434,0.0388681,0,5.55329e-32,0.00583142,-1.02028e-07,0,-1451,-0,0,-1442.26,-8.74728,2.604
-1.18,-1.18187,0.399457,0.0388681,0,3.70219e-32,0.00584693,-6.80188e-08,0,-1451,-0,0,-1442.36,-8.7705,2.608
-1.18,-1.18187,0.39948,0.0388681,0,2.46813e-32,0.00586246,-4.53459e-08,0,-1451,-0,0,-1442.45,-8.79376,2.612
-1.18,-1.18187,0.399504,0.0388681,0,1.64542e-32,0.00587801,-3.02306e-08,0,-1451,-0,0,-1442.54,-8.81705,2.616
-1.18,-1.18187,0.399527,0.0388681,0,1.09695e-32,0.00589356,-2.01537e-08,0,-1451,-0,0,-1442.64,-8.84037,2.62
-1.18,-1.18187,0.399551,0.0388681,0,7.31298e-33,0.00590913,-1.34358e-08,0,-1451,-0,0,-1442.73,-8.86372,2.624
-1.18,-1.18187,0.399575,0.0388681,0,4.87532e-33,0.00592471,-8.95721e-09,0,-1451,-0,0,-1442.83,-8.88708,2.628
-1.18,-1.18187,0.399598,0.0388681,0,3.25021e-33,0.00594031,-5.97147e-09,0,-1451,-0,0,-1442.92,-8.91047,2.632
-1.18,-1.18187,0.399622,0.0388681,0,2.16681e-33,0.00595592,-3.98098e-09,0,-1451,-0,0,-1443.02,-8.93388,2.636
-1.18,-1.18187,0.399646,0.0388681,0,1.44454e-33,0.00597154,-2.65399e-09,0,-1452,-0,0,-1443.11,-8.95731,2.64
-1.18,-1.18187,0.39967,0.0388681,0,9.63026e-34,0.00598717,-1.76933e-09,0,-1452,-0,0,-1443.21,-8.98076,2.644
-1.18,-1.18187,0.399694,0.0388681,0,6.42017e-34,0.00600282,-1.17955e-09,0,-1452,-0,0,-1443.3,-9.00423,2.648
-1.18,-1.18187,0.399718,0.0388681,0,4.28011e-34,0.00601848,-7.86367e-10,0,-1452,-0,0,-1443.4,-9.02772,2.652
-1.18,-1.18187,0.399742,0.0388681,0,2.85341e-34,0.00603415,-5.24245e-10,0,-1452,-0,0,-1443.5,-9.05123,2.656
-1.18,-1.18187,0.399766,0.0388681,0,1.90227e-34,0.00604984,-3.49496e-10,0,-1452,-0,0,-1443.59,-9.07476,2.66
-1.18,-1.18187,0.39979,0.0388681,0,1.26818e-34,0.00606554,-2.32998e-10,0,-1452,-0,0,-1443.69,-9.09831,2.664
-1.18,-1.18187,0.399815,0.0388681,0,8.45455e-35,0.00608125,-1.55332e-10,0,-1452,-0,0,-1443.79,-9.12188,2.668
-1.18,-1.18187,0.399839,0.0388681,0,5.63636e-35,0.00609698,-1.03554e-10,0,-1453,-0,0,-1443.88,-9.14546,2.672
-1.18,-1.18187,0.399864,0.0388681,0,3.75758e-35,0.00611271,-6.90363e-11,0,-1453,-0,0,-1443.98,-9.16907,2.676
-1.18,-1.18187,0.399888,0.0388681,0,2.50505e-35,0.00612846,-4.60242e-11,0,-1453,-0,0,-1444.08,-9.19269,2.68
-1.18,-1.18187,0.399913,0.0388684,0,1.67003e-35,0.00614423,2.87909e-05,0,-1453,-0,0,-1444.18,-9.17315,2.684
-1.18,-1.18187,0.399937,0.0388684,0,1.11336e-35,0.00616,1.91939e-05,0,-1453,-0,0,-1444.27,-9.21121,2.688
-1.18,-1.18187,0.399962,0.0388684,0,7.42237e-36,0.00617579,1.2796e-05,0,-1453,-0,0,-1444.37,-9.24449,2.692
-1.18,-1.18187,0.399987,0.0388681,0,4.94825e-36,0.00619159,-2.02603e-05,0,-1453,-0,0,-1444.47,-9.31777,2.696
-1.18,-1.18187,0.400011,0.0388681,0,3.29883e-36,0.0062074,-1.35069e-05,0,-1453,-0,0,-1444.57,-9.33136,2.7
-1.18,-1.18187,0.400036,0.0388684,0,2.19922e-36,0.00622323,1.97864e-05,0,-1453,-0,0,-1444.67,-9.30516,2.704
-1.18,-1.18187,0.400061,0.0388681,0,1.46615e-36,0.00623907,-1.56e-05,0,-1454,-0,0,-1444.77,-9.382,2.708
-1.18,-1.18187,0.400086,0.0388684,0,9.77432e-37,0.00625492,1.83909e-05,0,-1454,-0,0,-1444.87,-9.35479,2.712
-1.18,-1.18187,0.400111,0.0388684,0,6.51621e-37,0.00627078,1.22606e-05,0,-1454,-0,0,-1444.97,-9.38778,2.716
-1.18,-1.18187,0.400136,0.0388681,0,4.34414e-37,0.00628665,-2.06172e-05,0,-1454,-0,0,-1445.07,-9.46091,2.72
-1.18,-1.18187,0.400161,0.0388684,0,2.89609e-37,0.00630254,1.50461e-05,0,-1454,-0,0,-1445.17,-9.43124,2.724
-1.18,-1.18187,0.400187,0.0388684,0,1.93073e-37,0.00631844,1.00308e-05,0,-1454,-0,0,-1445.27,-9.46262,2.728
-1.18,-1.18187,0.400212,0.0388681,0,1.28715e-37,0.00633436,-2.21038e-05,0,-1454,-0,0,-1445.38,-9.53469,2.732
-1.18,-1.18187,0.400237,0.0388684,0,8.58102e-38,0.00635028,1.40551e-05,0,-1454,-0,0,-1445.48,-9.50434,2.736
-1.18,-1.18187,0.400263,0.0388684,0,5.72068e-38,0.00636622,9.37006e-06,0,-1455,-0,0,-1445.58,-9.53527,2.74
-1.18,-1.18187,0.400288,0.0388684,0,3.81379e-38,0.00638217,6.24671e-06,0,-1455,-0,0,-1445.68,-9.56388,2.744
-1.18,-1.18187,0.400314,0.0388684,0,2.54252e-38,0.00639813,4.16447e-06,0,-1455,-0,0,-1445.78,-9.59094,2.748
-1.18,-1.18187,0.40034,0.0388684,0,1.69502e-38,0.0064141,2.77631e-06,0,-1455,-0,0,-1445.88,-9.61699,2.752
-1.18,-1.18187,0.400365,0.0388684,0,1.13001e-38,0.00643009,1.85088e-06,0,-1455,-0,0,-1445.99,-9.64235,2.756
-1.18,-1.18187,0.400391,0.0388684,0,7.53341e-39,0.00644609,1.23392e-06,0,-1455,-0,0,-1446.09,-9.66728,2.76
-1.18,-1.18187,0.400417,0.0388684,0,5.02227e-39,0.0064621,8.22611e-07,0,-1455,-0,0,-1446.19,-9.69191,2.764
-1.18,-1.18187,0.400443,0.0388684,0,3.34818e-39,0.00647812,5.48408e-07,0,-1456,-0,0,-1446.3,-9.71635,2.768
-1.18,-1.18187,0.400469,0.0388684,0,2.23212e-39,0.00649415,3.65605e-07,0,-1456,-0,0,-1446.4,-9.74068,2.772
-1.18,-1.18187,0.400495,0.0388684,0,1.48808e-39,0.0065102,2.43737e-07,0,-1456,-0,0,-1446.5,-9.76493,2.776
-1.18,-1.18187,0.400521,0.0388684,0,9.92053e-40,0.00652626,1.62491e-07,0,-1456,-0,0,-1446.61,-9.78914,2.78
-1.18,-1.18187,0.400547,0.0388684,0,6.61369e-40,0.00654233,1.08327e-07,0,-1456,-0,0,-1446.71,-9.81333,2.784
-1.18,-1.18187,0.400573,0.0388684,0,4.40913e-40,0.00655841,7.22183e-08,0,-1456,-0,0,-1446.82,-9.8375,2.788
-1.18,-1.18187,0.400599,0.0388684,0,2.93942e-40,0.0065745,4.81455e-08,0,-1456,-0,0,-1446.92,-9.86168,2.792
-1.18,-1.18187,0.400626,0.0388684,0,1.95961e-40,0.00659061,3.2097e-08,0,-1456,-0,0,-1447.03,-9.88586,2.796
-1.18,-1.18187,0.400652,0.0388684,0,1.30641e-40,0.00660673,2.1398e-08,0,-1457,-0,0,-1447.13,-9.91006,2.8
-1.18,-1.18187,0.400678,0.0388684,0,8.70939e-41,0.00662285,1.42653e-08,0,-1457,-0,0,-1447.24,-9.93426,2.804
-1.18,-1.18187,0.400705,0.0388684,0,5.80626e-41,0.006639,9.51023e-09,0,-1457,-0,0,-1447.35,-9.95848,2.808
-1.18,-1.18187,0.400732,0.0388684,0,3.87084e-41,0.00665515,6.34015e-09,0,-1457,-0,0,-1447.45,-9.98271,2.812
-1.18,-1.18187,0.400758,0.0388684,0,2.58056e-41,0.00667131,4.22677e-09,0,-1457,-0,0,-1447.56,-10.007,2.816
-1.18,-1.18187,0.400785,0.0388684,0,1.72037e-41,0.00668749,2.81785e-09,0,-1457,-0,0,-1447.67,-10.0312,2.82
-1.18,-1.18187,0.400812,0.0388688,0,1.14692e-41,0.00670368,2.87928e-05,0,-1457,-0,0,-1447.77,-10.0123,2.824
-1.18,-1.18187,0.400839,0.0388684,0,7.6461e-42,0.00671988,-9.59572e-06,0,-1457,-0,0,-1447.88,-10.0942,2.828
-1.18,-1.18187,0.400865,0.0388688,0,5.0974e-42,0.00673609,2.23938e-05,0,-1458,-0,0,-1447.99,-10.0705,2.832
-1.18,-1.18187,0.400892,0.0388688,0,3.39827e-42,0.00675231,1.49292e-05,0,-1458,-0,0,-1448.09,-10.1061,2.836
-1.18,-1.18187,0.40092,0.0388688,0,2.26551e-42,0.00676855,9.95279e-06,0,-1458,-0,0,-1448.2,-10.1379,2.84
-1.18,-1.18187,0.400947,0.0388688,0,1.51034e-42,0.00678479,6.63519e-06,0,-1458,-0,0,-1448.31,-10.1672,2.844
-1.18,-1.18187,0.400974,0.0388688,0,1.00689e-42,0.00680105,4.42346e-06,0,-1458,-0,0,-1448.42,-10.1949,2.848
-1.18,-1.18187,0.401001,0.0388688,0,6.71263e-43,0.00681732,2.94897e-06,0,-1458,-0,0,-1448.53,-10.2216,2.852
-1.18,-1.18187,0.401028,0.0388688,0,4.47508e-43,0.0068336,1.96598e-06,0,-1458,-0,0,-1448.64,-10.2475,2.856
-1.18,-1.18187,0.401056,0.0388691,0,2.98339e-43,0.00684989,3.01016e-05,0,-1458,-0,0,-1448.75,-10.2297,2.86
-1.18,-1.18187,0.401083,0.0388691,0,1.98893e-43,0.00686619,2.00677e-05,0,-1459,-0,0,-1448.86,-10.2692,2.864
-1.18,-1.18187,0.401111,0.0388705,0,1.32595e-43,0.00688251,0.000128542,0,-1459,-0,0,-1448.96,-10.1309,2.868
-1.18,-1.18187,0.401138,0.0388778,0,8.83967e-44,0.00689883,0.000690304,0,-1458,-0,0,-1449.04,-9.3128,2.872
-1.18,-1.18187,0.401166,0.0388978,0,5.89311e-44,0.00691517,0.00213008,0,-1456,-0,0,-1449.07,-7.17764,2.876
-1.18,-1.18187,0.401194,0.0389286,0,3.92874e-44,0.00693152,0.00398244,0,-1453,-0,0,-1449.06,-4.42362,2.88
-1.18,-1.18187,0.401221,0.0389714,0,2.61916e-44,0.00694788,0.00622504,0,-1450,-0,0,-1449,-1.08426,2.884
-1.18,-1.18187,0.401249,0.039027,0,1.74611e-44,0.00696425,0.00878536,0,-1446,-0,0,-1448.89,2.73167,2.888
-1.18,-1.18187,0.401277,0.039101,0,1.16407e-44,0.00698063,0.0120182,0,-1441,-0,0,-1448.7,7.5563,2.892
-1.18,-1.18187,0.401305,0.0391897,0,7.76048e-45,0.00699703,0.0154114,0,-1435,-0,0,-1448.46,12.6215,2.896
-1.18,-1.18187,0.401333,0.0392979,0,5.17365e-45,0.00701343,0.0192858,0,-1429,-0,0,-1448.14,18.4086,2.9
-1.18,-1.18187,0.401361,0.039424,0,3.4491e-45,0.00702985,0.0233659,0,-1423,-0,0,-1447.75,24.5041,2.904
-1.18,-1.18187,0.401389,0.0395653,0,2.2994e-45,0.00704627,0.0273528,0,-1416,-0,0,-1447.3,30.4597,2.908
-1.18,-1.18187,0.401417,0.0397239,0,1.53293e-45,0.00706271,0.0314502,0,-1410,-0,0,-1446.77,36.5812,2.912
-1.18,-1.18187,0.401446,0.0398949,0,1.02196e-45,0.00707916,0.0352183,0,-1403,-0,0,-1446.2,42.2087,2.916
-1.18,-1.18187,0.401474,0.0400815,0,6.81304e-46,0.00709562,0.039026,0,-1397,-0,0,-1445.57,47.8955,2.92
-1.18,-1.18187,0.401502,0.0402787,0,4.54203e-46,0.00711209,0.0424569,0,-1391,-0,0,-1444.89,53.0173,2.924
-1.18,-1.18187,0.401531,0.0404902,0,3.02802e-46,0.00712857,0.0459247,0,-1385,-0,0,-1444.16,58.1941,2.928
-1.18,-1.18187,0.401559,0.0407103,0,2.01868e-46,0.00714506,0.0489563,0,-1380,-0,0,-1443.4,62.7168,2.932
-1.18,-1.18187,0.401588,0.0409345,0,1.34579e-46,0.00716156,0.0513228,0,-1376,-0,0,-1442.61,66.2419,2.936
-1.18,-1.18187,0.401617,0.0411673,0,8.97191e-47,0.00717808,0.0536203,0,-1372,-0,0,-1441.8,69.6633,2.94
-1.18,-1.18187,0.401646,0.0413999,0,5.98127e-47,0.0071946,0.0551232,0,-1369,-0,0,-1440.98,71.8928,2.944
-1.18,-1.18187,0.401674,0.0416393,0,3.98751e-47,0.00721114,0.0567009,0,-1365,-0,0,-1440.14,74.2346,2.948
-1.18,-1.18187,0.401703,0.041877,0,2.65834e-47,0.00722768,0.0576087,0,-1363,-0,0,-1439.3,75.5716,2.952
-1.18,-1.18187,0.401732,0.0421174,0,1.77223e-47,0.00724424,0.0584443,0,-1361,-0,0,-1438.46,76.8001,2.956
-1.18,-1.18187,0.401761,0.042361,0,1.18149e-47,0.00726081,0.0592605,0,-1359,-0,0,-1437.6,77.9995,2.96
-1.18,-1.18187,0.40179,0.0426073,0,7.87657e-48,0.00727739,0.0600349,0,-1357,-0,0,-1436.73,79.1363,2.964
-1.18,-1.18187,0.401819,0.0428561,0,5.25105e-48,0.00729398,0.0607527,0,-1355,-0,0,-1435.85,80.1881,2.968
-1.18,-1.18187,0.401849,0.043109,0,3.5007e-48,0.00731058,0.0615768,0,-1353,-0,0,-1434.96,81.3993,2.972
-1.18,-1.18187,0.401878,0.0433633,0,2.3338e-48,0.00732719,0.0622413,0,-1351,-0,0,-1434.06,82.3712,2.976
-1.18,-1.18187,0.401907,0.0436196,0,1.55587e-48,0.00734381,0.0628571,0,-1349,-0,0,-1433.15,83.2699,2.98
-1.18,-1.18187,0.401937,0.0438739,0,1.03724e-48,0.00736044,0.0630948,0,-1348,-0,0,-1432.25,83.6016,2.984
-1.18,-1.18187,0.401966,0.0441275,0,6.91496e-49,0.00737708,0.0631958,0,-1347,-0,0,-1431.35,83.728,2.988
-1.18,-1.18187,0.401996,0.0443763,0,4.60997e-49,0.00739373,0.06286,0,-1347,-0,0,-1430.48,83.1994,2.992
-1.18,-1.18187,0.402025,0.0446188,0,3.07332e-49,0.0074104,0.0621179,0,-1347,-0,0,-1429.63,82.0612,2.996
-1.18,-1.18187,0.402055,0.0448593,0,2.04888e-49,0.00742707,0.0614504,0,-1347,-0,0,-1428.78,81.035,3
-1.18,-1.18187,0.402085,0.0450952,0,1.36592e-49,0.00744375,0.0606311,0,-1348,-0,0,-1427.96,79.7811,3.004
-1.18,-1.18187,0.402114,0.0453312,0,9.10612e-50,0.00746045,0.060085,0,-1348,-0,0,-1427.13,78.9368,3.008
-1.18,-1.18187,0.402144,0.0455685,0,6.07075e-50,0.00747715,0.059836,0,-1347,-0,0,-1426.3,78.5383,3.012
-1.18,-1.18187,0.402174,0.0458011,0,4.04716e-50,0.00749386,0.059267,0,-1347,-0,0,-1425.49,77.6596,3.016
-1.18,-1.18187,0.402204,0.0460274,0,2.69811e-50,0.00751059,0.0583694,0,-1348,-0,0,-1424.71,76.2882,3.02
-1.18,-1.18187,0.402234,0.0462523,0,1.79874e-50,0.00752732,0.0576558,0,-1348,-0,0,-1423.93,75.1927,3.024
-1.18,-1.18187,0.402265,0.0464703,0,1.19916e-50,0.00754407,0.0566043,0,-1349,-0,0,-1423.18,73.5903,3.028
-1.18,-1.18187,0.402295,0.0466796,0,7.9944e-51,0.00756083,0.0551835,0,-1351,-0,0,-1422.46,71.434,3.032
-1.18,-1.18187,0.402325,0.046889,0,5.3296e-51,0.00757759,0.0542363,0,-1351,-0,0,-1421.74,69.988,3.036
-1.18,-1.18187,0.402355,0.0470777,0,5.75818e-05,0.00759437,0.0518774,0,-1354,-0,0,-1421.11,66.4245,3.04
-1.18,-1.18187,0.402386,0.0472594,0,-1.91939e-05,0.00761115,0.0497289,0,-1357,-0,-0,-1420.51,63.1767,3.044
-1.18,-1.18187,0.402416,0.0474332,0,-1.2796e-05,0.00762795,0.0476345,0,-1359,-0,-0,-1419.93,60.0098,3.048
-1.18,-1.18187,0.402447,0.0475959,0,-8.53064e-06,0.00764475,0.0453168,0,-1362,-0,-0,-1419.4,56.5081,3.052
-1.18,-1.18187,0.402477,0.0477545,0,-5.6871e-06,0.00766157,0.0434263,0,-1365,-0,-0,-1418.89,53.647,3.056
-1.18,-1.18187,0.402508,0.0479068,0,-3.7914e-06,0.0076784,0.0416476,0,-1367,-0,-0,-1418.41,50.9539,3.06
-1.18,-1.18187,0.402539,0.0480537,0,-2.5276e-06,0.00769523,0.0400012,0,-1369,-0,-0,-1417.94,48.459,3.064
-1.18,-1.18187,0.40257,0.0481984,0,-1.68507e-06,0.00771208,0.0387309,0,-1370,-0,-0,-1417.48,46.5282,3.068
-1.18,-1.18187,0.402601,0.0483394,0,-1.12338e-06,0.00772893,0.0375673,0,-1372,-0,-0,-1417.04,44.7575,3.072
-1.18,-1.18187,0.402631,0.0484776,0,-7.48918e-07,0.0077458,0.0365612,0,-1373,-0,-0,-1416.62,43.2231,3.076
-1.18,-1.18187,0.402662,0.0486154,0,-4.99279e-07,0.00776268,0.0358617,0,-1374,-0,-0,-1416.19,42.1486,3.08
-1.18,-1.18187,0.402694,0.0487443,0,-3.32852e-07,0.00777956,0.0346468,0,-1375,-0,-0,-1415.8,40.3009,3.084
-1.18,-1.18187,0.402725,0.0488714,0,-2.21902e-07,0.00779646,0.033693,0,-1376,-0,-0,-1415.41,38.8447,3.088
-1.18,-1.18187,0.402756,0.0489951,0,-1.47934e-07,0.00781336,0.0327691,0,-1377,-0,-0,-1415.04,37.4336,3.092
-1.18,-1.18187,0.402787,0.0491178,0,-9.86229e-08,0.00783028,0.0320669,0,-1378,-0,-0,-1414.68,36.3549,3.096
-1.18,-1.18187,0.402819,0.0492377,0,-6.57486e-08,0.0078472,0.0313684,0,-1379,-0,-0,-1414.32,35.2817,3.1
-1.18,-1.18187,0.40285,0.0493551,0,2.87471e-05,0.00786413,0.0307012,0,-1379,-0,0,-1413.98,34.2555,3.104
-1.18,-1.18187,0.402882,0.0494657,0,-9.6262e-06,0.00788108,0.0296805,0,-1380,-0,-0,-1413.66,32.6992,3.108
-1.18,-1.18187,0.402913,0.0495742,0,-6.41746e-06,0.00789803,0.0288274,0,-1381,-0,-0,-1413.36,31.394,3.112
-1.18,-1.18187,0.402945,0.0496813,0,-4.27831e-06,0.00791499,0.0281434,0,-1382,-0,-0,-1413.05,30.3427,3.116
-1.18,-1.18187,0.402976,0.0497849,0,-2.85221e-06,0.00793197,0.0273996,0,-1383,-0,-0,-1412.77,29.2014,3.12
-1.18,-1.18187,0.403008,0.0498862,0,-1.90147e-06,0.00794895,0.0267021,0,-1384,-0,-0,-1412.49,28.1298,3.124
-1.18,-1.18187,0.40304,0.0499888,0,-1.26765e-06,0.00796594,0.0263523,0,-1384,-0,-0,-1412.2,27.5796,3.128
-1.18,-1.18187,0.403072,0.0500886,0,-8.45098e-07,0.00798294,0.0258888,0,-1385,-0,-0,-1411.93,26.8588,3.132
-1.18,-1.18187,0.403104,0.0501874,0,-5.63399e-07,0.00799995,0.0254934,0,-1385,-0,-0,-1411.67,26.2402,3.136
-1.18,-1.18187,0.403136,0.0502869,0,-3.75599e-07,0.00801697,0.0252874,0,-1385,-0,-0,-1411.4,25.9056,3.14
-1.18,-1.18187,0.403168,0.0503847,0,-2.50399e-07,0.008034,0.0250061,0,-1385,-0,-0,-1411.13,25.4581,3.144
-1.18,-1.18187,0.4032,0.0504797,0,-1.66933e-07,0.00805104,0.0245882,0,-1386,-0,-0,-1410.88,24.8058,3.148
-1.18,-1.18187,0.403232,0.050574,0,-1.11289e-07,0.00806809,0.0242521,0,-1386,-0,-0,-1410.63,24.276,3.152
-1.18,-1.18187,0.403265,0.0506677,0,-7.41924e-08,0.00808515,0.0239704,0,-1386,-0,-0,-1410.39,23.8279,3.156
-1.18,-1.18187,0.403297,0.050762,0,-4.94616e-08,0.00810221,0.0238402,0,-1386,-0,-0,-1410.14,23.607,3.16
-1.18,-1.18187,0.40333,0.0508594,0,-3.29744e-08,0.00811929,0.0240125,0,-1386,-0,-0,-1409.88,23.8398,3.164
-1.18,-1.18187,0.403362,0.0509527,0,-2.19829e-08,0.00813638,0.0237819,0,-1386,-0,-0,-1409.64,23.4683,3.168
-1.18,-1.18187,0.403395,0.0510456,0,-1.46553e-08,0.00815347,0.0235993,0,-1386,-0,-0,-1409.4,23.1688,3.172
-1.18,-1.18187,0.403427,0.0511358,0,-9.7702e-09,0.00817057,0.0232473,0,-1386,-0,-0,-1409.17,22.6151,3.176
-1.18,-1.18187,0.40346,0.0512197,0,-6.51346e-09,0.00818769,0.0224944,0,-1387,-0,-0,-1408.96,21.4601,3.18
-1.18,-1.18187,0.403493,0.0513047,0,-4.34231e-09,0.00820481,0.0220788,0,-1387,-0,-0,-1408.75,20.8111,3.184
-1.18,-1.18187,0.403526,0.0513897,0,-2.89487e-09,0.00822194,0.0218018,0,-1388,-0,-0,-1408.54,20.3698,3.188
-1.18,-1.18187,0.403559,0.0514678,0,-1.92992e-09,0.00823908,0.0210413,0,-1389,-0,-0,-1408.36,19.2033,3.192
-1.18,-1.18187,0.403592,0.0515397,0,-1.28661e-09,0.00825623,0.020016,0,-1390,-0,-0,-1408.21,17.6397,3.196
-1.18,-1.18187,0.403625,0.0516077,0,-8.5774e-10,0.00827339,0.0190158,0,-1391,-0,-0,-1408.07,16.1137,3.2
-1.18,-1.18187,0.403658,0.0516734,0,-5.71827e-10,0.00829056,0.0181475,0,-1393,-0,-0,-1407.94,14.7854,3.204
-1.18,-1.18187,0.403691,0.0517373,0,-3.81218e-10,0.00830773,0.0174247,0,-1394,-0,-0,-1407.81,13.6754,3.208
-1.18,-1.18187,0.403724,0.0517974,0,-2.54145e-10,0.00832492,0.0166261,0,-1395,-0,-0,-1407.71,12.4517,3.212
-1.18,-1.18187,0.403757,0.0518548,0,-1.6943e-10,0.00834211,0.0158633,0,-1396,-0,-0,-1407.61,11.2818,3.216
-1.18,-1.18187,0.403791,0.05191,0,-1.12953e-10,0.00835931,0.0151821,0,-1397,-0,-0,-1407.52,10.2342,3.22
-1.18,-1.18187,0.403824,0.0519639,0,-7.53023e-11,0.00837653,0.0146128,0,-1398,-0,-0,-1407.44,9.35439,3.224
-1.18,-1.18187,0.403858,0.0520137,0,-5.02015e-11,0.00839375,0.0138878,0,-1399,-0,-0,-1407.38,8.241,3.228
-1.18,-1.18187,0.403892,0.0520572,0,-3.34677e-11,0.00841098,0.0128862,0,-1400,-0,-0,-1407.34,6.71277,3.232
-1.18,-1.18187,0.403925,0.0520952,0,-2.23118e-11,0.00842822,0.0117578,0,-1402,-0,-0,-1407.32,4.99434,3.236
-1.18,-1.18187,0.403959,0.0521232,0,-1.48745e-11,0.00844546,0.0101706,0,-1404,-0,-0,-1407.34,2.58768,3.24
-1.18,-1.18187,0.403993,0.0521453,0,-9.91635e-12,0.00846272,0.00862301,0,-1407,-0,-0,-1407.39,0.240432,3.244
-1.18,-1.18187,0.404027,0.0521664,0,-6.6109e-12,0.00847998,0.00750492,0,-1408,-0,-0,-1407.44,-1.4626,3.248
-1.18,-1.18187,0.404061,0.0521864,0,-4.40727e-12,0.00849726,0.00667315,0,-1410,-0,-0,-1407.5,-2.73616,3.252
-1.18,-1.18187,0.404095,0.0521992,0,-2.93818e-12,0.00851454,0.00551403,0,-1412,-0,-0,-1407.58,-4.50076,3.256
-1.18,-1.18187,0.404129,0.0522047,0,-1.95879e-12,0.00853183,0.00413668,0,-1414,-0,-0,-1407.7,-6.59273,3.26
-1.18,-1.18187,0.404163,0.0522058,0,-1.30586e-12,0.00854913,0.00284416,0,-1416,-0,-0,-1407.83,-8.55746,3.264
-1.18,-1.18187,0.404197,0.0522058,0,-8.70571e-13,0.00856644,0.0018961,0,-1417,-0,-0,-1407.97,-10.0055,3.268
-1.18,-1.18187,0.404231,0.0522058,0,-5.80381e-13,0.00858375,0.00126407,0,-1419,-0,-0,-1408.1,-10.9795,3.272
-1.18,-1.18187,0.404266,0.0522058,0,-3.86921e-13,0.00860108,0.000842713,0,-1419,-0,-0,-1408.24,-11.6375,3.276
-1.18,-1.18187,0.4043,0.0522058,0,-2.57947e-13,0.00861841,0.000561809,0,-1420,-0,-0,-1408.38,-12.0849,3.28
-1.18,-1.18187,0.404335,0.0522058,0,-1.71965e-13,0.00863575,0.000374539,0,-1420,-0,-0,-1408.52,-12.3918,3.284
-1.18,-1.18187,0.404369,0.0522058,0,-1.14643e-13,0.0086531,0.000249693,0,-1421,-0,-0,-1408.65,-12.6051,3.288
-1.18,-1.18187,0.404404,0.0522058,0,2.87909e-05,0.00867046,0.000166462,0,-1421,-0,0,-1408.79,-12.756,3.292
-1.18,-1.18187,0.404439,0.0522058,0,-9.59697e-06,0.00868783,0.000110975,0,-1421,-0,-0,-1408.93,-12.8653,3.296
-1.18,-1.18187,0.404473,0.0522058,0,-6.39798e-06,0.0087052,7.3983e-05,0,-1422,-0,-0,-1409.07,-12.9468,3.3
-1.18,-1.18187,0.404508,0.0522058,0,-4.26532e-06,0.00872259,4.9322e-05,0,-1422,-0,-0,-1409.21,-13.0099,3.304
-1.18,-1.18187,0.404543,0.0522058,0,-2.84355e-06,0.00873998,3.28814e-05,0,-1422,-0,-0,-1409.35,-13.0606,3.308
-1.18,-1.18187,0.404578,0.0522058,0,-1.8957e-06,0.00875738,2.19209e-05,0,-1422,-0,-0,-1409.49,-13.1032,3.312
-1.18,-1.18187,0.404613,0.0522061,0,2.75271e-05,0.00877479,4.34049e-05,0,-1422,-0,0,-1409.63,-13.0971,3.316
-1.18,-1.18187,0.404648,0.0522061,0,-1.04395e-05,0.0087922,2.89366e-05,0,-1422,-0,-0,-1409.77,-13.1449,3.32
-1.18,-1.18187,0.404684,0.0522061,0,-6.95967e-06,0.00880963,1.9291e-05,0,-1423,-0,-0,-1409.91,-13.1855,3.324
-1.18,-1.18187,0.404719,0.0522061,0,-4.63978e-06,0.00882706,1.28607e-05,0,-1423,-0,-0,-1410.05,-13.2213,3.328
-1.18,-1.18187,0.404754,0.0522061,0,-3.09319e-06,0.0088445,8.5738e-06,0,-1423,-0,-0,-1410.19,-13.2539,3.332
-1.18,-1.18187,0.40479,0.0522061,0,-2.06212e-06,0.00886195,5.71587e-06,0,-1423,-0,-0,-1410.33,-13.2844,3.336
-1.18,-1.18187,0.404825,0.0522061,0,-1.37475e-06,0.00887941,3.81058e-06,0,-1423,-0,-0,-1410.48,-13.3134,3.34
-1.18,-1.18187,0.404861,0.0522061,0,-9.165e-07,0.00889687,2.54039e-06,0,-1423,-0,-0,-1410.62,-13.3415,3.344
-1.18,-1.18187,0.404896,0.0522061,0,-6.11e-07,0.00891435,1.69359e-06,0,-1424,-0,-0,-1410.76,-13.369,3.348
-1.18,-1.18187,0.404932,0.0522061,0,-4.07333e-07,0.00893183,1.12906e-06,0,-1424,-0,-0,-1410.9,-13.396,3.352
-1.18,-1.18187,0.404968,0.0522061,0,-2.71556e-07,0.00894932,7.52707e-07,0,-1424,-0,-0,-1411.05,-13.4228,3.356
-1.18,-1.18187,0.405004,0.0522061,0,-1.81037e-07,0.00896681,5.01804e-07,0,-1424,-0,-0,-1411.19,-13.4495,3.36
-1.18,-1.18187,0.40504,0.0522061,0,-1.20691e-07,0.00898432,3.34536e-07,0,-1424,-0,-0,-1411.33,-13.476,3.364
-1.18,-1.18187,0.405075,0.0522061,0,-8.04609e-08,0.00900183,2.23024e-07,0,-1424,-0,-0,-1411.48,-13.5024,3.368
-1.18,-1.18187,0.405112,0.0522061,0,-5.36406e-08,0.00901935,1.48683e-07,0,-1425,-0,-0,-1411.62,-13.5288,3.372
-1.18,-1.18187,0.405148,0.0522061,0,-3.57604e-08,0.00903688,9.91219e-08,0,-1425,-0,-0,-1411.77,-13.5552,3.376
-1.18,-1.18187,0.405184,0.0522065,0,-2.38403e-08,0.00905442,2.8857e-05,0,-1425,-0,-0,-1411.91,-13.5383,3.38
-1.18,-1.18187,0.40522,0.0522061,0,-1.58935e-08,0.00907196,-9.55292e-06,0,-1425,-0,-0,-1412.06,-13.6223,3.384
-1.18,-1.18187,0.405256,0.0522065,0,-1.05957e-08,0.00908951,2.24223e-05,0,-1425,-0,-0,-1412.2,-13.6006,3.388
-1.18,-1.18187,0.405293,0.0522061,0,-7.06378e-09,0.00910707,-1.38427e-05,0,-1426,-0,-0,-1412.35,-13.6814,3.392
-1.18,-1.18187,0.405329,0.0522065,0,-4.70919e-09,0.00912464,1.95624e-05,0,-1426,-0,-0,-1412.49,-13.6576,3.396
-1.18,-1.18187,0.405366,0.0522065,0,-3.13946e-09,0.00914222,1.30416e-05,0,-1426,-0,-0,-1412.64,-13.6938,3.4
-1.18,-1.18187,0.405402,0.0522065,0,-2.09297e-09,0.0091598,8.69442e-06,0,-1426,-0,-0,-1412.78,-13.7267,3.404
-1.18,-1.18187,0.405439,0.0522065,0,-1.39532e-09,0.00917739,5.79628e-06,0,-1426,-0,-0,-1412.93,-13.7574,3.408
-1.18,-1.18187,0.405476,0.0522065,0,-9.3021e-10,0.00919499,3.86419e-06,0,-1426,-0,-0,-1413.08,-13.7867,3.412
-1.18,-1.18187,0.405513,0.0522065,0,-6.2014e-10,0.00921259,2.57612e-06,0,-1427,-0,-0,-1413.22,-13.815,3.416
-1.18,-1.18187,0.40555,0.0522065,0,-4.13427e-10,0.00923021,1.71742e-06,0,-1427,-0,-0,-1413.37,-13.8427,3.42
-1.18,-1.18187,0.405586,0.0522065,0,-2.75618e-10,0.00924783,1.14494e-06,0,-1427,-0,-0,-1413.52,-13.87,3.424
-1.18,-1.18187,0.405623,0.0522065,0,-1.83745e-10,0.00926545,7.63296e-07,0,-1427,-0,-0,-1413.67,-13.897,3.428
-1.18,-1.18187,0.405661,0.0522065,0,-1.22497e-10,0.00928309,5.08864e-07,0,-1427,-0,-0,-1413.82,-13.9239,3.432
-1.18,-1.18187,0.405698,0.0522065,0,-8.16645e-11,0.00930073,3.39243e-07,0,-1427,-0,-0,-1413.97,-13.9506,3.436
-1.18,-1.18187,0.405735,0.0522065,0,-5.4443e-11,0.00931838,2.26162e-07,0,-1428,-0,-0,-1414.11,-13.9772,3.44
-1.18,-1.18187,0.405772,0.0522065,0,-3.62953e-11,0.00933604,1.50775e-07,0,-1428,-0,-0,-1414.26,-14.0038,3.444
-1.18,-1.18187,0.40581,0.0522065,0,-2.41969e-11,0.00935371,1.00516e-07,0,-1428,-0,-0,-1414.41,-14.0304,3.448
-1.18,-1.18187,0.405847,0.0522065,0,-1.61313e-11,0.00937138,6.70109e-08,0,-1428,-0,-0,-1414.56,-14.057,3.452
-1.18,-1.18187,0.405885,0.0522065,0,-1.07542e-11,0.00938906,4.46739e-08,0,-1428,-0,-0,-1414.71,-14.0835,3.456
-1.18,-1.18187,0.405922,0.0522068,0,-7.16945e-12,0.00940675,2.88207e-05,0,-1428,-0,-0,-1414.86,-14.0669,3.46
-1.18,-1.18187,0.40596,0.0522065,0,-4.77963e-12,0.00942444,-9.57712e-06,0,-1429,-0,-0,-1415.01,-14.151,3.464
-1.18,-1.18187,0.405998,0.0522068,0,-3.18642e-12,0.00944214,2.24062e-05,0,-1429,-0,-0,-1415.16,-14.1296,3.468
-1.18,-1.18187,0.406035,0.0522068,0,-2.12428e-12,0.00945985,1.49375e-05,0,-1429,-0,-0,-1415.31,-14.1674,3.472
-1.18,-1.18187,0.406073,0.0522068,0,-1.41619e-12,0.00947757,9.9583e-06,0,-1429,-0,-0,-1415.47,-14.2014,3.476
-1.18,-1.18187,0.406111,0.0522068,0,-9.44125e-13,0.00949529,6.63887e-06,0,-1429,-0,-0,-1415.62,-14.233,3.48
-1.18,-1.18187,0.406149,0.0522068,0,-6.29417e-13,0.00951302,4.42591e-06,0,-1430,-0,-0,-1415.77,-14.2629,3.484
-1.18,-1.18187,0.406187,0.0522068,0,-4.19611e-13,0.00953076,2.95061e-06,0,-1430,-0,-0,-1415.92,-14.2917,3.488
-1.18,-1.18187,0.406226,0.0522068,0,-2.79741e-13,0.0095485,1.96707e-06,0,-1430,-0,-0,-1416.07,-14.3198,3.492
-1.18,-1.18187,0.406264,0.0522068,0,-1.86494e-13,0.00956625,1.31138e-06,0,-1430,-0,-0,-1416.23,-14.3474,3.496
-1.18,-1.18187,0.406302,0.0522068,0,-1.24329e-13,0.00958401,8.74254e-07,0,-1430,-0,-0,-1416.38,-14.3747,3.5
-1.18,-1.18187,0.40634,0.0522068,0,-8.28862e-14,0.00960178,5.82836e-07,0,-1430,-0,-0,-1416.53,-14.4018,3.504
-1.18,-1.18187,0.406379,0.0522068,0,-5.52575e-14,0.00961955,3.88557e-07,0,-1431,-0,-0,-1416.69,-14.4287,3.508
-1.18,-1.18187,0.406417,0.0522072,0,-3.68383e-14,0.00963733,2.905e-05,0,-1431,-0,-0,-1416.84,-14.4124,3.512
-1.18,-1.18187,0.406456,0.0522072,0,-2.45589e-14,0.00965511,1.93666e-05,0,-1431,-0,-0,-1417,-14.4536,3.516
-1.18,-1.18187,0.406495,0.0522072,0,-1.63726e-14,0.00967291,1.29111e-05,0,-1431,-0,-0,-1417.15,-14.49,3.52
-1.18,-1.18187,0.406533,0.0522072,0,-1.09151e-14,0.00969071,8.6074e-06,0,-1431,-0,-0,-1417.3,-14.5231,3.524
-1.18,-1.18187,0.406572,0.0522072,0,-7.2767e-15,0.00970851,5.73826e-06,0,-1432,-0,-0,-1417.46,-14.5542,3.528
-1.18,-1.18187,0.406611,0.0522072,0,-4.85113e-15,0.00972633,3.82551e-06,0,-1432,-0,-0,-1417.62,-14.5838,3.532
-1.18,-1.18187,0.40665,0.0522072,0,-3.23409e-15,0.00974415,2.55034e-06,0,-1432,-0,-0,-1417.77,-14.6124,3.536
-1.18,-1.18187,0.406689,0.0522072,0,-2.15606e-15,0.00976197,1.70023e-06,0,-1432,-0,-0,-1417.93,-14.6404,3.54
-1.18,-1.18187,0.406728,0.0522072,0,-1.43737e-15,0.00977981,1.13348e-06,0,-1432,-0,-0,-1418.08,-14.668,3.544
-1.18,-1.18187,0.406767,0.0522072,0,-9.58249e-16,0.00979765,7.55656e-07,0,-1432,-0,-0,-1418.24,-14.6953,3.548
-1.18,-1.18187,0.406806,0.0522079,0,-6.38832e-16,0.0098155,5.80856e-05,0,-1433,-0,-0,-1418.39,-14.6361,3.552
-1.18,-1.18187,0.406846,0.0522075,0,-4.25888e-16,0.00983335,9.93282e-06,0,-1433,-0,-0,-1418.55,-14.7351,3.556
-1.18,-1.18187,0.406885,0.0522079,0,-2.83926e-16,0.00985121,3.54128e-05,0,-1433,-0,-0,-1418.71,-14.7237,3.56
-1.18,-1.18187,0.406925,0.0522075,0,-1.89284e-16,0.00986908,-5.18239e-06,0,-1433,-0,-0,-1418.87,-14.8114,3.564
-1.18,-1.18187,0.406964,0.0522075,0,-1.26189e-16,0.00988695,-3.45492e-06,0,-1433,-0,-0,-1419.03,-14.8356,3.568
-1.18,-1.18187,0.407004,0.0522075,0,-8.41261e-17,0.00990483,-2.30328e-06,0,-1434,-0,-0,-1419.18,-14.8607,3.572
-1.18,-1.18187,0.407043,0.0522075,0,-5.60841e-17,0.00992272,-1.53552e-06,0,-1434,-0,-0,-1419.34,-14.8864,3.576
-1.18,-1.18187,0.407083,0.0522075,0,-3.73894e-17,0.00994061,-1.02368e-06,0,-1434,-0,-0,-1419.5,-14.9125,3.58
-1.18,-1.18187,0.407123,0.0522075,0,-2.49262e-17,0.00995851,-6.82454e-07,0,-1434,-0,-0,-1419.66,-14.9388,3.584
-1.18,-1.18187,0.407163,0.0522075,0,-1.66175e-17,0.00997642,-4.5497e-07,0,-1434,-0,-0,-1419.82,-14.9653,3.588
-1.18,-1.18187,0.407203,0.0522072,0,-1.10783e-17,0.00999433,-2.90942e-05,0,-1435,-0,-0,-1419.98,-15.0351,3.592
-1.18,-1.18187,0.407243,0.0522072,0,-7.38556e-18,0.0100122,-1.93962e-05,0,-1435,-0,-0,-1420.14,-15.0475,3.596
-1.18,-1.18187,0.407283,0.0522079,0,-4.9237e-18,0.0100302,4.46511e-05,0,-1435,-0,-0,-1420.3,-14.9783,3.6
-1.18,-1.18187,0.407323,0.0522079,0,-3.28247e-18,0.0100481,2.97674e-05,0,-1435,-0,-0,-1420.46,-15.0275,3.604
-1.18,-1.18187,0.407363,0.0522079,0,-2.18831e-18,0.010066,1.98449e-05,0,-1435,-0,-0,-1420.62,-15.0693,3.608
-1.18,-1.18187,0.407403,0.0522079,0,-1.45888e-18,0.010084,1.32299e-05,0,-1435,-0,-0,-1420.78,-15.1061,3.612
-1.18,-1.18187,0.407444,0.0522079,0,-9.72583e-19,0.0101019,8.81997e-06,0,-1436,-0,-0,-1420.94,-15.1397,3.616
-1.18,-1.18187,0.407484,0.0522079,0,-6.48389e-19,0.0101199,5.87998e-06,0,-1436,-0,-0,-1421.11,-15.171,3.62
-1.18,-1.18187,0.407525,0.0522079,0,-4.32259e-19,0.0101379,3.91998e-06,0,-1436,-0,-0,-1421.27,-15.2009,3.624
-1.18,-1.18187,0.407565,0.0522079,0,-2.88173e-19,0.0101558,2.61332e-06,0,-1436,-0,-0,-1421.43,-15.2298,3.628
-1.18,-1.18187,0.407606,0.0522079,0,-1.92115e-19,0.0101738,1.74222e-06,0,-1436,-0,-0,-1421.59,-15.2581,3.632
-1.18,-1.18187,0.407647,0.0522079,0,-1.28077e-19,0.0101918,1.16148e-06,0,-1437,-0,-0,-1421.76,-15.2859,3.636
-1.18,-1.18187,0.407688,0.0522082,0,-8.53845e-20,0.0102098,2.95652e-05,0,-1437,-0,-0,-1421.92,-15.2703,3.64
-1.18,-1.18187,0.407728,0.0522082,0,-5.6923e-20,0.0102278,1.97102e-05,0,-1437,-0,-0,-1422.08,-15.3121,3.644
-1.18,-1.18187,0.407769,0.0522082,0,-3.79487e-20,0.0102458,1.31401e-05,0,-1437,-0,-0,-1422.24,-15.3489,3.648
-1.18,-1.18187,0.40781,0.0522082,0,-2.52991e-20,0.0102638,8.76007e-06,0,-1437,-0,-0,-1422.41,-15.3825,3.652
-1.18,-1.18187,0.407851,0.0522082,0,-1.68661e-20,0.0102818,5.84005e-06,0,-1437,-0,-0,-1422.57,-15.4139,3.656
-1.18,-1.18187,0.407893,0.0522082,0,-1.12441e-20,0.0102998,3.89337e-06,0,-1438,-0,-0,-1422.74,-15.4439,3.66
-1.18,-1.18187,0.407934,0.0522082,0,-7.49604e-21,0.0103178,2.59558e-06,0,-1438,-0,-0,-1422.9,-15.4728,3.664
-1.18,-1.18187,0.407975,0.0522082,0,-4.99736e-21,0.0103358,1.73038e-06,0,-1438,-0,-0,-1423.07,-15.5012,3.668
-1.18,-1.18187,0.408017,0.0522085,0,-3.33157e-21,0.0103539,2.99445e-05,0,-1438,-0,-0,-1423.23,-15.4859,3.672
-1.18,-1.18187,0.408058,0.0522085,0,-2.22105e-21,0.0103719,1.9963e-05,0,-1438,-0,-0,-1423.4,-15.5279,3.676
-1.18,-1.18187,0.4081,0.0522085,0,-1.4807e-21,0.01039,1.33087e-05,0,-1439,-0,-0,-1423.56,-15.565,3.68
-1.18,-1.18187,0.408141,0.0522085,0,-9.87132e-22,0.010408,8.87245e-06,0,-1439,-0,-0,-1423.73,-15.5987,3.684
-1.18,-1.18187,0.408183,0.0522085,0,-6.58088e-22,0.0104261,5.91497e-06,0,-1439,-0,-0,-1423.9,-15.6302,3.688
-1.18,-1.18187,0.408225,0.0522085,0,-4.38726e-22,0.0104441,3.94331e-06,0,-1439,-0,-0,-1424.06,-15.6603,3.692
-1.18,-1.18187,0.408266,0.0522082,0,-2.92484e-22,0.0104622,-2.61621e-05,0,-1439,-0,-0,-1424.23,-15.7326,3.696
-1.18,-1.18187,0.408308,0.0522089,0,-1.94989e-22,0.0104803,4.01405e-05,0,-1440,-0,-0,-1424.4,-15.6602,3.7
-1.18,-1.18187,0.40835,0.0522089,0,-1.29993e-22,0.0104984,2.67603e-05,0,-1440,-0,-0,-1424.57,-15.7074,3.704
-1.18,-1.18187,0.408392,0.0522089,0,-8.66618e-23,0.0105165,1.78402e-05,0,-1440,-0,-0,-1424.73,-15.7479,3.708
-1.18,-1.18187,0.408434,0.0522089,0,-5.77746e-23,0.0105346,1.18935e-05,0,-1440,-0,-0,-1424.9,-15.784,3.712
-1.18,-1.18187,0.408476,0.0522089,0,-3.85164e-23,0.0105527,7.92898e-06,0,-1440,-0,-0,-1425.07,-15.8171,3.716
-1.18,-1.18187,0.408519,0.0522092,0,-2.56776e-23,0.0105708,3.40769e-05,0,-1441,-0,-0,-1425.24,-15.805,3.72
-1.18,-1.18187,0.408561,0.0522092,0,-1.71184e-23,0.0105889,2.27179e-05,0,-1441,-0,-0,-1425.41,-15.8492,3.724
-1.18,-1.18187,0.408603,0.0522092,0,-1.14123e-23,0.010607,1.51453e-05,0,-1441,-0,-0,-1425.58,-15.8878,3.728
-1.18,-1.18187,0.408646,0.0522092,0,-7.60817e-24,0.0106251,1.00969e-05,0,-1441,-0,-0,-1425.75,-15.9225,3.732
-1.18,-1.18187,0.408688,0.0522092,0,-5.07211e-24,0.0106432,6.73124e-06,0,-1441,-0,-0,-1425.92,-15.9547,3.736
-1.18,-1.18187,0.408731,0.0522096,0,-3.38141e-24,0.0106614,3.32784e-05,0,-1442,-0,-0,-1426.09,-15.9421,3.74
-1.18,-1.18187,0.408774,0.0522096,0,-2.25427e-24,0.0106795,2.21856e-05,0,-1442,-0,-0,-1426.26,-15.986,3.744
-1.18,-1.18187,0.408816,0.0522096,0,-1.50285e-24,0.0106976,1.47904e-05,0,-1442,-0,-0,-1426.43,-16.0243,3.748
-1.18,-1.18187,0.408859,0.0522103,0,-1.0019e-24,0.0107158,6.74421e-05,0,-1442,-0,-0,-1426.6,-15.9725,3.752
-1.18,-1.18187,0.408902,0.0522099,0,-6.67933e-25,0.0107339,1.61705e-05,0,-1442,-0,-0,-1426.77,-16.0766,3.756
-1.18,-1.18187,0.408945,0.0522096,0,-4.45289e-25,0.0107521,-1.80106e-05,0,-1443,-0,-0,-1426.94,-16.1552,3.76
