peachynonah/Fire_monitor_KIRO_CDSL/CnSim_linux/cdsl_data.csv
joint1_pos_desired, joint1_pos, joint2_pos_desired, joint2_pos, joint1_vel_desired, joint1_vel_filtered, joint2_vel_desired, joint2_vel_filtered, target_torque_joint1, target_torque_joint2, estimated_disturbance_joint1, saturated_DOB_joint1, estimated_disturbance_joint2, saturated_DOB_joint2, current_time
3.217,3.2167,0.027,0.027346,1.59957e-08,0,0,0,-3,3,-0,-0,-98.3127,-98.3127,0.004
3.217,3.2167,0.027,0.027346,6.39659e-08,0.000201536,0,0,-1,3,0.0141115,0.0141115,-98.3294,-98.3294,0.008
3.217,3.2167,0.027,0.027346,1.43885e-07,0.000134358,0,0,-2,3,0.0203101,0.0203101,-98.3462,-98.3462,0.012
3.217,3.2167,0.027,0.027346,2.55727e-07,8.95718e-05,0,0,-2,3,0.0293163,0.0293163,-98.363,-98.363,0.016
3.217,3.2167,0.027,0.027346,3.99467e-07,3.09236e-05,0,0,-3,3,0.0402848,0.0402848,-98.3798,-98.3798,0.02
3.217,3.2167,0.027,0.027346,5.75079e-07,4.94066e-05,0,0,-2,3,0.0535488,0.0535488,-98.3966,-98.3966,0.024
3.217,3.2167,0.027,0.027346,7.82537e-07,3.29378e-05,0,0,-3,3,0.06612,0.06612,-98.4134,-98.4134,0.028
3.217,3.2167,0.027,0.027346,1.02182e-06,2.19585e-05,0,0,-3,3,0.0793877,0.0793877,-98.4301,-98.4301,0.032
3.217,3.2167,0.027,0.027346,1.29289e-06,1.4639e-05,0,0,-3,3,0.0931242,0.0931242,-98.4469,-98.4469,0.036
3.217,3.2167,0.027,0.027346,1.59574e-06,9.75934e-06,0,0,-3,3,0.107178,0.107178,-98.4637,-98.4637,0.04
3.217,3.2167,0.027,0.027346,1.93033e-06,6.50623e-06,0,0,-3,3,0.121449,0.121449,-98.4805,-98.4805,0.044
3.217,3.2167,0.027,0.027346,2.29663e-06,4.33748e-06,0,0,-3,3,0.135871,0.135871,-98.4973,-98.4973,0.048
3.217,3.2167,0.027,0.027346,2.69463e-06,2.89166e-06,0,0,-3,3,0.150399,0.150399,-98.514,-98.514,0.052
3.217,3.2167,0.027,0.027346,3.1243e-06,1.92777e-06,0,0,-3,4,0.165005,0.165005,-98.5308,-98.5308,0.056
3.217,3.2167,0.027,0.027346,3.58561e-06,1.28518e-06,0,0,-3,4,0.179671,0.179671,-98.5476,-98.5476,0.06
3.217,3.2167,0.027,0.027346,4.07854e-06,8.56787e-07,0,0,-3,4,0.194383,0.194383,-98.5644,-98.5644,0.064
3.217,3.2167,0.027,0.0273456,4.60306e-06,5.71191e-07,0,-2.87909e-05,-3,3,0.209136,0.209136,-98.5811,-98.5811,0.068
3.217,3.2167,0.027,0.0273456,5.15915e-06,3.80794e-07,0,-1.91939e-05,-3,3,0.223924,0.223924,-98.5967,-98.5967,0.072
3.217,3.2167,0.027,0.0273456,5.74677e-06,2.53863e-07,0,-1.2796e-05,-3,3,0.238744,0.238744,-98.6126,-98.6126,0.076
3.217,3.2167,0.027,0.027346,6.36591e-06,1.69242e-07,0,2.02603e-05,-3,4,0.253597,0.253597,-98.6289,-98.6289,0.08
3.217,3.2167,0.027,0.027346,7.01654e-06,1.12828e-07,0,1.35069e-05,-3,4,0.26848,0.26848,-98.6466,-98.6466,0.084
3.217,3.2167,0.027,0.027346,7.69864e-06,7.52186e-08,0,9.00457e-06,-3,4,0.283395,0.283395,-98.6639,-98.6639,0.088
3.217,3.2167,0.027,0.0273456,8.41217e-06,5.01457e-08,0,-2.27879e-05,-3,3,0.298342,0.298342,-98.681,-98.681,0.092
3.217,3.2167,0.027,0.0273456,9.15711e-06,3.34305e-08,0,-1.51919e-05,-3,4,0.313323,0.313323,-98.6968,-98.6968,0.096
3.217,3.2167,0.027,0.0273456,9.93344e-06,2.2287e-08,0,-1.01279e-05,-3,4,0.328338,0.328338,-98.7129,-98.7129,0.1
3.217,3.2167,0.027,0.0273456,1.07411e-05,1.4858e-08,0,-6.75196e-06,-3,4,0.343389,0.343389,-98.7293,-98.7293,0.104
3.217,3.2167,0.027,0.0273456,1.15802e-05,9.90533e-09,0,-4.50131e-06,-3,4,0.358476,0.358476,-98.7458,-98.7458,0.108
3.217,3.2167,0.027,0.0273456,1.24505e-05,6.60355e-09,0,-3.00087e-06,-3,4,0.373602,0.373602,-98.7623,-98.7623,0.112
3.217,3.2167,0.027,0.0273456,1.33521e-05,4.40237e-09,0,-2.00058e-06,-3,4,0.388768,0.388768,-98.779,-98.779,0.116
3.217,3.2167,0.027,0.0273456,1.4285e-05,2.93491e-09,0,-1.33372e-06,-3,4,0.403975,0.403975,-98.7957,-98.7957,0.12
3.217,3.2167,0.027,0.0273456,1.52492e-05,1.95661e-09,0,-8.89148e-07,-3,4,0.419224,0.419224,-98.8124,-98.8124,0.124
3.217,3.2167,0.027,0.0273456,1.62445e-05,1.30441e-09,0,-5.92765e-07,-3,4,0.434518,0.434518,-98.8291,-98.8291,0.128
3.217,3.2167,0.027,0.0273463,1.7271e-05,2.87918e-05,0,5.71867e-05,-3,4,0.44977,0.44977,-98.846,-98.846,0.132
3.217,3.2167,0.027,0.0273456,1.83287e-05,-9.5964e-06,0,-1.94574e-05,-4,4,0.464026,0.464026,-98.865,-98.865,0.136
3.217,3.2167,0.027,0.0273456,1.94175e-05,-6.3976e-06,0,-1.29716e-05,-4,4,0.479863,0.479863,-98.881,-98.881,0.14
3.217,3.2167,0.027,0.0273456,2.05374e-05,-4.26506e-06,0,-8.64773e-06,-4,4,0.495616,0.495616,-98.8972,-98.8972,0.144
3.217,3.2167,0.027,0.0273456,2.16884e-05,2.59475e-05,0,-5.76516e-06,-3,4,0.511244,0.511244,-98.9136,-98.9136,0.148
3.217,3.2167,0.027,0.0273456,2.28705e-05,-1.14926e-05,0,-3.84344e-06,-4,4,0.525823,0.525823,-98.9301,-98.9301,0.152
3.217,3.2167,0.027,0.0273456,2.40836e-05,2.11292e-05,0,-2.56229e-06,-3,4,0.541862,0.541862,-98.9467,-98.9467,0.156
3.217,3.2167,0.027,0.0273456,2.53277e-05,1.40861e-05,0,-1.70819e-06,-3,4,0.556666,0.556666,-98.9634,-98.9634,0.16
3.217,3.2167,0.027,0.0273456,2.66027e-05,9.39076e-06,0,-1.1388e-06,-4,4,0.571822,0.571822,-98.9801,-98.9801,0.164
3.217,3.2167,0.027,0.0273456,2.79088e-05,6.26051e-06,0,-7.59197e-07,-4,4,0.587234,0.587234,-98.9968,-98.9968,0.168
3.217,3.2167,0.027,0.0273456,2.92457e-05,4.17367e-06,0,-5.06132e-07,-4,4,0.602838,0.602838,-99.0135,-99.0135,0.172
3.217,3.2167,0.027,0.0273456,3.06136e-05,2.78245e-06,0,-3.37421e-07,-4,4,0.618592,0.618592,-99.0303,-99.0303,0.176
3.217,3.2167,0.027,0.0273456,3.20124e-05,1.85497e-06,0,-2.24947e-07,-4,4,0.634468,0.634468,-99.047,-99.047,0.18
3.217,3.2167,0.027,0.0273456,3.3442e-05,1.23664e-06,0,-1.49965e-07,-4,4,0.650449,0.650449,-99.0638,-99.0638,0.184
3.217,3.2167,0.027,0.0273456,3.49024e-05,8.24429e-07,0,-9.99766e-08,-4,4,0.666524,0.666524,-99.0806,-99.0806,0.188
3.217,3.2167,0.027,0.0273456,3.63937e-05,5.49619e-07,0,-6.66511e-08,-4,4,0.682685,0.682685,-99.0973,-99.0973,0.192
3.217,3.2167,0.027,0.0273456,3.79157e-05,3.66413e-07,0,-4.44341e-08,-4,4,0.698928,0.698928,-99.1141,-99.1141,0.196
3.217,3.2167,0.027,0.0273456,3.94684e-05,2.44275e-07,0,-2.96227e-08,-4,4,0.715251,0.715251,-99.1308,-99.1308,0.2
3.217,3.2167,0.027,0.0273456,4.10519e-05,1.6285e-07,0,-1.97485e-08,-4,4,0.731654,0.731654,-99.1476,-99.1476,0.204
3.217,3.2167,0.027,0.0273456,4.26662e-05,1.08567e-07,0,-1.31656e-08,-4,4,0.748136,0.748136,-99.1644,-99.1644,0.208
3.217,3.2167,0.027,0.0273456,4.4311e-05,7.23779e-08,0,-8.7771e-09,-4,4,0.764697,0.764697,-99.1811,-99.1811,0.212
3.217,3.2167,0.027,0.0273456,4.59866e-05,4.82519e-08,0,-5.8514e-09,-4,4,0.781338,0.781338,-99.1979,-99.1979,0.216
3.217,3.2167,0.027,0.0273456,4.76927e-05,3.21679e-08,0,-3.90093e-09,-4,4,0.798061,0.798061,-99.2147,-99.2147,0.22
3.217,3.2167,0.027,0.0273456,4.94295e-05,2.14453e-08,0,-2.60062e-09,-4,4,0.814867,0.814867,-99.2314,-99.2314,0.224
3.217,3.2167,0.027,0.0273456,5.11968e-05,1.42969e-08,0,-1.73375e-09,-4,4,0.831758,0.831758,-99.2482,-99.2482,0.228
3.217,3.2167,0.027,0.0273456,5.29947e-05,9.53124e-09,0,-1.15583e-09,-4,4,0.848734,0.848734,-99.265,-99.265,0.232
3.217,3.2167,0.027,0.0273456,5.48232e-05,6.35416e-09,0,-7.70554e-10,-4,4,0.865797,0.865797,-99.2817,-99.2817,0.236
3.217,3.2167,0.027,0.0273456,5.66821e-05,4.23611e-09,0,-5.13703e-10,-4,4,0.88295,0.88295,-99.2985,-99.2985,0.24
3.217,3.2167,0.027,0.0273456,5.85715e-05,2.82407e-09,0,-3.42469e-10,-4,4,0.900193,0.900193,-99.3152,-99.3152,0.244
3.21701,3.2167,0.027,0.0273456,6.04913e-05,1.88271e-09,0,-2.28312e-10,-4,4,0.917528,0.917528,-99.332,-99.332,0.248
3.21701,3.2167,0.027,0.0273456,6.24416e-05,1.25514e-09,0,-1.52208e-10,-4,4,0.934957,0.934957,-99.3488,-99.3488,0.252
3.21701,3.2167,0.027,0.0273456,6.44223e-05,8.36762e-10,0,-1.01472e-10,-4,4,0.952482,0.952482,-99.3655,-99.3655,0.256
3.21701,3.2167,0.027,0.0273456,6.64333e-05,5.57841e-10,0,-6.76481e-11,-4,4,0.970103,0.970103,-99.3823,-99.3823,0.26
3.21701,3.2167,0.027,0.0273456,6.84747e-05,3.71894e-10,0,-4.50988e-11,-5,4,0.987824,0.987824,-99.3991,-99.3991,0.264
3.21701,3.2167,0.027,0.0273456,7.05465e-05,2.87912e-05,0,-3.00658e-11,-4,4,1.00556,1.00556,-99.4158,-99.4158,0.268
3.21701,3.2167,0.027,0.0273456,7.26485e-05,-9.59681e-06,0,-2.00439e-11,-5,4,1.02235,1.02235,-99.4326,-99.4326,0.272
3.21701,3.2167,0.027,0.0273456,7.47808e-05,-6.39787e-06,0,-1.33626e-11,-5,4,1.04078,1.04078,-99.4494,-99.4494,0.276
3.21701,3.2167,0.027,0.0273456,7.69434e-05,2.45257e-05,0,-8.9084e-12,-4,4,1.05909,1.05909,-99.4661,-99.4661,0.28
3.21701,3.2167,0.027,0.0273456,7.91361e-05,-1.24405e-05,0,-5.93893e-12,-5,4,1.07638,1.07638,-99.4829,-99.4829,0.284
3.21701,3.2167,0.027,0.0273456,8.13591e-05,2.04973e-05,0,-3.95929e-12,-5,4,1.09516,1.09516,-99.4997,-99.4997,0.288
3.21701,3.2167,0.027,0.0273456,8.36123e-05,1.36649e-05,0,-2.63952e-12,-5,4,1.11275,1.11275,-99.5164,-99.5164,0.292
3.21701,3.2167,0.027,0.0273456,8.58956e-05,9.1099e-06,0,-1.75968e-12,-5,5,1.13073,1.13073,-99.5332,-99.5332,0.296
3.21701,3.2167,0.027,0.0273456,8.8209e-05,6.07327e-06,0,-1.17312e-12,-5,5,1.14902,1.14902,-99.55,-99.55,0.3
3.21701,3.2167,0.027,0.0273456,9.05525e-05,4.04884e-06,0,-7.82081e-13,-5,5,1.16756,1.16756,-99.5667,-99.5667,0.304
3.21701,3.2167,0.027,0.0273456,9.29261e-05,2.69923e-06,0,-5.21388e-13,-5,5,1.18629,1.18629,-99.5835,-99.5835,0.308
3.21701,3.2167,0.027,0.0273456,9.53298e-05,1.79949e-06,0,-3.47592e-13,-5,5,1.2052,1.2052,-99.6003,-99.6003,0.312
3.21701,3.2167,0.027,0.0273456,9.77634e-05,2.99906e-05,0,-2.31728e-13,-5,5,1.22418,1.22418,-99.617,-99.617,0.316
3.21701,3.2167,0.027,0.0273456,0.000100227,-8.7972e-06,0,-1.54485e-13,-5,5,1.24227,1.24227,-99.6338,-99.6338,0.32
3.21701,3.2167,0.027,0.0273456,0.000102721,-5.8648e-06,0,-1.0299e-13,-5,5,1.26203,1.26203,-99.6505,-99.6505,0.324
3.21701,3.2167,0.027,0.0273456,0.000105244,-3.90987e-06,0,-6.86601e-14,-5,5,1.2818,1.2818,-99.6673,-99.6673,0.328
3.21701,3.2167,0.027,0.0273456,0.000107798,-2.60658e-06,0,-4.57734e-14,-5,5,1.30161,1.30161,-99.6841,-99.6841,0.332
3.21701,3.2167,0.027,0.0273456,0.000110381,-1.73772e-06,0,-3.05156e-14,-5,5,1.32149,1.32149,-99.7008,-99.7008,0.336
3.21701,3.2167,0.027,0.0273456,0.000112995,2.76324e-05,0,-2.03437e-14,-5,5,1.34139,1.34139,-99.7176,-99.7176,0.34
3.21701,3.2167,0.027,0.0273456,0.000115638,1.84216e-05,0,-1.35625e-14,-5,5,1.36026,1.36026,-99.7344,-99.7344,0.344
3.21701,3.2167,0.027,0.0273456,0.000118311,1.22811e-05,0,-9.04166e-15,-5,5,1.37965,1.37965,-99.7511,-99.7511,0.348
3.21701,3.2167,0.027,0.0273456,0.000121013,-2.06035e-05,0,-6.02777e-15,-6,5,1.39953,1.39953,-99.7679,-99.7679,0.352
3.21701,3.2167,0.027,0.0273456,0.000123746,1.50552e-05,0,-4.01851e-15,-5,5,1.42076,1.42076,-99.7847,-99.7847,0.356
3.21702,3.2167,0.027,0.0273456,0.000126508,1.00368e-05,0,-2.67901e-15,-6,5,1.44071,1.44071,-99.8014,-99.8014,0.36
3.21702,3.2167,0.027,0.0273456,0.0001293,6.69122e-06,0,-1.78601e-15,-6,5,1.46101,1.46101,-99.8182,-99.8182,0.364
3.21702,3.2167,0.027,0.0273456,0.000132122,4.46081e-06,0,-1.19067e-15,-6,5,1.4816,1.4816,-99.835,-99.835,0.368
3.21702,3.2167,0.027,0.0273456,0.000134973,2.97387e-06,0,-7.93781e-16,-6,5,1.50242,1.50242,-99.8517,-99.8517,0.372
3.21702,3.2167,0.027,0.0273456,0.000137854,1.98258e-06,0,-5.29187e-16,-6,5,1.52346,1.52346,-99.8685,-99.8685,0.376
3.21702,3.2167,0.027,0.0273456,0.000140765,1.32172e-06,0,-3.52791e-16,-6,5,1.54469,1.54469,-99.8853,-99.8853,0.38
3.21702,3.2167,0.027,0.0273456,0.000143705,8.81148e-07,0,-2.35194e-16,-6,5,1.5661,1.5661,-99.902,-99.902,0.384
3.21702,3.2167,0.027,0.0273456,0.000146675,2.93784e-05,0,-1.56796e-16,-6,5,1.58759,1.58759,-99.9188,-99.9188,0.388
3.21702,3.2167,0.027,0.0273456,0.000149674,-9.20535e-06,0,-1.04531e-16,-6,5,1.6082,1.6082,-99.9356,-99.9356,0.392
3.21702,3.2167,0.027,0.0273456,0.000152703,2.2654e-05,0,-6.96872e-17,-6,5,1.63043,1.63043,-99.9523,-99.9523,0.396
3.21702,3.2167,0.027,0.0273456,0.000155762,1.51027e-05,0,-4.64581e-17,-6,5,1.65155,1.65155,-99.9691,-99.9691,0.4
3.21702,3.2167,0.027,0.0273456,0.00015885,1.00685e-05,0,-3.09721e-17,-6,5,1.67316,1.67316,-99.9858,-99.9858,0.404
3.21702,3.2167,0.027,0.0273456,0.000161967,-2.20786e-05,0,-2.06481e-17,-7,5,1.69522,1.69522,-100.003,-100.003,0.408
3.21702,3.2167,0.027,0.0273456,0.000165114,1.40718e-05,0,-1.37654e-17,-6,5,1.71863,1.71863,-100.019,-100.019,0.412
3.21702,3.2167,0.027,0.0273456,0.00016829,9.38123e-06,0,-9.17691e-18,-6,5,1.74077,1.74077,-100.036,-100.036,0.416
3.21702,3.2167,0.027,0.0273456,0.000171495,6.25415e-06,0,-6.11794e-18,-6,5,1.76327,1.76327,-100.053,-100.053,0.42
3.21702,3.2167,0.027,0.0273456,0.00017473,4.16944e-06,0,-4.07863e-18,-6,5,1.78607,1.78607,-100.07,-100.07,0.424
3.21703,3.2167,0.027,0.0273456,0.000177994,2.77962e-06,0,-2.71909e-18,-7,5,1.80914,1.80914,-100.086,-100.086,0.428
3.21703,3.2167,0.027,0.0273456,0.000181288,1.85308e-06,0,-1.81272e-18,-7,5,1.83243,1.83243,-100.103,-100.103,0.432
3.21703,3.2167,0.027,0.0273456,0.000184611,1.23539e-06,0,-1.20848e-18,-7,5,1.85594,1.85594,-100.12,-100.12,0.436
3.21703,3.2167,0.027,0.0273456,0.000187963,8.23592e-07,0,-8.05655e-19,-7,5,1.87966,1.87966,-100.137,-100.137,0.44
3.21703,3.2167,0.027,0.0273456,0.000191344,2.934e-05,0,-5.37103e-19,-7,5,1.90348,1.90348,-100.153,-100.153,0.444
3.21703,3.2167,0.027,0.0273456,0.000194754,-9.23093e-06,0,-3.58069e-19,-7,5,1.92645,1.92645,-100.17,-100.17,0.448
3.21703,3.2167,0.027,0.0273456,0.000198194,2.2637e-05,0,-2.38713e-19,-7,5,1.95106,1.95106,-100.187,-100.187,0.452
3.21703,3.2167,0.027,0.0273456,0.000201663,1.50913e-05,0,-1.59142e-19,-7,5,1.9746,1.9746,-100.204,-100.204,0.456
3.21703,3.2167,0.027,0.0273456,0.000205161,1.00609e-05,0,-1.06094e-19,-7,5,1.99863,1.99863,-100.221,-100.221,0.46
3.21703,3.2167,0.027,0.0273456,0.000208688,6.70725e-06,0,-7.07297e-20,-7,5,2.02307,2.02307,-100.237,-100.237,0.464
3.21703,3.2167,0.027,0.0273456,0.000212244,4.4715e-06,0,-4.71531e-20,-7,5,2.04784,2.04784,-100.254,-100.254,0.468
3.21703,3.2167,0.027,0.0273456,0.000215829,2.981e-06,0,-3.14354e-20,-7,5,2.07289,2.07289,-100.271,-100.271,0.472
3.21704,3.2167,0.027,0.0273456,0.000219443,1.98733e-06,0,-2.09569e-20,-7,5,2.0982,2.0982,-100.288,-100.288,0.476
3.21704,3.2167,0.027,0.0273456,0.000223086,1.32489e-06,0,-1.39713e-20,-7,5,2.12376,2.12376,-100.304,-100.304,0.48
3.21704,3.2167,0.027,0.0273456,0.000226758,8.83259e-07,0,-9.31419e-21,-8,5,2.14953,2.14953,-100.321,-100.321,0.484
3.21704,3.2167,0.027,0.0273456,0.000230459,5.8884e-07,0,-6.20946e-21,-8,5,2.17553,2.17553,-100.338,-100.338,0.488
3.21704,3.2167,0.027,0.0273456,0.000234189,3.9256e-07,0,-4.13964e-21,-8,5,2.20174,2.20174,-100.355,-100.355,0.492
3.21704,3.2167,0.027,0.0273456,0.000237948,2.61706e-07,0,-2.75976e-21,-8,5,2.22817,2.22817,-100.371,-100.371,0.496
3.21704,3.2167,0.027,0.0273456,0.000241736,1.74471e-07,0,-1.83984e-21,-8,5,2.2548,2.2548,-100.388,-100.388,0.5
3.21704,3.2167,0.027,0.0273456,0.000245553,1.16314e-07,0,-1.22656e-21,-8,5,2.28165,2.28165,-100.405,-100.405,0.504
3.21704,3.2167,0.027,0.0273456,0.000249398,2.88685e-05,0,-8.17707e-22,-8,5,2.30863,2.30863,-100.422,-100.422,0.508
3.21704,3.2167,0.027,0.0273456,0.000253273,1.92456e-05,0,-5.45138e-22,-8,5,2.33469,2.33469,-100.439,-100.439,0.512
3.21704,3.2167,0.027,0.0273456,0.000257176,1.28304e-05,0,-3.63425e-22,-8,5,2.36137,2.36137,-100.455,-100.455,0.516
3.21705,3.2167,0.027,0.0273456,0.000261107,8.55362e-06,0,-2.42284e-22,-8,5,2.38853,2.38853,-100.472,-100.472,0.52
3.21705,3.2167,0.027,0.0273456,0.000265068,5.70241e-06,0,-1.61522e-22,-8,5,2.41608,2.41608,-100.489,-100.489,0.524
3.21705,3.2167,0.027,0.0273456,0.000269057,3.80161e-06,0,-1.07682e-22,-8,5,2.44398,2.44398,-100.506,-100.506,0.528
3.21705,3.2167,0.027,0.0273456,0.000273075,2.53441e-06,0,-7.17877e-23,-8,5,2.47218,2.47218,-100.522,-100.522,0.532
3.21705,3.2167,0.027,0.0273456,0.000277122,1.6896e-06,0,-4.78585e-23,-8,6,2.50066,2.50066,-100.539,-100.539,0.536
3.21705,3.2167,0.027,0.0273456,0.000281197,1.1264e-06,0,-3.19057e-23,-9,6,2.5294,2.5294,-100.556,-100.556,0.54
3.21705,3.2167,0.027,0.0273456,0.000285301,7.50935e-07,0,-2.12704e-23,-9,6,2.55839,2.55839,-100.573,-100.573,0.544
3.21705,3.2167,0.027,0.0273456,0.000289433,2.92915e-05,0,-1.41803e-23,-8,6,2.58754,2.58754,-100.589,-100.589,0.548
3.21705,3.2167,0.027,0.0273456,0.000293594,1.95277e-05,0,-9.45353e-24,-9,6,2.61581,2.61581,-100.606,-100.606,0.552
3.21706,3.2167,0.027,0.0273456,0.000297784,1.30185e-05,0,-6.30235e-24,-9,6,2.64471,2.64471,-100.623,-100.623,0.556
3.21706,3.2167,0.027,0.0273456,0.000302002,3.74699e-05,0,-4.20157e-24,-9,6,2.67404,2.67404,-100.64,-100.64,0.56
3.21706,3.2167,0.027,0.0273456,0.000306248,2.49799e-05,0,-2.80105e-24,-9,6,2.70266,2.70266,-100.656,-100.656,0.564
3.21706,3.2167,0.027,0.0273456,0.000310523,4.54442e-05,0,-1.86736e-24,-9,6,2.73195,2.73195,-100.673,-100.673,0.568
3.21706,3.2167,0.027,0.0273456,0.000314826,3.02961e-05,0,-1.24491e-24,-9,6,2.7607,2.7607,-100.69,-100.69,0.572
3.21706,3.2167,0.027,0.0273456,0.000319158,2.01974e-05,0,-8.29939e-25,-9,6,2.79033,2.79033,-100.707,-100.707,0.576
3.21706,3.2167,0.027,0.0273456,0.000323518,4.22559e-05,0,-5.53293e-25,-9,6,2.82054,2.82054,-100.724,-100.724,0.58
3.21706,3.2167,0.027,0.0273456,0.000327907,2.81706e-05,0,-3.68862e-25,-9,6,2.85015,2.85015,-100.74,-100.74,0.584
3.21707,3.2167,0.027,0.0273456,0.000332324,4.75713e-05,0,-2.45908e-25,-9,6,2.88051,2.88051,-100.757,-100.757,0.588
3.21707,3.2167,0.027,0.0273456,0.000336769,2.92328e-06,0,-1.63939e-25,-10,6,2.91047,2.91047,-100.774,-100.774,0.592
3.21707,3.2167,0.027,0.0273456,0.000341242,3.07398e-05,0,-1.09292e-25,-9,6,2.9424,2.9424,-100.791,-100.791,0.596
3.21707,3.2167,0.027,0.0273456,0.000345744,2.04932e-05,0,-7.28616e-26,-10,6,2.97349,2.97349,-100.807,-100.807,0.6
3.21707,3.2167,0.027,0.0273456,0.000350274,1.36621e-05,0,-4.85744e-26,-10,6,3.00527,3.00527,-100.824,-100.824,0.604
3.21707,3.2167,0.027,0.0273456,0.000354832,9.10808e-06,0,-3.23829e-26,-10,6,3.03759,3.03759,-100.841,-100.841,0.608
3.21707,3.21671,0.027,0.0273456,0.000359418,3.4863e-05,0,-2.15886e-26,-10,6,3.07028,3.07028,-100.858,-100.858,0.612
3.21708,3.21671,0.027,0.0273456,0.000364033,2.3242e-05,0,-1.43924e-26,-10,6,3.10224,3.10224,-100.874,-100.874,0.616
3.21708,3.21671,0.027,0.0273456,0.000368676,1.54947e-05,0,-9.59494e-27,-10,6,3.13494,3.13494,-100.891,-100.891,0.62
3.21708,3.21671,0.027,0.0273456,0.000373346,3.91207e-05,0,-6.39663e-27,-10,6,3.16816,3.16816,-100.908,-100.908,0.624
3.21708,3.21671,0.027,0.0273456,0.000378045,2.60805e-05,0,-4.26442e-27,-10,6,3.20073,3.20073,-100.925,-100.925,0.628
3.21708,3.21671,0.027,0.0273456,0.000382772,1.7387e-05,0,-2.84295e-27,-10,6,3.23411,3.23411,-100.941,-100.941,0.632
3.21708,3.21671,0.027,0.0273456,0.000387527,1.15913e-05,0,-1.8953e-27,-11,6,3.26814,3.26814,-100.958,-100.958,0.636
3.21708,3.21671,0.027,0.0273456,0.00039231,7.72755e-06,0,-1.26353e-27,-11,6,3.30269,3.30269,-100.975,-100.975,0.64
3.21709,3.21671,0.027,0.0273456,0.000397121,5.1517e-06,0,-8.42355e-28,-11,6,3.33768,3.33768,-100.992,-100.992,0.644
3.21709,3.21671,0.027,0.0273456,0.00040196,3.22254e-05,0,-5.6157e-28,-11,6,3.37297,3.37297,-101.009,-101.009,0.648
3.21709,3.21671,0.027,0.0273456,0.000406827,2.14836e-05,0,-3.7438e-28,-11,6,3.40749,3.40749,-101.025,-101.025,0.652
3.21709,3.21671,0.027,0.0273456,0.000411722,1.43224e-05,0,-2.49587e-28,-11,6,3.44275,3.44275,-101.042,-101.042,0.656
3.21709,3.21671,0.027,0.0273449,0.000416644,9.54826e-06,0,-5.75818e-05,-11,5,3.47859,3.47859,-101.059,-101.059,0.66
3.21709,3.21671,0.027,0.0273456,0.000421595,6.36551e-06,0,1.91939e-05,-11,6,3.51492,3.51492,-101.073,-101.073,0.664
3.2171,3.21671,0.027,0.0273456,0.000426573,4.24367e-06,0,1.2796e-05,-11,6,3.55169,3.55169,-101.091,-101.091,0.668
3.2171,3.21671,0.027,0.0273456,0.00043158,2.82912e-06,0,8.53064e-06,-12,6,3.58883,3.58883,-101.108,-101.108,0.672
3.2171,3.21671,0.027,0.0273456,0.000436614,1.88608e-06,0,5.6871e-06,-12,6,3.62633,3.62633,-101.125,-101.125,0.676
3.2171,3.21671,0.027,0.0273456,0.000441675,1.25738e-06,0,3.7914e-06,-12,6,3.66417,3.66417,-101.142,-101.142,0.68
3.2171,3.21671,0.027,0.0273456,0.000446765,2.96292e-05,0,2.5276e-06,-12,6,3.70226,3.70226,-101.159,-101.159,0.684
3.2171,3.21671,0.027,0.0273456,0.000451882,1.97528e-05,0,1.68507e-06,-12,6,3.73953,3.73953,-101.176,-101.176,0.688
3.21711,3.21671,0.027,0.0273456,0.000457027,1.31685e-05,0,1.12338e-06,-12,6,3.77752,3.77752,-101.193,-101.193,0.692
3.21711,3.21671,0.027,0.0273456,0.0004622,3.75699e-05,0,7.48918e-07,-12,6,3.81601,3.81601,-101.21,-101.21,0.696
3.21711,3.21671,0.027,0.0273456,0.0004674,5.38376e-05,0,4.99279e-07,-12,6,3.85377,3.85377,-101.226,-101.226,0.7
3.21711,3.21671,0.027,0.0273456,0.000472628,3.58917e-05,0,3.32852e-07,-12,6,3.89124,3.89124,-101.243,-101.243,0.704
3.21711,3.21671,0.027,0.0273456,0.000477884,5.27187e-05,0,2.21902e-07,-12,6,3.92969,3.92969,-101.26,-101.26,0.708
3.21712,3.21671,0.027,0.0273456,0.000483167,6.39367e-05,0,1.47934e-07,-12,6,3.96773,3.96773,-101.277,-101.277,0.712
3.21712,3.21671,0.027,0.0273456,0.000488477,4.26245e-05,0,9.86229e-08,-12,6,4.0057,4.0057,-101.293,-101.293,0.716
3.21712,3.21671,0.027,0.0273456,0.000493815,2.84163e-05,0,6.57486e-08,-13,6,4.04488,4.04488,-101.31,-101.31,0.72
3.21712,3.21671,0.027,0.0273456,0.000499181,1.89442e-05,0,4.38324e-08,-13,6,4.08498,4.08498,-101.327,-101.327,0.724
3.21712,3.21671,0.027,0.0273456,0.000504574,1.26295e-05,0,2.92216e-08,-13,6,4.12579,4.12579,-101.344,-101.344,0.728
3.21713,3.21671,0.027,0.0273456,0.000509995,3.72106e-05,0,1.94811e-08,-13,6,4.16712,4.16712,-101.361,-101.361,0.732
3.21713,3.21671,0.027,0.0273456,0.000515443,2.48071e-05,0,1.29874e-08,-13,6,4.20782,4.20782,-101.377,-101.377,0.736
3.21713,3.21671,0.027,0.0273456,0.000520918,1.6538e-05,0,8.65826e-09,-13,6,4.24937,4.24937,-101.394,-101.394,0.74
3.21713,3.21671,0.027,0.0273456,0.000526421,1.10254e-05,0,5.77217e-09,-13,6,4.2916,4.2916,-101.411,-101.411,0.744
3.21713,3.21671,0.027,0.0273456,0.000531951,7.35024e-06,0,3.84811e-09,-14,6,4.33439,4.33439,-101.428,-101.428,0.748
3.21714,3.21671,0.027,0.0273456,0.000537509,3.36911e-05,0,2.56541e-09,-13,6,4.3776,4.3776,-101.444,-101.444,0.752
3.21714,3.21671,0.027,0.0273456,0.000543094,5.12516e-05,0,1.71027e-09,-13,6,4.42003,4.42003,-101.461,-101.461,0.756
3.21714,3.21671,0.027,0.0273456,0.000548706,3.41678e-05,0,1.14018e-09,-14,6,4.46214,4.46214,-101.478,-101.478,0.76
3.21714,3.21671,0.027,0.0273456,0.000554345,8.03604e-05,0,7.60121e-10,-13,6,4.50514,4.50514,-101.495,-101.495,0.764
3.21715,3.21671,0.027,0.0273456,0.000560012,8.23645e-05,0,5.06748e-10,-13,6,4.54661,4.54661,-101.511,-101.511,0.768
3.21715,3.21671,0.027,0.0273456,0.000565705,8.37006e-05,0,3.37832e-10,-14,7,4.58833,4.58833,-101.528,-101.528,0.772
3.21715,3.21671,0.027,0.0273456,0.000571426,8.45913e-05,0,2.25221e-10,-14,7,4.63033,4.63033,-101.545,-101.545,0.776
3.21715,3.21671,0.027,0.0273456,0.000577174,8.51851e-05,0,1.50147e-10,-14,7,4.67264,4.67264,-101.562,-101.562,0.78
3.21715,3.21671,0.027,0.0273456,0.00058295,8.5581e-05,0,1.00098e-10,-14,7,4.71526,4.71526,-101.578,-101.578,0.784
3.21716,3.21671,0.027,0.0273456,0.000588752,8.58449e-05,0,6.67322e-11,-14,7,4.75821,4.75821,-101.595,-101.595,0.788
3.21716,3.21671,0.027,0.0273456,0.000594582,5.723e-05,0,4.44881e-11,-14,7,4.80158,4.80158,-101.612,-101.612,0.792
3.21716,3.21671,0.027,0.0273456,0.000600438,6.69442e-05,0,2.96587e-11,-14,7,4.84642,4.84642,-101.629,-101.629,0.796
3.21716,3.21671,0.027,0.0273456,0.000606322,4.46295e-05,0,1.97725e-11,-15,7,4.89129,4.89129,-101.646,-101.646,0.8
3.21717,3.21671,0.027,0.0273456,0.000612232,2.9753e-05,0,1.31817e-11,-15,7,4.93747,4.93747,-101.662,-101.662,0.804
3.21717,3.21671,0.027,0.0273456,0.00061817,4.86263e-05,0,8.78778e-12,-15,7,4.98455,4.98455,-101.679,-101.679,0.808
3.21717,3.21671,0.027,0.0273456,0.000624135,6.12084e-05,0,5.85852e-12,-15,7,5.0312,5.0312,-101.696,-101.696,0.812
3.21717,3.21671,0.027,0.0273456,0.000630126,6.95965e-05,0,3.90568e-12,-15,7,5.07769,5.07769,-101.713,-101.713,0.816
3.21718,3.21671,0.027,0.0273456,0.000636144,7.51886e-05,0,2.60379e-12,-15,7,5.12419,5.12419,-101.729,-101.729,0.82
3.21718,3.21671,0.027,0.0273456,0.00064219,7.89167e-05,0,1.73586e-12,-15,7,5.17081,5.17081,-101.746,-101.746,0.824
3.21718,3.21671,0.027,0.0273456,0.000648262,8.1402e-05,0,1.15724e-12,-15,7,5.21765,5.21765,-101.763,-101.763,0.828
3.21718,3.21671,0.027,0.0273456,0.000654361,5.4268e-05,0,7.71492e-13,-16,7,5.26484,5.26484,-101.78,-101.78,0.832
3.21719,3.21671,0.027,0.0273456,0.000660487,3.61787e-05,0,5.14328e-13,-16,7,5.31356,5.31356,-101.796,-101.796,0.836
3.21719,3.21671,0.027,0.0273456,0.00066664,5.291e-05,0,3.42885e-13,-16,7,5.36333,5.36333,-101.813,-101.813,0.84
3.21719,3.21671,0.027,0.0273456,0.000672819,3.52734e-05,0,2.2859e-13,-16,7,5.41286,5.41286,-101.83,-101.83,0.844
3.21719,3.21671,0.027,0.0273456,0.000679025,5.23065e-05,0,1.52393e-13,-16,7,5.46344,5.46344,-101.847,-101.847,0.848
3.2172,3.21671,0.027,0.0273456,0.000685258,6.36619e-05,0,1.01596e-13,-16,7,5.51369,5.51369,-101.863,-101.863,0.852
3.2172,3.21672,0.027,0.0273456,0.000691518,7.12322e-05,0,6.77304e-14,-16,7,5.56385,5.56385,-101.88,-101.88,0.856
3.2172,3.21672,0.027,0.0273456,0.000697804,0.00010507,0,4.51536e-14,-16,7,5.61399,5.61399,-101.897,-101.897,0.86
3.21721,3.21672,0.027,0.0273456,0.000704117,9.88376e-05,0,3.01024e-14,-16,7,5.66318,5.66318,-101.914,-101.914,0.864
3.21721,3.21672,0.027,0.0273456,0.000710457,9.46826e-05,0,2.00683e-14,-17,7,5.71301,5.71301,-101.931,-101.931,0.868
3.21721,3.21672,0.027,0.0273456,0.000716823,9.19127e-05,0,1.33789e-14,-17,7,5.76342,5.76342,-101.947,-101.947,0.872
3.21721,3.21672,0.027,0.0273456,0.000723216,9.00661e-05,0,8.91924e-15,-17,7,5.81433,5.81433,-101.964,-101.964,0.876
3.21722,3.21672,0.027,0.027346,0.000729635,8.8835e-05,0,2.87909e-05,-17,7,5.86572,5.86572,-101.981,-101.981,0.88
3.21722,3.21672,0.027,0.0273456,0.000736081,8.80142e-05,0,-9.59697e-06,-17,7,5.91756,5.91756,-101.999,-101.999,0.884
3.21722,3.21672,0.027,0.0273456,0.000742553,8.74671e-05,0,-6.39798e-06,-17,7,5.96983,5.96983,-102.015,-102.015,0.888
3.21723,3.21672,0.027,0.0273456,0.000749052,8.71023e-05,0,-4.26532e-06,-18,7,6.02253,6.02253,-102.032,-102.032,0.892
3.21723,3.21672,0.027,0.0273456,0.000755577,8.68591e-05,0,-2.84355e-06,-18,7,6.07566,6.07566,-102.048,-102.048,0.896
3.21723,3.21672,0.027,0.0273453,0.000762129,8.6697e-05,0,-3.06866e-05,-18,7,6.1292,6.1292,-102.065,-102.065,0.9
3.21724,3.21672,0.027,0.0273456,0.000768707,8.65889e-05,0,8.33318e-06,-18,7,6.18316,6.18316,-102.08,-102.08,0.904
3.21724,3.21672,0.027,0.0273456,0.000775312,8.65169e-05,0,5.55545e-06,-18,7,6.23754,6.23754,-102.098,-102.098,0.908
3.21724,3.21672,0.027,0.0273456,0.000781943,0.00011526,0,3.70363e-06,-18,7,6.29226,6.29226,-102.115,-102.115,0.912
3.21724,3.21672,0.027,0.0273456,0.0007886,7.68398e-05,0,2.46909e-06,-19,7,6.34635,6.34635,-102.131,-102.131,0.916
3.21725,3.21672,0.027,0.0273456,0.000795283,0.000108808,0,1.64606e-06,-18,7,6.4023,6.4023,-102.148,-102.148,0.92
3.21725,3.21672,0.027,0.0273456,0.000801993,0.00010133,0,1.09737e-06,-19,7,6.45742,6.45742,-102.165,-102.165,0.924
3.21725,3.21672,0.027,0.0273456,0.000808729,9.63442e-05,0,7.31582e-07,-19,7,6.51328,6.51328,-102.182,-102.182,0.928
3.21726,3.21672,0.027,0.0273456,0.000815492,6.42294e-05,0,4.87721e-07,-19,7,6.56986,6.56986,-102.199,-102.199,0.932
3.21726,3.21672,0.027,0.0273453,0.00082228,7.16106e-05,0,-2.84658e-05,-19,7,6.62814,6.62814,-102.215,-102.215,0.936
3.21726,3.21672,0.027,0.0273456,0.000829095,7.65313e-05,0,9.81374e-06,-19,7,6.68654,6.68654,-102.231,-102.231,0.94
3.21727,3.21672,0.027,0.0273456,0.000835936,5.10209e-05,0,6.54249e-06,-20,7,6.74527,6.74527,-102.248,-102.248,0.944
3.21727,3.21672,0.027,0.0273456,0.000842803,6.28048e-05,0,4.36166e-06,-20,7,6.80543,6.80543,-102.265,-102.265,0.948
3.21727,3.21672,0.027,0.0273456,0.000849697,7.06608e-05,0,2.90777e-06,-20,7,6.86553,6.86553,-102.282,-102.282,0.952
3.21728,3.21672,0.027,0.0273456,0.000856616,7.58981e-05,0,1.93852e-06,-20,7,6.92575,6.92575,-102.299,-102.299,0.956
3.21728,3.21672,0.027,0.0273456,0.000863561,0.000108181,0,1.29234e-06,-20,7,6.98611,6.98611,-102.316,-102.316,0.96
3.21728,3.21673,0.027,0.0273456,0.000870533,0.000129702,0,8.61563e-07,-20,7,7.04556,7.04556,-102.333,-102.333,0.964
3.21729,3.21673,0.027,0.0273456,0.00087753,0.00014405,0,5.74375e-07,-20,7,7.10454,7.10454,-102.35,-102.35,0.968
3.21729,3.21673,0.027,0.0273456,0.000884554,0.000211197,0,3.82917e-07,-19,7,7.16318,7.16318,-102.366,-102.366,0.972
3.21729,3.21673,0.027,0.0273456,0.000891603,0.000169589,0,2.55278e-07,-20,7,7.21969,7.21969,-102.383,-102.383,0.976
3.2173,3.21673,0.027,0.0273456,0.000898679,0.00014185,0,1.70185e-07,-20,7,7.27839,7.27839,-102.4,-102.4,0.98
3.2173,3.21673,0.027,0.0273456,0.00090578,0.000123358,0,1.13457e-07,-21,7,7.33871,7.33871,-102.417,-102.417,0.984
3.21731,3.21673,0.027,0.0273456,0.000912907,0.000111029,0,7.56379e-08,-21,7,7.40027,7.40027,-102.433,-102.433,0.988
3.21731,3.21673,0.027,0.0273456,0.000920061,0.000131601,0,5.04253e-08,-21,7,7.46272,7.46272,-102.45,-102.45,0.992
3.21731,3.21673,0.027,0.0273453,0.00092724,0.000145316,0,-2.87573e-05,-21,7,7.52476,7.52476,-102.467,-102.467,0.996
3.21732,3.21673,0.027,0.0273456,0.000934444,0.00018325,0,9.61939e-06,-21,8,7.58659,7.58659,-102.483,-102.483,1
3.21732,3.21673,0.027,0.0273456,0.000941675,0.000122167,0,6.41292e-06,-22,8,7.64755,7.64755,-102.5,-102.5,1.004
3.21732,3.21673,0.027,0.0273456,0.000948932,0.000110235,0,4.27528e-06,-22,8,7.71146,7.71146,-102.517,-102.517,1.008
3.21733,3.21673,0.027,0.0273456,0.000956214,0.000102281,0,2.85019e-06,-22,8,7.77634,7.77634,-102.534,-102.534,1.012
3.21733,3.21673,0.027,0.0273456,0.000963522,0.000125769,0,1.90013e-06,-22,8,7.84195,7.84195,-102.551,-102.551,1.016
3.21734,3.21673,0.027,0.0273456,0.000970856,0.000141428,0,1.26675e-06,-22,8,7.90705,7.90705,-102.567,-102.567,1.02
3.21734,3.21673,0.027,0.0273456,0.000978215,0.000151867,0,8.445e-07,-22,8,7.97196,7.97196,-102.584,-102.584,1.024
3.21734,3.21674,0.027,0.0273456,0.0009856,0.000216409,0,5.63e-07,-22,8,8.03673,8.03673,-102.601,-102.601,1.028
3.21735,3.21674,0.027,0.0273456,0.000993011,0.000201854,0,3.75333e-07,-22,8,8.09943,8.09943,-102.618,-102.618,1.032
3.21735,3.21674,0.027,0.0273456,0.00100045,0.000278524,0,2.50222e-07,-21,8,8.16294,8.16294,-102.635,-102.635,1.036
3.21736,3.21674,0.027,0.0273456,0.00100791,0.000300846,0,1.66815e-07,-21,8,8.22377,8.22377,-102.651,-102.651,1.04
3.21736,3.21674,0.027,0.0273456,0.0010154,0.000315728,0,1.1121e-07,-21,8,8.28412,8.28412,-102.668,-102.668,1.044
3.21736,3.21674,0.027,0.0273456,0.00102291,0.00035444,0,7.41399e-08,-21,8,8.3442,8.3442,-102.685,-102.685,1.048
3.21737,3.21674,0.027,0.0273456,0.00103045,0.000322666,0,4.94266e-08,-22,8,8.40329,8.40329,-102.702,-102.702,1.052
3.21737,3.21674,0.027,0.0273456,0.00103801,0.000330274,0,3.29511e-08,-22,8,8.46408,8.46408,-102.718,-102.718,1.056
3.21738,3.21675,0.027,0.0273456,0.0010456,0.000335347,0,2.19674e-08,-22,8,8.52502,8.52502,-102.735,-102.735,1.06
3.21738,3.21675,0.027,0.0273456,0.00105322,0.000367519,0,1.46449e-08,-22,8,8.58611,8.58611,-102.752,-102.752,1.064
3.21738,3.21675,0.027,0.0273456,0.00106086,0.000417758,0,9.76328e-09,-21,8,8.64623,8.64623,-102.769,-102.769,1.068
3.21739,3.21675,0.027,0.0273456,0.00106852,0.000393669,0,6.50886e-09,-22,8,8.70485,8.70485,-102.786,-102.786,1.072
3.21739,3.21675,0.027,0.0273456,0.00107621,0.000320028,0,4.33924e-09,-23,8,8.76512,8.76512,-102.802,-102.802,1.076
3.2174,3.21675,0.027,0.0273456,0.00108393,0.000299725,0,2.89283e-09,-23,8,8.82888,8.82888,-102.819,-102.819,1.08
3.2174,3.21675,0.027,0.0273456,0.00109167,0.000286189,0,1.92855e-09,-23,8,8.89398,8.89398,-102.836,-102.836,1.084
3.21741,3.21675,0.027,0.0273456,0.00109944,0.000277166,0,1.2857e-09,-24,8,8.96014,8.96014,-102.853,-102.853,1.088
3.21741,3.21676,0.027,0.0273456,0.00110723,0.000242359,0,8.57133e-10,-24,8,9.02726,9.02726,-102.869,-102.869,1.092
3.21742,3.21676,0.027,0.0273456,0.00111505,0.000219154,0,5.71422e-10,-25,8,9.09635,9.09635,-102.886,-102.886,1.096
3.21742,3.21676,0.027,0.0273456,0.00112289,0.000203685,0,3.80948e-10,-25,8,9.16692,9.16692,-102.903,-102.903,1.1
3.21742,3.21676,0.027,0.0273456,0.00113076,0.000193372,0,2.53965e-10,-25,8,9.23867,9.23867,-102.92,-102.92,1.104
3.21743,3.21676,0.027,0.0273456,0.00113866,0.000215287,0,1.6931e-10,-25,8,9.31127,9.31127,-102.936,-102.936,1.108
3.21743,3.21676,0.027,0.0273456,0.00114657,0.000258689,0,1.12874e-10,-25,8,9.38338,9.38338,-102.953,-102.953,1.112
3.21744,3.21676,0.027,0.0273456,0.00115452,0.00020125,0,7.5249e-11,-26,8,9.45444,9.45444,-102.97,-102.97,1.116
3.21744,3.21676,0.027,0.0273456,0.00116249,0.000220539,0,5.0166e-11,-26,8,9.52827,9.52827,-102.987,-102.987,1.12
3.21745,3.21676,0.027,0.0273456,0.00117048,0.000233399,0,3.3444e-11,-26,8,9.60181,9.60181,-103.003,-103.003,1.124
3.21745,3.21676,0.027,0.0273456,0.0011785,0.000213181,0,2.2296e-11,-26,8,9.67542,9.67542,-103.02,-103.02,1.128
3.21746,3.21676,0.027,0.0273456,0.00118654,0.000228494,0,1.4864e-11,-26,8,9.75032,9.75032,-103.037,-103.037,1.132
3.21746,3.21677,0.027,0.0273456,0.00119461,0.000267493,0,9.90934e-12,-26,8,9.82502,9.82502,-103.054,-103.054,1.136
3.21747,3.21677,0.027,0.0273453,0.00120271,0.000293492,0,-2.87909e-05,-26,8,9.89861,9.89861,-103.07,-103.07,1.14
3.21747,3.21677,0.027,0.0273456,0.00121083,0.000339616,0,9.59698e-06,-26,8,9.97153,9.97153,-103.086,-103.086,1.144
3.21748,3.21677,0.027,0.0273456,0.00121897,0.000399156,0,6.39799e-06,-25,8,10.0429,10.0429,-103.103,-103.103,1.148
3.21748,3.21677,0.027,0.0273456,0.00122714,0.000525223,0,4.26532e-06,-24,8,10.1121,10.1121,-103.12,-103.12,1.152
3.21749,3.21678,0.027,0.0273456,0.00123533,0.000580476,0,2.84355e-06,-24,8,10.1765,10.1765,-103.137,-103.137,1.156
3.21749,3.21678,0.027,0.0273456,0.00124355,0.000559729,0,1.8957e-06,-24,8,10.2392,10.2392,-103.154,-103.154,1.16
3.2175,3.21678,0.027,0.0273456,0.0012518,0.000632271,0,1.2638e-06,-24,8,10.3031,10.3031,-103.171,-103.171,1.164
3.2175,3.21678,0.027,0.0273456,0.00126006,0.000623051,0,8.42533e-07,-24,8,10.3645,10.3645,-103.188,-103.188,1.168
3.21751,3.21679,0.027,0.0273453,0.00126836,0.000616904,0,-2.82292e-05,-24,8,10.4268,10.4268,-103.204,-103.204,1.172
3.21751,3.21679,0.027,0.0273456,0.00127668,0.000584015,0,9.97143e-06,-25,8,10.4899,10.4899,-103.22,-103.22,1.176
3.21752,3.21679,0.027,0.0273456,0.00128502,0.000562089,0,6.64762e-06,-25,8,10.5549,10.5549,-103.237,-103.237,1.18
3.21752,3.21679,0.027,0.0273456,0.00129339,0.000605053,0,4.43175e-06,-25,8,10.6211,10.6211,-103.254,-103.254,1.184
3.21753,3.2168,0.027,0.0273456,0.00130178,0.000576114,0,2.9545e-06,-25,8,10.6862,10.6862,-103.271,-103.271,1.188
3.21753,3.2168,0.027,0.0273456,0.0013102,0.00049924,0,1.96967e-06,-26,8,10.7532,10.7532,-103.288,-103.288,1.192
3.21754,3.2168,0.027,0.0273456,0.00131864,0.000505572,0,1.31311e-06,-26,8,10.8237,10.8237,-103.305,-103.305,1.196
3.21754,3.2168,0.027,0.0273456,0.0013271,0.000481003,0,8.75407e-07,-27,8,10.8947,10.8947,-103.322,-103.322,1.2
3.21755,3.2168,0.027,0.0273456,0.0013356,0.000522205,0,5.83605e-07,-27,8,10.967,10.967,-103.339,-103.339,1.204
3.21755,3.21681,0.027,0.0273456,0.00134411,0.000520882,0,3.8907e-07,-27,8,11.0381,11.0381,-103.355,-103.355,1.208
3.21756,3.21681,0.027,0.0273456,0.00135265,0.000491209,0,2.5938e-07,-27,8,11.11,11.11,-103.372,-103.372,1.212
3.21756,3.21681,0.027,0.0273456,0.00136122,0.0005578,0,1.7292e-07,-27,8,11.1833,11.1833,-103.389,-103.389,1.216
3.21757,3.21681,0.027,0.0273456,0.0013698,0.000544612,0,1.1528e-07,-27,8,11.2546,11.2546,-103.406,-103.406,1.22
3.21757,3.21682,0.027,0.0273456,0.00137842,0.000650984,0,7.68533e-08,-26,8,11.3265,11.3265,-103.423,-103.423,1.224
3.21758,3.21682,0.027,0.0273456,0.00138706,0.000693108,0,5.12355e-08,-26,8,11.3946,11.3946,-103.439,-103.439,1.228
3.21759,3.21682,0.027,0.0273456,0.00139572,0.000749981,0,3.4157e-08,-26,8,11.4614,11.4614,-103.456,-103.456,1.232
3.21759,3.21683,0.027,0.0273453,0.00140441,0.000787897,0,-2.87682e-05,-25,8,11.5262,11.5262,-103.473,-103.473,1.236
3.2176,3.21683,0.027,0.0273456,0.00141312,0.000813174,0,9.61216e-06,-25,9,11.5899,11.5899,-103.488,-103.488,1.24
3.2176,3.21683,0.027,0.0273456,0.00142185,0.000887607,0,6.4081e-06,-25,9,11.6529,11.6529,-103.506,-103.506,1.244
3.21761,3.21684,0.027,0.0273456,0.00143062,0.000879647,0,4.27207e-06,-25,9,11.7134,11.7134,-103.523,-103.523,1.248
3.21761,3.21684,0.027,0.0273456,0.0014394,0.000816759,0,2.84805e-06,-26,9,11.7749,11.7749,-103.54,-103.54,1.252
3.21762,3.21684,0.027,0.0273456,0.00144821,0.000688461,0,1.8987e-06,-27,9,11.8398,11.8398,-103.556,-103.556,1.256
3.21763,3.21684,0.027,0.0273453,0.00145704,0.000718092,0,-2.75251e-05,-27,8,11.9103,11.9103,-103.573,-103.573,1.26
3.21763,3.21685,0.027,0.0273453,0.0014659,0.000680264,0,-1.83501e-05,-28,8,11.9802,11.9802,-103.589,-103.589,1.264
3.21764,3.21685,0.027,0.0273456,0.00147478,0.000655046,0,1.65575e-05,-28,9,12.0522,12.0522,-103.605,-103.605,1.268
3.21764,3.21685,0.027,0.0273456,0.00148369,0.000580652,0,1.10384e-05,-29,9,12.1261,12.1261,-103.622,-103.622,1.272
3.21765,3.21685,0.027,0.0273456,0.00149262,0.000588638,0,7.3589e-06,-29,9,12.2034,12.2034,-103.64,-103.64,1.276
3.21766,3.21686,0.027,0.0273456,0.00150157,0.000622753,0,4.90594e-06,-29,9,12.2809,12.2809,-103.657,-103.657,1.28
3.21766,3.21686,0.027,0.0273456,0.00151055,0.000616705,0,3.27062e-06,-29,9,12.3576,12.3576,-103.674,-103.674,1.284
3.21767,3.21686,0.027,0.0273456,0.00151955,0.000641464,0,2.18042e-06,-29,9,12.435,12.435,-103.69,-103.69,1.288
3.21767,3.21686,0.027,0.0273456,0.00152858,0.00065797,0,1.45361e-06,-29,9,12.5119,12.5119,-103.707,-103.707,1.292
3.21768,3.21687,0.027,0.0273456,0.00153763,0.000697765,0,9.69074e-07,-29,9,12.5886,12.5886,-103.724,-103.724,1.296
3.21769,3.21687,0.027,0.0273456,0.00154671,0.000781877,0,6.46049e-07,-29,9,12.664,12.664,-103.741,-103.741,1.3
3.21769,3.21687,0.027,0.0273453,0.00155581,0.000751579,0,-2.83602e-05,-29,8,12.7366,12.7366,-103.758,-103.758,1.304
3.2177,3.21688,0.027,0.0273456,0.00156493,0.000846544,0,9.88411e-06,-28,9,12.8107,12.8107,-103.773,-103.773,1.308
3.2177,3.21688,0.027,0.0273456,0.00157408,0.000909853,0,6.58941e-06,-28,9,12.8814,12.8814,-103.791,-103.791,1.312
3.21771,3.21689,0.027,0.0273453,0.00158325,0.000923269,0,-2.4398e-05,-28,9,12.95,12.95,-103.807,-103.807,1.316
3.21772,3.21689,0.027,0.0273456,0.00159244,0.000961004,0,1.25256e-05,-28,9,13.0184,13.0184,-103.823,-103.823,1.32
3.21772,3.21689,0.027,0.0273456,0.00160166,0.00104374,0,8.3504e-06,-27,9,13.0856,13.0856,-103.841,-103.841,1.324
3.21773,3.2169,0.027,0.0273456,0.0016109,0.00107011,0,5.56693e-06,-27,9,13.1499,13.1499,-103.858,-103.858,1.328
3.21774,3.2169,0.027,0.0273456,0.00162017,0.00103011,0,3.71129e-06,-28,9,13.2138,13.2138,-103.875,-103.875,1.332
3.21774,3.21691,0.027,0.0273453,0.00162946,0.000974647,0,-2.63167e-05,-28,9,13.2799,13.2799,-103.892,-103.892,1.336
3.21775,3.21691,0.027,0.0273456,0.00163878,0.000966465,0,1.12464e-05,-29,9,13.3489,13.3489,-103.907,-103.907,1.34
3.21776,3.21691,0.027,0.0273456,0.00164811,0.00096101,0,7.49762e-06,-29,9,13.4187,13.4187,-103.924,-103.924,1.344
3.21776,3.21692,0.027,0.0273456,0.00165748,0.000928583,0,4.99842e-06,-29,9,13.4893,13.4893,-103.942,-103.942,1.348
3.21777,3.21692,0.027,0.0273456,0.00166686,0.000935755,0,3.33228e-06,-29,9,13.5618,13.5618,-103.959,-103.959,1.352
3.21778,3.21692,0.027,0.0273456,0.00167627,0.000911746,0,2.22152e-06,-30,9,13.6346,13.6346,-103.975,-103.975,1.356
3.21778,3.21693,0.027,0.0273456,0.0016857,0.000924531,0,1.48101e-06,-30,9,13.7089,13.7089,-103.992,-103.992,1.36
3.21779,3.21693,0.027,0.0273453,0.00169516,0.000961845,0,-2.78036e-05,-30,9,13.7831,13.7831,-104.009,-104.009,1.364
3.2178,3.21694,0.027,0.0273456,0.00170464,0.00107309,0,1.02552e-05,-29,9,13.856,13.856,-104.025,-104.025,1.368
3.2178,3.21694,0.027,0.0273456,0.00171415,0.00108968,0,6.8368e-06,-29,9,13.9249,13.9249,-104.042,-104.042,1.372
3.21781,3.21695,0.027,0.0273453,0.00172367,0.0012159,0,-2.42331e-05,-28,9,13.9933,13.9933,-104.059,-104.059,1.376
3.21782,3.21696,0.027,0.0273456,0.00173322,0.00138642,0,1.26356e-05,-26,9,14.0567,14.0567,-104.075,-104.075,1.38
3.21782,3.21696,0.027,0.0273456,0.0017428,0.00152889,0,8.4237e-06,-25,9,14.1132,14.1132,-104.092,-104.092,1.384
3.21783,3.21697,0.027,0.0273453,0.0017524,0.00171024,0,-2.31751e-05,-24,9,14.1639,14.1639,-104.109,-104.109,1.388
3.21784,3.21698,0.027,0.0273453,0.00176202,0.00183114,0,-1.54501e-05,-23,9,14.2074,14.2074,-104.125,-104.125,1.392
3.21784,3.21699,0.027,0.0273456,0.00177167,0.00194053,0,1.84909e-05,-22,9,14.2461,14.2461,-104.141,-104.141,1.396
3.21785,3.217,0.027,0.0273453,0.00178134,0.00201346,0,-1.64637e-05,-21,9,14.2806,14.2806,-104.158,-104.158,1.4
3.21786,3.217,0.027,0.0273456,0.00179103,0.00206208,0,1.78151e-05,-21,9,14.3124,14.3124,-104.175,-104.175,1.404
3.21787,3.21701,0.027,0.0273453,0.00180074,0.00203691,0,-1.69142e-05,-21,9,14.3426,14.3426,-104.192,-104.192,1.408
3.21787,3.21702,0.027,0.0273456,0.00181048,0.00199134,0,1.75148e-05,-22,9,14.3744,14.3744,-104.208,-104.208,1.412
3.21788,3.21703,0.027,0.0273453,0.00182025,0.00187459,0,-1.71144e-05,-23,9,14.4087,14.4087,-104.226,-104.226,1.416
3.21789,3.21703,0.027,0.0273453,0.00183003,0.00171038,0,-1.14096e-05,-25,9,14.4487,14.4487,-104.242,-104.242,1.42
3.2179,3.21704,0.027,0.0273453,0.00183984,0.00157212,0,-7.60639e-06,-26,9,14.4961,14.4961,-104.258,-104.258,1.424
3.2179,3.21704,0.027,0.0273456,0.00184967,0.0013072,0,2.372e-05,-29,9,14.5503,14.5503,-104.274,-104.274,1.428
3.21791,3.21704,0.027,0.0273456,0.00185953,0.00104421,0,1.58133e-05,-32,9,14.6164,14.6164,-104.292,-104.292,1.432
3.21792,3.21705,0.027,0.0273456,0.00186941,0.000897677,0,1.05422e-05,-33,9,14.6941,14.6941,-104.31,-104.31,1.436
3.21793,3.21705,0.027,0.0273456,0.00187931,0.000771197,0,7.02815e-06,-35,9,14.7787,14.7787,-104.327,-104.327,1.44
3.21793,3.21705,0.027,0.0273456,0.00188924,0.000658086,0,4.68543e-06,-36,9,14.8694,14.8694,-104.344,-104.344,1.444
3.21794,3.21705,0.027,0.0273453,0.00189919,0.000611469,0,-2.56673e-05,-37,9,14.9654,14.9654,-104.361,-104.361,1.448
3.21795,3.21705,0.027,0.0273453,0.00190916,0.000609183,0,-1.71115e-05,-37,9,15.0639,15.0639,-104.376,-104.376,1.452
3.21796,3.21706,0.027,0.0273456,0.00191915,0.000636449,0,1.73832e-05,-37,10,15.1632,15.1632,-104.393,-104.393,1.456
3.21796,3.21706,0.027,0.0273456,0.00192917,0.000741,0,1.15888e-05,-36,9,15.2617,15.2617,-104.41,-104.41,1.46
3.21797,3.21706,0.027,0.0273456,0.00193921,0.000897073,0,7.72588e-06,-35,9,15.3562,15.3562,-104.427,-104.427,1.464
3.21798,3.21707,0.027,0.0273453,0.00194928,0.00102991,0,-2.36403e-05,-34,9,15.4446,15.4446,-104.444,-104.444,1.468
3.21799,3.21708,0.027,0.0273456,0.00195937,0.00120484,0,1.30307e-05,-32,10,15.5278,15.5278,-104.46,-104.46,1.472
3.21799,3.21708,0.027,0.0273456,0.00196948,0.00140784,0,8.68713e-06,-31,10,15.604,15.604,-104.477,-104.477,1.476
3.218,3.21709,0.027,0.0273453,0.00197961,0.00165833,0,-2.29995e-05,-28,9,15.6718,15.6718,-104.494,-104.494,1.48
3.21801,3.2171,0.027,0.0273453,0.00198977,0.0019117,0,-1.5333e-05,-26,9,15.7292,15.7292,-104.51,-104.51,1.484
3.21802,3.21711,0.027,0.0273456,0.00199995,0.0021094,0,1.85689e-05,-24,10,15.7764,15.7764,-104.526,-104.526,1.488
3.21803,3.21712,0.027,0.0273456,0.00201015,0.00221242,0,1.23793e-05,-23,10,15.8157,15.8157,-104.544,-104.544,1.492
3.21803,3.21713,0.027,0.0273456,0.00202038,0.00222351,0,8.25285e-06,-23,10,15.8513,15.8513,-104.561,-104.561,1.496
3.21804,3.21714,0.027,0.0273456,0.00203062,0.00220211,0,5.5019e-06,-24,10,15.8868,15.8868,-104.578,-104.578,1.5
3.21805,3.21715,0.027,0.0273453,0.0020409,0.00204389,0,-2.5123e-05,-25,9,15.9242,15.9242,-104.595,-104.595,1.504
3.21806,3.21715,0.027,0.0273453,0.00205119,0.00193841,0,-1.67487e-05,-27,9,15.9686,15.9686,-104.611,-104.611,1.508
3.21807,3.21716,0.027,0.0273456,0.00206151,0.0018393,0,1.76252e-05,-28,10,16.018,16.018,-104.627,-104.627,1.512
3.21808,3.21717,0.027,0.0273456,0.00207185,0.00177323,0,1.17501e-05,-29,10,16.0721,16.0721,-104.645,-104.645,1.516
3.21808,3.21717,0.027,0.0273456,0.00208221,0.00178676,0,7.8334e-06,-29,10,16.1293,16.1293,-104.662,-104.662,1.52
3.21809,3.21718,0.027,0.0273456,0.0020926,0.00179578,0,5.22227e-06,-29,10,16.1864,16.1864,-104.679,-104.679,1.524
3.2181,3.21719,0.027,0.0273456,0.002103,0.00191696,0,3.48151e-06,-28,10,16.2433,16.2433,-104.696,-104.696,1.528
3.21811,3.2172,0.027,0.0273453,0.00211344,0.00202654,0,-2.64699e-05,-27,9,16.2954,16.2954,-104.713,-104.713,1.532
3.21812,3.21721,0.027,0.0273456,0.00212389,0.00212838,0,1.11443e-05,-26,10,16.3433,16.3433,-104.728,-104.728,1.536
3.21813,3.21722,0.027,0.0273456,0.00213437,0.00222507,0,7.42954e-06,-25,10,16.3873,16.3873,-104.746,-104.746,1.54
3.21813,3.21723,0.027,0.0273453,0.00214486,0.00226073,0,-2.38379e-05,-25,10,16.4278,16.4278,-104.763,-104.763,1.544
3.21814,3.21724,0.027,0.0273456,0.00215539,0.00237088,0,1.2899e-05,-24,10,16.4669,16.4669,-104.779,-104.779,1.548
3.21815,3.21725,0.027,0.0273456,0.00216593,0.00227157,0,8.59933e-06,-25,10,16.5023,16.5023,-104.796,-104.796,1.552
3.21816,3.21725,0.027,0.0273453,0.0021765,0.00211899,0,-2.3058e-05,-27,10,16.5425,16.5425,-104.813,-104.813,1.556
3.21817,3.21726,0.027,0.0273453,0.00218709,0.00190211,0,-1.5372e-05,-29,10,16.59,16.59,-104.829,-104.829,1.56
3.21818,3.21726,0.027,0.0273453,0.0021977,0.00164235,0,-1.0248e-05,-32,10,16.6475,16.6475,-104.845,-104.845,1.564
3.21819,3.21727,0.027,0.0273453,0.00220833,0.00146918,0,-6.83201e-06,-34,10,16.7165,16.7165,-104.861,-104.861,1.568
3.2182,3.21727,0.027,0.0273453,0.00221899,0.00123857,0,-4.55467e-06,-36,10,16.7938,16.7938,-104.878,-104.878,1.572
3.2182,3.21727,0.027,0.0273456,0.00222967,0.00111363,0,2.57545e-05,-37,10,16.8813,16.8813,-104.894,-104.894,1.576
3.21821,3.21728,0.027,0.0273456,0.00224037,0.00108791,0,1.71697e-05,-38,10,16.9746,16.9746,-104.912,-104.912,1.58
3.21822,3.21728,0.027,0.0273453,0.00225109,0.00104197,0,-1.73445e-05,-39,10,17.0698,17.0698,-104.929,-104.929,1.584
3.21823,3.21729,0.027,0.0273453,0.00226184,0.0011553,0,-1.1563e-05,-38,10,17.1671,17.1671,-104.945,-104.945,1.588
3.21824,3.21729,0.027,0.0273453,0.00227261,0.00123086,0,-7.70866e-06,-37,10,17.2603,17.2603,-104.962,-104.962,1.592
3.21825,3.2173,0.027,0.0273453,0.0022834,0.00156914,0,-5.13911e-06,-34,10,17.3502,17.3502,-104.978,-104.978,1.596
3.21826,3.21731,0.027,0.0273456,0.00229422,0.00179465,0,2.53649e-05,-32,10,17.4264,17.4264,-104.995,-104.995,1.6
3.21827,3.21732,0.027,0.0273456,0.00230505,0.00200258,0,1.69099e-05,-30,10,17.4934,17.4934,-105.013,-105.013,1.604
3.21828,3.21733,0.027,0.0273453,0.00231591,0.00225636,0,-1.75177e-05,-28,10,17.5519,17.5519,-105.03,-105.03,1.608
3.21829,3.21734,0.027,0.0273453,0.00232679,0.00239676,0,-1.16784e-05,-27,10,17.6002,17.6002,-105.046,-105.046,1.612
3.2183,3.21735,0.027,0.0273453,0.00233769,0.00251915,0,-7.78563e-06,-26,10,17.643,17.643,-105.062,-105.062,1.616
3.2183,3.21736,0.027,0.0273453,0.00234862,0.00254316,0,-5.19042e-06,-26,10,17.6813,17.6813,-105.079,-105.079,1.62
3.21831,3.21737,0.027,0.0273456,0.00235956,0.00253038,0,2.53306e-05,-26,10,17.719,17.719,-105.095,-105.095,1.624
3.21832,3.21738,0.027,0.0273453,0.00237053,0.00234911,0,-1.19038e-05,-28,10,17.7583,17.7583,-105.113,-105.113,1.628
3.21833,3.21739,0.027,0.0273453,0.00238153,0.00228585,0,-7.93588e-06,-29,10,17.8055,17.8055,-105.129,-105.129,1.632
3.21834,3.2174,0.027,0.0273453,0.00239254,0.00207093,0,-5.29059e-06,-31,10,17.8563,17.8563,-105.146,-105.146,1.636
3.21835,3.2174,0.027,0.0273453,0.00240357,0.00192764,0,-3.52706e-06,-33,10,17.9168,17.9168,-105.162,-105.162,1.64
3.21836,3.21741,0.027,0.0273453,0.00241463,0.00171696,0,-2.35137e-06,-35,10,17.9842,17.9842,-105.179,-105.179,1.644
3.21837,3.21741,0.027,0.0273456,0.00242571,0.00163409,0,2.72233e-05,-36,10,18.0609,18.0609,-105.196,-105.196,1.648
3.21838,3.21742,0.027,0.0273453,0.00243681,0.00152125,0,-1.0642e-05,-37,10,18.1419,18.1419,-105.213,-105.213,1.652
3.21839,3.21743,0.027,0.0273453,0.00244794,0.00147482,0,-7.09469e-06,-38,10,18.2282,18.2282,-105.23,-105.23,1.656
3.2184,3.21743,0.027,0.0273453,0.00245908,0.0013575,0,-4.72979e-06,-39,10,18.3174,18.3174,-105.246,-105.246,1.66
3.21841,3.21743,0.027,0.0273453,0.00247025,0.00127928,0,-3.15319e-06,-40,10,18.4123,18.4123,-105.263,-105.263,1.664
3.21842,3.21744,0.027,0.0273453,0.00248144,0.00122714,0,-2.10213e-06,-41,10,18.5111,18.5111,-105.279,-105.279,1.668
3.21843,3.21744,0.027,0.0273453,0.00249265,0.00107721,0,-1.40142e-06,-43,10,18.6132,18.6132,-105.296,-105.296,1.672
3.21844,3.21744,0.027,0.0273453,0.00250389,0.000833303,0,-9.3428e-07,-45,10,18.7228,18.7228,-105.313,-105.313,1.676
3.21845,3.21744,0.027,0.0273453,0.00251514,0.000641908,0,-6.22853e-07,-48,10,18.8436,18.8436,-105.329,-105.329,1.68
3.21846,3.21744,0.027,0.0273453,0.00252642,0.000485521,0,-4.15235e-07,-49,10,18.9734,18.9734,-105.346,-105.346,1.684
3.21847,3.21744,0.027,0.0273453,0.00253772,0.00032368,0,-2.76824e-07,-51,10,19.1109,19.1109,-105.363,-105.363,1.688
3.21848,3.21744,0.027,0.0273453,0.00254904,0.000215787,0,-1.84549e-07,-53,10,19.2561,19.2561,-105.38,-105.38,1.692
3.21849,3.21745,0.027,0.0273453,0.00256038,0.000172649,0,-1.23033e-07,-54,10,19.4066,19.4066,-105.396,-105.396,1.696
3.2185,3.21745,0.027,0.0273453,0.00257175,0.00014389,0,-8.20218e-08,-54,10,19.56,19.56,-105.413,-105.413,1.7
3.21851,3.21745,0.027,0.0273453,0.00258313,0.000124718,0,-5.46812e-08,-55,10,19.7155,19.7155,-105.43,-105.43,1.704
3.21852,3.21745,0.027,0.0273453,0.00259454,0.000140727,0,-3.64541e-08,-55,10,19.8727,19.8727,-105.447,-105.447,1.708
3.21853,3.21745,0.027,0.0273453,0.00260597,0.000122609,0,-2.43028e-08,-56,10,20.0303,20.0303,-105.463,-105.463,1.712
3.21854,3.21745,0.027,0.0273453,0.00261742,0.000139321,0,-1.62018e-08,-56,10,20.1895,20.1895,-105.48,-105.48,1.716
3.21855,3.21745,0.027,0.0273453,0.00262889,0.000179254,0,-1.08012e-08,-56,10,20.3489,20.3489,-105.497,-105.497,1.72
3.21856,3.21745,0.027,0.0273453,0.00264039,0.000205875,0,-7.20082e-09,-56,10,20.5076,20.5076,-105.514,-105.514,1.724
3.21857,3.21745,0.027,0.0273453,0.00265191,0.000194832,0,-4.80054e-09,-56,11,20.6662,20.6662,-105.53,-105.53,1.728
3.21859,3.21745,0.027,0.0273453,0.00266344,0.00018747,0,-3.20036e-09,-57,11,20.8263,20.8263,-105.547,-105.547,1.732
3.2186,3.21745,0.027,0.0273453,0.002675,0.000182562,0,-2.13358e-09,-57,11,20.9877,20.9877,-105.564,-105.564,1.736
3.21861,3.21745,0.027,0.0273453,0.00268658,0.000150499,0,-1.42238e-09,-58,11,21.1503,21.1503,-105.581,-105.581,1.74
3.21862,3.21745,0.027,0.0273453,0.00269819,0.000157914,0,-9.48256e-10,-58,11,21.3152,21.3152,-105.597,-105.597,1.744
3.21863,3.21745,0.027,0.0273453,0.00270981,0.000162858,0,-6.32171e-10,-59,11,21.4807,21.4807,-105.614,-105.614,1.748
3.21864,3.21745,0.027,0.0273453,0.00272145,0.000137363,0,-4.21447e-10,-59,11,21.6472,21.6472,-105.631,-105.631,1.752
3.21865,3.21745,0.027,0.0273453,0.00273312,0.000120366,0,-2.80965e-10,-60,11,21.8157,21.8157,-105.648,-105.648,1.756
3.21866,3.21745,0.027,0.0273453,0.00274481,0.000109035,0,-1.8731e-10,-60,11,21.9859,21.9859,-105.664,-105.664,1.76
3.21867,3.21745,0.027,0.0273453,0.00275652,0.000101481,0,-1.24873e-10,-61,11,22.1576,22.1576,-105.681,-105.681,1.764
3.21868,3.21746,0.027,0.0273453,0.00276825,9.64449e-05,0,-8.32488e-11,-61,11,22.3307,22.3307,-105.698,-105.698,1.768
3.21869,3.21746,0.027,0.0273453,0.00278,9.30875e-05,0,-5.54992e-11,-62,11,22.505,22.505,-105.715,-105.715,1.772
3.21871,3.21746,0.027,0.0273453,0.00279178,9.08493e-05,0,-3.69995e-11,-62,11,22.6805,22.6805,-105.731,-105.731,1.776
3.21872,3.21746,0.027,0.0273453,0.00280357,8.93571e-05,0,-2.46663e-11,-63,11,22.857,22.857,-105.748,-105.748,1.78
3.21873,3.21746,0.027,0.0273453,0.00281539,0.000117153,0,-1.64442e-11,-63,11,23.0346,23.0346,-105.765,-105.765,1.784
3.21874,3.21746,0.027,0.0273453,0.00282722,0.000135684,0,-1.09628e-11,-63,11,23.2121,23.2121,-105.782,-105.782,1.788
3.21875,3.21746,0.027,0.0273453,0.00283908,0.000119247,0,-7.30854e-12,-63,11,23.3899,23.3899,-105.798,-105.798,1.792
3.21876,3.21746,0.027,0.0273453,0.00285096,7.9498e-05,0,-4.87236e-12,-64,11,23.5695,23.5695,-105.815,-105.815,1.796
3.21877,3.21746,0.027,0.0273453,0.00286286,0.00011058,0,-3.24824e-12,-64,11,23.7517,23.7517,-105.832,-105.832,1.8
3.21878,3.21746,0.027,0.0273453,0.00287479,7.37203e-05,0,-2.16549e-12,-65,11,23.9337,23.9337,-105.848,-105.848,1.804
3.2188,3.21746,0.027,0.0273453,0.00288673,7.79378e-05,0,-1.44366e-12,-66,11,24.1183,24.1183,-105.865,-105.865,1.808
3.21881,3.21746,0.027,0.0273453,0.00289869,5.19585e-05,0,-9.62441e-13,-66,11,24.3039,24.3039,-105.882,-105.882,1.812
3.21882,3.21746,0.027,0.0273453,0.00291068,9.22209e-05,0,-6.41627e-13,-66,11,24.4915,24.4915,-105.899,-105.899,1.816
3.21883,3.21746,0.027,0.0273453,0.00292269,9.02715e-05,0,-4.27752e-13,-67,11,24.6785,24.6785,-105.915,-105.915,1.82
3.21884,3.21746,0.027,0.0273453,0.00293471,0.000117763,0,-2.85168e-13,-67,11,24.8665,24.8665,-105.932,-105.932,1.824
3.21885,3.21746,0.027,0.0273453,0.00294676,0.00013609,0,-1.90112e-13,-67,11,25.0545,25.0545,-105.949,-105.949,1.828
3.21887,3.21746,0.027,0.0273453,0.00295883,0.000148309,0,-1.26741e-13,-67,11,25.2428,25.2428,-105.966,-105.966,1.832
3.21888,3.21746,0.027,0.0273453,0.00297092,0.000127663,0,-8.44941e-14,-68,11,25.4317,25.4317,-105.982,-105.982,1.836
3.21889,3.21746,0.027,0.0273453,0.00298304,0.0001139,0,-5.63294e-14,-69,11,25.6225,25.6225,-105.999,-105.999,1.84
3.2189,3.21746,0.027,0.0273453,0.00299517,0.000104724,0,-3.75529e-14,-69,11,25.815,25.815,-106.016,-106.016,1.844
3.21891,3.21746,0.027,0.0273453,0.00300732,9.86071e-05,0,-2.50353e-14,-70,11,26.009,26.009,-106.033,-106.033,1.848
3.21893,3.21746,0.027,0.0273453,0.0030195,9.4529e-05,0,-1.66902e-14,-70,11,26.2043,26.2043,-106.049,-106.049,1.852
3.21894,3.21746,0.027,0.0273453,0.00303169,0.000120601,0,-1.11268e-14,-70,11,26.4008,26.4008,-106.066,-106.066,1.856
3.21895,3.21746,0.027,0.0273453,0.00304391,0.000109192,0,-7.41787e-15,-71,11,26.5973,26.5973,-106.083,-106.083,1.86
3.21896,3.21747,0.027,0.0273453,0.00305615,0.000101585,0,-4.94524e-15,-71,11,26.7955,26.7955,-106.1,-106.1,1.864
3.21897,3.21747,0.027,0.0273453,0.0030684,0.000125305,0,-3.29683e-15,-72,11,26.9949,26.9949,-106.116,-106.116,1.868
3.21899,3.21747,0.027,0.0273453,0.00308068,0.000141119,0,-2.19789e-15,-72,11,27.1945,27.1945,-106.133,-106.133,1.872
3.219,3.21747,0.027,0.0273453,0.00309298,0.000151661,0,-1.46526e-15,-72,11,27.3945,27.3945,-106.15,-106.15,1.876
3.21901,3.21747,0.027,0.0273453,0.0031053,0.00018748,0,-9.76838e-16,-72,11,27.5951,27.5951,-106.167,-106.167,1.88
3.21902,3.21747,0.027,0.0273453,0.00311764,0.000182569,0,-6.51226e-16,-73,11,27.7953,27.7953,-106.183,-106.183,1.884
3.21904,3.21747,0.027,0.0273453,0.00313,0.000179294,0,-4.3415e-16,-73,11,27.9969,27.9969,-106.2,-106.2,1.888
3.21905,3.21747,0.027,0.0273453,0.00314239,0.000177111,0,-2.89434e-16,-74,11,28.1997,28.1997,-106.217,-106.217,1.892
3.21906,3.21747,0.027,0.0273453,0.00315479,0.000204447,0,-1.92956e-16,-74,11,28.4036,28.4036,-106.234,-106.234,1.896
3.21907,3.21747,0.027,0.0273453,0.00316721,0.000165089,0,-1.28637e-16,-75,11,28.6076,28.6076,-106.25,-106.25,1.9
3.21909,3.21747,0.027,0.0273453,0.00317966,0.000167641,0,-8.57581e-17,-75,11,28.8144,28.8144,-106.267,-106.267,1.904
3.2191,3.21747,0.027,0.0273453,0.00319212,0.000140552,0,-5.71721e-17,-76,11,29.0222,29.0222,-106.284,-106.284,1.908
3.21911,3.21747,0.027,0.0273453,0.00320461,0.000122492,0,-3.81147e-17,-77,11,29.2323,29.2323,-106.301,-106.301,1.912
3.21913,3.21747,0.027,0.0273453,0.00321711,0.000110452,0,-2.54098e-17,-77,11,29.4443,29.4443,-106.317,-106.317,1.916
3.21914,3.21747,0.027,0.0273453,0.00322964,0.000102426,0,-1.69399e-17,-78,11,29.6579,29.6579,-106.334,-106.334,1.92
3.21915,3.21747,0.027,0.0273453,0.00324219,9.70748e-05,0,-1.12932e-17,-78,11,29.873,29.873,-106.351,-106.351,1.924
3.21916,3.21747,0.027,0.0273453,0.00325475,9.35074e-05,0,-7.52883e-18,-79,11,30.0895,30.0895,-106.368,-106.368,1.928
3.21918,3.21748,0.027,0.0273453,0.00326734,0.00011992,0,-5.01922e-18,-79,11,30.3073,30.3073,-106.384,-106.384,1.932
3.21919,3.21748,0.027,0.0273453,0.00327995,0.000137529,0,-3.34615e-18,-79,11,30.525,30.525,-106.401,-106.401,1.936
3.2192,3.21748,0.027,0.0273453,0.00329258,0.000149268,0,-2.23076e-18,-80,11,30.7432,30.7432,-106.418,-106.418,1.94
3.21922,3.21748,0.027,0.0273453,0.00330523,0.000185885,0,-1.48718e-18,-80,11,30.9619,30.9619,-106.435,-106.435,1.944
3.21923,3.21748,0.027,0.0273453,0.0033179,0.000210296,0,-9.91451e-19,-80,11,31.1803,31.1803,-106.451,-106.451,1.948
3.21924,3.21748,0.027,0.0273453,0.00333059,0.00022657,0,-6.60967e-19,-80,11,31.3987,31.3987,-106.468,-106.468,1.952
3.21926,3.21748,0.027,0.0273453,0.0033433,0.000179838,0,-4.40645e-19,-81,11,31.6178,31.6178,-106.485,-106.485,1.956
3.21927,3.21748,0.027,0.0273453,0.00335603,0.000206264,0,-2.93763e-19,-82,11,31.8399,31.8399,-106.502,-106.502,1.96
3.21928,3.21748,0.027,0.0273453,0.00336878,0.000195092,0,-1.95842e-19,-82,11,32.0621,32.0621,-106.518,-106.518,1.964
3.2193,3.21748,0.027,0.0273453,0.00338155,0.000216434,0,-1.30561e-19,-82,12,32.2858,32.2858,-106.535,-106.535,1.968
3.21931,3.21748,0.027,0.0273453,0.00339434,0.000201871,0,-8.7041e-20,-83,12,32.5099,32.5099,-106.552,-106.552,1.972
3.21932,3.21748,0.027,0.0273453,0.00340715,0.000192163,0,-5.80273e-20,-84,12,32.7358,32.7358,-106.569,-106.569,1.976
3.21934,3.21748,0.027,0.0273453,0.00341998,0.000156899,0,-3.86849e-20,-84,12,32.9633,32.9633,-106.585,-106.585,1.98
3.21935,3.21749,0.027,0.0273453,0.00343284,0.000162181,0,-2.57899e-20,-85,12,33.1934,33.1934,-106.602,-106.602,1.984
3.21937,3.21749,0.027,0.0273453,0.00344571,0.000136912,0,-1.71933e-20,-86,12,33.4246,33.4246,-106.619,-106.619,1.988
3.21938,3.21749,0.027,0.0273453,0.0034586,0.000148856,0,-1.14622e-20,-86,12,33.658,33.658,-106.636,-106.636,1.992
3.21939,3.21749,0.027,0.0273453,0.00347151,0.000156819,0,-7.64146e-21,-86,12,33.892,33.892,-106.652,-106.652,1.996
3.21941,3.21749,0.027,0.0273453,0.00348444,0.000162128,0,-5.0943e-21,-87,12,34.1269,34.1269,-106.669,-106.669,2
3.21942,3.21749,0.027,0.0273453,0.0034974,0.000194458,0,-3.3962e-21,-87,12,34.3627,34.3627,-106.686,-106.686,2.004
3.21944,3.21749,0.027,0.0273453,0.00351037,0.000216012,0,-2.26414e-21,-87,12,34.5983,34.5983,-106.703,-106.703,2.008
3.21945,3.21749,0.027,0.0273453,0.00352336,0.00023038,0,-1.50942e-21,-88,12,34.8343,34.8343,-106.719,-106.719,2.012
3.21946,3.21749,0.027,0.0273453,0.00353637,0.000211169,0,-1.00628e-21,-88,12,35.0709,35.0709,-106.736,-106.736,2.016
3.21948,3.21749,0.027,0.0273453,0.00354941,0.000198361,0,-6.70855e-22,-89,12,35.3095,35.3095,-106.753,-106.753,2.02
3.21949,3.21749,0.027,0.0273453,0.00356246,0.000161032,0,-4.47237e-22,-90,12,35.55,35.55,-106.77,-106.77,2.024
3.21951,3.21749,0.027,0.0273453,0.00357553,0.000136145,0,-2.98158e-22,-91,12,35.7932,35.7932,-106.786,-106.786,2.028
3.21952,3.21749,0.027,0.0273453,0.00358862,0.000119554,0,-1.98772e-22,-91,12,36.0387,36.0387,-106.803,-106.803,2.032
3.21953,3.21749,0.027,0.0273453,0.00360173,0.000108494,0,-1.32515e-22,-92,12,36.2862,36.2862,-106.82,-106.82,2.036
3.21955,3.21749,0.027,0.0273453,0.00361487,0.000129911,0,-8.8343e-23,-92,12,36.5353,36.5353,-106.837,-106.837,2.04
3.21956,3.21749,0.027,0.0273453,0.00362802,0.000115398,0,-5.88954e-23,-93,12,36.7848,36.7848,-106.853,-106.853,2.044
3.21958,3.2175,0.027,0.0273453,0.00364119,0.000134514,0,-3.92636e-23,-93,12,37.0361,37.0361,-106.87,-106.87,2.048
3.21959,3.2175,0.027,0.0273453,0.00365438,0.000147258,0,-2.61757e-23,-94,12,37.2878,37.2878,-106.887,-106.887,2.052
3.21961,3.2175,0.027,0.0273453,0.00366759,0.000126963,0,-1.74505e-23,-95,12,37.5404,37.5404,-106.904,-106.904,2.056
3.21962,3.2175,0.027,0.0273453,0.00368082,0.000113433,0,-1.16337e-23,-95,12,37.795,37.795,-106.92,-106.92,2.06
3.21964,3.2175,0.027,0.0273453,0.00369407,0.000133204,0,-7.75577e-24,-96,12,38.0514,38.0514,-106.937,-106.937,2.064
3.21965,3.2175,0.027,0.0273453,0.00370734,0.000146384,0,-5.17051e-24,-96,12,38.3082,38.3082,-106.954,-106.954,2.068
3.21967,3.2175,0.027,0.0273453,0.00372063,0.00012638,0,-3.44701e-24,-97,12,38.5658,38.5658,-106.971,-106.971,2.072
3.21968,3.2175,0.027,0.0273453,0.00373394,0.000141836,0,-2.29801e-24,-97,12,38.8254,38.8254,-106.987,-106.987,2.076
3.2197,3.2175,0.027,0.0273453,0.00374727,0.000152139,0,-1.532e-24,-98,12,39.0857,39.0857,-107.004,-107.004,2.08
3.21971,3.2175,0.027,0.0273453,0.00376062,0.000130217,0,-1.02134e-24,-98,12,39.3468,39.3468,-107.021,-107.021,2.084
3.21973,3.2175,0.027,0.0273453,0.00377399,0.000144393,0,-6.8089e-25,-99,12,39.6101,39.6101,-107.038,-107.038,2.088
3.21974,3.2175,0.027,0.0273453,0.00378737,0.000125053,0,-4.53927e-25,-100,12,39.8742,39.8742,-107.054,-107.054,2.092
3.21976,3.2175,0.027,0.0273453,0.00380078,0.00014095,0,-3.02618e-25,-100,12,40.1403,40.1403,-107.071,-107.071,2.096
3.21977,3.2175,0.027,0.0273453,0.00381421,0.00018034,0,-2.01745e-25,-100,12,40.4069,40.4069,-107.088,-107.088,2.1
3.21979,3.2175,0.027,0.0273453,0.00382766,0.000206599,0,-1.34497e-25,-100,12,40.6731,40.6731,-107.105,-107.105,2.104
3.2198,3.2175,0.027,0.0273453,0.00384112,0.000195315,0,-8.96646e-26,-101,12,40.9396,40.9396,-107.121,-107.121,2.108
3.21982,3.21751,0.027,0.0273453,0.00385461,0.000187792,0,-5.97764e-26,-102,12,41.2078,41.2078,-107.138,-107.138,2.112
3.21983,3.21751,0.027,0.0273453,0.00386811,0.000182776,0,-3.98509e-26,-102,12,41.4777,41.4777,-107.155,-107.155,2.116
3.21985,3.21751,0.027,0.0273453,0.00388164,0.000150642,0,-2.65673e-26,-103,12,41.7492,41.7492,-107.172,-107.172,2.12
3.21986,3.21751,0.027,0.0273453,0.00389518,0.00015801,0,-1.77115e-26,-104,12,42.0232,42.0232,-107.188,-107.188,2.124
3.21988,3.21751,0.027,0.0273453,0.00390874,0.000134131,0,-1.18077e-26,-104,12,42.2983,42.2983,-107.205,-107.205,2.128
3.2199,3.21751,0.027,0.0273453,0.00392232,0.000118211,0,-7.87179e-27,-105,12,42.5757,42.5757,-107.222,-107.222,2.132
3.21991,3.21751,0.027,0.0273453,0.00393593,0.000107599,0,-5.24786e-27,-106,12,42.8552,42.8552,-107.239,-107.239,2.136
3.21993,3.21751,0.027,0.0273453,0.00394955,0.000129314,0,-3.49857e-27,-106,12,43.1363,43.1363,-107.255,-107.255,2.14
3.21994,3.21751,0.027,0.0273453,0.00396319,0.000143791,0,-2.33238e-27,-107,12,43.4178,43.4178,-107.272,-107.272,2.144
3.21996,3.21751,0.027,0.0273453,0.00397685,0.000153443,0,-1.55492e-27,-107,12,43.7001,43.7001,-107.289,-107.289,2.148
3.21997,3.21751,0.027,0.0273453,0.00399053,0.000159877,0,-1.03661e-27,-108,12,43.9833,43.9833,-107.306,-107.306,2.152
3.21999,3.21751,0.027,0.0273453,0.00400422,0.000164167,0,-6.91076e-28,-108,12,44.2675,44.2675,-107.322,-107.322,2.156
3.22001,3.21751,0.027,0.0273453,0.00401794,0.000195817,0,-4.60717e-28,-109,12,44.5528,44.5528,-107.339,-107.339,2.16
3.22002,3.21751,0.027,0.0273453,0.00403168,0.000188127,0,-3.07145e-28,-109,12,44.8382,44.8382,-107.356,-107.356,2.164
3.22004,3.21751,0.027,0.0273453,0.00404543,0.000183,0,-2.04763e-28,-110,12,45.1252,45.1252,-107.373,-107.373,2.168
3.22006,3.21752,0.027,0.0273453,0.00405921,0.000237163,0,-1.36509e-28,-110,12,45.4137,45.4137,-107.389,-107.389,2.172
3.22007,3.21752,0.027,0.0273453,0.004073,0.0001869,0,-9.10059e-29,-111,12,45.7014,45.7014,-107.406,-107.406,2.176
3.22009,3.21752,0.027,0.0273453,0.00408681,0.0001246,0,-6.06706e-29,-112,12,45.9927,45.9927,-107.423,-107.423,2.18
3.2201,3.21752,0.027,0.0273453,0.00410064,0.000140648,0,-4.04471e-29,-113,12,46.2878,46.2878,-107.44,-107.44,2.184
3.22012,3.21752,0.027,0.0273453,0.0041145,0.000151347,0,-2.69647e-29,-113,12,46.5836,46.5836,-107.456,-107.456,2.188
3.22014,3.21752,0.027,0.0273453,0.00412837,0.000129689,0,-1.79765e-29,-114,12,46.8804,46.8804,-107.473,-107.473,2.192
3.22015,3.21752,0.027,0.0273453,0.00414225,0.000144041,0,-1.19843e-29,-114,12,47.1795,47.1795,-107.49,-107.49,2.196
3.22017,3.21752,0.027,0.0273453,0.00415616,0.000153609,0,-7.98954e-30,-115,12,47.4792,47.4792,-107.507,-107.507,2.2
3.22019,3.21752,0.027,0.0273453,0.00417009,0.000131197,0,-5.32636e-30,-116,12,47.7801,47.7801,-107.523,-107.523,2.204
3.2202,3.21752,0.027,0.0273453,0.00418403,0.000173838,0,-3.55091e-30,-116,13,48.0831,48.0831,-107.54,-107.54,2.208
3.22022,3.21752,0.027,0.0273453,0.004198,0.000173474,0,-2.36727e-30,-117,13,48.3857,48.3857,-107.557,-107.557,2.212
3.22024,3.21752,0.027,0.0273453,0.00421198,0.000173231,0,-1.57818e-30,-117,13,48.6898,48.6898,-107.574,-107.574,2.216
3.22025,3.21752,0.027,0.0273453,0.00422598,0.00020186,0,-1.05212e-30,-118,13,48.9951,48.9951,-107.59,-107.59,2.22
3.22027,3.21752,0.027,0.0273453,0.00424001,0.000192155,0,-7.01414e-31,-118,13,49.3008,49.3008,-107.607,-107.607,2.224
3.22029,3.21752,0.027,0.0273453,0.00425405,0.000185685,0,-4.67609e-31,-119,13,49.6082,49.6082,-107.624,-107.624,2.228
3.22031,3.21752,0.027,0.0273453,0.0042681,0.000152581,0,-3.1174e-31,-120,13,49.9174,49.9174,-107.641,-107.641,2.232
3.22032,3.21752,0.027,0.0273453,0.00428218,0.000130512,0,-2.07826e-31,-121,13,50.2294,50.2294,-107.657,-107.657,2.236
3.22034,3.21753,0.027,0.0273453,0.00429628,0.000115799,0,-1.38551e-31,-122,13,50.5437,50.5437,-107.674,-107.674,2.24
3.22036,3.21753,0.027,0.0273453,0.00431039,0.00010599,0,-9.23673e-32,-122,13,50.86,50.86,-107.691,-107.691,2.244
3.22037,3.21753,0.027,0.0273453,0.00432453,9.9451e-05,0,-6.15782e-32,-123,13,51.1782,51.1782,-107.708,-107.708,2.248
3.22039,3.21753,0.027,0.0273453,0.00433868,9.50916e-05,0,-4.10521e-32,-124,13,51.4981,51.4981,-107.724,-107.724,2.252
3.22041,3.21753,0.027,0.0273453,0.00435285,0.000120976,0,-2.73681e-32,-124,13,51.8196,51.8196,-107.741,-107.741,2.256
3.22043,3.21753,0.027,0.0273453,0.00436704,0.000109442,0,-1.82454e-32,-125,13,52.1414,52.1414,-107.758,-107.758,2.26
3.22044,3.21753,0.027,0.0273453,0.00438125,0.000130543,0,-1.21636e-32,-125,13,52.4651,52.4651,-107.775,-107.775,2.264
3.22046,3.21753,0.027,0.0273453,0.00439548,0.00011582,0,-8.10906e-33,-126,13,52.7895,52.7895,-107.791,-107.791,2.268
3.22048,3.21753,0.027,0.0273453,0.00440972,0.000134795,0,-5.40604e-33,-127,13,53.1158,53.1158,-107.808,-107.808,2.272
3.2205,3.21753,0.027,0.0273453,0.00442399,0.000118654,0,-3.60403e-33,-127,13,53.4428,53.4428,-107.825,-107.825,2.276
3.22051,3.21753,0.027,0.0273453,0.00443827,0.000136685,0,-2.40268e-33,-128,13,53.7719,53.7719,-107.842,-107.842,2.28
3.22053,3.21753,0.027,0.0273453,0.00445257,0.000119914,0,-1.60179e-33,-129,13,54.1018,54.1018,-107.858,-107.858,2.284
3.22055,3.21753,0.027,0.0273453,0.00446689,0.000137525,0,-1.06786e-33,-129,13,54.4337,54.4337,-107.875,-107.875,2.288
3.22057,3.21753,0.027,0.0273453,0.00448123,0.000149265,0,-7.11907e-34,-130,13,54.7664,54.7664,-107.892,-107.892,2.292
3.22059,3.21753,0.027,0.0273453,0.00449559,0.000157092,0,-4.74604e-34,-130,13,55.1,55.1,-107.909,-107.909,2.296
3.2206,3.21753,0.027,0.0273453,0.00450996,0.000133519,0,-3.16403e-34,-131,13,55.4348,55.4348,-107.925,-107.925,2.3
3.22062,3.21753,0.027,0.0273453,0.00452435,0.000146594,0,-2.10935e-34,-132,13,55.772,55.772,-107.942,-107.942,2.304
3.22064,3.21753,0.027,0.0273453,0.00453877,0.000155311,0,-1.40624e-34,-132,13,56.1102,56.1102,-107.959,-107.959,2.308
3.22066,3.21753,0.027,0.0273453,0.0045532,0.000132332,0,-9.3749e-35,-133,13,56.4495,56.4495,-107.976,-107.976,2.312
3.22068,3.21754,0.027,0.0273453,0.00456764,0.000145803,0,-6.24993e-35,-134,13,56.7912,56.7912,-107.992,-107.992,2.316
3.22069,3.21754,0.027,0.0273453,0.00458211,0.000154784,0,-4.16662e-35,-134,13,57.1338,57.1338,-108.009,-108.009,2.32
3.22071,3.21754,0.027,0.0273453,0.0045966,0.000160771,0,-2.77775e-35,-135,13,57.4775,57.4775,-108.026,-108.026,2.324
3.22073,3.21754,0.027,0.0273453,0.0046111,0.000193554,0,-1.85183e-35,-135,13,57.8223,57.8223,-108.043,-108.043,2.328
3.22075,3.21754,0.027,0.0273453,0.00462562,0.000157827,0,-1.23455e-35,-136,13,58.1674,58.1674,-108.059,-108.059,2.332
3.22077,3.21754,0.027,0.0273453,0.00464016,0.0001628,0,-8.23037e-36,-137,13,58.5155,58.5155,-108.076,-108.076,2.336
3.22079,3.21754,0.027,0.0273453,0.00465472,0.000166115,0,-5.48691e-36,-138,13,58.8648,58.8648,-108.093,-108.093,2.34
3.22081,3.21754,0.027,0.0273453,0.0046693,0.000197116,0,-3.65794e-36,-138,13,59.2154,59.2154,-108.11,-108.11,2.344
3.22082,3.21754,0.027,0.0273453,0.00468389,0.000188993,0,-2.43863e-36,-139,13,59.5662,59.5662,-108.126,-108.126,2.348
3.22084,3.21754,0.027,0.0273453,0.0046985,0.000183577,0,-1.62575e-36,-140,13,59.9189,59.9189,-108.143,-108.143,2.352
3.22086,3.21754,0.027,0.0273453,0.00471313,0.000208757,0,-1.08383e-36,-140,13,60.2733,60.2733,-108.16,-108.16,2.356
3.22088,3.21754,0.027,0.0273453,0.00472778,0.000225544,0,-7.22556e-37,-141,13,60.6281,60.6281,-108.177,-108.177,2.36
3.2209,3.21754,0.027,0.0273453,0.00474245,0.000207945,0,-4.81704e-37,-141,13,60.9838,60.9838,-108.193,-108.193,2.364
3.22092,3.21755,0.027,0.0273453,0.00475714,0.000196212,0,-3.21136e-37,-142,13,61.3417,61.3417,-108.21,-108.21,2.368
3.22094,3.21755,0.027,0.0273453,0.00477184,0.00018839,0,-2.14091e-37,-143,13,61.7017,61.7017,-108.227,-108.227,2.372
3.22096,3.21755,0.027,0.0273453,0.00478656,0.000154384,0,-1.42727e-37,-144,13,62.0636,62.0636,-108.243,-108.243,2.376
3.22098,3.21755,0.027,0.0273453,0.0048013,0.000160505,0,-9.51514e-38,-145,13,62.4283,62.4283,-108.26,-108.26,2.38
3.221,3.21755,0.027,0.0273453,0.00481606,0.000135794,0,-6.34343e-38,-146,13,62.7945,62.7945,-108.277,-108.277,2.384
3.22101,3.21755,0.027,0.0273453,0.00483083,0.000148111,0,-4.22895e-38,-146,13,63.1631,63.1631,-108.294,-108.294,2.388
3.22103,3.21755,0.027,0.0273453,0.00484562,0.000127532,0,-2.8193e-38,-147,13,63.5329,63.5329,-108.31,-108.31,2.392
3.22105,3.21755,0.027,0.0273453,0.00486044,0.000142603,0,-1.87953e-38,-148,13,63.9049,63.9049,-108.327,-108.327,2.396
3.22107,3.21755,0.027,0.0273453,0.00487526,0.00012386,0,-1.25302e-38,-149,13,64.278,64.278,-108.344,-108.344,2.4
3.22109,3.21755,0.027,0.0273453,0.00489011,0.000111364,0,-8.35349e-39,-149,13,64.6535,64.6535,-108.361,-108.361,2.404
3.22111,3.21755,0.027,0.0273453,0.00490498,0.000131824,0,-5.56899e-39,-150,13,65.0309,65.0309,-108.377,-108.377,2.408
3.22113,3.21755,0.027,0.0273453,0.00491986,0.000145465,0,-3.71266e-39,-151,13,65.4091,65.4091,-108.394,-108.394,2.412
3.22115,3.21755,0.027,0.0273453,0.00493476,0.000154558,0,-2.47511e-39,-151,13,65.7882,65.7882,-108.411,-108.411,2.416
3.22117,3.21755,0.027,0.0273453,0.00494968,0.000160621,0,-1.65007e-39,-152,13,66.1686,66.1686,-108.428,-108.428,2.42
3.22119,3.21755,0.027,0.0273453,0.00496461,0.000164662,0,-1.10005e-39,-153,13,66.5502,66.5502,-108.444,-108.444,2.424
3.22121,3.21755,0.027,0.0273453,0.00497956,0.000196148,0,-7.33365e-40,-153,13,66.9332,66.9332,-108.461,-108.461,2.428
3.22123,3.21755,0.027,0.0273453,0.00499454,0.000188347,0,-4.8891e-40,-154,13,67.3165,67.3165,-108.478,-108.478,2.432
3.22125,3.21756,0.027,0.0273453,0.00500952,0.000211937,0,-3.2594e-40,-154,13,67.7016,67.7016,-108.495,-108.495,2.436
3.22127,3.21756,0.027,0.0273453,0.00502453,0.000170083,0,-2.17293e-40,-156,13,68.0875,68.0875,-108.511,-108.511,2.44
3.22129,3.21756,0.027,0.0273446,0.00503956,0.000142179,0,-5.75818e-05,-157,13,68.4767,68.4767,-108.528,-108.528,2.444
3.22131,3.21756,0.027,0.0273453,0.0050546,0.000123577,0,1.91939e-05,-157,14,68.8687,68.8687,-108.543,-108.543,2.448
3.22133,3.21756,0.027,0.0273453,0.00506966,0.000111176,0,1.2796e-05,-158,14,69.2631,69.2631,-108.56,-108.56,2.452
3.22135,3.21756,0.027,0.0273446,0.00508473,0.000102908,0,-4.90512e-05,-159,13,69.6596,69.6596,-108.577,-108.577,2.456
3.22137,3.21756,0.027,0.0273453,0.00509983,0.000126187,0,2.4881e-05,-160,14,70.058,70.058,-108.592,-108.592,2.46
3.22139,3.21756,0.027,0.0273453,0.00511494,0.000112916,0,1.65874e-05,-161,14,70.4572,70.4572,-108.61,-108.61,2.464
3.22141,3.21756,0.027,0.0273453,0.00513007,0.000132859,0,1.10582e-05,-161,14,70.8584,70.8584,-108.627,-108.627,2.468
3.22143,3.21756,0.027,0.0273453,0.00514522,0.000117364,0,7.37216e-06,-162,14,71.2605,71.2605,-108.644,-108.644,2.472
3.22145,3.21756,0.027,0.0273453,0.00516038,0.000107033,0,4.91477e-06,-163,14,71.6649,71.6649,-108.662,-108.662,2.476
3.22147,3.21756,0.027,0.0273453,0.00517556,0.000128937,0,3.27652e-06,-164,14,72.0712,72.0712,-108.678,-108.678,2.48
3.2215,3.21756,0.027,0.0273453,0.00519076,0.000114749,0,2.18434e-06,-164,14,72.4784,72.4784,-108.695,-108.695,2.484
3.22152,3.21756,0.027,0.0273453,0.00520598,0.000134081,0,1.45623e-06,-165,14,72.8877,72.8877,-108.712,-108.712,2.488
3.22154,3.21756,0.027,0.0273453,0.00522122,0.000146969,0,9.7082e-07,-166,14,73.2978,73.2978,-108.729,-108.729,2.492
3.22156,3.21756,0.027,0.0273453,0.00523647,0.000155561,0,6.47213e-07,-166,14,73.7091,73.7091,-108.746,-108.746,2.496
3.22158,3.21756,0.027,0.0273453,0.00525174,0.000161289,0,4.31475e-07,-167,14,74.1216,74.1216,-108.763,-108.763,2.5
3.2216,3.21756,0.027,0.0273453,0.00526702,0.000165108,0,2.8765e-07,-168,14,74.5355,74.5355,-108.779,-108.779,2.504
3.22162,3.21757,0.027,0.0273453,0.00528233,0.000167654,0,1.91767e-07,-169,14,74.9509,74.9509,-108.796,-108.796,2.508
3.22164,3.21757,0.027,0.0273453,0.00529765,0.000169351,0,1.27845e-07,-169,14,75.3679,75.3679,-108.813,-108.813,2.512
3.22166,3.21757,0.027,0.0273453,0.00531299,0.000170483,0,8.52297e-08,-170,14,75.7864,75.7864,-108.83,-108.83,2.516
3.22168,3.21757,0.027,0.0273453,0.00532834,0.000171237,0,5.68198e-08,-171,14,76.2066,76.2066,-108.846,-108.846,2.52
3.22171,3.21757,0.027,0.0273453,0.00534371,0.00017174,0,3.78799e-08,-172,14,76.6283,76.6283,-108.863,-108.863,2.524
3.22173,3.21757,0.027,0.0273453,0.0053591,0.000172075,0,2.52532e-08,-173,14,77.0518,77.0518,-108.88,-108.88,2.528
3.22175,3.21757,0.027,0.0273453,0.00537451,0.000143508,0,1.68355e-08,-174,14,77.4769,77.4769,-108.897,-108.897,2.532
3.22177,3.21757,0.027,0.0273453,0.00538994,0.000153254,0,1.12237e-08,-174,14,77.9049,77.9049,-108.913,-108.913,2.536
3.22179,3.21757,0.027,0.0273449,0.00540538,0.000102169,0,-2.87834e-05,-176,14,78.3343,78.3343,-108.93,-108.93,2.54
3.22181,3.21757,0.027,0.0273453,0.00542084,9.69036e-05,0,9.60196e-06,-177,14,78.7675,78.7675,-108.946,-108.946,2.544
3.22184,3.21757,0.027,0.0273453,0.00543631,9.33933e-05,0,6.40131e-06,-177,14,79.2026,79.2026,-108.963,-108.963,2.548
3.22186,3.21757,0.027,0.0273453,0.0054518,6.22622e-05,0,4.26754e-06,-179,14,79.6396,79.6396,-108.98,-108.98,2.552
3.22188,3.21757,0.027,0.0273453,0.00546731,7.02991e-05,0,2.84503e-06,-179,14,80.0796,80.0796,-108.997,-108.997,2.556
3.2219,3.21757,0.027,0.0273453,0.00548284,7.5657e-05,0,1.89668e-06,-180,14,80.521,80.521,-109.014,-109.014,2.56
3.22192,3.21757,0.027,0.0273453,0.00549838,5.0438e-05,0,1.26446e-06,-181,14,80.9639,80.9639,-109.03,-109.03,2.564
3.22194,3.21757,0.027,0.0273453,0.00551395,6.24162e-05,0,8.42971e-07,-182,14,81.4095,81.4095,-109.047,-109.047,2.568
3.22197,3.21757,0.027,0.0273453,0.00552952,7.04018e-05,0,5.6198e-07,-183,14,81.8564,81.8564,-109.064,-109.064,2.572
3.22199,3.21757,0.027,0.0273453,0.00554512,7.57254e-05,0,3.74654e-07,-183,14,82.3047,82.3047,-109.081,-109.081,2.576
3.22201,3.21757,0.027,0.0273453,0.00556073,7.92745e-05,0,2.49769e-07,-184,14,82.7544,82.7544,-109.098,-109.098,2.58
3.22203,3.21757,0.027,0.0273453,0.00557636,5.28497e-05,0,1.66513e-07,-185,14,83.2059,83.2059,-109.114,-109.114,2.584
3.22206,3.21757,0.027,0.0273453,0.005592,9.2815e-05,0,1.11008e-07,-186,14,83.66,83.66,-109.131,-109.131,2.588
3.22208,3.21757,0.027,0.0273453,0.00560767,9.06676e-05,0,7.40057e-08,-187,14,84.1143,84.1143,-109.148,-109.148,2.592
3.2221,3.21757,0.027,0.0273453,0.00562335,8.9236e-05,0,4.93371e-08,-188,14,84.5704,84.5704,-109.165,-109.165,2.596
3.22212,3.21757,0.027,0.0273453,0.00563904,8.82816e-05,0,3.28914e-08,-188,14,85.0283,85.0283,-109.181,-109.181,2.6
3.22215,3.21758,0.027,0.0273453,0.00565475,0.000145227,0,2.19276e-08,-189,14,85.4879,85.4879,-109.198,-109.198,2.604
3.22217,3.21758,0.027,0.0273453,0.00567048,0.0001544,0,1.46184e-08,-189,14,85.9468,85.9468,-109.215,-109.215,2.608
3.22219,3.21758,0.027,0.0273453,0.00568623,0.000189306,0,9.7456e-09,-190,14,86.4071,86.4071,-109.232,-109.232,2.612
3.22221,3.21758,0.027,0.0273453,0.00570199,0.000241368,0,6.49707e-09,-190,14,86.8675,86.8675,-109.248,-109.248,2.616
3.22224,3.21758,0.027,0.0273453,0.00571777,0.000304866,0,4.33138e-09,-191,14,87.3274,87.3274,-109.265,-109.265,2.62
3.22226,3.21758,0.027,0.0273453,0.00573357,0.000260826,0,2.88759e-09,-192,14,87.7867,87.7867,-109.282,-109.282,2.624
3.22228,3.21758,0.027,0.0273453,0.00574938,0.000289048,0,1.92506e-09,-192,14,88.2493,88.2493,-109.299,-109.299,2.628
3.22231,3.21758,0.027,0.0273453,0.00576521,0.000307862,0,1.28337e-09,-193,14,88.7125,88.7125,-109.315,-109.315,2.632
3.22233,3.21759,0.027,0.0273453,0.00578106,0.000349196,0,8.55581e-10,-194,14,89.1766,89.1766,-109.332,-109.332,2.636
3.22235,3.21759,0.027,0.0273453,0.00579692,0.000290379,0,5.70387e-10,-195,14,89.6409,89.6409,-109.349,-109.349,2.64
3.22238,3.21759,0.027,0.0273453,0.0058128,0.00030875,0,3.80258e-10,-196,14,90.1092,90.1092,-109.366,-109.366,2.644
3.2224,3.21759,0.027,0.0273453,0.0058287,0.000292206,0,2.53505e-10,-197,14,90.5787,90.5787,-109.382,-109.382,2.648
3.22242,3.21759,0.027,0.0273453,0.00584461,0.000281177,0,1.69004e-10,-198,14,91.0506,91.0506,-109.399,-109.399,2.652
3.22245,3.21759,0.027,0.0273453,0.00586054,0.000245033,0,1.12669e-10,-199,14,91.5248,91.5248,-109.416,-109.416,2.656
3.22247,3.21759,0.027,0.0273453,0.00587649,0.000192146,0,7.51127e-11,-200,14,92.0024,92.0024,-109.433,-109.433,2.66
3.22249,3.21759,0.027,0.0273453,0.00589245,0.000156888,0,5.00752e-11,-202,14,92.484,92.484,-109.449,-109.449,2.664
3.22252,3.21759,0.027,0.0273453,0.00590843,0.000133383,0,3.33834e-11,-203,14,92.9689,92.9689,-109.466,-109.466,2.668
3.22254,3.21759,0.027,0.0273453,0.00592442,0.000117713,0,2.22556e-11,-204,14,93.4567,93.4567,-109.483,-109.483,2.672
3.22256,3.21759,0.027,0.0273453,0.00594044,0.000107266,0,1.48371e-11,-205,14,93.9469,93.9469,-109.5,-109.5,2.676
3.22259,3.21759,0.027,0.0273453,0.00595646,0.000100302,0,9.89139e-12,-206,14,94.4393,94.4393,-109.516,-109.516,2.68
3.22261,3.21759,0.027,0.0273453,0.00597251,0.00012445,0,6.59426e-12,-206,15,94.9338,94.9338,-109.533,-109.533,2.684
3.22263,3.21759,0.027,0.0273453,0.00598857,0.000111757,0,4.39617e-12,-207,15,95.4292,95.4292,-109.55,-109.55,2.688
3.22266,3.21759,0.027,0.0273453,0.00600465,0.000103296,0,2.93078e-12,-208,15,95.9269,95.9269,-109.567,-109.567,2.692
3.22268,3.21759,0.027,0.0273453,0.00602074,9.76548e-05,0,1.95385e-12,-209,15,96.4269,96.4269,-109.583,-109.583,2.696
3.22271,3.21759,0.027,0.0273453,0.00603685,9.38941e-05,0,1.30257e-12,-210,15,96.9289,96.9289,-109.6,-109.6,2.7
3.22273,3.21759,0.027,0.0273453,0.00605298,9.1387e-05,0,8.6838e-13,-211,15,97.433,97.433,-109.617,-109.617,2.704
3.22276,3.21759,0.027,0.0273453,0.00606912,8.97156e-05,0,5.7892e-13,-212,15,97.939,97.939,-109.634,-109.634,2.708
3.22278,3.2176,0.027,0.0273453,0.00608528,0.000146183,0,3.85947e-13,-213,15,98.4467,98.4467,-109.65,-109.65,2.712
3.2228,3.2176,0.027,0.0273453,0.00610145,9.74555e-05,0,2.57298e-13,-214,15,98.9542,98.9542,-109.667,-109.667,2.716
3.22283,3.2176,0.027,0.0273453,0.00611764,9.37612e-05,0,1.71532e-13,-215,15,99.4655,99.4655,-109.684,-109.684,2.72
3.22285,3.2176,0.027,0.0273453,0.00613385,0.000120089,0,1.14355e-13,-216,15,99.9788,99.9788,-109.701,-109.701,2.724
3.22288,3.2176,0.027,0.0273453,0.00615007,0.000137641,0,7.62364e-14,-216,15,100.493,100.493,-109.717,-109.717,2.728
3.2229,3.2176,0.027,0.0273453,0.00616631,0.000178134,0,5.08242e-14,-217,15,101.008,101.008,-109.734,-109.734,2.732
3.22293,3.2176,0.027,0.0273453,0.00618257,0.000176338,0,3.38828e-14,-218,15,101.523,101.523,-109.751,-109.751,2.736
3.22295,3.2176,0.027,0.0273453,0.00619884,0.00017514,0,2.25885e-14,-219,15,102.04,102.04,-109.768,-109.768,2.74
3.22298,3.2176,0.027,0.0273453,0.00621513,0.000174342,0,1.5059e-14,-220,15,102.56,102.56,-109.784,-109.784,2.744
3.223,3.2176,0.027,0.0273449,0.00623143,0.000202601,0,-2.87909e-05,-220,14,103.081,103.081,-109.801,-109.801,2.748
3.22303,3.2176,0.027,0.0273453,0.00624775,0.000135067,0,9.59697e-06,-222,15,103.602,103.602,-109.817,-109.817,2.752
3.22305,3.2176,0.027,0.0273453,0.00626409,0.000118836,0,6.39798e-06,-223,15,104.129,104.129,-109.834,-109.834,2.756
3.22308,3.2176,0.027,0.0273453,0.00628044,0.000136806,0,4.26532e-06,-224,15,104.658,104.658,-109.851,-109.851,2.76
3.2231,3.2176,0.027,0.0273453,0.0062968,0.000148786,0,2.84355e-06,-225,15,105.188,105.188,-109.868,-109.868,2.764
3.22313,3.2176,0.027,0.0273453,0.00631319,0.000214354,0,1.8957e-06,-225,15,105.72,105.72,-109.884,-109.884,2.768
3.22315,3.21761,0.027,0.0273453,0.00632959,0.000200485,0,1.2638e-06,-226,15,106.25,106.25,-109.901,-109.901,2.772
3.22318,3.21761,0.027,0.0273449,0.006346,0.000277611,0,-2.79484e-05,-226,15,106.783,106.783,-109.918,-109.918,2.776
3.2232,3.21761,0.027,0.0273453,0.00636243,0.000213865,0,1.01587e-05,-228,15,107.315,107.315,-109.934,-109.934,2.78
3.22323,3.21761,0.027,0.0273453,0.00637888,0.000228949,0,6.77244e-06,-229,15,107.852,107.852,-109.951,-109.951,2.784
3.22325,3.21761,0.027,0.0273453,0.00639534,0.000239006,0,4.51496e-06,-230,15,108.389,108.389,-109.968,-109.968,2.788
3.22328,3.21761,0.027,0.0273453,0.00641182,0.000274501,0,3.00997e-06,-230,15,108.928,108.928,-109.985,-109.985,2.792
3.22331,3.21761,0.027,0.0273453,0.00642832,0.000211791,0,2.00665e-06,-232,15,109.468,109.468,-110.002,-110.002,2.796
3.22333,3.21761,0.027,0.0273453,0.00644483,0.000169985,0,1.33777e-06,-233,15,110.012,110.012,-110.019,-110.019,2.8
3.22336,3.21761,0.027,0.0273453,0.00646135,0.000170905,0,8.91844e-07,-234,15,110.56,110.56,-110.035,-110.035,2.804
3.22338,3.21761,0.027,0.0273453,0.0064779,0.000142728,0,5.94563e-07,-236,15,111.11,111.11,-110.052,-110.052,2.808
3.22341,3.21761,0.027,0.0273453,0.00649445,0.000152734,0,3.96375e-07,-236,15,111.663,111.663,-110.069,-110.069,2.812
3.22343,3.21761,0.027,0.0273453,0.00651103,0.000216986,0,2.6425e-07,-237,15,112.217,112.217,-110.086,-110.086,2.816
3.22346,3.21762,0.027,0.0273453,0.00652762,0.000173448,0,1.76167e-07,-238,15,112.771,112.771,-110.102,-110.102,2.82
3.22349,3.21762,0.027,0.0273453,0.00654422,0.000173214,0,1.17445e-07,-239,15,113.328,113.328,-110.119,-110.119,2.824
3.22351,3.21762,0.027,0.0273453,0.00656084,0.000173058,0,7.82963e-08,-240,15,113.888,113.888,-110.136,-110.136,2.828
3.22354,3.21762,0.027,0.0273453,0.00657748,0.000144163,0,5.21976e-08,-242,15,114.449,114.449,-110.153,-110.153,2.832
3.22357,3.21762,0.027,0.0273453,0.00659413,0.00015369,0,3.47984e-08,-242,15,115.014,115.014,-110.169,-110.169,2.836
3.22359,3.21762,0.027,0.0273449,0.0066108,0.000131251,0,-2.87677e-05,-244,15,115.58,115.58,-110.186,-110.186,2.84
3.22362,3.21762,0.027,0.0273453,0.00662748,0.000145083,0,9.61244e-06,-245,15,116.149,116.149,-110.202,-110.202,2.844
3.22365,3.21762,0.027,0.0273449,0.00664418,0.000183095,0,-2.23826e-05,-245,15,116.719,116.719,-110.219,-110.219,2.848
3.22367,3.21762,0.027,0.0273453,0.00666089,0.000122063,0,1.38692e-05,-247,15,117.29,117.29,-110.235,-110.235,2.852
3.2237,3.21762,0.027,0.0273449,0.00667762,0.000138957,0,-1.95448e-05,-248,15,117.866,117.866,-110.252,-110.252,2.856
3.22373,3.21762,0.027,0.0273453,0.00669436,0.000121429,0,1.57611e-05,-249,15,118.442,118.442,-110.268,-110.268,2.86
3.22375,3.21762,0.027,0.0273453,0.00671112,0.000167325,0,1.05074e-05,-249,15,119.022,119.022,-110.285,-110.285,2.864
3.22378,3.21762,0.027,0.0273449,0.0067279,0.00011155,0,-2.1786e-05,-251,15,119.601,119.601,-110.302,-110.302,2.868
3.22381,3.21762,0.027,0.0273453,0.00674469,0.000131949,0,1.42669e-05,-252,15,120.185,120.185,-110.318,-110.318,2.872
3.22383,3.21762,0.027,0.0273453,0.00676149,0.000174339,0,9.51128e-06,-253,15,120.77,120.77,-110.336,-110.336,2.876
3.22386,3.21762,0.027,0.0273453,0.00677832,0.000116226,0,6.34085e-06,-254,15,121.355,121.355,-110.353,-110.353,2.88
3.22389,3.21762,0.027,0.0273453,0.00679515,0.000163857,0,4.22723e-06,-255,15,121.945,121.945,-110.37,-110.37,2.884
3.22391,3.21763,0.027,0.0273449,0.00681201,0.00016682,0,-2.59728e-05,-256,15,122.534,122.534,-110.387,-110.387,2.888
3.22394,3.21763,0.027,0.0273453,0.00682887,0.000168795,0,1.14757e-05,-257,15,123.126,123.126,-110.402,-110.402,2.892
3.22397,3.21763,0.027,0.0273449,0.00684576,0.000170112,0,-2.11404e-05,-258,15,123.719,123.719,-110.42,-110.42,2.896
3.224,3.21763,0.027,0.0273453,0.00686265,0.000142199,0,1.46973e-05,-259,16,124.315,124.315,-110.435,-110.435,2.9
3.22402,3.21763,0.027,0.0273453,0.00687957,0.000152381,0,9.7982e-06,-260,16,124.914,124.914,-110.453,-110.453,2.904
3.22405,3.21763,0.027,0.0273453,0.0068965,0.00018796,0,6.53214e-06,-261,16,125.514,125.514,-110.47,-110.47,2.908
3.22408,3.21763,0.027,0.0273453,0.00691344,0.000182889,0,4.35476e-06,-262,16,126.115,126.115,-110.487,-110.487,2.912
3.22411,3.21763,0.027,0.0273453,0.0069304,0.000179508,0,2.90317e-06,-263,16,126.718,126.718,-110.504,-110.504,2.916
3.22413,3.21763,0.027,0.0273449,0.00694737,0.000206044,0,-2.68555e-05,-264,15,127.323,127.323,-110.521,-110.521,2.92
3.22416,3.21763,0.027,0.0273453,0.00696436,0.000223736,0,1.08873e-05,-265,16,127.929,127.929,-110.536,-110.536,2.924
3.22419,3.21763,0.027,0.0273453,0.00698136,0.000206739,0,7.25818e-06,-266,16,128.536,128.536,-110.554,-110.554,2.928
3.22422,3.21763,0.027,0.0273453,0.00699838,0.000224199,0,4.83879e-06,-267,16,129.146,129.146,-110.571,-110.571,2.932
3.22425,3.21763,0.027,0.0273453,0.00701542,0.000235839,0,3.22586e-06,-268,16,129.758,129.758,-110.588,-110.588,2.936
3.22427,3.21764,0.027,0.0273449,0.00703247,0.000214808,0,-2.66404e-05,-269,15,130.371,130.371,-110.604,-110.604,2.94
3.2243,3.21764,0.027,0.0273453,0.00704953,0.000200787,0,1.10307e-05,-270,16,130.987,130.987,-110.62,-110.62,2.944
3.22433,3.21764,0.027,0.0273453,0.00706661,0.000220231,0,7.35379e-06,-271,16,131.606,131.606,-110.637,-110.637,2.948
3.22436,3.21764,0.027,0.0273453,0.00708371,0.000233193,0,4.90253e-06,-272,16,132.225,132.225,-110.654,-110.654,2.952
3.22439,3.21764,0.027,0.0273453,0.00710082,0.000270626,0,3.26835e-06,-273,16,132.847,132.847,-110.671,-110.671,2.956
3.22442,3.21764,0.027,0.0273453,0.00711794,0.00026679,0,2.1789e-06,-274,16,133.469,133.469,-110.688,-110.688,2.96
3.22444,3.21764,0.027,0.0273449,0.00713508,0.000321815,0,-2.73383e-05,-275,15,134.093,134.093,-110.705,-110.705,2.964
3.22447,3.21764,0.027,0.0273449,0.00715223,0.000272125,0,-1.82255e-05,-276,16,134.716,134.716,-110.721,-110.721,2.968
3.2245,3.21764,0.027,0.0273449,0.0071694,0.000325371,0,-1.21504e-05,-277,16,135.344,135.344,-110.737,-110.737,2.972
3.22453,3.21765,0.027,0.0273453,0.00718659,0.000245705,0,2.06907e-05,-279,16,135.972,135.972,-110.753,-110.753,2.976
3.22456,3.21765,0.027,0.0273453,0.00720378,0.000221385,0,1.37938e-05,-280,16,136.606,136.606,-110.77,-110.77,2.98
3.22459,3.21765,0.027,0.0273453,0.007221,0.000205172,0,9.19586e-06,-281,16,137.242,137.242,-110.788,-110.788,2.984
3.22462,3.21765,0.027,0.0273449,0.00723823,0.000194363,0,-2.26604e-05,-282,16,137.881,137.881,-110.805,-110.805,2.988
3.22465,3.21765,0.027,0.0273453,0.00725547,0.000187157,0,1.3684e-05,-284,16,138.523,138.523,-110.821,-110.821,2.992
3.22467,3.21765,0.027,0.0273453,0.00727273,0.000153562,0,9.12268e-06,-285,16,139.168,139.168,-110.838,-110.838,2.996
3.2247,3.21765,0.027,0.0273453,0.00729,0.000188748,0,6.08179e-06,-286,16,139.815,139.815,-110.855,-110.855,3
3.22473,3.21765,0.027,0.0273453,0.00730729,0.000183414,0,4.05453e-06,-287,16,140.464,140.464,-110.872,-110.872,3.004
3.22476,3.21765,0.027,0.0273453,0.00732459,0.000122276,0,2.70302e-06,-289,16,141.115,141.115,-110.889,-110.889,3.008
3.22479,3.21765,0.027,0.0273453,0.00734191,0.000139099,0,1.80201e-06,-290,16,141.77,141.77,-110.906,-110.906,3.012
3.22482,3.21765,0.027,0.0273453,0.00735924,0.000207896,0,1.20134e-06,-290,16,142.427,142.427,-110.923,-110.923,3.016
3.22485,3.21765,0.027,0.0273453,0.00737658,0.000167389,0,8.00894e-07,-292,16,143.084,143.084,-110.94,-110.94,3.02
3.22488,3.21765,0.027,0.0273453,0.00739394,0.000226756,0,5.33929e-07,-292,16,143.743,143.743,-110.956,-110.956,3.024
3.22491,3.21765,0.027,0.0273453,0.00741132,0.000179962,0,3.55953e-07,-294,16,144.403,144.403,-110.973,-110.973,3.028
3.22494,3.21766,0.027,0.0273453,0.00742871,0.000206347,0,2.37302e-07,-295,16,145.067,145.067,-110.99,-110.99,3.032
3.22497,3.21766,0.027,0.0273453,0.00744611,0.000223938,0,1.58201e-07,-296,16,145.732,145.732,-111.007,-111.007,3.036
3.225,3.21766,0.027,0.0273449,0.00746353,0.000206874,0,-2.86855e-05,-297,16,146.398,146.398,-111.023,-111.023,3.04
3.22503,3.21766,0.027,0.0273449,0.00748097,0.000224288,0,-1.91236e-05,-298,16,147.067,147.067,-111.039,-111.039,3.044
3.22506,3.21766,0.027,0.0273453,0.00749841,0.000235898,0,1.60418e-05,-299,16,147.738,147.738,-111.055,-111.055,3.048
3.22509,3.21766,0.027,0.0273453,0.00751588,0.000272429,0,1.06946e-05,-300,16,148.41,148.41,-111.072,-111.072,3.052
3.22512,3.21766,0.027,0.0273449,0.00753335,0.000325574,0,-2.16612e-05,-301,16,149.082,149.082,-111.089,-111.089,3.056
3.22515,3.21766,0.027,0.0273453,0.00755084,0.000332213,0,1.43501e-05,-302,16,149.755,149.755,-111.105,-111.105,3.06
3.22518,3.21766,0.027,0.0273453,0.00756835,0.000307848,0,9.56674e-06,-303,16,150.43,150.43,-111.123,-111.123,3.064
3.22521,3.21767,0.027,0.0273453,0.00758587,0.000320396,0,6.37783e-06,-304,16,151.107,151.107,-111.14,-111.14,3.068
3.22524,3.21767,0.027,0.0273453,0.0076034,0.000357552,0,4.25188e-06,-305,16,151.787,151.787,-111.157,-111.157,3.072
3.22527,3.21767,0.027,0.0273449,0.00762095,0.000267159,0,-2.59563e-05,-307,16,152.467,152.467,-111.174,-111.174,3.076
3.2253,3.21767,0.027,0.0273449,0.00763852,0.000235688,0,-1.73042e-05,-308,16,153.153,153.153,-111.189,-111.189,3.08
3.22533,3.21767,0.027,0.0273449,0.00765609,0.000243498,0,-1.15361e-05,-310,16,153.843,153.843,-111.205,-111.205,3.084
3.22536,3.21767,0.027,0.0273449,0.00767369,0.000248705,0,-7.69077e-06,-311,16,154.534,154.534,-111.222,-111.222,3.088
3.22539,3.21767,0.027,0.0273453,0.00769129,0.000252176,0,2.36637e-05,-312,16,155.227,155.227,-111.238,-111.238,3.092
3.22542,3.21767,0.027,0.0273453,0.00770891,0.00025449,0,1.57758e-05,-313,16,155.923,155.923,-111.256,-111.256,3.096
3.22545,3.21767,0.027,0.0273453,0.00772655,0.000256033,0,1.05172e-05,-314,16,156.62,156.62,-111.273,-111.273,3.1
3.22549,3.21768,0.027,0.0273453,0.0077442,0.000257061,0,7.01148e-06,-315,16,157.32,157.32,-111.29,-111.29,3.104
3.22552,3.21768,0.027,0.0273453,0.00776186,0.000257747,0,4.67432e-06,-317,16,158.022,158.022,-111.307,-111.307,3.108
3.22555,3.21768,0.027,0.0273453,0.00777954,0.000258204,0,3.11621e-06,-318,16,158.726,158.726,-111.324,-111.324,3.112
3.22558,3.21768,0.027,0.0273449,0.00779723,0.000316091,0,-2.67134e-05,-318,16,159.432,159.432,-111.341,-111.341,3.116
3.22561,3.21768,0.027,0.0273453,0.00781493,0.000239518,0,1.0982e-05,-320,16,160.138,160.138,-111.357,-111.357,3.12
3.22564,3.21768,0.027,0.0273449,0.00783265,0.000246051,0,-2.14696e-05,-322,16,160.85,160.85,-111.374,-111.374,3.124
3.22567,3.21768,0.027,0.0273453,0.00785039,0.000279198,0,1.44778e-05,-322,17,161.563,161.563,-111.39,-111.39,3.128
3.2257,3.21768,0.027,0.0273453,0.00786813,0.000214923,0,9.6519e-06,-324,16,162.278,162.278,-111.407,-111.407,3.132
3.22574,3.21768,0.027,0.0273453,0.00788589,0.000258446,0,6.4346e-06,-325,16,162.997,162.997,-111.424,-111.424,3.136
3.22577,3.21768,0.027,0.0273453,0.00790367,0.000229879,0,4.28973e-06,-327,16,163.717,163.717,-111.441,-111.441,3.14
3.2258,3.21768,0.027,0.0273449,0.00792146,0.000182044,0,-2.59311e-05,-328,16,164.44,164.44,-111.458,-111.458,3.144
3.22583,3.21769,0.027,0.0273449,0.00793926,0.000178944,0,-1.72874e-05,-330,16,165.168,165.168,-111.474,-111.474,3.148
3.22586,3.21769,0.027,0.0273453,0.00795708,0.000205669,0,1.7266e-05,-331,17,165.898,165.898,-111.49,-111.49,3.152
3.22589,3.21769,0.027,0.0273449,0.00797491,0.000223485,0,-1.72803e-05,-332,16,166.629,166.629,-111.507,-111.507,3.156
3.22593,3.21769,0.027,0.0273453,0.00799276,0.000235363,0,1.72707e-05,-333,17,167.361,167.361,-111.523,-111.523,3.16
3.22596,3.21769,0.027,0.0273453,0.00801062,0.000243281,0,1.15138e-05,-334,17,168.096,168.096,-111.541,-111.541,3.164
3.22599,3.21769,0.027,0.0273449,0.00802849,0.000277351,0,-2.1115e-05,-335,16,168.832,168.832,-111.558,-111.558,3.168
3.22602,3.21769,0.027,0.0273449,0.00804638,0.000242483,0,-1.40767e-05,-337,16,169.569,169.569,-111.574,-111.574,3.172
3.22605,3.21769,0.027,0.0273449,0.00806428,0.000219237,0,-9.38446e-06,-338,16,170.31,170.31,-111.59,-111.59,3.176
3.22609,3.21769,0.027,0.0273449,0.00808219,0.00020374,0,-6.25631e-06,-339,17,171.054,171.054,-111.606,-111.606,3.18
3.22612,3.21769,0.027,0.0273449,0.00810012,0.000164617,0,-4.17087e-06,-341,17,171.802,171.802,-111.623,-111.623,3.184
3.22615,3.21769,0.027,0.0273449,0.00811807,0.000167327,0,-2.78058e-06,-342,17,172.553,172.553,-111.639,-111.639,3.188
3.22618,3.2177,0.027,0.0273449,0.00813602,0.000226715,0,-1.85372e-06,-343,17,173.306,173.306,-111.656,-111.656,3.192
3.22622,3.2177,0.027,0.0273453,0.00815399,0.000151143,0,2.75551e-05,-345,17,174.059,174.059,-111.673,-111.673,3.196
3.22625,3.2177,0.027,0.0273449,0.00817198,0.000158344,0,-1.04209e-05,-346,17,174.818,174.818,-111.691,-111.691,3.2
3.22628,3.2177,0.027,0.0273453,0.00818997,0.000163145,0,2.18437e-05,-347,17,175.579,175.579,-111.707,-111.707,3.204
3.22632,3.2177,0.027,0.0273449,0.00820798,0.000223927,0,-1.42285e-05,-348,17,176.341,176.341,-111.725,-111.725,3.208
3.22635,3.2177,0.027,0.0273453,0.00822601,0.000149284,0,1.93053e-05,-350,17,177.104,177.104,-111.741,-111.741,3.212
3.22638,3.2177,0.027,0.0273449,0.00824405,0.000185896,0,-1.59207e-05,-351,17,177.872,177.872,-111.758,-111.758,3.216
3.22641,3.2177,0.027,0.0273449,0.0082621,0.000181512,0,-1.06138e-05,-352,17,178.641,178.641,-111.774,-111.774,3.22
3.22645,3.2177,0.027,0.0273449,0.00828016,0.00017859,0,-7.07588e-06,-354,17,179.412,179.412,-111.791,-111.791,3.224
3.22648,3.2177,0.027,0.0273449,0.00829824,0.000176642,0,-4.71726e-06,-355,17,180.186,180.186,-111.807,-111.807,3.228
3.22651,3.2177,0.027,0.0273449,0.00831634,0.000146552,0,-3.14484e-06,-357,17,180.963,180.963,-111.824,-111.824,3.232
3.22655,3.2177,0.027,0.0273449,0.00833444,0.000184074,0,-2.09656e-06,-358,17,181.743,181.743,-111.84,-111.84,3.236
3.22658,3.2177,0.027,0.0273449,0.00835256,0.000180298,0,-1.39771e-06,-359,17,182.524,182.524,-111.857,-111.857,3.24
3.22661,3.2177,0.027,0.0273449,0.0083707,0.000206571,0,-9.31804e-07,-360,17,183.307,183.307,-111.874,-111.874,3.244
3.22665,3.2177,0.027,0.0273449,0.00838884,0.000195296,0,-6.21202e-07,-362,17,184.091,184.091,-111.89,-111.89,3.248
3.22668,3.21771,0.027,0.0273449,0.008407,0.000187779,0,-4.14135e-07,-363,17,184.879,184.879,-111.907,-111.907,3.252
3.22671,3.21771,0.027,0.0273449,0.00842518,0.00024035,0,-2.7609e-07,-364,17,185.669,185.669,-111.924,-111.924,3.256
3.22675,3.21771,0.027,0.0273449,0.00844336,0.000160233,0,-1.8406e-07,-366,17,186.459,186.459,-111.94,-111.94,3.26
3.22678,3.21771,0.027,0.0273449,0.00846156,0.000164404,0,-1.22707e-07,-367,17,187.255,187.255,-111.957,-111.957,3.264
3.22682,3.21771,0.027,0.0273449,0.00847978,0.000167185,0,-8.18044e-08,-368,17,188.054,188.054,-111.974,-111.974,3.268
3.22685,3.21771,0.027,0.0273449,0.00849801,0.00022662,0,-5.45363e-08,-369,17,188.854,188.854,-111.991,-111.991,3.272
3.22688,3.21771,0.027,0.0273449,0.00851625,0.000179871,0,-3.63575e-08,-371,17,189.655,189.655,-112.007,-112.007,3.276
3.22692,3.21771,0.027,0.0273449,0.0085345,0.000235078,0,-2.42383e-08,-372,17,190.459,190.459,-112.024,-112.024,3.28
3.22695,3.21771,0.027,0.0273449,0.00855277,0.000185509,0,-1.61589e-08,-374,17,191.264,191.264,-112.041,-112.041,3.284
3.22699,3.21771,0.027,0.0273449,0.00857105,0.000152464,0,-1.07726e-08,-375,17,192.074,192.074,-112.057,-112.057,3.288
3.22702,3.21771,0.027,0.0273449,0.00858934,0.000159224,0,-7.18173e-09,-377,17,192.887,192.887,-112.074,-112.074,3.292
3.22705,3.21771,0.027,0.0273449,0.00860765,0.000163731,0,-4.78782e-09,-378,17,193.702,193.702,-112.091,-112.091,3.296
3.22709,3.21771,0.027,0.0273449,0.00862597,0.000166736,0,-3.19188e-09,-379,17,194.52,194.52,-112.108,-112.108,3.3
3.22712,3.21771,0.027,0.0273449,0.0086443,0.000168739,0,-2.12792e-09,-381,17,195.34,195.34,-112.124,-112.124,3.304
3.22716,3.21772,0.027,0.0273449,0.00866265,0.000198866,0,-1.41861e-09,-382,17,196.162,196.162,-112.141,-112.141,3.308
3.22719,3.21772,0.027,0.0273449,0.00868101,0.00021895,0,-9.45743e-10,-383,17,196.985,196.985,-112.158,-112.158,3.312
3.22723,3.21772,0.027,0.0273449,0.00869938,0.000232339,0,-6.30495e-10,-384,17,197.81,197.81,-112.175,-112.175,3.316
3.22726,3.21772,0.027,0.0273449,0.00871777,0.000298848,0,-4.2033e-10,-385,17,198.637,198.637,-112.191,-112.191,3.32
3.2273,3.21772,0.027,0.0273449,0.00873617,0.000343186,0,-2.8022e-10,-386,17,199.463,199.463,-112.208,-112.208,3.324
3.22733,3.21772,0.027,0.0273449,0.00875458,0.000372745,0,-1.86813e-10,-387,17,200.29,200.29,-112.225,-112.225,3.328
3.22737,3.21772,0.027,0.0273449,0.008773,0.000363661,0,-1.24542e-10,-388,17,201.118,201.118,-112.242,-112.242,3.332
3.2274,3.21773,0.027,0.0273449,0.00879144,0.000443977,0,-8.30282e-11,-389,17,201.949,201.949,-112.258,-112.258,3.336
3.22744,3.21773,0.027,0.0273449,0.00880989,0.000526312,0,-5.53521e-11,-390,17,202.778,202.778,-112.275,-112.275,3.34
3.22747,3.21773,0.027,0.0273449,0.00882836,0.000552411,0,-3.69014e-11,-391,17,203.607,203.607,-112.292,-112.292,3.344
3.22751,3.21773,0.027,0.0273449,0.00884684,0.00054102,0,-2.46009e-11,-392,17,204.437,204.437,-112.308,-112.308,3.348
3.22754,3.21774,0.027,0.0273449,0.00886533,0.000504634,0,-1.64006e-11,-394,17,205.27,205.27,-112.325,-112.325,3.352
3.22758,3.21774,0.027,0.0273449,0.00888383,0.000422796,0,-1.09337e-11,-396,17,206.107,206.107,-112.342,-112.342,3.356
3.22762,3.21774,0.027,0.0273453,0.00890235,0.000310655,0,2.87909e-05,-399,18,206.95,206.95,-112.359,-112.359,3.36
3.22765,3.21774,0.027,0.0273449,0.00892088,0.000235894,0,-9.59698e-06,-401,17,207.801,207.801,-112.377,-112.377,3.364
3.22769,3.21774,0.027,0.0273449,0.00893942,0.000186054,0,-6.39799e-06,-403,17,208.657,208.657,-112.393,-112.393,3.368
3.22772,3.21774,0.027,0.0273449,0.00895797,0.000152827,0,-4.26532e-06,-404,17,209.518,209.518,-112.409,-112.409,3.372
3.22776,3.21774,0.027,0.0273449,0.00897654,0.000130675,0,-2.84355e-06,-406,17,210.382,210.382,-112.426,-112.426,3.376
3.22779,3.21774,0.027,0.0273449,0.00899512,0.000144699,0,-1.8957e-06,-407,17,211.25,211.25,-112.443,-112.443,3.38
3.22783,3.21774,0.027,0.0273449,0.00901371,0.000154048,0,-1.2638e-06,-409,17,212.12,212.12,-112.459,-112.459,3.384
3.22787,3.21774,0.027,0.0273449,0.00903232,0.000189071,0,-8.42533e-07,-410,17,212.992,212.992,-112.476,-112.476,3.388
3.2279,3.21774,0.027,0.0273449,0.00905094,0.000241211,0,-5.61689e-07,-411,17,213.865,213.865,-112.493,-112.493,3.392
3.22794,3.21774,0.027,0.0273449,0.00906957,0.000275971,0,-3.74459e-07,-412,17,214.738,214.738,-112.509,-112.509,3.396
3.22798,3.21775,0.027,0.0273449,0.00908822,0.000299144,0,-2.49639e-07,-413,17,215.612,215.612,-112.526,-112.526,3.4
3.22801,3.21775,0.027,0.0273449,0.00910687,0.000314593,0,-1.66426e-07,-414,18,216.488,216.488,-112.543,-112.543,3.404
3.22805,3.21775,0.027,0.0273449,0.00912554,0.000353684,0,-1.10951e-07,-415,18,217.365,217.365,-112.559,-112.559,3.408
3.22808,3.21775,0.027,0.0273449,0.00914422,0.000379744,0,-7.39672e-08,-417,18,218.244,218.244,-112.576,-112.576,3.412
3.22812,3.21775,0.027,0.0273449,0.00916292,0.000368326,0,-4.93115e-08,-418,18,219.123,219.123,-112.593,-112.593,3.416
3.22816,3.21775,0.027,0.0273449,0.00918163,0.000389505,0,-3.28743e-08,-419,18,220.006,220.006,-112.61,-112.61,3.42
3.22819,3.21776,0.027,0.0273449,0.00920035,0.000432416,0,-2.19162e-08,-420,18,220.891,220.891,-112.626,-112.626,3.424
3.22823,3.21776,0.027,0.0273449,0.00921908,0.000403441,0,-1.46108e-08,-422,18,221.776,221.776,-112.643,-112.643,3.428
3.22827,3.21776,0.027,0.0273449,0.00923783,0.000384124,0,-9.74054e-09,-424,18,222.665,222.665,-112.66,-112.66,3.432
3.22831,3.21776,0.027,0.0273449,0.00925658,0.000371247,0,-6.4937e-09,-425,18,223.557,223.557,-112.677,-112.677,3.436
3.22834,3.21776,0.027,0.0273449,0.00927535,0.000362661,0,-4.32913e-09,-427,18,224.452,224.452,-112.693,-112.693,3.44
3.22838,3.21776,0.027,0.0273449,0.00929414,0.000328147,0,-2.88609e-09,-429,18,225.351,225.351,-112.71,-112.71,3.444
3.22842,3.21776,0.027,0.0273449,0.00931293,0.000276347,0,-1.92406e-09,-431,18,226.253,226.253,-112.727,-112.727,3.448
3.22845,3.21776,0.027,0.0273449,0.00933174,0.000270604,0,-1.28271e-09,-432,18,227.16,227.16,-112.743,-112.743,3.452
3.22849,3.21776,0.027,0.0273449,0.00935056,0.000266775,0,-8.55137e-10,-434,18,228.07,228.07,-112.76,-112.76,3.456
3.22853,3.21777,0.027,0.0273449,0.00936939,0.000235432,0,-5.70091e-10,-436,18,228.983,228.983,-112.777,-112.777,3.46
3.22857,3.21777,0.027,0.0273449,0.00938824,0.000214537,0,-3.80061e-10,-437,18,229.9,229.9,-112.794,-112.794,3.464
